YashyHoby/handMotion-similar-search/project/data/handData/tgt/d4_feature_d2/0.csv
,vel_0x_L,vel_0y_L,vel_0x_R,vel_0y_R,posFromWrist_1x_L,posFromWrist_2x_L,posFromWrist_3x_L,posFromWrist_4x_L,posFromWrist_5x_L,posFromWrist_6x_L,posFromWrist_7x_L,posFromWrist_8x_L,posFromWrist_9x_L,posFromWrist_10x_L,posFromWrist_11x_L,posFromWrist_12x_L,posFromWrist_13x_L,posFromWrist_14x_L,posFromWrist_15x_L,posFromWrist_16x_L,posFromWrist_17x_L,posFromWrist_18x_L,posFromWrist_19x_L,posFromWrist_20x_L,posFromWrist_1y_L,posFromWrist_2y_L,posFromWrist_3y_L,posFromWrist_4y_L,posFromWrist_5y_L,posFromWrist_6y_L,posFromWrist_7y_L,posFromWrist_8y_L,posFromWrist_9y_L,posFromWrist_10y_L,posFromWrist_11y_L,posFromWrist_12y_L,posFromWrist_13y_L,posFromWrist_14y_L,posFromWrist_15y_L,posFromWrist_16y_L,posFromWrist_17y_L,posFromWrist_18y_L,posFromWrist_19y_L,posFromWrist_20y_L,posFromWrist_1x_R,posFromWrist_2x_R,posFromWrist_3x_R,posFromWrist_4x_R,posFromWrist_5x_R,posFromWrist_6x_R,posFromWrist_7x_R,posFromWrist_8x_R,posFromWrist_9x_R,posFromWrist_10x_R,posFromWrist_11x_R,posFromWrist_12x_R,posFromWrist_13x_R,posFromWrist_14x_R,posFromWrist_15x_R,posFromWrist_16x_R,posFromWrist_17x_R,posFromWrist_18x_R,posFromWrist_19x_R,posFromWrist_20x_R,posFromWrist_1y_R,posFromWrist_2y_R,posFromWrist_3y_R,posFromWrist_4y_R,posFromWrist_5y_R,posFromWrist_6y_R,posFromWrist_7y_R,posFromWrist_8y_R,posFromWrist_9y_R,posFromWrist_10y_R,posFromWrist_11y_R,posFromWrist_12y_R,posFromWrist_13y_R,posFromWrist_14y_R,posFromWrist_15y_R,posFromWrist_16y_R,posFromWrist_17y_R,posFromWrist_18y_R,posFromWrist_19y_R,posFromWrist_20y_R,posFromBody_0x_L,posFromBody_0y_L,posFromBody_0x_R,posFromBody_0y_R
3,-8.555174,3.850509,0.057507,0.849933,2.305985,1.720419,4.162874,6.049633,-24.09296,17.251167,35.851164,41.53573,-30.542393,18.668432,37.572298,47.509775,-30.698833,16.803789,37.082205,46.478491,-25.530281,6.174259,24.873648,36.040564,-14.056278,-3.167858,18.709664,37.451254,7.135476,39.481021,47.134429,46.742283,21.784032,57.013507,61.141892,56.533119,33.962387,66.290487,67.558964,63.597521,42.886093,67.669497,66.51424,62.291901,28.811245,56.281128,75.239925,84.750996,59.452171,93.986607,112.37772,125.70013,49.820309,88.859997,110.543118,123.17934,40.674133,76.069851,96.714878,109.605618,32.79705,57.381649,73.672256,87.713871,-12.135067,-7.372196,0.705128,3.010086,27.079285,48.175695,55.441249,57.67223,43.687058,62.732985,66.231145,63.636887,54.131831,73.911415,79.186691,77.00968,59.738213,80.086579,86.948779,88.710086,-14.635277,355.49916,-82.242193,348.63449
4,-8.555174,3.850508,2.370243,1.73,9.878139,16.875172,26.846981,35.302677,-12.430859,29.696331,47.859364,53.437672,-21.744747,27.594166,46.515141,55.970249,-24.223366,22.816029,43.538418,52.822552,-21.890717,10.184097,30.014362,42.357044,-26.645673,-23.710923,-6.151761,10.995217,-4.881679,25.387138,33.526522,34.144335,17.781031,50.099468,53.825302,49.204272,36.551489,64.100756,64.712456,60.804457,50.587543,72.428602,69.540412,63.766995,27.233963,54.241562,73.717117,85.407829,57.883472,91.906357,109.663582,122.60891,47.841454,86.310196,107.181816,119.204636,38.578148,73.817081,93.841095,106.418152,30.743351,55.88459,71.911354,85.519409,-13.355256,-10.236057,-4.021125,-4.017605,26.554159,48.14445,55.392528,57.247881,43.100738,61.822969,65.0569,62.315737,53.435596,72.463367,77.475401,75.293636,58.760519,77.956499,84.897801,86.803913,-23.150053,359.29894,-79.831553,350.313761
5,24.150639,-5.647137,1.123924,0.330735,-10.856552,-23.134232,-35.855656,-50.674152,-39.972553,-13.19521,7.061577,21.763,-38.898926,-2.816105,19.477043,34.07341,-32.734165,0.816422,21.128197,35.076599,-23.659,-2.279663,13.225021,25.313644,28.528876,49.584037,66.14698,79.383427,53.371499,73.623843,75.662224,75.640858,45.622563,63.679557,65.818776,65.854468,35.864578,54.537038,56.752889,58.197232,26.010879,46.90197,52.29488,56.991678,26.6185,52.540054,71.270657,81.911774,56.137562,90.367012,108.447647,121.287346,45.864887,84.642105,105.631485,117.50164,36.657143,72.151909,92.604446,105.202103,29.315128,54.613438,70.788174,84.500656,-13.381438,-10.523937,-4.35501,-2.81551,25.980992,47.771724,54.647324,56.241534,42.540291,61.705149,64.73271,61.728182,52.72701,72.046429,76.788737,74.431724,57.780663,77.591863,84.277889,85.78429,1.016865,353.606154,-78.691349,350.598848
6,-43.697834,11.705346,0.628567,0.189265,18.098831,33.933392,46.248035,53.095837,9.775829,52.506695,69.172611,73.210545,1.125698,50.524578,68.036442,74.514256,-3.592243,43.559132,61.982861,68.018017,-5.363846,25.997086,45.144596,56.062145,-30.897189,-33.843178,-20.337745,-4.484191,-14.618669,16.307049,25.305072,26.349518,9.909459,42.794209,47.423081,43.732692,30.387686,58.367169,59.644352,55.289281,46.131201,68.065441,65.226096,59.716662,26.374168,52.458744,71.453075,82.696323,55.666237,89.883785,107.896671,120.762119,45.02718,83.628101,104.28709,116.045551,35.276814,70.823822,91.369457,104.069881,27.337189,53.00251,69.134903,82.878857,-13.941329,-10.683068,-4.574656,-3.28259,24.90672,47.562205,54.973181,56.899423,41.5726,61.570533,65.358921,62.603617,52.106294,71.610039,76.933912,74.909363,57.610788,77.418282,84.287522,85.959599,-42.665205,365.308197,-78.047018,350.784809
7,5.480919,-4.345191,0.792332,1.002765,15.399456,25.865021,30.754795,32.845688,4.644127,46.728115,61.425076,63.461323,-3.730373,45.186481,60.771732,66.656628,-8.996429,37.230434,54.270115,59.833889,-11.305103,18.961544,37.724018,48.301792,-25.532684,-23.277374,-7.94382,10.855908,-6.480026,26.676178,35.774237,35.931885,13.92867,49.97183,55.683496,52.049052,31.457883,62.981159,64.541901,59.784773,44.764047,69.53152,68.055314,63.296889,26.26236,52.001095,71.201019,84.718666,55.574226,89.720535,107.736969,120.54039,44.661427,82.983856,103.8517,115.570107,34.799824,69.981766,90.660782,103.375969,26.783924,52.383785,68.705349,82.496796,-14.322946,-11.172193,-6.316758,-6.98533,24.456992,46.650275,53.870751,55.56228,41.153933,61.122596,64.190665,60.69837,51.66447,70.957707,75.676612,73.148797,56.944995,76.612378,83.301368,84.742807,-37.199764,360.944064,-77.270164,351.768632
8,8.359852,-3.411155,-0.669365,-0.912362,6.063309,9.84621,13.12151,15.867977,-10.507278,33.606834,49.843369,52.134018,-16.1059,36.278343,51.593742,56.800461,-17.346382,32.959099,49.361458,53.606873,-15.387154,17.268333,35.111732,44.280167,-22.746938,-16.22313,4.484809,25.050475,-2.894612,31.856976,39.891075,38.675703,15.979586,54.621265,58.689197,53.061697,32.862581,66.744106,66.351497,60.128043,45.952495,72.040933,68.949831,62.650177,26.391964,52.068329,71.294632,83.135834,54.6908,89.034004,107.364578,120.440025,44.166412,82.547493,103.441772,115.431747,34.826717,69.687595,90.506058,103.493614,27.337761,52.574272,68.78849,82.441635,-13.79955,-10.671953,-5.137387,-3.651611,25.113337,46.792857,53.902367,55.587536,41.701473,61.570595,65.234679,62.298694,51.886895,71.420588,76.720379,74.629757,56.975253,77.062476,83.904052,85.314801,-28.845978,357.515372,-77.945595,350.838732
9,34.728127,-6.300518,-0.280838,0.560755,-13.398857,-28.393021,-44.080296,-61.281281,-45.873756,-23.034782,-3.758125,11.297722,-43.253117,-11.112843,11.270828,28.006783,-36.758194,-5.7201,15.013962,30.846863,-26.885204,-6.458817,8.795586,22.135506,31.690991,53.684264,69.457604,82.878377,56.997112,79.588871,83.387818,84.765779,45.838319,65.668599,68.826083,69.524665,32.159862,50.837632,55.599392,58.312087,18.479058,37.443165,43.477045,48.290304,25.614796,51.201897,70.346146,82.513046,54.646111,88.900108,107.027893,119.911194,44.298191,82.796631,103.78727,115.863304,35.002556,70.350552,90.981789,103.784752,27.574997,53.094234,69.305534,82.986946,-14.006167,-11.105935,-5.697217,-4.576941,24.149104,46.134042,53.91342,56.378126,40.721741,60.468597,64.23389,61.733739,51.149163,70.619624,75.824072,73.938832,56.507802,76.482084,83.460066,85.042729,5.887756,351.200899,-78.220825,351.385532
10,3.303452,5.216304,0.022545,-0.215262,-16.227894,-32.593689,-49.610424,-67.035656,-49.280491,-25.847626,-6.199265,7.686768,-45.916729,-14.248695,7.302933,21.877785,-37.749538,-6.68232,13.530693,26.99604,-26.827812,-5.455971,9.188004,20.769768,30.734724,50.547405,64.086801,74.377074,52.921276,72.890248,76.044583,77.531841,42.508737,62.204154,64.566107,64.095693,30.018851,47.46643,51.943088,54.248663,18.06428,35.751698,40.894272,44.661294,25.98032,51.368866,71.022148,84.905434,54.318752,88.468208,106.476059,119.514084,43.669796,81.99234,102.756386,115.010033,34.236546,69.220219,89.76162,102.760506,26.678066,52.211037,68.463936,82.285881,-13.729648,-10.945693,-6.137188,-6.339112,24.22586,45.840912,53.739531,56.448275,41.14856,60.78655,65.027136,62.87853,51.768087,71.124927,76.553406,74.869966,57.175633,77.080199,83.83804,85.214704,9.193668,356.408681,-78.19582,351.161749
11,-3.263855,1.196908,-0.672283,0.740511,-16.408081,-31.542149,-48.168182,-66.206245,-46.663055,-23.902016,-4.094467,9.345131,-41.909752,-9.753914,11.335945,25.733299,-33.132477,-1.513596,17.622986,30.365868,-22.555161,-0.613632,13.793106,25.268784,30.02657,49.842648,61.969688,70.594985,52.565841,72.833932,75.207803,75.711007,41.540181,60.740978,63.393282,62.49753,28.424888,45.601259,49.947191,51.219558,15.940992,34.257091,39.593994,42.832494,25.438499,51.133118,70.774326,83.545132,54.628029,88.746243,106.787968,119.75584,44.214478,82.37257,103.263073,115.496693,34.710732,69.613667,90.400257,103.644962,26.85957,52.193413,68.602581,82.70319,-14.293059,-11.833231,-6.148983,-4.510559,23.414892,44.675867,52.250358,54.496962,40.332837,59.492446,63.501654,61.082767,51.075804,70.126608,75.541564,73.827372,56.739366,76.536548,83.462783,85.079471,5.953789,357.570099,-78.844128,351.866769
12,-2.101479,4.235955,-0.346527,0.249163,-16.762047,-30.928116,-46.570129,-64.914265,-43.464603,-22.991867,-3.438606,10.21843,-38.478642,-8.734303,12.723999,27.731438,-29.983521,-0.559273,18.399696,31.193275,-20.254326,-0.040855,13.608055,24.448242,28.644102,47.799944,58.882661,67.623864,49.715071,68.656146,71.154135,71.438681,38.676815,55.772972,58.374393,57.230282,25.401217,40.334196,45.248911,46.613225,12.827104,28.197152,33.267479,36.012593,25.574856,50.653667,70.024223,83.565845,55.232277,88.683643,106.406765,119.091053,44.762936,82.188091,102.652531,115.070057,35.030022,69.114418,89.601803,102.858524,26.832504,51.923962,68.119011,82.089558,-14.745937,-11.911037,-6.61915,-6.910859,23.633118,44.648141,52.620984,55.476447,40.521053,59.530423,64.17004,62.512783,51.193562,69.769444,75.531066,74.492239,56.7067,75.848525,82.754629,84.600411,3.899031,361.794398,-79.143934,352.104276
13,-7.028446,2.390358,-0.556984,0.731866,-10.016613,-20.801353,-33.18409,-48.553047,-35.976791,-13.140621,5.741215,18.331203,-34.055901,-1.183434,21.56908,36.280231,-27.781906,4.162617,24.035168,36.426716,-19.99649,0.782375,13.855877,22.734776,27.524443,46.12095,58.657025,68.377651,47.961421,66.031012,67.601634,67.816772,37.849668,54.36074,55.611989,53.385207,25.95623,40.013711,44.541004,46.092607,14.590449,29.764625,34.65217,38.252095,24.837399,50.410595,70.570107,84.848614,54.777775,89.154911,107.387981,120.479565,44.884987,83.02248,103.913784,116.8503,35.681992,70.621948,91.299648,104.95451,27.750607,53.351612,69.475136,83.625698,-15.250561,-12.981542,-7.828964,-8.250287,22.112761,41.896975,49.537416,52.348541,39.159024,57.352548,61.844705,60.356088,50.127008,68.452246,73.878502,72.819235,56.006203,75.131109,81.616137,83.228687,-3.069792,364.163113,-79.641294,352.814499
14,-30.75634,-4.589908,-0.12331,0.178829,15.1371,27.20787,38.211193,45.221043,-1.730747,39.814968,59.849339,67.849674,-12.570534,34.513035,54.996014,66.164188,-17.923908,24.92569,46.221371,57.250843,-18.826275,6.205959,24.442806,38.226871,-26.059662,-27.047113,-17.201874,-4.241883,-4.473756,26.263376,34.719416,36.062055,17.990365,49.353832,54.24292,51.398696,35.904962,62.305116,65.316931,63.105648,49.107139,70.275427,69.394742,65.035225,24.68668,50.184345,70.465336,84.48967,53.327579,87.789803,106.161118,119.241142,43.47805,82.085152,103.143768,116.044121,34.668159,70.102158,90.737228,104.124985,27.424221,53.294849,69.523602,83.445282,-15.217339,-13.043787,-8.008843,-8.485803,22.421698,42.902889,50.865173,54.002341,39.691189,57.816664,62.395395,61.290124,50.747724,68.800148,74.055355,73.077043,56.517065,75.101407,81.000053,81.911736,-33.751488,359.579333,-79.68996,352.999457
15,-15.611801,1.485468,0.449352,0.414407,20.519371,38.492718,50.442982,55.671902,15.156326,56.350765,74.59116,81.451778,5.195732,54.014225,73.846378,83.01115,-0.753136,45.805893,65.176563,74.005451,-3.926468,28.015766,46.855202,58.788471,-28.375241,-29.579929,-19.04957,-5.043588,-7.54942,25.643773,34.605672,36.067613,15.701524,49.614418,54.325234,53.022671,34.193056,63.009132,65.254439,62.97554,48.066088,71.252071,70.03176,66.189279,24.755917,50.267544,70.321369,84.593639,53.897953,88.558788,106.877346,119.867649,44.030571,82.557049,103.622417,116.412563,34.874783,70.340309,90.951633,104.382763,27.097893,53.089886,69.47937,83.509197,-15.328305,-12.853657,-7.494339,-8.309074,21.20293,40.52624,48.356007,51.300575,38.730105,56.428082,60.989523,59.638795,50.113362,68.015979,73.241608,72.192283,56.177005,74.749059,81.041549,82.623286,-49.297428,361.058071,-79.174747,353.407133
16,-3.752632,-1.951869,-0.004978,0.354139,20.811081,39.17347,52.15044,58.032589,18.594131,60.737057,78.689861,85.324345,9.069042,57.929363,77.331791,86.120396,2.520847,48.722706,68.073063,76.855373,-1.317844,30.431671,49.002056,60.260525,-26.522728,-24.031161,-11.522009,3.592762,-4.097943,29.528059,38.801551,40.041437,17.452395,51.655516,57.409605,56.343299,34.965739,64.016405,67.185127,65.096543,48.058431,71.559465,71.209587,67.572179,24.726734,49.88863,69.855251,84.45591,53.497181,88.089523,106.459923,119.456749,43.686562,82.182541,103.191032,115.878754,34.672165,70.335617,91.037178,104.367371,27.178974,53.355446,69.803123,83.845825,-15.940375,-13.532665,-7.957776,-8.277704,21.411153,41.27836,49.133691,52.184409,38.83823,56.551089,60.669842,59.142816,50.148004,67.858577,72.783914,71.616769,56.203743,74.670389,80.853581,82.287117,-53.009176,359.116545,-79.138842,353.771615
17,-3.092594,0.304121,0.11816,-0.110842,22.852936,44.453201,59.854202,68.198891,24.745216,65.864868,82.600365,88.538017,14.096203,61.698189,79.562302,86.733398,6.305408,51.021767,68.985214,76.47171,1.23642,31.401958,48.607178,59.011345,-26.779363,-24.594139,-12.20429,1.760442,-5.268669,29.589871,38.641308,39.637589,16.305505,52.593876,57.49834,55.1714,33.85349,64.831881,67.34821,64.02153,47.103338,71.87044,70.933625,66.622211,24.816856,49.765434,69.750767,83.653736,54.294033,88.452816,106.615047,119.502239,44.500866,82.387104,103.197727,115.999088,35.189037,70.144272,90.606823,103.961048,27.131252,53.040104,69.359665,83.234081,-15.648789,-13.321602,-7.761718,-7.454757,21.337608,40.985416,48.695078,51.287113,38.56233,56.418387,60.994155,59.686837,49.721555,67.642019,73.040116,72.087678,55.736045,74.248387,80.772565,82.480025,-56.030273,359.453208,-78.949184,353.693315
18,2.88826,0.261636,-0.620384,-0.343765,22.464294,42.959118,57.5877,66.180496,20.215874,60.677376,78.354263,85.033836,9.508209,56.494331,75.701866,84.391022,1.910534,46.077347,65.687714,74.838295,-2.709503,27.059784,45.466118,56.902885,-26.566447,-23.969657,-10.799159,2.834529,-5.60033,27.87111,36.888461,38.11501,15.72678,50.619036,55.688683,53.931019,33.30879,63.198397,65.922393,63.154369,47.027694,70.776778,69.987732,66.05244,24.202366,48.86673,68.499756,81.694622,53.734303,87.593822,105.828266,118.846035,43.976612,81.896152,102.911167,115.970135,35.051651,69.70499,90.292568,103.778286,27.576485,53.149452,69.31057,82.897625,-16.015957,-13.709765,-8.093009,-7.018614,22.713839,43.094563,50.86931,53.585093,39.564847,57.479753,61.960981,60.786797,50.21173,68.312196,73.648914,72.726671,55.656264,74.370591,80.767686,82.253772,-53.040333,359.833869,-79.467888,353.468574
19,3.050652,-0.644427,-0.010071,0.324622,19.596577,37.777977,51.186905,59.534569,13.654633,55.469055,74.560547,82.050934,3.359814,50.751686,71.572495,82.083092,-3.280048,40.901814,61.902237,72.37278,-6.578465,21.417274,40.141811,52.516594,-26.719712,-21.748063,-5.555561,10.40513,-4.930585,27.369079,36.758909,38.197385,15.970694,49.174508,55.23105,54.113368,33.326944,61.890462,65.272532,63.036735,46.963967,69.321939,69.075184,65.442654,23.577518,48.208523,67.794456,81.183643,54.588947,88.668652,106.83672,119.794865,44.725513,82.584743,103.341923,116.112843,35.31229,69.840775,90.232258,103.520565,27.117462,52.875595,69.295406,83.251133,-15.805821,-13.777752,-8.567129,-7.632907,22.10498,41.602611,49.363897,52.144024,39.03861,56.859656,61.392877,60.291435,49.904151,67.974483,73.340162,72.424897,55.636318,74.2524,80.890631,82.695287,-49.694653,359.26947,-79.18293,353.873225
20,12.12307,-2.78834,0.026722,-0.823689,15.14534,28.096046,38.374901,46.384964,0.16428,38.654594,59.230156,68.768349,-11.20142,32.93787,56.714516,71.098938,-17.615719,24.083977,48.587952,63.125381,-19.828606,5.986633,26.797142,41.963654,-23.982502,-16.644885,2.689663,20.643842,-2.756971,30.030337,40.862409,43.359966,17.133269,50.180299,57.759606,57.366009,34.169405,62.638815,67.445405,66.241211,48.178351,69.833479,70.706568,67.832395,24.440231,48.704395,67.501831,79.647102,54.118023,88.338547,106.510506,119.589844,43.930836,81.922646,102.770691,115.663605,34.548168,68.878555,89.269638,102.715988,26.587315,52.09631,68.385201,82.20726,-15.448039,-13.119246,-6.978908,-4.929535,23.106695,42.707326,50.486952,53.282763,40.181796,58.140483,62.611521,61.236031,50.86153,68.991945,74.374975,73.285636,56.244498,74.81507,81.088789,82.376532,-37.232122,356.621504,-78.816748,353.18991
21,8.10854,-1.915436,-0.750103,0.981832,11.321526,20.443954,28.13055,34.455814,-9.106064,29.354153,49.596119,58.469753,-20.183029,25.533428,48.630581,62.295742,-25.125046,18.812599,42.3456,55.844021,-25.116405,2.684441,23.550224,38.375874,-22.269792,-13.830425,8.788504,29.270251,-0.273554,33.904866,44.312775,46.487995,18.840236,53.57262,60.628222,60.027761,35.333709,65.579926,69.558443,67.984548,49.19927,71.964486,71.937748,68.747598,24.595413,49.709301,68.62484,79.94133,54.70396,89.081554,107.225018,119.816265,44.681339,82.957249,103.715343,116.161709,35.257015,70.100727,90.30653,103.405094,27.121353,52.847843,69.021835,82.646656,-15.80545,-13.850432,-7.170767,-4.039156,22.13036,41.382409,48.794002,50.969469,39.27882,57.072942,61.555219,60.089202,50.152697,67.91934,73.315214,72.301458,55.79088,74.149401,80.393602,81.723027,-28.817568,354.794912,-79.260836,354.260585
22,18.720989,-2.823414,-0.480938,0.111706,-7.962799,-17.517929,-28.459797,-40.720596,-32.126198,-6.691818,13.009758,28.128319,-31.627007,2.184963,24.597015,41.363411,-26.829815,3.911247,23.356934,38.468971,-19.632683,0.957642,15.631485,28.103714,29.442473,49.579097,65.231468,79.08579,52.787895,73.302617,77.557282,78.996993,45.139489,63.65535,68.089771,68.584207,34.872619,53.417503,58.554828,61.122163,24.224254,43.405044,49.426203,54.167153,24.650459,49.659348,68.692074,80.32568,55.682087,89.679451,107.645187,120.123367,45.474644,83.264008,103.84037,116.228714,35.774174,69.86824,89.993134,103.062859,27.325859,52.693977,68.845711,82.531357,-16.088082,-14.148563,-7.267035,-3.970984,22.394466,41.916612,49.22502,51.360473,39.487412,57.283017,61.574176,59.944274,50.119537,67.880375,73.146512,71.996102,55.457798,73.520535,79.631602,80.845492,-9.848156,351.992662,-79.493351,354.393457
23,-26.309853,7.424993,-0.703926,0.098307,13.678322,26.113987,38.455811,48.648376,-2.357712,36.033268,56.286392,65.742989,-12.20787,31.008339,54.331055,68.301201,-16.676731,24.509354,49.040337,63.425102,-17.072868,9.738235,30.764065,45.965309,-26.217372,-23.082922,-6.666204,9.157771,-6.483238,24.518742,34.474144,37.089273,15.652,46.904934,53.30098,52.525888,34.131984,60.636311,64.57642,63.083727,48.721446,69.077901,68.839668,65.569922,24.656067,49.729729,68.983669,81.285381,55.865707,90.03994,108.14415,120.730362,45.695915,83.882332,104.639511,117.094917,36.057243,70.587788,90.919991,104.008026,27.681713,53.358421,69.613552,83.387947,-16.141928,-14.206176,-8.006311,-6.39901,22.647211,42.078151,49.221315,51.276431,39.493093,57.036571,60.947657,59.201725,50.004743,67.657456,72.72062,71.584844,55.241486,73.350165,79.458392,80.818198,-35.801725,359.429403,-79.840994,354.503511
24,5.793114,-1.804718,-0.476589,0.470538,11.822262,21.643353,31.538429,39.960251,-9.496937,28.034248,49.277115,59.801331,-20.316696,21.75705,46.517601,62.351418,-24.653778,15.180531,41.103859,56.973267,-24.255466,0.985279,22.577133,38.689041,-24.662065,-19.877952,-1.654047,15.599266,-4.378351,26.831172,37.674914,41.105335,16.918069,47.936536,56.082836,56.39344,34.914794,61.429001,66.7827,66.126231,49.142892,69.598889,71.074415,68.746672,24.784355,50.162659,69.879513,82.501431,56.198444,90.470638,108.570614,121.234989,45.955238,84.385929,105.110035,117.495403,36.35931,71.000347,91.368771,104.443645,28.10812,53.81361,70.030346,83.743916,-16.308901,-14.654299,-8.847661,-7.623582,22.509754,42.023811,49.247991,51.347505,39.308707,56.871388,60.679166,58.757246,49.729274,67.240024,72.229148,70.922201,54.931993,72.894941,79.001069,80.245278,-29.717932,357.62464,-80.026903,354.974003
25,14.921207,-13.956581,-0.165768,-1.718205,-3.856773,-12.008858,-24.267082,-37.064037,-26.928463,-0.342464,20.599537,35.971012,-28.540249,6.11063,29.773235,47.245846,-25.836411,5.15419,26.279812,41.376629,-21.474667,-3.717041,9.728451,19.70747,35.022611,59.215743,76.307825,91.345161,60.493297,82.881959,88.371447,90.673502,48.775107,69.558566,75.261958,76.272689,34.419556,55.545916,61.616167,64.826879,20.18306,40.131407,46.610261,51.72548,25.042534,50.912704,71.080112,85.239029,54.848328,89.780159,107.924309,120.631371,44.986725,83.936348,104.98764,117.891541,35.792313,71.480598,92.051926,105.298347,27.900295,54.19899,70.303402,84.046555,-15.611677,-12.841986,-6.317438,-5.386056,21.525453,41.901977,49.890257,53.084915,38.769996,57.491486,62.100599,60.911162,49.740204,68.550738,74.007375,73.168742,55.469531,74.835077,81.00734,82.319906,-14.382534,343.682693,-79.778481,353.270433
26,-8.436413,8.164516,0.730476,0.220449,7.403183,13.342094,22.153988,30.848808,-18.291779,22.540627,44.085732,54.688339,-28.701553,18.177853,41.690712,57.25605,-31.08427,13.183365,38.441505,54.160423,-28.140564,-2.585163,18.499374,34.833984,-21.349279,-11.478722,12.847358,33.877079,4.739468,37.200486,47.780555,50.719874,24.535662,56.22023,62.642829,62.18742,41.366601,68.147569,71.485179,70.021818,54.488317,75.186931,75.170444,71.805973,25.065765,50.054913,69.607658,83.840103,53.605499,88.832359,107.224045,120.073357,43.676319,83.12027,104.214592,116.871185,34.659691,71.048756,91.789284,104.837608,27.064991,53.830032,70.436325,84.527893,-15.307186,-12.763625,-7.129023,-7.450002,22.183033,42.51979,50.428474,53.428803,39.600477,57.789247,62.013839,60.565236,50.706721,68.967244,74.090738,73.033386,56.457414,75.374158,81.645962,82.972917,-22.416286,351.838796,-78.645344,353.482468
27,10.831261,-3.007554,0.518475,-0.042114,-3.80127,-12.119579,-23.280773,-35.197506,-27.079983,-3.010254,16.784706,31.482124,-28.562851,4.001827,26.256523,42.366257,-26.03548,3.595448,23.207932,37.410164,-21.730843,-3.873882,10.186615,21.648216,31.161666,53.030266,69.766789,84.060218,55.699427,76.823811,81.758163,83.731644,46.122556,65.589497,71.133202,72.367284,33.915858,53.667592,59.366105,62.266954,21.580781,41.301948,47.958951,53.145307,24.888039,50.119514,69.615154,83.858013,53.217087,88.310566,106.642513,119.440327,43.467407,82.7104,104.005909,116.959476,34.427319,70.642033,91.320248,104.522266,26.691856,53.120613,69.639301,83.667469,-15.23784,-12.224297,-5.798734,-5.261444,21.776962,41.781379,49.478259,52.039419,39.091222,57.625237,62.110479,60.612722,50.333996,68.834234,74.035409,72.929213,56.215476,75.248373,81.455648,82.759384,-11.266108,348.816237,-77.807951,353.425349
28,-24.194984,6.820889,0.12228,0.660791,10.753155,22.606087,36.481419,48.842583,-6.689243,35.551357,59.196167,71.242676,-16.471081,29.377785,55.526848,72.574883,-19.836845,23.296223,50.504379,67.415657,-18.511162,4.670906,24.41946,40.161095,-22.966522,-15.152378,6.504974,26.219904,-0.617566,30.244549,41.348632,45.223161,20.26031,50.204814,57.362057,57.262145,37.950815,63.234892,67.859071,67.257128,51.558506,70.283825,71.665182,69.221347,24.426041,49.476757,68.854351,82.296524,53.177719,88.113785,106.377068,118.942909,43.26519,82.321129,103.324814,115.648727,34.206734,69.93885,90.416336,103.145943,26.478653,52.503204,68.993683,82.856598,-15.626868,-13.174327,-7.090368,-5.936129,22.437506,42.303231,49.535501,51.623406,39.577753,57.756889,61.836739,59.974223,50.575193,68.453172,73.413027,72.065139,56.267037,75.093935,81.27546,82.440135,-35.227861,355.617242,-77.45244,354.066257
29,12.464676,-12.089619,-0.532551,-0.354694,-6.120644,-11.162167,-20.260277,-31.72657,-21.455669,2.541618,21.747837,37.819519,-19.440765,15.192719,35.92083,52.507782,-14.939804,17.737541,34.548798,48.085899,-10.091228,12.574997,26.144714,37.457542,32.38593,56.129642,73.427724,87.498173,61.727009,82.9815,90.222107,93.489012,51.359053,69.161511,72.299852,73.09915,37.329297,54.277995,57.892246,59.544502,22.805909,39.679394,43.55837,46.223765,24.74659,50.197678,69.22823,80.495625,53.66003,88.597927,107.146854,119.98724,43.748989,82.585773,103.886318,116.430073,34.561214,69.957619,90.66576,103.57069,26.694546,52.489643,68.921242,82.437229,-15.263282,-12.535395,-5.870426,-3.331743,22.941081,42.186152,49.364329,51.421421,39.763993,57.932693,62.20156,60.506326,50.506526,68.754885,73.853863,72.418166,56.088949,75.132714,81.386549,82.554064,-22.466125,343.526141,-77.687931,353.71008
30,-10.373669,15.744688,-0.454502,-0.196305,12.637539,24.177647,36.733017,47.777538,-5.556507,35.915852,58.813305,70.299397,-16.880722,28.290424,54.037457,70.33041,-21.659031,19.676456,46.299534,62.772503,-21.24733,0.902481,20.159397,35.853825,-23.423166,-17.541316,0.585888,16.564178,-1.742597,25.523174,36.109294,40.919652,19.264029,46.468667,52.903863,52.800925,36.711423,59.956686,64.267668,63.750137,50.477874,68.552837,69.64971,66.871312,25.034466,50.429077,69.543743,81.470146,53.602352,88.783836,107.3386,120.335884,43.76873,82.856827,104.208984,117.002792,34.747467,70.318909,91.135254,104.319077,27.035694,53.133488,69.669571,83.350868,-15.157256,-12.454626,-6.550669,-5.784964,23.117008,41.958417,49.07404,51.116435,40.010932,57.677231,62.050704,60.521579,50.765446,68.707337,73.932286,72.750816,56.330084,75.14667,81.433603,82.76278,-32.647676,359.205821,-77.950315,353.448768
31,17.57412,-14.570565,-0.496159,-0.442627,-10.024223,-17.367153,-27.802505,-39.901943,-27.28117,-1.986809,16.806793,31.424046,-25.600262,9.568119,30.058193,45.261326,-20.843868,11.426239,29.965954,44.336071,-14.595909,8.626556,23.432293,35.588322,30.217564,52.739421,70.63537,84.810733,59.578156,80.553783,86.640892,89.457884,51.915794,69.711769,74.947463,76.843695,41.310038,58.034334,63.148565,65.745911,30.08196,47.643839,52.679894,56.060606,24.708881,50.222855,70.134087,83.44305,53.681259,88.639584,107.052326,120.255375,43.730679,82.403297,103.476505,116.170177,34.699116,69.900055,90.444546,103.531208,27.201176,53.194256,69.525604,83.096867,-15.384559,-12.72324,-6.299715,-4.870996,23.275212,42.674166,50.367897,53.192855,40.326477,58.47974,63.284724,62.237437,51.125204,69.389741,74.716455,73.714925,56.709479,75.523841,81.56686,82.802486,-14.960032,344.637772,-78.332949,353.008657
32,-9.721527,11.396224,-0.644646,-0.320238,9.89994,19.191227,26.950436,32.103939,-16.570816,22.069416,47.27972,61.250782,-29.288864,14.036808,43.557415,63.675556,-34.072552,4.884682,33.495541,52.605343,-33.094425,-14.59837,3.10421,18.664913,-18.491902,-9.252805,13.388416,31.998075,1.397535,30.311301,42.443281,49.14493,21.398309,48.344521,56.482917,58.582431,38.145144,61.779682,66.419916,67.325424,51.389002,69.369548,72.12584,72.612062,24.560337,50.052166,69.638443,81.875496,52.596588,88.103542,106.793804,120.460224,42.908363,81.943531,103.433132,116.449299,34.516525,70.240459,91.069164,104.394894,27.925816,54.318295,70.639515,84.215069,-15.536342,-13.116529,-6.168063,-3.086224,22.508272,42.425188,50.322201,53.353097,39.762017,58.613491,63.549016,62.361432,50.681218,69.538065,74.997419,73.698623,56.316684,75.545701,81.735624,82.858741,-24.553013,356.005667,-78.849049,352.660092
33,6.094151,-1.813239,-1.394978,-1.607672,0.359459,-4.91478,-12.944984,-22.254696,-21.695423,8.26704,30.522537,46.816177,-27.372379,9.976788,34.620552,52.029648,-27.287121,3.405647,26.810646,43.933754,-25.02142,-7.950211,8.760567,23.281059,18.40471,36.536546,54.578719,68.886043,39.722126,59.045497,64.398887,67.404218,40.531797,57.207743,64.110945,66.648516,39.398739,58.255339,63.737108,66.996418,37.037959,57.634191,63.783544,68.706164,25.18856,50.843353,70.145645,81.694908,53.379822,87.743568,106.127472,119.646492,43.113556,81.115208,102.502098,115.771408,34.041595,68.312702,89.047165,102.608299,26.795654,52.588348,68.794842,82.146206,-15.421918,-12.55497,-5.417425,-2.440068,24.130702,44.877174,53.037058,56.364912,40.966211,59.999664,65.560659,65.160517,51.171393,70.164153,76.41033,76.0854,56.125443,75.395401,81.823001,83.348236,-18.386049,354.205334,-80.171213,351.065326
34,-17.534752,-3.00107,-0.841427,-3.109812,8.265781,17.689476,26.536217,32.441711,-10.92905,25.295048,47.515526,59.182091,-20.836029,22.977219,51.370354,70.739822,-24.203167,17.230797,45.798454,64.533005,-23.285007,4.006691,26.000175,42.822189,-14.788236,-3.068193,22.461095,43.905407,6.595932,36.07527,46.365173,51.733075,23.529624,52.425544,60.406353,61.762206,37.69171,64.01869,68.347085,68.253039,48.268321,68.316025,71.546806,71.59633,26.070213,52.825527,72.528419,84.244251,52.472649,87.502384,105.792904,118.933697,42.195625,81.003685,102.561321,116.317577,33.043613,68.285408,89.153767,103.244877,25.906334,51.952286,67.871933,81.492577,-14.178821,-9.995354,-1.061675,3.76023,24.090441,45.451946,54.029511,57.743737,40.585952,60.954511,67.248483,67.155487,50.768533,70.995437,77.910001,78.013,55.943712,76.327152,83.54065,85.714635,-35.876713,351.20624,-80.968552,347.957489
35,8.400822,-0.652393,-1.625004,-2.230487,-0.674286,-2.966709,-10.767002,-21.927567,-18.242912,4.459248,23.788376,41.648197,-19.610939,12.756729,35.098743,52.722759,-17.867374,12.751293,31.531506,47.505627,-14.503098,7.061806,20.219994,32.080936,26.118572,46.444337,62.63227,78.427778,48.35082,69.581105,79.345883,83.55615,40.070275,59.05056,66.128022,69.195165,28.777853,46.713878,53.772259,58.214028,17.724036,34.017129,40.735635,47.178303,25.945816,51.540928,70.560608,82.263851,50.865555,86.113701,104.836121,118.570633,40.817413,80.586491,103.013306,117.95311,32.498074,68.402252,89.860382,104.702797,26.181679,51.979122,67.956562,81.647186,-14.68925,-11.423394,-2.673855,2.070553,23.757113,44.650735,52.871814,56.281919,40.922245,60.718192,67.223289,67.85302,51.460262,71.355627,78.550723,79.279563,56.482361,76.446701,83.937088,86.408401,-27.454348,350.571955,-82.572012,345.745111
36,9.824123,-7.877994,-0.625076,-2.505461,1.448708,1.300964,0.728359,-2.218037,-30.12394,2.823772,27.928734,42.880096,-39.628944,1.828194,33.363876,56.533928,-41.663818,-3.599968,27.205811,48.950043,-38.584785,-22.263107,-2.369099,15.809498,12.774863,34.468895,59.587974,75.902804,31.882849,56.033374,65.029976,71.554278,32.826951,57.775847,67.595768,72.188455,33.427412,57.841364,66.404047,72.007464,33.51763,55.173808,63.099597,70.075417,25.885735,50.352173,68.598118,79.181499,52.452278,85.217628,103.050613,116.534386,42.958946,79.982014,101.871758,117.661285,33.968353,67.999763,89.165726,104.585953,25.937691,51.285667,66.999207,80.721989,-13.994311,-10.974283,-1.713327,3.746583,23.024629,43.125006,51.672312,55.552955,39.483399,58.860493,66.714589,69.31811,49.932556,70.00953,78.480328,80.873465,55.244265,75.392807,83.721209,87.320023,-17.646418,342.6895,-83.213282,343.235188
37,-1.426506,-7.331441,-1.809483,-3.337733,0.091438,-4.403114,-7.398548,-9.977932,-33.141346,-3.404503,19.554405,32.275314,-41.231289,-2.561474,27.282486,50.057945,-41.284733,-2.924309,26.674576,48.295555,-36.509399,-10.321541,13.501053,33.03875,32.180857,58.71223,79.064054,90.536416,53.501113,74.722321,80.342658,84.633633,39.899967,62.660798,73.675466,78.659527,25.359103,47.057581,59.39099,67.836965,11.006023,30.967214,41.956503,50.465215,27.289181,52.448788,71.779861,84.570293,51.439648,84.395485,102.070026,115.801449,41.469212,78.989697,100.863018,117.103214,32.245731,65.92535,86.656036,102.151966,24.184685,50.126553,65.596161,79.298,-13.592377,-9.616392,-1.963848,-2.13675,23.023394,42.615997,51.625135,56.791792,39.824446,59.412727,67.968061,71.759722,50.438478,70.804504,79.746458,83.310877,55.712148,75.16538,83.019724,86.542832,-19.078617,335.430152,-85.028458,339.969548
38,-4.546738,5.558463,-0.73288,-3.512734,-5.684795,-10.004368,-17.367554,-27.602749,-22.957363,-6.192398,12.125587,30.160103,-22.4576,2.096672,24.644623,44.818153,-20.448875,1.779499,19.180584,35.069504,-18.157539,-6.39307,1.803532,10.392609,27.407859,48.35224,65.036892,79.767824,45.160732,65.582643,76.57366,82.583272,34.98661,55.98175,65.604008,70.362063,22.613989,43.511316,53.329385,59.05618,11.097537,29.029363,37.886163,45.06014,27.151451,52.153702,71.452217,84.114075,51.174774,82.744102,100.276623,113.952656,41.706505,77.946453,99.931812,116.609974,32.378311,65.686569,86.888866,103.272228,23.635139,49.255371,64.904823,79.557152,-13.196557,-9.645414,-1.204195,-0.358276,21.191753,40.780096,50.088538,55.555734,37.918643,57.871622,67.14005,71.83376,49.251264,70.081592,79.756956,83.889478,55.936734,76.604844,85.701421,90.19963,-23.748093,341.032705,-85.884075,336.500904
39,-17.460995,-0.500302,-0.573177,-5.121641,1.864815,5.847988,8.252335,6.029091,-8.159866,11.648369,31.48447,50.084553,-10.191021,22.030392,46.063671,66.970425,-10.319138,18.836746,40.392551,58.387928,-8.726749,6.566219,15.800457,24.695091,22.827707,42.926849,59.604647,75.957823,38.922705,60.190658,72.145415,79.818089,32.712713,53.774729,64.231976,70.543609,25.910288,47.921407,56.70775,62.588056,20.342932,39.970301,47.963398,54.614658,26.081543,51.30003,69.576702,79.955406,50.648289,81.613026,98.308411,111.092148,40.953655,76.493969,97.633095,113.691101,31.368656,63.670864,83.937149,99.557076,22.334919,47.380886,62.004833,75.39196,-14.116268,-10.61434,0.428733,5.93193,19.019189,40.062062,50.053464,55.858743,36.24743,58.425214,69.10927,75.184276,47.91727,70.351503,80.568912,85.441884,55.00949,76.208159,85.625777,90.954096,-41.424408,340.562229,-86.672573,331.409089
40,57.575855,-2.604262,-3.058949,-7.440431,-21.675911,-41.566715,-54.449558,-65.616188,-70.66143,-65.336552,-42.928905,-25.196171,-64.008293,-51.657028,-28.553524,-6.545792,-51.741142,-37.874107,-17.301121,1.871796,-37.255955,-29.817924,-17.15744,-3.309402,36.918163,56.528921,67.014696,74.027135,42.527879,59.497201,71.590649,79.785608,29.435619,46.702331,64.453351,74.486373,16.480753,32.925752,47.963212,56.826064,4.629243,19.356716,31.500614,40.039338,28.110294,52.399921,69.901714,81.457958,51.397648,81.198177,97.594242,109.865856,40.624866,74.773464,95.540142,111.316967,29.392319,60.518818,79.426632,93.822613,18.553333,42.243805,55.511169,67.115307,-14.897904,-8.674513,6.820024,16.106854,17.795728,40.382052,51.880473,59.77162,34.915165,59.164119,71.547238,79.987099,46.693809,70.39337,82.033385,89.424353,54.180491,76.192969,86.570496,93.513342,15.971832,338.037208,-89.911137,324.047899
41,16.671714,-19.495593,-4.888287,-10.063156,-16.156616,-35.46463,-51.063614,-63.963394,-58.808708,-66.616668,-55.947265,-45.315857,-58.026275,-61.341285,-49.70869,-35.76313,-52.997474,-53.842029,-42.364444,-29.566478,-45.840206,-48.725071,-41.123504,-31.028022,35.739698,56.588078,67.498964,73.98887,48.395692,66.777575,75.963237,80.708241,34.707766,54.824506,67.915553,73.83186,20.256955,39.619064,50.356946,55.016283,6.362145,23.493541,33.384681,38.688877,29.045334,53.058758,70.240059,81.482391,48.77655,78.713322,95.052624,106.969414,38.16433,71.688366,91.673527,107.035103,26.770191,58.024406,77.789669,93.005161,15.373135,38.443222,53.015842,65.925121,-13.799859,-8.346618,7.249931,18.973123,14.366233,37.447673,50.032839,58.98597,31.120911,57.220093,71.892855,82.416299,43.717192,69.536151,82.503861,91.018996,53.095536,76.265834,87.794883,95.477314,32.493744,318.524865,-94.949226,313.967994
42,16.671715,-19.495593,-4.830608,-9.907298,-10.637321,-29.362545,-47.677669,-62.3106,-46.955986,-67.896786,-68.965626,-65.435543,-52.044258,-71.025543,-70.863857,-64.980469,-54.253807,-69.809952,-67.427769,-61.004753,-54.424457,-67.632217,-65.089569,-58.746643,34.561232,56.647234,67.983231,73.950606,54.263504,74.057948,80.335825,81.630875,39.979913,62.946682,71.377754,73.177346,24.033157,46.312377,52.750681,53.206502,8.095047,27.630366,35.268748,37.338416,27.851887,51.480045,69.15659,83.715878,47.577209,76.565552,91.107159,100.988159,34.994717,67.259903,85.772324,98.163013,22.427959,51.900501,70.03149,82.470589,10.667725,33.287601,46.676331,58.228912,-14.678937,-9.234959,6.734006,18.319433,10.779646,35.079545,48.551755,58.341419,27.793366,54.537532,68.28836,77.362275,41.206853,66.618938,78.853671,87.066846,51.302551,73.281437,83.424313,90.032718,49.118767,299.05141,-99.826527,304.082833
43,16.671715,-19.495593,-21.311073,-26.454618,-5.118027,-23.26046,-44.291725,-60.657806,-35.103264,-69.176903,-81.983986,-85.555229,-46.062241,-80.709801,-92.019024,-94.197807,-55.510139,-85.777874,-92.491093,-92.443027,-63.008709,-86.539364,-89.055634,-86.465263,33.382767,56.706391,68.467498,73.912341,60.131316,81.338322,84.708412,82.553508,45.25206,71.068858,74.839956,72.522833,27.80936,53.005689,55.144415,51.39672,9.827949,31.767191,37.152815,35.987955,32.511063,58.228912,77.422371,94.977093,49.896412,77.392101,93.244801,104.879265,37.450733,68.796902,88.037109,102.314587,26.110897,54.921169,72.471828,86.324959,15.960388,39.188004,52.520485,64.352074,-8.827654,-0.164997,17.186683,29.110379,15.457734,41.543084,54.994855,65.103336,31.47684,59.309789,74.560905,84.524396,44.827218,71.198287,85.157153,94.065329,54.6493,78.363743,89.668329,96.532073,65.77034,279.521113,-121.157742,277.593512
44,-0.850983,-11.868861,-9.649372,-24.759075,-7.247543,-30.675888,-55.372009,-69.229832,-34.165421,-76.103268,-85.55397,-84.904976,-40.984383,-84.258671,-91.468449,-90.355396,-47.467575,-89.622803,-91.266518,-86.594753,-53.334503,-84.239502,-84.710484,-78.961945,33.002322,55.03382,61.658219,61.936095,52.397448,69.128783,72.354872,72.132756,34.016882,56.039178,60.891958,60.033565,14.686718,39.262147,43.870333,41.937916,-4.524947,19.192769,26.603621,26.625481,32.292137,56.987114,74.633789,91.635933,41.143684,62.936325,77.319145,89.848709,26.552582,53.247871,71.734486,86.905975,15.250282,40.338593,57.5564,71.892929,6.509743,27.72028,41.770306,54.328136,-3.300498,6.424513,22.442878,32.798423,16.338295,41.638056,55.952234,67.714514,30.34866,57.16038,73.103225,84.77924,42.024366,67.904767,82.352634,92.32829,51.065059,73.491327,84.779364,92.199849,64.982443,267.574832,-130.744028,252.757018
45,-4.761009,-30.260872,-12.466507,-18.860614,-13.969307,-39.566421,-64.040222,-77.532501,-48.451462,-83.771267,-88.410187,-85.158787,-50.713654,-87.559891,-90.072556,-86.173172,-50.751801,-87.332859,-87.199268,-81.587715,-49.407692,-77.572079,-77.534809,-71.738987,13.036603,26.745153,32.131271,32.073925,33.926849,44.896275,45.711771,44.979432,27.42204,42.659366,43.571132,42.085129,19.472107,36.333654,36.815245,34.135134,10.471717,28.21506,31.250978,29.628486,30.023575,55.512028,73.419342,88.948517,45.830555,68.161869,81.455956,91.98555,32.043743,57.097206,72.987499,85.639343,19.395161,42.950077,58.586712,71.707878,8.336105,28.076878,40.643635,51.715221,-4.841232,1.471512,14.2063,24.951983,14.246191,40.231752,55.176648,65.981674,27.608733,54.683448,70.165264,80.530194,39.279993,64.711468,77.789464,85.915509,48.533971,69.605497,78.666135,83.294637,60.377216,237.314208,-143.054752,233.896651
46,-4.761009,-30.260872,-2.848206,-13.508952,-20.691071,-48.456955,-72.708435,-85.835171,-62.737503,-91.439266,-91.266403,-85.412598,-60.442925,-90.861111,-88.676663,-81.990948,-54.036026,-85.042916,-83.132019,-76.580677,-45.480881,-70.904656,-70.359135,-64.51603,-6.929117,-1.543513,2.604324,2.211756,15.456252,20.663767,19.068671,17.826109,20.8272,29.279555,26.250306,24.136692,24.257497,33.405162,29.760158,26.332352,25.468381,37.237351,35.898334,32.631491,25.290756,51.094265,68.613682,82.300816,34.101505,55.697937,68.79324,76.605606,18.183861,45.149918,61.44413,69.896622,5.757523,32.425404,48.252182,56.911297,-3.417377,18.621941,31.245975,38.241863,-10.295029,-8.480061,1.869555,10.80095,-3.519773,22.281463,37.354615,47.284328,9.979793,35.931824,50.967802,59.20963,24.267912,47.864597,57.618692,60.84546,36.755945,53.623008,59.876657,60.653478,55.371275,207.298994,-146.14789,220.633358
47,-4.761009,-30.260872,-8.975658,-16.67644,-27.412834,-57.347488,-81.376648,-94.13784,-77.023544,-99.107265,-94.12262,-85.666409,-70.172195,-94.162331,-87.280769,-77.808723,-57.320251,-82.752972,-79.06477,-71.573639,-41.55407,-64.237232,-63.18346,-57.293072,-26.894836,-29.83218,-26.922624,-27.650414,-3.014346,-3.568742,-7.574429,-9.327214,14.232358,15.899743,8.92948,6.188256,29.042886,30.476669,22.705071,18.52957,40.465045,46.259642,40.545691,35.634495,21.940613,46.722336,69.202251,86.465778,33.678131,70.055923,67.587032,60.281067,21.716652,59.435978,58.195782,50.285797,12.361794,46.855202,46.156311,39.901428,5.99596,31.634159,32.594547,28.986912,-16.599622,-20.735233,-16.416594,-13.285231,-16.587025,8.551506,11.518798,6.066978,-0.952685,26.385889,26.068369,20.691452,16.089996,37.885607,35.876187,30.738491,32.235815,47.387019,43.907939,38.733502,49.804688,178.312141,-155.929127,205.230937
48,-15.26762,-22.049806,5.889187,-0.342221,-27.292901,-57.242661,-80.120459,-91.891423,-71.528521,-98.7745,-93.491793,-86.127034,-65.743561,-93.396378,-84.580966,-74.718619,-55.214997,-82.487469,-75.676632,-66.755305,-42.502385,-67.229491,-63.977795,-57.091084,-26.417552,-32.683875,-33.337318,-35.921419,-10.740959,-6.574196,-8.846734,-9.726338,6.544772,9.119733,3.252147,1.752168,21.599862,21.71268,14.435394,11.804054,33.745643,36.365497,29.885903,26.141975,20.905209,41.712227,58.443775,72.028255,29.53783,60.305901,66.694908,65.391083,19.562302,52.315178,52.141972,46.731606,11.319122,42.230587,41.104774,35.962543,4.499016,30.723724,32.134323,28.24213,-16.679095,-29.216528,-35.367857,-39.517423,-44.023659,-36.850732,-22.732117,-14.762115,-34.696383,-15.01134,-1.539253,4.391689,-20.81946,-2.980075,7.637167,11.839159,-4.622204,7.216709,12.664577,14.969782,34.028693,158.202595,-150.548315,206.828976
49,-15.267621,-22.049806,8.260975,-17.826541,-27.172966,-57.137833,-78.864269,-89.645004,-66.033497,-98.441734,-92.860966,-86.587658,-61.314926,-92.630424,-81.881161,-71.628513,-53.109741,-82.221966,-72.288494,-61.93697,-43.450699,-70.221748,-64.772129,-56.889095,-25.940267,-35.535571,-39.752013,-44.192423,-18.467572,-9.57965,-10.11904,-10.125462,-1.142815,2.339723,-2.425186,-2.68392,14.156838,12.948691,6.165717,5.078539,27.026241,26.471352,19.226114,16.649455,19.042721,39.732094,54.346829,62.22889,29.697685,62.684555,72.176037,74.320011,20.874806,59.272213,65.878124,66.375103,14.073887,50.460453,56.264725,56.746941,9.342194,38.5042,44.173489,44.460068,-22.310321,-40.196554,-52.112161,-59.406037,-52.679174,-46.62223,-34.454734,-27.540715,-40.625565,-26.089683,-15.074552,-8.905027,-24.498468,-11.741532,-3.841288,0.292902,-6.596529,0.960363,4.778988,7.065482,18.579597,138.796617,-142.468815,191.646263
50,-2.005806,-10.985151,8.260975,-17.826541,-28.681526,-57.197571,-79.939156,-95.204945,-54.47628,-90.819855,-103.239326,-107.26696,-51.901417,-89.47649,-101.768074,-106.895313,-49.531059,-83.836613,-94.398251,-97.731571,-46.173706,-72.771721,-83.731842,-88.561077,-23.149952,-32.77539,-38.189666,-46.488396,-23.52947,-18.14434,-16.763261,-18.148539,-8.082573,-5.191913,-5.765945,-8.411394,7.362687,10.001652,6.787976,1.94557,21.961966,23.409334,19.464347,15.407778,17.180233,37.751961,50.249882,52.429523,29.85754,65.06321,77.657166,83.248939,22.187309,66.229248,79.614277,86.0186,16.828651,58.690319,71.424675,77.531338,14.185371,46.284676,56.212654,60.678005,-27.941547,-51.176581,-68.856465,-79.294651,-61.334688,-56.393729,-46.17735,-40.319314,-46.554748,-37.168026,-28.609851,-22.201744,-28.177475,-20.50299,-15.319743,-11.253354,-8.570855,-5.295983,-3.106602,-0.838818,16.540661,129.606519,-134.240971,175.614776
51,-25.405483,-13.59636,8.260975,-17.826542,-18.62669,-46.864643,-69.642506,-81.312904,-48.798866,-90.918217,-87.956829,-77.81702,-47.371216,-91.385136,-86.441746,-76.637192,-43.732281,-83.612366,-78.882694,-70.528107,-39.411278,-71.365814,-70.485077,-65.340786,-24.390116,-39.250538,-46.98981,-57.550983,-27.427526,-21.79416,-21.753528,-21.831889,-9.88973,-6.025451,-6.794954,-6.163185,7.672581,8.57704,6.799369,6.978136,23.909667,24.182604,19.747936,16.856164,15.317745,35.771828,46.152935,42.630157,30.017395,67.441864,83.138294,92.177868,23.499813,73.186283,93.35043,105.662098,19.583416,66.920185,86.584625,98.315735,19.028549,54.065151,68.25182,76.895943,-33.572773,-62.156606,-85.600768,-99.183265,-69.990202,-66.165227,-57.899965,-53.097913,-52.483929,-48.246369,-42.14515,-35.498459,-31.856482,-29.264446,-26.798197,-22.799611,-10.54518,-11.552329,-10.992191,-8.743117,-8.803167,117.364639,-125.918341,159.142714
52,-5.404472,-0.487365,20.837231,-0.356115,-18.16864,-48.249722,-73.55341,-86.838398,-53.059387,-92.649021,-84.850616,-72.924385,-50.88089,-90.258636,-81.039391,-71.602936,-47.679577,-83.443623,-74.368229,-65.406361,-44.243259,-74.1572,-68.533802,-61.152134,-27.248079,-42.532511,-54.254529,-68.431868,-34.316001,-27.497736,-27.171941,-27.66931,-15.029958,-10.505289,-10.450115,-11.051409,3.872245,5.724757,5.015986,4.682842,20.584068,19.864428,17.247631,16.778575,7.256126,17.501678,22.397919,15.549774,34.029236,30.082912,20.429192,13.103142,34.245186,28.433933,21.089516,17.22765,31.945667,25.482731,20.007763,17.023888,26.796341,23.825798,20.091934,17.235374,-41.798236,-71.226383,-91.71693,-106.59918,-79.491707,-81.193208,-72.75239,-67.588574,-62.317373,-59.206573,-50.509799,-44.105633,-41.939737,-39.101287,-34.392324,-30.577816,-21.01243,-23.849553,-23.45682,-23.235692,-14.136658,117.972433,-105.010128,159.881758
53,-5.928612,1.34267,3.004761,-26.403982,-17.872753,-45.806351,-69.590321,-79.836044,-52.259331,-93.171787,-93.552933,-85.439529,-51.040821,-94.917698,-88.53899,-78.153362,-48.461151,-87.451572,-79.790554,-70.580578,-45.454273,-76.975365,-71.012821,-62.710533,-26.404075,-43.118121,-55.5951,-70.774988,-41.133215,-30.813023,-24.220426,-21.525051,-22.762375,-13.229192,-8.992033,-8.442979,-3.343538,2.041345,4.8609,5.081472,14.975617,14.977038,14.26981,14.251902,15.013962,25.718765,35.777435,44.242287,10.139008,9.838886,6.99028,3.452396,4.943905,19.621181,33.928471,43.954353,2.993946,20.356922,31.335983,39.130497,2.723236,13.802032,17.879333,20.096054,-24.638692,-51.054006,-67.739276,-80.220207,-57.831947,-61.541325,-62.795352,-65.013921,-42.670461,-36.555966,-27.598976,-19.556479,-23.107344,-17.044163,-12.24063,-8.036075,-3.129079,-3.965797,-1.734693,1.004556,-20.029678,120.013716,-101.969776,134.17639
54,-5.315037,4.272542,40.796471,2.123782,-15.319862,-44.273643,-68.401909,-77.737427,-52.056713,-94.959583,-93.298416,-84.851017,-50.116482,-93.191872,-83.763371,-73.575325,-46.712551,-83.63451,-72.471256,-62.371445,-42.629528,-73.520794,-63.778439,-53.707867,-27.769191,-46.607883,-59.710642,-75.18724,-45.625959,-33.602691,-25.932981,-23.330757,-27.269599,-14.04263,-8.978139,-10.185483,-8.116135,-0.281582,3.043987,1.53283,10.264833,13.436766,13.786644,12.346748,-15.865173,-28.296719,-36.647873,-38.762398,-8.567448,-31.637192,-47.480736,-59.798298,-2.178669,-40.853119,-58.842602,-68.264923,0.323067,-35.993671,-49.33651,-55.551796,-0.079479,-27.492771,-37.239475,-42.396183,-25.734731,-51.924841,-68.569973,-84.334421,-57.880483,-65.349658,-67.352039,-68.565095,-44.34683,-46.130213,-40.358032,-32.337919,-26.927564,-27.383838,-22.359238,-15.879859,-8.534401,-12.074984,-9.802878,-5.838316,-25.251703,125.074363,-61.080294,137.088277
55,0.945053,-1.523383,17.313251,-3.088138,-19.70026,-48.530617,-70.71888,-82.761497,-50.576706,-87.074032,-101.790791,-108.541775,-50.059376,-93.991413,-100.443935,-100.705605,-46.933823,-83.69854,-74.668407,-65.359669,-42.27047,-74.716301,-66.531315,-56.133213,-27.595518,-44.766918,-57.534619,-71.033413,-40.930612,-40.763361,-41.381143,-43.704317,-22.505154,-18.192227,-18.978372,-21.630644,-3.136056,0.245643,0.563596,-1.296481,15.218204,14.719384,12.946344,11.063513,-3.481464,-23.030434,-45.567455,-59.15657,-19.453983,-44.935055,-58.520508,-70.152626,-19.692192,-60.498104,-66.627045,-67.249146,-21.707382,-61.453972,-59.810829,-53.11758,-24.476452,-55.759392,-53.182812,-46.32391,-24.011185,-46.818915,-57.433688,-65.181203,-52.479668,-59.997472,-67.871452,-74.989453,-37.339085,-34.367809,-29.780865,-27.919677,-19.340939,-17.429208,-13.268743,-11.369146,-1.191721,-2.871518,-1.921796,-0.875065,-24.345331,124.359155,-43.805723,134.808312
56,-2.108517,3.873603,11.448441,-4.427937,-16.743336,-43.624191,-65.175133,-73.63203,-47.196808,-82.230892,-101.358204,-117.622433,-46.774635,-82.914448,-85.218201,-90.128574,-43.973236,-74.579601,-62.742519,-54.49316,-39.61956,-66.752586,-56.498222,-46.728401,-26.431307,-45.850422,-60.298567,-79.027622,-41.022095,-50.46398,-57.757507,-64.757657,-22.156573,-24.845741,-25.489057,-27.099076,-3.120001,-3.451848,-2.538992,-2.254137,15.402591,12.471298,11.504534,12.303029,-9.039001,-32.599411,-54.044209,-66.570339,-37.96978,-75.307789,-71.590176,-66.74263,-36.799335,-75.760517,-64.429035,-56.481743,-34.258575,-69.768677,-56.968803,-47.973289,-31.935654,-60.478249,-52.310829,-46.384277,-26.896658,-46.739906,-59.259833,-73.661078,-42.731872,-31.27328,-26.646939,-27.63334,-25.403595,-14.999113,-12.203827,-14.046181,-7.017379,-1.234885,-0.662335,-2.613401,10.06507,10.715611,9.584343,9.354817,-26.731424,129.513539,-32.634859,131.661156
57,5.874195,3.500878,-128.601379,-12.87706,-16.90115,-44.549961,-65.242825,-73.171406,-50.34193,-82.899227,-71.23764,-59.815407,-49.13023,-81.942902,-68.891602,-58.240757,-46.739616,-78.480263,-66.020279,-56.139965,-43.732853,-71.900425,-61.805248,-51.590309,-28.979561,-49.860957,-64.523376,-81.301272,-41.510171,-33.152191,-31.415985,-34.281575,-23.587855,-17.299038,-16.617808,-18.141931,-5.273423,-3.717869,-3.598505,-3.459999,12.090669,10.345232,8.634375,8.585222,30.987682,44.780388,50.414028,50.326481,13.79282,36.835842,44.973736,48.107529,-6.8363,40.156689,39.760838,27.575226,-19.164963,27.004166,25.189762,12.653847,-27.290554,8.91901,10.324459,-0.232887,-22.697939,-51.058884,-74.452101,-95.361748,-65.350121,-76.781049,-86.692824,-96.377727,-53.906473,-36.822573,-23.687026,-22.382116,-35.80894,-21.633578,-12.551852,-13.316538,-16.047419,-9.545687,-3.506744,-3.48473,-21.391325,133.700896,-161.770334,119.470575
58,2.642097,-2.299462,-9.238358,-9.926193,-13.056793,-39.310169,-60.571632,-70.482674,-50.133133,-82.739697,-71.777401,-61.473083,-50.584488,-80.702934,-69.732742,-61.2533,-49.485626,-76.380901,-66.085625,-57.664375,-47.963161,-72.640858,-63.675327,-54.263706,-27.274725,-48.056424,-64.376256,-81.124789,-43.532744,-36.204791,-33.139902,-34.942243,-26.204559,-19.139293,-16.34342,-18.162247,-8.591304,-5.039575,-3.600481,-3.969069,8.281533,7.908808,7.683666,8.159946,18.888817,22.325134,22.546349,24.080372,-3.905182,9.185085,10.439758,4.882221,-12.063618,13.227768,12.797642,5.301476,-14.266319,9.36018,8.892403,1.700077,-14.408627,2.706013,1.214905,-8.355904,-23.6191,-48.181562,-66.777976,-82.826352,-44.350412,-37.841332,-29.134678,-25.442343,-27.25799,-21.174679,-17.352452,-17.006341,-9.982695,-7.121397,-4.575088,-5.84656,6.934139,6.093839,6.717117,4.742061,-19.002428,131.695088,-171.261892,109.838036
59,0.374622,-6.416825,-17.583647,9.180125,-12.381363,-37.562943,-58.145199,-68.279514,-51.887226,-82.906437,-71.539021,-60.859737,-53.14333,-82.391281,-71.621418,-62.945652,-52.076454,-78.188324,-68.176117,-59.933968,-50.314178,-73.730564,-65.189896,-56.405697,-27.15743,-48.175016,-65.594159,-81.987195,-45.780767,-38.341232,-34.641147,-36.535033,-29.548406,-22.726961,-18.923661,-20.203376,-12.092985,-7.984977,-5.397357,-5.46346,5.209543,5.69416,6.100725,6.258435,22.752428,25.366431,22.765789,21.712933,-5.276441,19.901276,21.809807,14.404564,-16.199999,19.341345,18.412543,9.618073,-20.486612,13.852988,13.315974,5.118685,-21.019907,4.618092,4.542303,-4.305639,-23.61132,-51.473785,-71.924086,-89.506281,-50.742213,-42.577851,-30.02498,-26.175707,-34.541112,-25.03019,-16.969276,-15.698051,-17.193384,-10.369809,-4.527386,-4.772968,0.225512,1.534528,4.631697,4.304744,-19.310675,125.354741,-189.528408,119.094639
60,-2.817879,-7.659706,-17.583647,9.180125,-12.591534,-36.505165,-56.568031,-65.989265,-52.886295,-81.018219,-70.884476,-60.094357,-55.16613,-81.079502,-71.862087,-63.83606,-54.793968,-77.37505,-68.494148,-60.805607,-53.277626,-73.199215,-65.042095,-56.738605,-28.010821,-48.751549,-66.598066,-83.950735,-45.73924,-40.230671,-36.121675,-36.672242,-30.460799,-25.950086,-21.674395,-22.381653,-14.168663,-11.485206,-8.595349,-8.354831,1.640801,1.996576,2.892235,3.008943,26.616039,28.407726,22.985229,19.345493,-6.647701,30.617466,33.179855,23.926907,-20.33638,25.454922,24.027443,13.934669,-26.706905,18.345795,17.739544,8.537292,-27.631187,6.53017,7.869701,-0.255375,-23.603539,-54.766008,-77.070195,-96.186208,-57.134013,-47.31437,-30.915282,-26.90907,-41.824233,-28.8857,-16.586099,-14.38976,-24.404072,-13.61822,-4.479684,-3.699375,-6.483114,-3.024782,2.546278,3.867428,-22.612381,117.612706,-207.595882,128.192435
61,-4.149513,-4.094021,14.551678,-1.923865,-13.524628,-36.486797,-55.037727,-63.722305,-50.895596,-77.824459,-70.005283,-60.295715,-52.958908,-79.199924,-69.54237,-61.318932,-52.537079,-75.394707,-66.252537,-58.959904,-51.468945,-72.943897,-64.305725,-55.855293,-29.396901,-51.578575,-71.049931,-88.340633,-48.105732,-42.606179,-38.087932,-38.587647,-32.428754,-28.304938,-24.405492,-25.565041,-15.604298,-13.978657,-10.891044,-11.154749,0.531671,-0.18556,0.655264,0.503019,20.460262,22.13562,17.778969,14.525356,-4.525337,24.987316,32.881794,31.249638,-16.984234,21.571255,27.729492,24.807529,-24.277153,12.384567,19.556637,18.195705,-26.886063,-6.814499,-0.144196,0.535583,-24.057436,-53.278842,-74.82918,-95.778934,-54.961695,-48.724379,-34.863727,-28.172483,-39.225498,-29.692439,-17.143396,-9.768205,-22.753174,-14.19185,-3.472442,2.642331,-5.252953,-5.091074,2.521238,8.823918,-27.689438,113.51765,-193.971748,126.267536
62,-23.777161,-9.686911,18.639717,0.296535,-8.444195,-28.233032,-44.075603,-50.742073,-46.888218,-77.113037,-83.154316,-84.732342,-45.275116,-67.094536,-56.786842,-47.902222,-40.567188,-60.562878,-50.244541,-40.877209,-35.108585,-49.253025,-43.661098,-36.736336,-26.048856,-51.079725,-68.745005,-83.485723,-41.764027,-35.987924,-35.408612,-37.626687,-26.14355,-13.589845,-13.275937,-14.89105,-8.71428,0.171296,0.008861,-1.696593,7.973182,13.151016,12.397105,12.382934,21.562691,26.013909,23.675709,20.201321,-2.249813,25.502796,34.933815,34.795437,-15.743675,22.674275,32.141686,31.680775,-24.013347,13.49165,22.11071,21.350479,-27.528915,-4.98764,2.375641,3.116398,-26.125004,-55.295672,-76.52816,-95.065407,-57.898143,-51.370805,-38.14643,-31.822344,-42.638052,-31.204448,-19.778543,-13.945404,-25.84936,-16.2877,-7.420289,-3.101414,-8.259951,-6.463714,-0.597579,3.889288,-51.801939,104.041556,-175.667372,126.774887
63,6.509857,4.657648,18.639717,0.296536,-9.706821,-29.986382,-46.154022,-53.62421,-41.993408,-75.698032,-91.74345,-103.767757,-42.44997,-74.830856,-61.448479,-51.614227,-40.106907,-68.732128,-54.841633,-46.242714,-36.475353,-62.465286,-52.27232,-44.017925,-24.82734,-45.891579,-61.93273,-77.505844,-39.685261,-35.932688,-36.579987,-38.434691,-24.199678,-20.407214,-20.139156,-20.935366,-6.412132,-5.420853,-5.371298,-5.341133,11.498976,9.80226,8.286411,8.369342,22.66512,29.892197,29.572449,25.877285,0.025711,26.018277,36.985836,38.341237,-14.503116,23.777295,36.553879,38.55402,-23.749542,14.598732,24.664784,24.505253,-28.171768,-3.160781,4.895478,5.697213,-28.192572,-57.312502,-78.22714,-94.351881,-60.834591,-54.017233,-41.429133,-35.472205,-46.050606,-32.716459,-22.413691,-18.122603,-28.945547,-18.38355,-11.368137,-8.84516,-11.266949,-7.836353,-3.716397,-1.045342,-45.585737,108.652274,-157.32131,127.024493
64,4.482307,-2.771575,18.639717,0.296536,-12.014523,-37.520771,-58.523598,-68.674164,-40.055923,-74.821987,-93.263626,-108.736439,-40.238914,-81.476326,-98.250217,-112.427731,-37.060833,-71.325474,-62.185535,-53.982697,-32.666473,-62.505455,-54.630318,-44.960289,-23.273854,-41.985093,-56.997143,-74.773821,-34.305596,-33.756357,-36.406499,-39.678468,-17.234293,-16.476121,-19.951157,-23.864342,0.546769,3.158873,2.879977,0.935272,17.775041,17.247847,15.738081,15.53699,23.767548,33.770485,35.469189,31.553249,2.301235,26.533756,39.037857,41.887035,-13.262558,24.880314,40.966072,45.427265,-23.485737,15.705814,27.218857,27.660027,-28.814621,-1.333923,7.415314,8.278027,-30.260141,-59.329333,-79.926121,-93.638356,-63.77104,-56.66366,-44.711837,-39.122066,-49.463161,-34.228469,-25.048838,-22.299803,-32.041733,-20.479401,-15.315986,-14.588905,-14.273947,-9.208993,-6.835215,-5.979972,-41.432476,105.814147,-139.010639,127.254477
65,4.372158,-2.310886,-9.178162,1.338996,-11.291885,-36.845226,-56.085777,-64.052925,-43.638611,-78.481293,-70.166073,-60.366669,-43.138332,-77.660866,-66.705265,-57.297306,-41.213837,-73.724556,-62.630367,-52.852306,-38.754101,-66.836071,-58.435593,-49.011898,-25.20658,-44.611153,-59.653244,-76.885561,-38.013615,-30.775819,-28.468422,-29.878029,-21.257487,-14.88469,-12.192187,-13.373225,-3.794686,-0.911837,0.48613,0.314834,13.607722,13.394344,12.992503,13.087104,19.103966,27.889652,31.839809,33.274155,-8.998947,27.249985,37.47179,39.62431,-22.970009,22.271862,28.621731,28.115273,-30.545025,11.504574,19.267845,19.492664,-34.351044,-5.176735,3.943233,4.175377,-29.011054,-60.134002,-81.392724,-102.164945,-69.533743,-64.068522,-51.30357,-44.577098,-56.772958,-46.184708,-33.252967,-27.410792,-39.163748,-32.795551,-22.74842,-17.976409,-20.126621,-21.113948,-14.359811,-9.804607,-37.230663,103.972519,-148.359146,129.06273
66,2.564907,-4.108718,-2.995605,2.668668,-12.244263,-37.185631,-55.714531,-62.511349,-45.091152,-78.556767,-69.709053,-60.178699,-44.99239,-78.002415,-67.692547,-58.574524,-43.172493,-74.365253,-63.913536,-54.394913,-41.042576,-68.18819,-59.883099,-50.388908,-24.5536,-44.986071,-62.591947,-80.114058,-41.953446,-35.326207,-31.34349,-32.409611,-26.081151,-19.163685,-15.043851,-16.303776,-9.072371,-4.991378,-2.185687,-2.816838,8.231145,8.756425,9.467913,9.214582,14.863987,13.519592,6.423912,0.083828,-29.44376,3.592014,13.787098,11.823177,-40.671902,-1.506386,7.139282,5.755405,-44.795437,-8.762341,1.103268,-0.53627,-45.168285,-23.55772,-14.750576,-17.362061,-29.88405,-62.144009,-83.133406,-102.515502,-71.074662,-63.558433,-43.298339,-32.661059,-58.079381,-48.83624,-32.683042,-24.88097,-40.950588,-35.363596,-22.761665,-16.871108,-21.245507,-23.37074,-14.93267,-9.863115,-34.547338,100.147328,-151.236334,132.014924
67,2.156239,0.279421,-20.525951,-10.520294,-12.50639,-36.962929,-56.264076,-64.897842,-49.524193,-79.231911,-70.984383,-62.127571,-50.172729,-79.923306,-68.997974,-60.560417,-48.506413,-76.112938,-64.873867,-56.202164,-46.267891,-71.475105,-62.092495,-52.564888,-27.304396,-48.564106,-66.876005,-84.759264,-46.351681,-36.686908,-32.292995,-34.549356,-30.254398,-20.755857,-17.066023,-20.1407,-12.618913,-6.96591,-3.478987,-5.138128,5.066066,6.841112,8.340937,7.836251,7.033997,4.090691,-2.456589,-7.575245,-24.013138,-5.930786,-0.960503,-7.028332,-30.2005,-5.620251,-3.627262,-13.981876,-32.423801,-8.060646,-5.715466,-18.145466,-32.423286,-13.298721,-10.276051,-22.989922,-25.40344,-51.490766,-71.285849,-89.021833,-53.722982,-45.0439,-32.692057,-30.136609,-40.743231,-31.10606,-20.122144,-18.76487,-26.471321,-17.628199,-10.092148,-10.755347,-12.037872,-8.376196,-2.744806,-2.292175,-32.354193,100.871691,-171.725378,121.939573
68,1.355896,2.970812,-18.188496,2.409254,-12.218971,-36.06142,-55.010719,-63.614902,-47.973232,-78.095112,-70.873833,-62.236691,-48.704739,-80.655842,-70.808372,-61.490192,-47.215576,-76.898632,-65.880318,-56.205082,-45.201416,-71.434765,-62.221012,-52.20274,-27.763603,-49.175435,-67.293067,-84.701064,-47.437438,-39.200983,-34.3428,-35.636194,-31.892328,-23.546729,-19.367214,-21.639104,-14.304792,-9.425521,-5.603696,-7.042696,3.741272,5.186911,6.391693,5.619226,15.692539,15.523796,8.196545,2.430611,-8.468857,4.101906,8.905048,5.181026,-19.923306,-0.073986,3.156624,-3.030396,-25.441532,-5.99802,-0.498905,-6.765404,-27.675076,-9.756031,-5.641994,-14.472599,-20.529511,-46.862974,-68.416029,-84.026997,-55.152319,-54.957743,-43.29556,-39.391792,-46.074082,-41.219697,-29.766199,-27.385474,-34.357003,-30.076557,-19.651513,-18.775799,-22.636435,-18.590919,-10.936245,-10.666766,-30.833788,104.084349,-189.749365,124.590672
69,2.506657,3.671587,-2.796192,0.695618,-12.503014,-36.564331,-55.155888,-64.462051,-49.115124,-80.846157,-72.478409,-63.117828,-48.671894,-81.775475,-71.014824,-61.663914,-46.620026,-77.372303,-65.632324,-55.901356,-44.442844,-71.435623,-61.997166,-52.283592,-27.368369,-49.318665,-67.388132,-84.322411,-45.134364,-36.59666,-32.860605,-35.09492,-29.721369,-20.105378,-16.991398,-19.85884,-12.668653,-6.731629,-3.901792,-5.898276,4.613991,6.546933,7.467663,6.561846,19.579639,18.615875,12.471142,6.606617,-14.249325,14.433117,16.902809,8.965816,-27.607613,7.932472,9.75769,0.418911,-33.164463,-0.458965,4.64922,-4.233742,-34.773903,-8.278255,-3.439865,-14.094143,-22.93046,-50.193143,-69.449145,-87.181393,-58.99341,-49.426265,-32.728675,-30.091717,-43.646611,-35.081582,-24.051971,-23.745905,-25.704257,-19.268691,-10.872055,-10.84893,-7.72334,-5.444565,-0.891954,-1.786069,-27.878637,107.933545,-192.097063,125.4639
70,2.812328,4.428246,11.825352,3.183851,-12.693558,-37.899857,-57.570362,-66.543674,-49.385948,-81.702118,-72.720051,-63.112564,-48.725052,-81.799049,-70.601063,-61.030827,-46.628952,-77.39851,-65.667171,-55.846252,-44.435463,-71.921539,-62.644672,-52.638588,-27.73316,-49.8064,-67.652825,-85.169688,-44.856364,-36.483533,-32.921399,-35.076025,-29.094015,-19.285271,-16.567821,-19.163376,-11.9584,-5.981392,-3.530919,-5.160883,5.499121,6.975728,7.650722,7.051156,20.378151,13.309307,2.551632,-3.195934,-19.081364,2.399082,7.907009,1.562347,-33.231239,-3.507729,0.643158,-9.489098,-39.897881,-10.741138,-3.653355,-12.360535,-41.145573,-18.604889,-10.440388,-18.039379,-27.825816,-59.730803,-82.218759,-101.767643,-64.328893,-56.573443,-45.149647,-45.389424,-47.38316,-40.813595,-31.261084,-30.756954,-29.609168,-22.585707,-16.478036,-16.527868,-12.033457,-9.645044,-5.694716,-4.698867,-24.834623,112.083173,-180.040026,128.369134
71,2.028923,4.776549,7.717037,0.415642,-12.341366,-38.214283,-58.498936,-66.932659,-47.682667,-81.254997,-72.959232,-63.260422,-47.260265,-81.478157,-70.064678,-60.201015,-45.481052,-77.037449,-64.97263,-55.147476,-43.451271,-71.036682,-61.402988,-51.286011,-27.578074,-49.684783,-67.55563,-85.528273,-46.799124,-38.218935,-34.311894,-36.634729,-31.04079,-20.957472,-17.69069,-20.79513,-13.577403,-7.201426,-4.193223,-6.125857,4.058793,6.268686,7.387294,6.548786,19.328842,12.654533,1.45792,-4.467659,-22.483292,0.824203,6.585445,-0.889091,-35.943718,-5.599823,-0.486317,-10.854378,-41.961994,-13.104343,-5.484581,-14.193993,-42.945099,-23.654308,-15.417595,-22.558537,-28.333034,-60.348276,-82.808599,-103.179319,-63.941286,-54.496622,-45.159095,-46.830339,-46.752626,-40.244781,-31.357384,-30.962861,-28.887831,-22.306225,-16.621698,-16.828809,-10.811664,-8.95594,-5.011355,-3.435268,-22.429905,116.857298,-171.947193,128.782352
72,3.63596,-0.029918,2.650738,4.43652,-13.209229,-39.896965,-60.573063,-68.520012,-50.056,-83.50771,-75.418568,-65.6987,-49.722061,-83.293133,-72.016239,-62.481937,-47.457561,-79.027061,-67.523403,-57.703571,-44.618683,-72.604637,-64.286671,-54.786415,-26.709492,-47.240794,-64.254669,-82.953682,-44.67244,-35.656417,-32.203056,-34.559946,-28.308427,-19.202371,-16.247861,-18.987233,-10.767666,-5.371823,-3.008357,-4.402526,6.434053,8.148214,8.684547,8.448599,18.493767,12.666092,1.819668,-4.119358,-23.176403,-2.149944,6.197376,1.189728,-36.13266,-5.184116,1.839981,-8.137836,-41.646137,-12.071857,-4.208221,-12.738018,-43.067265,-20.24065,-11.801491,-18.897915,-28.154761,-60.616119,-83.568809,-103.478963,-63.021205,-60.679258,-51.587684,-50.345204,-47.871142,-44.609547,-34.986703,-33.659686,-31.374674,-27.417924,-20.865649,-20.733071,-14.870364,-12.525515,-7.991893,-7.08552,-18.770199,116.831069,-169.272709,133.222562
73,1.909847,3.814724,-2.507572,4.421824,-13.579559,-40.61245,-61.604748,-70.003624,-50.115681,-83.629532,-74.837952,-64.975834,-49.911118,-83.795872,-72.518578,-62.720146,-48.060093,-79.557266,-67.742958,-58.021603,-45.88932,-73.877106,-64.30727,-54.216499,-26.252447,-46.982091,-63.781414,-81.709195,-44.56342,-35.603744,-31.288285,-33.610379,-28.259767,-19.31062,-15.998451,-18.672337,-10.727189,-5.511904,-2.456987,-3.914853,6.615877,7.889974,8.780723,8.262761,20.474796,17.492065,9.901714,4.684296,-17.057419,12.789917,16.181946,7.303562,-30.470123,6.809921,9.714317,-0.943851,-36.097412,-0.83147,3.394661,-6.359138,-36.86039,-10.853634,-4.802284,-13.405437,-29.432068,-61.916181,-84.653022,-103.539509,-66.727835,-57.013353,-46.374714,-46.654875,-51.41611,-42.379987,-32.040992,-31.488851,-34.098053,-26.050338,-18.911527,-19.221051,-16.169778,-13.162378,-7.840388,-6.499354,-16.633387,120.928132,-171.553316,137.926724
74,3.468647,3.81528,4.390068,3.260916,-17.903652,-45.676975,-65.749397,-74.438152,-54.361897,-87.185783,-77.567768,-67.248516,-52.758923,-86.353226,-75.016937,-65.073338,-49.411869,-80.977879,-69.366531,-59.668465,-46.041641,-74.238911,-64.650307,-54.758377,-25.219671,-44.43254,-60.266272,-77.123239,-40.450873,-29.862252,-25.515795,-28.017335,-25.266293,-13.689356,-11.027203,-13.58012,-8.575033,-0.961361,1.38713,-0.061411,8.074885,10.874031,11.89032,11.686358,20.113449,18.376007,11.668682,6.084824,-16.17548,18.428936,22.824612,15.227737,-29.984951,12.431602,15.500278,5.670433,-35.914993,3.452969,8.882389,0.912266,-36.015987,-8.730068,-1.838379,-8.218746,-28.318399,-61.653587,-84.263254,-104.023231,-71.320275,-60.93506,-45.417212,-43.16749,-54.537933,-45.01179,-31.416911,-29.04548,-36.254964,-28.442116,-18.362041,-16.511474,-17.47478,-17.763926,-10.523258,-7.032446,-12.95723,124.735925,-166.955738,141.180152
75,4.68996,7.470657,5.0243,-0.753108,-21.371784,-50.125694,-70.817642,-80.895252,-57.970905,-91.24918,-81.211452,-70.802937,-54.429646,-88.309364,-77.320404,-66.556091,-49.105968,-80.850792,-69.555073,-59.383335,-43.443832,-72.231216,-63.800812,-54.842205,-25.691444,-43.955796,-57.65883,-74.018644,-35.82691,-22.930614,-19.150655,-22.488265,-20.24691,-7.176046,-5.473371,-7.996123,-3.489701,5.104413,6.607726,4.984926,12.772517,17.359832,18.225819,17.385581,19.371643,18.252354,13.710194,10.027828,-13.395424,23.938522,26.159363,17.297745,-25.715046,19.354134,19.554462,9.568863,-31.129932,11.854248,14.583435,5.819092,-31.722393,-1.11248,4.241467,-2.218266,-28.679083,-61.144301,-81.960118,-101.287564,-69.627109,-58.916068,-44.016713,-41.940633,-51.470759,-43.811609,-31.313727,-28.887306,-32.503719,-26.93096,-17.366871,-15.682505,-13.417099,-16.518637,-9.311283,-5.777739,-8.02494,131.6359,-161.68911,139.856362
76,4.770298,11.227275,2.121162,0.547973,-23.937664,-51.636658,-72.30257,-84.388447,-58.028984,-93.562946,-83.637829,-71.543026,-53.298798,-90.427494,-78.868103,-66.57938,-46.911449,-82.512417,-70.99577,-58.874702,-40.291271,-71.414223,-65.136051,-57.472687,-25.269102,-40.095314,-50.66115,-65.539757,-31.050639,-16.97843,-11.92277,-14.830658,-14.354871,-0.383655,2.657738,0.9144,3.684647,12.280798,13.807701,12.207377,20.757401,25.106853,25.29371,24.298355,20.548725,22.123833,22.042694,20.336494,-4.869576,31.474857,32.513237,23.561668,-16.337357,27.493916,27.112026,17.496758,-21.902103,20.673637,22.696552,14.236164,-22.906208,11.052475,15.574436,8.701115,-26.799617,-53.596085,-70.189254,-87.161509,-69.192633,-62.598708,-46.098504,-41.513135,-53.689235,-49.665208,-35.121072,-30.085573,-36.236192,-32.555002,-20.707846,-17.636504,-18.765919,-20.957905,-11.941295,-8.344457,-3.133163,142.086988,-159.446468,139.628148
77,2.484341,17.953006,6.07996,-5.222047,-25.523758,-51.79327,-71.091385,-85.13546,-52.482891,-86.453075,-85.188618,-76.625977,-48.361988,-86.263905,-80.787449,-70.862789,-43.143368,-78.978081,-74.750404,-65.747738,-37.90678,-66.29631,-65.524635,-61.452255,-24.202271,-38.568381,-47.831406,-56.804791,-22.227123,-17.620604,-16.322425,-18.890995,-5.186788,-0.050944,-0.267194,-2.035973,10.449466,13.35365,11.638162,9.639178,23.30442,28.869738,28.539558,26.577933,13.34753,17.258263,18.471622,17.755795,-3.196049,35.158024,36.17363,28.382549,-10.662689,34.48534,35.766392,27.6511,-11.963882,30.21944,31.120262,23.327923,-8.928795,23.384399,24.70705,17.816048,-16.141002,-32.961783,-39.883912,-47.07768,-55.968752,-55.375824,-41.176502,-36.451793,-50.588284,-50.299385,-34.283088,-28.177176,-41.623544,-39.17372,-25.533826,-22.535134,-31.001763,-30.329826,-20.107694,-18.271854,-0.684671,159.255594,-153.402357,133.621701
78,8.803997,26.691894,15.155754,-6.362392,-28.380518,-58.724155,-80.51362,-93.959512,-67.598447,-95.708427,-90.140848,-80.911502,-61.211071,-89.875688,-81.578178,-70.655365,-52.100401,-79.51169,-72.568645,-62.500505,-41.987485,-65.991554,-61.296444,-53.626356,-22.209339,-30.419303,-32.282761,-34.610535,-12.258816,-1.703972,-2.923821,-7.84644,4.973687,15.924999,12.641451,7.989175,20.821436,28.617827,24.154754,19.505041,33.593119,41.345482,37.897987,33.704393,24.8279,37.611179,43.101311,45.102596,11.413479,51.380596,47.404461,34.623585,1.374149,48.334408,42.603664,28.743153,-3.750629,37.511501,33.003044,21.727352,-6.066799,21.049461,19.49461,11.848068,-30.122005,-61.484268,-83.274475,-99.22791,-66.748027,-63.180613,-46.481449,-42.928269,-50.343289,-46.938186,-34.012436,-30.058742,-31.856019,-29.986618,-21.799779,-18.722478,-12.169586,-13.253923,-8.91219,-6.549527,8.149652,185.079462,-138.216276,126.391284
79,8.803997,26.691893,7.03228,-0.936568,-31.237278,-65.655041,-89.935856,-102.783566,-82.714005,-104.963779,-95.093079,-85.197029,-74.060154,-93.487473,-82.368908,-70.447941,-61.057434,-80.0453,-70.386887,-59.253273,-46.068192,-65.686798,-57.068253,-45.800457,-20.216406,-22.270224,-16.734115,-12.416279,-2.290508,14.21266,10.474784,3.198116,15.134161,31.900942,25.550097,18.014324,31.193406,43.882004,36.671347,29.370904,43.881819,53.821227,47.256417,40.830854,25.178375,40.68409,52.143803,56.408386,18.534107,58.035793,62.400341,57.040501,11.723442,57.225494,61.438122,54.860115,9.860229,53.313217,56.815567,49.11684,11.151237,42.205353,52.922287,54.664593,-28.462309,-58.057459,-81.674831,-102.370543,-76.610988,-78.432965,-60.656627,-50.230626,-63.503846,-61.193856,-47.900844,-41.752171,-45.40446,-45.574243,-34.193395,-27.680394,-26.494138,-31.284117,-28.838677,-26.35347,17.017136,210.568534,-131.12051,124.251894
80,10.595627,19.914014,36.985416,-42.05555,-30.298405,-60.57106,-84.201736,-101.692829,-70.709381,-103.47971,-101.230145,-92.123051,-63.309231,-97.121944,-96.262321,-89.603348,-52.572155,-85.220432,-86.37331,-80.396576,-40.082188,-64.460793,-70.014324,-70.331097,-13.516548,-16.267837,-14.721175,-12.434372,-3.612523,16.096727,20.512561,18.013768,12.277032,32.035311,36.943419,36.390012,26.95529,44.737371,48.263752,47.075056,38.845702,54.937551,61.492542,63.920013,1.676502,13.360119,28.681526,37.835712,30.671082,41.89127,36.115093,29.896145,36.464424,43.905201,36.324692,30.498505,39.66877,46.277046,38.473549,32.55415,40.230732,47.544651,40.267868,34.336853,-25.321961,-44.492685,-53.448162,-53.306969,-49.236629,-49.718375,-41.934489,-37.353226,-39.746425,-36.489245,-29.918939,-25.905008,-27.971053,-25.119388,-20.157866,-16.509899,-15.423184,-14.191449,-11.139342,-9.402859,28.084145,230.015206,-93.663712,81.729001
81,5.008221,25.050166,7.043071,-8.048582,-32.739916,-63.667088,-85.956545,-99.070473,-76.964064,-105.106201,-98.785114,-88.520708,-67.905779,-94.857473,-88.41548,-79.130201,-55.602837,-81.274681,-76.74222,-67.750711,-41.552525,-62.796879,-62.237406,-57.640142,-11.959974,-9.476836,-2.457666,4.313266,4.882883,29.302608,33.096677,29.596911,20.399434,45.202166,46.815921,42.879054,34.666249,55.889279,55.934511,51.025199,46.213854,62.802763,64.388976,62.224285,2.641317,14.322449,28.983657,37.279728,28.34991,38.982495,34.0358,28.75048,33.44033,41.378746,35.12698,30.187946,36.471197,44.422,37.439407,31.628643,37.281196,45.626295,39.199232,33.528133,-25.433952,-44.79808,-53.536499,-53.231361,-51.638142,-54.257764,-48.342171,-45.171392,-42.057196,-40.644285,-34.773248,-31.234431,-30.004645,-27.679934,-22.189974,-18.261531,-17.010268,-15.903045,-12.535682,-10.592553,33.429823,254.936375,-86.283183,73.551423
82,5.008221,25.050166,7.043071,-8.048581,-35.181427,-66.763115,-87.711353,-96.448116,-83.218746,-106.732693,-96.340084,-84.918365,-72.502327,-92.593002,-80.568638,-68.657055,-58.633518,-77.32893,-67.11113,-55.104847,-43.022861,-61.132965,-54.460487,-44.949188,-10.403401,-2.685834,9.805842,21.060904,13.378289,42.50849,45.680794,41.180053,28.521836,58.369021,56.688422,49.368096,42.377208,67.041187,63.605271,54.975342,53.582006,70.667974,67.28541,60.528557,3.606131,15.28478,29.285788,36.723744,26.028739,36.07372,31.956506,27.604816,30.416235,38.852291,33.929269,29.877387,33.273623,42.566953,36.405265,30.703135,34.33166,43.707939,38.130597,32.719413,-25.545944,-45.103476,-53.624837,-53.155754,-54.039654,-58.797153,-54.749853,-52.98956,-44.367967,-44.799326,-39.627557,-36.563856,-32.038237,-30.240481,-24.222082,-20.013163,-18.597352,-17.614641,-13.932023,-11.782248,38.610163,280.055192,-79.067993,65.571493
83,11.255264,12.253505,7.043071,-8.048581,-37.609634,-68.765659,-89.145527,-101.758518,-76.4114,-103.981361,-100.389004,-91.344624,-65.78373,-94.925594,-90.242672,-82.504406,-53.139439,-82.307281,-78.438377,-70.080528,-39.300728,-65.355377,-65.59124,-59.879265,-11.796737,-3.426222,9.272257,19.251679,8.923676,37.147936,41.046425,36.064402,24.897087,52.753994,52.495198,46.352947,38.087098,61.661306,58.210755,50.443356,47.9282,64.414016,61.193362,54.345735,4.570946,16.24711,29.587919,36.16776,23.707567,33.164945,29.877212,26.459151,27.392141,36.325837,32.731557,29.566828,30.07605,40.711906,35.371123,29.777628,31.382124,41.789583,37.061961,31.910692,-25.657936,-45.408872,-53.713175,-53.080146,-56.441167,-63.336543,-61.157536,-60.807727,-46.678739,-48.954368,-44.481866,-41.89328,-34.071829,-32.801027,-26.254191,-21.764796,-20.184436,-19.326238,-15.328363,-12.971942,50.100489,293.26393,-71.78986,58.478145
84,6.041107,5.838007,7.043071,-8.048582,-35.622826,-66.437759,-86.149178,-100.54081,-75.60379,-102.467194,-96.705551,-87.577572,-65.564175,-89.940605,-83.698711,-77.357597,-51.77845,-72.869797,-67.437458,-60.385723,-36.859589,-53.001595,-49.033699,-42.919235,-10.410008,-0.534573,13.81721,25.329278,12.795179,41.204136,45.581993,41.019872,28.920497,54.943479,53.676175,47.441298,41.66183,60.536214,57.188477,50.205246,50.976941,59.365117,55.039933,50.147077,5.53576,17.209441,29.89005,35.611776,21.386396,30.25617,27.797918,25.313487,24.368046,33.799382,31.533845,29.256269,26.878476,38.856859,34.336981,28.852121,28.432587,39.871226,35.993325,31.101972,-25.769927,-45.714268,-53.801512,-53.004538,-58.842679,-67.875931,-67.565218,-68.625893,-48.989509,-53.109408,-49.336174,-47.222703,-36.10542,-35.361573,-28.286298,-23.516427,-21.771519,-21.037833,-16.724703,-14.161636,56.413393,300.366524,-64.474992,51.694149
85,4.845085,3.185642,7.043072,-8.048581,-34.929771,-66.448746,-87.310123,-102.114944,-74.052086,-100.658798,-96.659775,-89.207382,-63.678646,-89.253445,-85.58979,-79.982872,-50.280075,-71.903515,-68.90379,-63.226376,-36.611938,-52.336464,-49.358025,-44.097977,-9.132454,0.837953,15.187884,25.674278,15.263837,43.063255,44.09881,38.648842,31.427069,56.78642,52.764122,45.791574,43.854031,60.8617,55.415128,48.77239,52.960179,59.091933,53.291347,48.919541,6.500574,18.17177,30.192179,35.055791,19.065224,27.347394,25.718623,24.167821,21.343951,31.272926,30.336133,28.945709,23.680902,37.001811,33.302838,27.926613,25.48305,37.952869,34.924688,30.293251,-25.881919,-46.019664,-53.88985,-52.92893,-61.244192,-72.41532,-73.9729,-76.444061,-51.300281,-57.264449,-54.190484,-52.552127,-38.139013,-37.92212,-30.318406,-25.26806,-23.358603,-22.74943,-18.121044,-15.351331,61.266975,304.208665,-57.423423,44.302068
86,3.777122,2.462668,7.043071,-8.048582,-34.233284,-65.494995,-86.674633,-101.327991,-72.657108,-98.436241,-98.005714,-92.4753,-62.850266,-88.079453,-86.198101,-80.822525,-49.515495,-67.324734,-63.718872,-57.958145,-36.384659,-49.656029,-45.989113,-40.584869,-8.386076,2.038072,16.498537,27.493939,13.915455,38.239684,41.146337,37.335164,30.19873,54.108737,50.532894,44.367486,42.869112,56.300012,49.587866,43.617465,52.084249,56.34052,49.371245,44.366066,7.465388,19.1341,30.49431,34.499806,16.744052,24.438619,23.63933,23.022156,18.319857,28.746471,29.138421,28.63515,20.483328,35.146764,32.268697,27.001106,22.533514,36.034513,33.856053,29.484531,-25.99391,-46.325059,-53.978187,-52.853321,-63.645704,-76.954709,-80.380582,-84.262227,-53.611052,-61.419489,-59.044792,-57.88155,-40.172604,-40.482665,-32.350514,-27.019692,-24.945686,-24.461025,-19.517383,-16.541024,64.709415,307.694661,-50.715034,37.276814
87,-0.456047,-1.461076,7.043071,-8.048581,-31.618538,-61.68663,-82.957706,-97.677097,-69.924316,-93.529415,-93.544922,-88.917274,-59.14341,-81.312847,-79.087429,-73.606853,-44.798012,-56.616669,-52.109756,-47.162704,-30.604362,-38.54393,-34.333878,-29.764938,-5.950825,4.514449,17.816044,27.077988,17.372058,42.573019,48.796719,46.847074,32.19154,56.478841,55.48009,49.924097,43.703669,58.358894,52.666679,45.577115,52.216395,58.993503,52.491802,46.284404,8.430202,20.096431,30.796441,33.943822,14.422881,21.529844,21.560036,21.876492,15.295762,26.220016,27.940709,28.324591,17.285755,33.291718,31.234555,26.075598,19.583978,34.116157,32.787417,28.675811,-26.105902,-46.630455,-54.066525,-52.777714,-66.047217,-81.494098,-86.788264,-92.080395,-55.921823,-65.574531,-63.899101,-63.210975,-42.206196,-43.043212,-34.382622,-28.771324,-26.53277,-26.172622,-20.913724,-17.730719,64.34123,307.045788,-43.584101,30.040436
88,0.534668,-1.305157,7.043071,-8.048581,-31.11248,-60.46669,-81.615372,-97.801552,-66.90897,-89.675903,-93.202114,-91.49437,-55.741653,-77.60107,-77.955837,-73.86961,-41.244965,-53.461304,-49.303093,-44.676132,-27.098007,-36.073952,-32.380028,-27.867966,-4.634307,6.163926,19.350109,25.752577,19.661208,42.486321,49.894271,50.230996,34.651058,57.249857,56.591659,52.381207,45.797996,59.396054,53.207181,46.661452,53.696182,60.817116,54.202844,48.247079,9.395017,21.058761,31.098572,33.387838,12.101709,18.621069,19.480742,20.730827,12.271668,23.693561,26.742998,28.014032,14.088182,31.436671,30.200413,25.150091,16.634442,32.197801,31.718781,27.86709,-26.217894,-46.935851,-54.154863,-52.702106,-68.44873,-86.033488,-93.195947,-99.898562,-58.232595,-69.729572,-68.75341,-68.540399,-44.239788,-45.603759,-36.414731,-30.522957,-28.119854,-27.884218,-22.310065,-18.920414,65.049105,306.007702,-36.367824,22.258925
89,-0.158844,1.20685,7.043071,-8.048582,-29.279137,-57.322197,-78.978882,-96.366119,-64.657288,-87.469826,-89.317474,-85.439415,-53.995056,-74.78302,-70.958633,-65.136337,-39.693604,-50.445786,-44.269066,-39.728737,-25.401077,-33.210983,-27.832375,-23.007889,-4.556254,5.412547,18.320483,23.999977,18.303748,40.582124,49.207483,50.72395,32.737228,54.375313,53.064229,48.737501,43.875767,57.661608,51.306874,44.996846,52.363917,59.007212,51.743881,46.10434,10.359831,22.021092,31.400703,32.831854,9.780538,15.712294,17.401448,19.585163,9.247573,21.167106,25.545286,27.703474,10.890608,29.581624,29.166271,24.224584,13.684905,30.279444,30.650145,27.05837,-26.329885,-47.241246,-54.2432,-52.626498,-70.850242,-90.572876,-99.603629,-107.716728,-60.543366,-73.884612,-73.607719,-73.869822,-46.273379,-48.164304,-38.446838,-32.274588,-29.706937,-29.595814,-23.706404,-20.110108,64.904251,308.116139,-29.310763,15.11193
90,1.230698,0.414592,7.043071,-8.048581,-28.515358,-56.026955,-77.389927,-95.51405,-62.517586,-84.947891,-89.189186,-87.74437,-52.285767,-73.175297,-71.616669,-67.132301,-38.158722,-50.133362,-44.883385,-40.568275,-23.815613,-33.042183,-28.185997,-23.482819,-4.935216,4.953803,17.819131,23.118984,18.656714,39.128828,49.538465,54.263483,32.532711,52.256286,51.764938,48.813824,43.395658,57.087453,50.547282,44.542178,51.638597,58.980289,51.795752,46.209501,11.324646,22.983422,31.702834,32.27587,7.459367,12.803519,15.322154,18.439498,6.223479,18.640652,24.347574,27.392915,7.693035,27.726577,28.132129,23.299077,10.735369,28.361088,29.58151,26.24965,-26.441877,-47.546642,-54.331538,-52.55089,-73.251755,-95.112266,-106.011311,-115.534896,-62.854137,-78.039653,-78.462028,-79.199246,-48.306972,-50.724851,-40.478946,-34.026221,-31.294021,-31.30741,-25.102745,-21.299802,65.987434,308.558874,-22.415206,7.091492
91,-0.15049,1.181594,7.043071,-8.048582,-27.680397,-54.490242,-75.895157,-92.174778,-61.036835,-82.709713,-87.336388,-86.698952,-51.204987,-70.997829,-72.049828,-69.762154,-37.373657,-48.742561,-43.958244,-39.824066,-23.238831,-31.51165,-27.41066,-23.167076,-3.930475,6.014058,18.275714,25.316866,18.866665,37.362149,46.210674,49.300973,32.598722,51.86306,51.675462,48.876995,43.158536,56.206892,49.511542,43.42573,50.880302,58.534142,51.5992,45.700307,12.28946,23.945752,32.004964,31.719885,5.138195,9.894743,13.242861,17.293834,3.199384,16.114197,23.149863,27.082356,4.495461,25.87153,27.097987,22.37357,7.785833,26.442732,28.512874,25.44093,-26.553868,-47.852038,-54.419875,-52.475282,-75.653267,-99.651654,-112.418993,-123.353062,-65.164908,-82.194694,-83.316336,-84.528669,-50.340563,-53.285396,-42.511054,-35.777852,-32.881104,-33.019006,-26.499085,-22.489496,65.40061,310.282621,-15.80847,-0.414937
92,2.252655,3.060968,7.043071,-8.048581,-27.671585,-54.607201,-76.352806,-92.824402,-59.682655,-82.455139,-87.287121,-86.63641,-50.322189,-69.496479,-68.68681,-65.364761,-37.431908,-49.617119,-45.223503,-41.02787,-24.212379,-33.170013,-29.089394,-24.322014,-6.319414,2.719365,15.537021,22.842033,16.717813,34.157426,41.854985,44.845928,31.151663,47.513855,44.507289,40.686235,41.998246,52.44833,45.598233,40.316288,49.822455,56.360774,49.748725,44.544956,13.254275,24.908083,32.307095,31.163901,2.817024,6.985968,11.163567,16.148169,0.17529,13.587742,21.952151,26.771797,1.297888,24.016484,26.063845,21.448062,4.836297,24.524376,27.444238,24.632209,-26.66586,-48.157434,-54.508213,-52.399674,-78.05478,-104.191043,-118.826676,-131.17123,-67.47568,-86.349735,-88.170645,-89.858093,-52.374155,-55.845943,-44.543162,-37.529485,-34.468188,-34.730602,-27.895425,-23.679191,67.092905,313.615075,-9.325758,-8.192032
93,0.959816,1.395436,7.043071,-8.048581,-27.916489,-55.398674,-77.481766,-94.465256,-59.166069,-80.049534,-85.755672,-87.290955,-49.499359,-66.314964,-65.93811,-63.415604,-36.792984,-46.975479,-42.252159,-37.956276,-23.628273,-31.666946,-27.203178,-21.888657,-5.87339,3.233499,16.198059,22.579841,17.550702,33.836015,41.744946,45.890745,31.023654,45.705123,42.387088,38.010898,41.054391,50.74723,44.085472,38.337249,48.131914,56.006018,49.853763,44.255285,14.219089,25.870413,32.609226,30.607917,0.495852,4.077193,9.084273,15.002504,-2.848805,11.061287,20.75444,26.461238,-1.899685,22.161437,25.029703,20.522555,1.886761,22.60602,26.375602,23.823489,-26.777852,-48.46283,-54.596551,-52.324067,-80.456293,-108.730433,-125.234358,-138.989397,-69.786451,-90.504776,-93.024955,-95.187518,-54.407747,-58.40649,-46.57527,-39.281117,-36.055272,-36.442199,-29.291766,-24.868885,67.877226,314.7408,-2.458183,-16.510323
94,2.153091,2.54529,7.043071,-8.048582,-27.820473,-55.494576,-78.052197,-94.91003,-57.152023,-79.36655,-86.439285,-89.337845,-47.995949,-65.673637,-65.201454,-62.809296,-36.213341,-47.681007,-42.769318,-38.468971,-24.121857,-33.534622,-28.901711,-23.69751,-6.46428,1.433474,13.911195,19.933527,13.64505,29.372016,38.654832,44.653884,27.285161,42.487,39.57411,35.332412,37.937477,48.372062,42.316322,36.5928,45.622069,53.576448,47.778579,42.737213,15.183903,26.832743,32.911357,30.051933,-1.825319,1.168418,7.004979,13.85684,-5.872899,8.534832,19.556728,26.150679,-5.097259,20.30639,23.995561,19.597048,-1.062776,20.687663,25.306967,23.014769,-26.889843,-48.768225,-54.684888,-52.248458,-82.857805,-113.269821,-131.64204,-146.807563,-72.097222,-94.659816,-97.879263,-100.516941,-56.441338,-60.967035,-48.607378,-41.032749,-37.642355,-38.153794,-30.688106,-26.058579,69.286022,317.034766,3.840593,-24.81023
95,0.206566,2.119768,7.043071,-8.048581,-28.271942,-55.939865,-79.238892,-96.946621,-56.255951,-78.110905,-87.293587,-92.566795,-47.311821,-65.528641,-67.236099,-65.973129,-35.890045,-48.333549,-44.204178,-39.518166,-24.215584,-34.362259,-30.160904,-24.763756,-6.377644,0.980658,12.377808,18.454543,13.252688,26.096959,34.725468,41.648862,26.203973,38.284453,36.136526,33.327377,36.279911,44.951892,39.568799,34.640376,43.488777,49.732423,44.257323,39.761214,16.148718,27.795074,33.213488,29.495949,-4.14649,-1.740357,4.925685,12.711175,-8.896993,6.008377,18.359016,25.84012,-8.294832,18.451343,22.961419,18.671541,-4.012312,18.769307,24.238331,22.206049,-27.001835,-49.073621,-54.773226,-52.172851,-85.259318,-117.809211,-138.049722,-154.625731,-74.407993,-98.814857,-102.733572,-105.846365,-58.474931,-63.527582,-50.639486,-42.784382,-39.229439,-39.865391,-32.084446,-27.248274,68.633852,319.00516,10.024928,-33.008185
96,-0.457993,0.944164,7.043071,-8.048582,-27.853546,-54.442863,-76.756382,-92.933292,-55.213852,-76.980286,-87.39418,-94.903336,-46.955566,-64.956665,-67.074966,-66.372986,-36.062508,-48.198166,-44.266548,-39.728851,-24.882202,-34.57283,-30.490494,-25.444565,-6.132804,1.214075,12.55812,18.995538,10.896231,21.784557,29.098338,35.260659,24.238766,35.704953,34.404921,32.533513,34.975557,43.138035,37.467124,32.498377,42.966245,49.029333,43.866443,39.411151,17.113532,28.757404,33.515619,28.939964,-6.467662,-4.649132,2.846392,11.565511,-11.921088,3.481922,17.161305,25.529561,-11.492406,16.596296,21.927277,17.746034,-6.961848,16.850951,23.169695,21.397328,-27.113826,-49.379016,-54.861563,-52.097242,-87.66083,-122.348599,-144.457404,-162.443897,-76.718764,-102.969898,-107.58788,-111.175788,-60.508522,-66.088127,-52.671594,-44.536013,-40.816522,-41.576986,-33.480786,-28.437968,66.891775,319.663049,15.783915,-41.343042
97,-2.097359,2.901837,7.043071,-8.048581,-27.266006,-55.311928,-79.044857,-97.190952,-53.005371,-73.748531,-84.214153,-90.953064,-43.988342,-62.592888,-66.298485,-65.886726,-32.815819,-47.784348,-46.150017,-41.687393,-21.950111,-34.068489,-31.387482,-26.217499,-7.676626,-1.317877,9.124179,13.982949,11.939442,23.105954,29.51009,34.502363,24.81218,33.182016,30.475681,27.383652,34.605672,39.599922,33.843981,28.828303,41.688938,45.245453,39.679086,35.425903,18.078346,29.719734,33.817749,28.38398,-8.788834,-7.557907,0.767097,10.419846,-14.945183,0.955467,15.963593,25.219002,-14.68998,14.741249,20.893135,16.820526,-9.911385,14.932594,22.101059,20.588608,-27.225818,-49.684412,-54.949901,-52.021635,-90.062343,-126.887988,-150.865087,-170.262064,-79.029536,-107.124939,-112.44219,-116.505212,-62.542114,-68.648674,-54.703702,-46.287646,-42.403607,-43.288583,-34.877127,-29.627662,63.655071,322.863743,21.687641,-49.092766
98,-1.737099,2.125202,-0.121536,-3.721944,-26.763496,-55.047226,-78.478088,-96.571827,-51.004028,-72.507191,-82.968521,-88.975925,-41.717949,-62.212715,-65.304108,-64.100418,-30.74913,-48.707657,-47.256088,-42.444305,-20.52578,-35.527496,-33.588524,-28.632774,-9.508575,-3.634012,7.281115,12.189717,10.278727,21.474138,27.344256,31.993876,24.183314,31.83456,27.068355,22.940155,34.432338,38.208006,31.162839,25.928504,41.426622,43.734235,37.395247,33.204987,13.264618,23.526993,35.853996,45.777969,-9.883232,-5.997505,3.919945,15.550804,-14.912567,7.317924,22.954788,32.80014,-13.625793,17.922478,28.017883,30.581589,-8.309441,18.146553,26.282501,26.343384,-27.961544,-53.218635,-67.836533,-78.29855,-86.607654,-123.904548,-148.174729,-169.489767,-74.539108,-96.941262,-94.170305,-92.430363,-55.480337,-60.804674,-48.227905,-38.509749,-32.935014,-30.664081,-22.269669,-15.450787,60.374365,325.317457,20.022497,-52.486198
99,2.23732,1.42168,3.8927,8.148168,-26.711426,-54.838257,-77.821426,-95.098858,-50.57682,-72.784824,-84.524574,-92.63546,-42.161522,-62.761803,-65.920486,-65.399323,-31.577568,-49.116669,-46.940117,-42.102928,-21.646271,-36.231194,-33.351517,-28.388214,-9.934962,-4.733416,6.322254,10.838,3.738061,15.025542,22.372113,28.424888,18.291707,28.107861,25.450556,22.318266,30.069981,36.961944,30.797771,25.170085,38.784569,42.786366,37.152938,32.99201,14.395867,24.217499,35.530213,44.186776,-9.106521,-5.971756,3.266289,14.23996,-14.392112,5.791512,20.596131,29.995507,-13.414367,16.132698,25.817231,28.395661,-8.214012,17.275765,25.453209,25.731751,-28.102843,-53.932828,-68.784214,-79.678448,-88.375923,-125.753711,-149.855459,-170.627806,-76.67286,-100.648439,-99.641547,-98.84671,-58.007174,-65.386128,-54.883202,-46.40163,-35.752134,-35.05102,-27.340639,-20.767806,60.450554,327.148511,21.754066,-43.928656
100,0.688591,-0.509317,3.892701,8.148169,-25.086594,-51.3937,-72.524529,-87.925129,-49.777222,-72.130737,-83.676281,-92.208195,-42.506905,-63.869019,-72.371349,-77.275028,-32.747726,-50.133591,-48.841209,-45.070496,-23.273506,-37.483635,-34.910545,-29.817009,-10.331153,-5.568343,5.272868,11.780929,1.846584,13.833698,21.199904,27.696418,16.298898,28.086557,29.728439,30.510138,28.450761,37.220493,31.689817,26.65543,37.585932,43.607894,38.55566,34.326684,15.527114,24.908004,35.206428,42.595581,-8.329812,-5.946007,2.612632,12.929115,-13.871659,4.265098,18.237472,27.190872,-13.202942,14.342918,23.616577,26.209732,-8.118584,16.404975,24.623916,25.120117,-28.244143,-54.647021,-69.731896,-81.058347,-90.144193,-127.602875,-151.536189,-171.765845,-78.806613,-104.355617,-105.112791,-105.263058,-60.534011,-69.967583,-61.538499,-54.293513,-38.569254,-39.437959,-32.41161,-26.084825,59.016867,326.675858,23.524489,-35.743822
101,0.851212,-0.659618,3.8927,8.148168,-25.038071,-50.325394,-70.039787,-84.371681,-50.006561,-70.696106,-82.287312,-92.093525,-42.68486,-59.953308,-62.298431,-62.68856,-32.572403,-46.640167,-43.450012,-39.158478,-22.06707,-34.311562,-30.579185,-25.348434,-9.031986,-3.182925,7.818405,14.841218,3.929055,14.155047,20.826191,26.819562,17.455668,29.717015,29.502,28.334115,28.819226,38.9931,33.475886,28.072478,37.341153,44.956276,40.6448,36.207478,16.658363,25.59851,34.882644,41.004387,-7.553101,-5.920258,1.958976,11.618271,-13.351204,2.738685,15.878814,24.386238,-12.991516,12.553138,21.415924,24.023803,-8.023155,15.534187,23.794624,24.508484,-28.385441,-55.361214,-70.679577,-82.438245,-91.912462,-129.452038,-153.216919,-172.903882,-80.940365,-108.062794,-110.584033,-111.679405,-63.060848,-74.549037,-68.193795,-62.185394,-41.386373,-43.824897,-37.48258,-31.401844,57.025967,325.936381,24.575077,-27.675513
102,2.185478,2.641374,3.8927,8.148169,-21.273308,-44.151993,-61.705627,-73.085518,-47.695427,-71.293373,-84.33506,-94.955978,-42.062531,-62.985764,-65.806274,-65.570641,-33.743706,-50.727081,-47.558212,-42.615395,-25.22747,-38.769379,-35.438004,-30.2948,-11.335029,-6.877699,4.135116,12.372189,1.491643,10.728887,16.826432,22.896806,15.925678,26.2388,24.676391,22.830486,27.846657,36.181913,30.252515,25.175581,36.548649,41.350793,36.50567,32.902843,17.789612,26.289017,34.558861,39.413193,-6.77639,-5.894508,1.305321,10.307426,-12.83075,1.212273,13.520157,21.581604,-12.78009,10.763359,19.215271,21.837875,-7.927727,14.663399,22.965332,23.896851,-28.526741,-56.075407,-71.627259,-83.818143,-93.680732,-131.301202,-154.897649,-174.041921,-83.074118,-111.769973,-116.055276,-118.095753,-65.587685,-79.130491,-74.849093,-70.077276,-44.203493,-48.211836,-42.553551,-36.718864,55.687466,328.486519,24.943798,-19.61858
103,1.081924,0.144372,3.8927,8.148169,-20.81131,-42.472687,-57.093201,-66.66378,-48.285599,-70.527763,-83.540668,-94.312878,-43.567657,-63.319588,-71.878052,-77.384491,-35.525208,-50.638275,-47.227592,-42.839241,-26.516876,-38.387489,-34.436531,-29.394493,-9.938976,-4.580831,6.868869,15.622175,1.001839,8.909164,14.364257,19.901046,14.392601,24.158861,27.028341,29.236041,26.149138,35.263561,30.470988,25.658284,35.446465,40.727793,36.712534,33.028319,18.92086,26.979523,34.235077,37.821999,-5.999679,-5.868759,0.651665,8.996582,-12.310295,-0.31414,11.161499,18.77697,-12.568664,8.97358,17.014618,19.651947,-7.832298,13.79261,22.13604,23.285217,-28.668041,-56.7896,-72.574941,-85.198042,-95.449002,-133.150366,-156.578379,-175.17996,-85.207871,-115.477151,-121.52652,-124.512101,-68.114523,-83.711946,-81.50439,-77.969158,-47.020613,-52.598775,-47.624522,-42.035883,54.146175,328.611672,26.213283,-11.489631
104,0.956383,1.535424,3.8927,8.148168,-20.129128,-40.476952,-53.651047,-61.410713,-48.590584,-70.751038,-83.605957,-93.868046,-43.958931,-64.266243,-74.480152,-81.740284,-35.700645,-51.763916,-48.250923,-43.572121,-26.362381,-38.747978,-35.40905,-30.57415,-10.218273,-5.112625,6.275386,15.418399,-0.072865,7.720531,13.026249,18.174443,12.861005,22.375509,26.514824,29.586413,24.227465,33.049809,28.546968,23.671341,33.386286,38.607099,34.787897,31.093432,20.052109,27.670029,33.911293,36.230805,-5.222969,-5.84301,-0.001991,7.685738,-11.78984,-1.840553,8.802842,15.972336,-12.357238,7.1838,14.813965,17.466019,-7.736869,12.921822,21.306748,22.673584,-28.80934,-57.503793,-73.522621,-86.57794,-97.21727,-134.999529,-158.259109,-176.317998,-87.341623,-119.184328,-126.997762,-130.928447,-70.64136,-88.2934,-88.159686,-85.861039,-49.837732,-56.985713,-52.695492,-47.352902,51.782799,329.725881,26.786224,-3.762678
105,-0.884514,1.912287,3.892701,8.148169,-20.543518,-42.305031,-57.935715,-69.14566,-48.525238,-70.441132,-82.303219,-91.785049,-43.107147,-63.59024,-72.232018,-77.897186,-34.707527,-52.435226,-51.44268,-48.31707,-25.682487,-38.710327,-37.22168,-33.530846,-11.082717,-6.221354,4.439793,12.245909,0.053476,9.434228,14.574332,19.304908,12.65303,23.15696,25.568623,27.323693,23.648308,33.086859,28.413526,23.71611,32.166716,38.035907,34.634509,31.231382,21.183357,28.360534,33.587509,34.63961,-4.446259,-5.817261,-0.655648,6.374893,-11.269387,-3.366967,6.444183,13.167701,-12.145813,5.39402,12.613311,15.28009,-7.641442,12.051033,20.477455,22.06195,-28.950639,-58.217986,-74.470303,-87.957839,-98.98554,-136.848692,-159.939839,-177.456037,-89.475376,-122.891506,-132.469005,-137.344795,-73.168197,-92.874855,-94.814983,-93.752921,-52.654852,-61.372652,-57.766463,-52.669922,47.63526,331.732954,27.4159,4.480278
106,13.497276,-2.584872,3.8927,8.148168,-34.694366,-64.512634,-83.123932,-92.058277,-79.190025,-112.632179,-114.621849,-109.17675,-69.679756,-103.871841,-105.579128,-100.384026,-58.00621,-86.066437,-87.705746,-81.935234,-46.228294,-69.260902,-72.880554,-70.236282,-7.194293,-0.201368,8.907929,17.29981,12.578188,26.890884,26.341429,22.803007,23.317203,36.293372,33.72295,29.338732,32.468675,41.133061,37.598714,32.940572,39.292528,44.341736,40.640601,36.374204,22.314605,29.05104,33.263725,33.048416,-3.669548,-5.791512,-1.309304,5.064048,-10.748932,-4.893379,4.085525,10.363067,-11.934387,3.60424,10.412658,13.094162,-7.546013,11.180244,19.648163,21.450317,-29.091938,-58.932178,-75.417984,-89.337736,-100.753809,-138.697855,-161.620568,-178.594075,-91.609128,-126.598683,-137.940248,-143.761142,-75.695034,-97.456309,-101.470279,-101.644803,-55.471971,-65.75959,-62.837433,-57.98694,58.85519,329.256716,29.031254,12.73708
107,2.168083,-1.474723,3.8927,8.148169,-36.17157,-68.318825,-88.976269,-101.814995,-79.152718,-107.191257,-109.657001,-105.440884,-67.974014,-94.083252,-95.175076,-90.759258,-54.219704,-73.096848,-71.439857,-64.416389,-41.117363,-57.271156,-57.370949,-52.418518,-7.14477,1.126019,12.246342,19.091498,16.618765,32.766559,30.580533,25.669276,28.141824,40.707292,34.78271,27.803185,36.762861,43.349777,36.36278,29.185962,42.768459,45.864625,39.659264,33.679107,23.445854,29.741547,32.939941,31.457222,-2.892838,-5.765762,-1.962959,3.753204,-10.228478,-6.419792,1.726868,7.558433,-11.722962,1.814461,8.212006,10.908234,-7.450585,10.309456,18.81887,20.838684,-29.233238,-59.646372,-76.365666,-90.717635,-102.522079,-140.547019,-163.301299,-179.732114,-93.742881,-130.305861,-143.411491,-150.17749,-78.221871,-102.037764,-108.125577,-109.536685,-58.289092,-70.146529,-67.908404,-63.30396,59.453058,328.135669,31.353739,21.238925
108,1.699677,-0.190315,3.8927,8.148169,-35.223198,-66.657257,-87.826653,-101.832905,-77.383804,-103.128605,-106.594505,-104.2519,-65.911217,-87.15889,-87.685661,-83.788147,-51.515121,-65.505066,-62.84626,-56.201248,-38.027,-50.667915,-49.824944,-44.391289,-8.094923,-0.687591,11.622292,20.543312,15.652124,30.112218,30.028052,26.886438,27.756378,38.145761,33.138976,26.816475,36.168822,40.694571,34.37349,27.986645,42.040792,44.227189,38.073946,32.504552,24.577103,30.432053,32.616158,29.866028,-2.116127,-5.740013,-2.616615,2.44236,-9.708023,-7.946205,-0.63179,4.7538,-11.511536,0.024681,6.011353,8.722305,-7.355156,9.438667,17.989578,20.227051,-29.374538,-60.360565,-77.313348,-92.097534,-104.290348,-142.396183,-164.982029,-180.870153,-95.876634,-134.01304,-148.882734,-156.593838,-80.748709,-106.619219,-114.780874,-117.428567,-61.106212,-74.533468,-72.979375,-68.620979,59.989071,327.713882,34.082775,29.155622
109,-1.32328,1.451876,3.8927,8.148168,-36.789207,-67.266769,-88.468666,-102.879868,-76.695671,-99.586201,-105.522995,-106.511021,-63.84716,-80.80513,-80.267372,-76.632156,-48.707886,-59.97139,-56.675835,-50.664253,-34.969025,-45.360146,-44.090652,-39.128838,-7.762706,-0.295537,11.261793,19.137194,18.173579,31.536059,32.359809,30.304076,29.535531,37.408214,30.811171,24.292859,36.157089,39.437024,31.8014,24.914377,39.918863,41.975584,34.886451,29.165893,25.708351,31.122559,32.292374,28.274834,-1.339416,-5.714264,-3.270271,1.131516,-9.187568,-9.472618,-2.990448,1.949166,-11.30011,-1.765098,3.8107,6.536377,-7.259727,8.567879,17.160286,19.615418,-29.515836,-61.074757,-78.261029,-93.477432,-106.058617,-144.245346,-166.662758,-182.008191,-98.010386,-137.720217,-154.353977,-163.010184,-83.275545,-111.200673,-121.43617,-125.320448,-63.923331,-78.920406,-78.050345,-73.937998,57.219114,328.497356,36.528799,36.635388
110,-0.376968,-0.279544,3.8927,8.148169,-36.38855,-67.157249,-89.225693,-104.625778,-73.317833,-96.581841,-102.414265,-102.297535,-59.880867,-75.188484,-72.446022,-66.577492,-44.765739,-55.778961,-52.580681,-46.265602,-31.513252,-41.982536,-40.8078,-35.777435,-7.183055,-0.158328,11.072281,19.05803,18.207171,30.293023,30.910465,28.506275,29.854225,36.382663,30.429553,24.96915,36.532223,39.552003,32.235197,25.882315,40.308075,42.53319,35.7433,30.098324,26.8396,31.813065,31.96859,26.68364,-0.562706,-5.688514,-3.923927,-0.179328,-8.667114,-10.999031,-5.349105,-0.855468,-11.088684,-3.554878,1.610047,4.350449,-7.164299,7.697091,16.330994,19.003785,-29.657136,-61.788951,-79.208711,-94.857331,-107.826887,-146.09451,-168.343489,-183.14623,-100.144139,-141.427395,-159.82522,-169.426532,-85.802383,-115.782128,-128.091467,-133.21233,-66.740451,-83.307345,-83.121316,-79.255018,55.044794,327.343318,38.624147,43.909063
