YashyHoby/handMotion-similar-search/project/data/handData/tgt/d4_feature_d2/1.csv
,vel_0x_L,vel_0y_L,vel_0x_R,vel_0y_R,posFromWrist_1x_L,posFromWrist_2x_L,posFromWrist_3x_L,posFromWrist_4x_L,posFromWrist_5x_L,posFromWrist_6x_L,posFromWrist_7x_L,posFromWrist_8x_L,posFromWrist_9x_L,posFromWrist_10x_L,posFromWrist_11x_L,posFromWrist_12x_L,posFromWrist_13x_L,posFromWrist_14x_L,posFromWrist_15x_L,posFromWrist_16x_L,posFromWrist_17x_L,posFromWrist_18x_L,posFromWrist_19x_L,posFromWrist_20x_L,posFromWrist_1y_L,posFromWrist_2y_L,posFromWrist_3y_L,posFromWrist_4y_L,posFromWrist_5y_L,posFromWrist_6y_L,posFromWrist_7y_L,posFromWrist_8y_L,posFromWrist_9y_L,posFromWrist_10y_L,posFromWrist_11y_L,posFromWrist_12y_L,posFromWrist_13y_L,posFromWrist_14y_L,posFromWrist_15y_L,posFromWrist_16y_L,posFromWrist_17y_L,posFromWrist_18y_L,posFromWrist_19y_L,posFromWrist_20y_L,posFromWrist_1x_R,posFromWrist_2x_R,posFromWrist_3x_R,posFromWrist_4x_R,posFromWrist_5x_R,posFromWrist_6x_R,posFromWrist_7x_R,posFromWrist_8x_R,posFromWrist_9x_R,posFromWrist_10x_R,posFromWrist_11x_R,posFromWrist_12x_R,posFromWrist_13x_R,posFromWrist_14x_R,posFromWrist_15x_R,posFromWrist_16x_R,posFromWrist_17x_R,posFromWrist_18x_R,posFromWrist_19x_R,posFromWrist_20x_R,posFromWrist_1y_R,posFromWrist_2y_R,posFromWrist_3y_R,posFromWrist_4y_R,posFromWrist_5y_R,posFromWrist_6y_R,posFromWrist_7y_R,posFromWrist_8y_R,posFromWrist_9y_R,posFromWrist_10y_R,posFromWrist_11y_R,posFromWrist_12y_R,posFromWrist_13y_R,posFromWrist_14y_R,posFromWrist_15y_R,posFromWrist_16y_R,posFromWrist_17y_R,posFromWrist_18y_R,posFromWrist_19y_R,posFromWrist_20y_R,posFromBody_0x_L,posFromBody_0y_L,posFromBody_0x_R,posFromBody_0y_R
2,0.993347,-0.589655,0.066719,-0.203591,42.446022,67.401466,86.024437,100.461044,55.032234,80.360985,75.39814,66.014328,31.279907,45.159988,36.635056,25.618973,9.366531,8.00108,-5.820694,-18.069305,-9.570751,-20.075855,-31.14521,-41.275177,-2.850584,11.663603,28.353196,38.859473,53.112085,78.384182,83.161379,85.685674,67.927553,98.858149,109.568881,117.480838,76.209024,109.627976,125.984611,140.699425,78.68503,106.784308,122.825954,138.112145,40.429745,73.76318,101.042347,119.145184,77.037563,117.753582,122.526798,115.421391,65.040836,109.09647,117.326603,114.006557,50.647545,91.511135,102.455692,102.933483,35.318642,64.515209,79.320889,87.686634,-9.056254,-5.058656,7.590422,21.50841,22.436209,47.940303,49.418731,45.300411,41.690605,68.681216,70.221519,66.531685,56.697623,81.974969,84.717737,81.861471,67.874633,91.924751,98.728843,99.279904,-28.701582,368.211609,-51.415529,372.570694
3,-2.143593,0.365624,1.599884,2.10785,40.567245,66.556206,87.746887,100.447998,55.801048,88.592148,84.097023,72.203178,33.396034,59.145012,50.234871,36.641006,12.517776,21.369438,6.16293,-8.890285,-5.858231,-13.811245,-25.501385,-37.41251,-4.965227,7.883366,24.080314,34.075359,50.203332,75.309814,76.362412,75.313828,65.864101,94.382108,101.487605,106.304199,74.487731,108.186228,123.28161,136.01226,76.822576,105.274449,120.91836,135.858255,39.979477,72.634678,100.411549,118.711681,77.107487,118.311253,121.438236,112.751942,65.174732,109.233112,115.819416,111.319485,50.373173,91.080952,101.246624,101.098309,34.405861,63.288174,78.20509,86.947918,-9.85339,-6.224133,6.417165,20.408141,19.591368,41.453978,43.598755,40.211127,39.743059,64.38382,66.197677,62.444363,55.560489,79.205895,82.351461,79.258815,67.179446,90.180302,96.737022,96.435001,-30.625477,367.666816,-49.595947,373.768127
4,3.68351,-1.644105,1.065159,1.263166,34.516869,59.33979,80.245399,90.917244,47.791557,79.083138,75.968971,66.740341,28.605309,52.062263,43.760719,32.263527,11.656208,21.450405,6.503792,-7.904549,-3.490219,-8.287582,-19.272652,-30.578156,-5.673937,8.347482,25.600548,37.81799,45.941813,69.859229,74.984452,78.609633,65.456301,91.846266,99.841648,105.795437,77.1656,109.00158,124.661114,139.184564,82.067471,109.24815,124.828705,141.055231,39.223137,72.216568,100.434952,119.155426,77.01725,115.732269,119.327431,111.514778,65.094566,106.572876,113.958435,110.575104,50.094452,88.459511,99.348106,100.24395,33.985634,61.674957,76.434975,85.310783,-10.493618,-7.404554,4.725759,17.732187,20.437657,44.099551,45.025745,40.32975,40.008339,64.981996,66.04009,61.99834,55.030485,78.221038,81.436443,78.985569,65.964631,88.196446,94.47072,94.657083,-26.89436,365.486733,-48.483181,374.495315
5,-0.784893,1.36277,0.948315,0.978127,38.980808,64.975033,85.516262,96.188335,53.12994,84.555416,80.718098,70.219746,30.712452,52.025814,43.453159,31.150188,10.330696,14.8946,-0.049152,-13.939705,-7.083321,-15.17807,-25.440388,-35.643826,-5.900375,6.101249,23.469541,36.450527,47.79945,73.967793,77.738396,78.543498,64.665217,93.46919,103.365682,110.122474,74.528116,107.705748,124.975671,139.89315,78.241107,106.524833,124.10042,140.572343,37.958679,71.005611,99.091816,117.934742,75.42944,114.273777,118.865261,111.583843,63.631725,104.74966,112.900486,109.661465,48.746395,86.780262,98.034267,99.096279,32.911205,60.904942,75.419254,83.559437,-11.628652,-8.794926,3.529098,16.825691,19.790204,44.221014,46.408275,42.300391,39.325194,64.831943,67.023835,63.434963,54.354997,78.055485,82.012698,80.199583,65.224181,87.668604,93.593803,93.54113,-27.868109,366.400299,-47.723722,375.024238
6,-0.012989,-0.398908,0.601673,0.573785,38.535347,64.420052,85.296936,96.658287,50.927467,81.321144,78.02845,68.301201,28.153381,47.86972,39.574356,28.304443,8.619804,13.275833,-1.175766,-14.417038,-7.303677,-14.064846,-24.064522,-33.805504,-4.899648,7.841253,24.517754,35.456901,48.745405,75.497227,78.417713,78.318912,65.760113,95.225619,104.715299,110.330387,75.324388,108.301145,124.006622,137.532061,78.894796,106.994754,123.423636,139.222541,37.20623,70.020905,98.010063,117.141266,74.717331,112.892418,118.471298,112.350311,62.730446,103.398857,111.884079,109.214745,47.755623,85.403824,96.84185,98.429718,31.810112,59.884071,74.504013,82.950325,-12.247638,-9.489124,2.766851,15.791989,19.205613,44.336672,47.430615,43.792157,38.719793,64.523191,67.130478,63.87265,53.794551,77.646388,81.798671,80.331173,64.585744,86.935503,92.800125,92.858417,-28.185053,365.715132,-47.426004,375.311764
7,2.511406,1.538512,0.419769,0.315112,36.64444,61.717758,82.525291,93.772316,46.123352,76.181946,73.488235,64.653053,24.946232,43.645821,35.267372,24.29512,7.044239,11.0075,-4.067516,-18.133965,-7.346478,-13.576698,-23.718567,-34.027462,-8.22991,3.47519,21.453328,34.292412,44.614981,70.72744,75.992218,78.175034,63.371978,92.523606,103.103984,110.323842,75.084178,107.755766,123.998903,138.812086,80.944478,108.968482,125.04409,140.757656,37.37669,70.113487,98.029633,117.786827,73.931122,111.680489,117.945099,112.446213,61.757698,102.560463,111.5839,109.087715,46.862354,84.603424,96.305695,98.084106,31.133995,59.138603,73.820686,82.268143,-12.357307,-9.366673,2.987423,15.541591,18.412306,43.654392,47.492489,44.207058,37.932969,63.791325,66.686246,63.281266,53.123879,77.134971,81.23242,79.537865,63.948541,86.484169,92.359906,92.451544,-25.933914,367.000668,-47.266502,375.3739
8,-1.676788,-1.78082,0.44014,0.023218,37.117882,62.979469,84.639015,91.640511,45.895615,82.441635,81.547279,71.43734,24.754715,51.997604,43.652344,30.461311,6.978207,18.716698,3.692894,-11.563625,-7.308826,-10.951996,-20.95047,-31.470222,-7.920972,3.86465,23.145166,37.896351,43.022253,67.994428,68.560247,65.599933,62.837528,89.253551,96.904736,100.579009,75.391572,107.400022,123.821,137.239982,81.27299,109.592655,127.615254,144.735432,36.94376,69.958534,98.155289,118.363266,73.093643,110.378036,117.937202,114.183426,60.814247,101.436882,111.331673,110.0457,45.94511,83.720627,96.11721,98.980064,30.388298,58.289108,73.225365,82.463837,-12.06461,-9.61491,2.064625,14.213092,18.405451,43.02497,48.147352,45.903095,38.020717,62.859882,66.623384,63.939155,53.211195,76.376306,80.73218,79.506928,63.962744,86.075134,92.224302,92.793085,-27.766857,364.909243,-46.982517,375.086514
9,0.353508,-2.661258,1.268463,0.419656,37.86438,63.724251,83.947334,93.328972,49.115639,78.200684,77.247505,69.875565,26.305561,45.282669,38.410835,27.893372,6.194172,10.564613,-2.942619,-15.984535,-10.712357,-17.39851,-26.951981,-36.488457,-4.059843,7.066285,23.804228,35.681549,50.890305,76.603856,79.98148,80.077996,67.807757,96.903687,107.347966,113.584572,77.325163,110.157054,127.413083,142.004397,80.735638,109.042027,126.8556,143.723034,35.923462,67.971497,95.242996,114.919395,72.170334,108.93322,116.212006,112.224998,60.298233,100.190163,109.534035,107.835846,45.707016,82.770996,94.611511,97.03228,30.165997,58.078537,72.379074,80.550156,-12.707803,-10.247481,1.010669,12.155383,17.793566,42.474897,48.710639,47.418018,37.104649,62.068056,66.310371,63.957495,52.501621,76.01945,80.531368,79.477659,63.586869,86.242354,91.806128,91.757098,-27.63937,362.037957,-45.940075,375.296141
10,-0.280781,9.80047,0.484943,0.339442,25.769062,48.458233,71.517048,84.16872,33.638363,69.737492,68.174458,58.832645,22.255554,48.16721,40.092144,27.91769,14.100838,26.629372,10.016327,-6.667671,9.163857,6.365376,-5.580482,-17.99263,-14.032596,-2.858735,14.3051,25.943448,30.378918,54.729328,60.449701,63.808306,53.313947,80.270349,87.955496,94.000244,70.6082,103.341167,119.544166,133.024961,83.091478,111.714893,127.60488,142.820737,35.49448,67.008305,93.916454,113.37656,71.524029,108.438778,116.108723,112.485523,59.592762,99.549465,109.317799,108.160229,44.976826,82.266254,94.514751,97.303219,29.495487,57.657223,72.129993,80.52103,-12.973391,-10.765258,0.048536,10.946372,16.577083,41.110954,48.012119,47.16163,35.976161,60.695591,65.376273,63.350674,51.628284,75.03274,79.694032,78.758019,62.986161,85.649797,91.141447,91.047463,-28.153009,371.536513,-45.68799,375.33367
11,8.471088,-1.434524,0.826263,0.153141,-11.096992,-8.672562,-6.28109,-10.215569,6.095066,31.854401,27.467079,18.599396,10.862217,33.257904,22.826157,9.924774,15.752048,29.161034,11.502228,-6.098499,22.106438,21.365776,8.048401,-5.37735,-3.853534,11.003923,30.423255,39.927199,37.991076,65.584495,76.686478,86.800887,56.235791,84.901012,94.354012,104.552278,69.135514,103.329928,119.393866,134.533708,77.929205,108.700917,123.888123,137.971416,34.738884,65.84444,92.443829,112.063007,70.602665,107.378254,115.61285,112.572155,58.78561,98.127537,108.59911,108.07909,44.39867,81.138325,93.915081,97.366161,29.205894,57.095547,71.657009,80.349712,-13.287762,-10.972492,0.38699,11.054868,16.537378,40.181302,46.249144,45.258174,36.015187,60.181519,64.366468,62.227557,51.411602,74.515642,78.903874,78.088459,62.364335,84.857972,90.478371,90.999606,-19.785089,369.9662,-44.964895,375.351022
12,-22.830963,-2.815819,0.67234,0.305047,38.406944,67.334862,89.556427,111.46225,66.160469,101.375198,110.482178,113.444366,50.481606,85.263863,96.7313,100.006599,30.881081,47.35199,45.137672,37.69495,10.181637,2.347069,-4.844055,-13.025723,-9.845733,-1.610574,15.128666,28.166648,39.368605,61.057819,60.358496,55.166707,57.948192,79.194718,79.201881,76.978249,67.718775,97.086715,112.338573,121.627934,68.628358,98.546927,115.382497,129.550759,33.927326,64.645901,91.098919,110.846958,69.934101,106.326199,114.496479,111.795788,57.96587,96.529827,107.059422,107.0751,43.415165,79.559383,92.630825,96.507397,28.097076,55.827541,70.478725,79.65723,-13.950468,-11.806432,-0.559026,9.186856,16.345519,41.139359,47.282908,46.173253,35.502473,60.168119,64.684545,62.637518,50.699064,74.204297,79.109811,78.881211,61.446785,84.141297,90.223959,91.431427,-42.774353,367.007445,-44.450855,375.513132
13,25.287437,-0.334625,0.875072,0.478133,-19.214573,-23.230991,-24.622135,-30.673141,-1.91946,14.5257,6.32618,-4.179783,8.516865,39.968948,33.865929,23.574829,19.476471,45.82901,34.204102,19.925423,29.666634,36.575546,24.86824,11.040058,8.943868,27.593048,45.789412,52.146864,50.088723,80.817766,94.870492,106.674084,58.806152,88.620054,95.950754,102.401943,62.383724,95.988607,106.689398,115.986108,63.900932,93.187238,107.141473,119.298894,34.115124,64.476471,90.547256,110.141487,69.341812,105.852814,113.288956,110.282822,57.338219,95.936737,106.191101,106.099777,42.804337,78.776779,91.748543,95.928497,27.554111,54.890671,69.389763,78.854942,-13.892052,-11.465693,0.146719,10.656269,16.347928,39.721694,45.281762,44.337537,35.374341,59.355052,63.936871,62.276772,50.564078,73.702945,78.652364,78.771357,61.251036,83.887502,90.369875,92.076348,-17.58811,366.591695,-43.676977,375.910141
14,-17.572231,3.241279,0.300694,-0.212051,34.482822,59.615765,80.26228,100.898838,52.752171,85.323772,98.39098,108.611584,36.637974,69.655552,82.06461,88.084431,18.806934,33.858318,32.55146,27.744484,1.639366,-4.852352,-10.147419,-15.023689,-8.711378,-1.163501,13.749717,26.979311,38.571036,58.386744,61.675941,61.972652,54.950333,73.827249,77.112926,77.843434,63.574766,89.986838,106.498157,119.36861,64.478916,90.644109,107.528586,123.929187,33.927956,63.669147,88.907833,108.198223,69.561024,105.172062,112.625713,109.733334,57.395153,95.155277,105.55624,105.746555,42.610989,77.989483,91.121693,95.314007,27.076263,54.08987,68.771954,78.443127,-14.327516,-11.269882,0.918908,10.949892,16.485137,40.595585,45.811519,44.536558,35.607943,59.672511,63.894325,61.987348,50.757974,73.697511,78.515525,78.572768,61.211331,83.42351,90.065199,91.957973,-35.16675,369.777676,-43.382692,375.642792
15,14.680882,-5.200249,0.427322,-0.155982,-14.561863,-13.740635,-11.236038,-13.572235,4.629822,25.549736,22.667656,17.1698,11.454849,36.285324,31.315956,22.924004,18.416977,37.398033,23.8274,9.032192,25.762024,27.772293,16.545238,4.345036,4.910146,23.008698,41.997011,49.90588,48.171435,75.928368,86.450268,95.365299,61.079679,91.085871,97.497355,104.600505,69.209862,103.820782,117.787429,130.947368,74.760792,105.385106,119.945482,133.459622,33.50584,62.683582,87.688465,106.910419,69.066868,104.567127,111.9417,108.95937,57.01601,94.799938,105.178471,105.421429,42.210445,77.468319,90.681667,95.190868,26.530666,52.94981,67.561626,77.566853,-14.407297,-11.932217,-0.323634,9.702904,16.593077,40.293502,45.414155,44.170996,35.649563,59.515665,63.95589,62.119494,50.823738,73.745985,78.535285,78.589317,61.339339,83.827852,90.626263,92.685331,-20.523176,364.500517,-42.992678,375.409901
16,-20.786362,2.121497,-0.027122,0.403724,37.070961,64.31385,86.503944,105.71846,60.327187,96.812325,108.528671,115.342827,44.714355,81.576004,93.887215,98.181267,26.629944,46.124496,45.881653,40.813065,8.817616,4.507542,-0.29789,-5.526524,-8.213608,-0.793122,14.64621,28.248096,40.509814,62.002724,62.671111,60.361028,57.75763,78.299955,79.738925,78.541708,66.993084,95.066612,110.493902,121.310846,68.630396,98.140918,115.941153,131.589634,33.357754,62.500591,87.215939,106.355152,69.042377,104.201488,111.724606,109.057102,57.103558,94.607334,105.197926,105.560932,42.421589,77.468319,90.749187,95.380726,26.804066,53.077412,67.570553,77.460651,-14.516163,-11.858364,0.0494,10.028267,16.396155,39.910156,44.822525,43.414059,35.553232,59.352335,63.39322,61.180456,50.717157,73.685285,78.167685,77.913706,61.149642,83.778883,90.618359,92.668164,-41.353054,366.572058,-43.063316,375.763669
17,10.924358,-0.124921,0.128975,0.063973,12.273159,29.436779,48.639164,59.414806,28.798828,61.990528,59.974995,52.518368,23.078899,51.148281,43.903713,33.251095,19.273338,35.95911,20.717182,5.06916,17.703781,15.082741,3.039665,-8.895779,-10.542648,2.679165,20.613276,31.103003,37.878752,63.031486,70.780175,77.227844,58.85265,86.240749,93.225153,99.809229,73.731597,106.507481,121.609841,135.15467,83.748564,112.175613,126.901049,140.759817,33.321819,62.326069,86.781979,106.157856,68.741398,103.964252,111.439419,108.508015,56.935787,94.461765,105.466518,105.951977,42.248783,77.475643,90.941448,95.492191,26.612949,52.473049,66.959095,76.602459,-14.635033,-12.037687,0.101888,9.889514,15.947908,39.276226,43.44617,41.437676,35.2953,59.164922,63.01506,60.636373,50.606933,73.821321,77.792799,76.962379,61.050286,84.032925,90.763658,92.371268,-30.458107,366.379335,-42.963753,375.75984
18,-0.442772,1.471821,0.319862,0.096207,26.907921,48.953762,73.220043,86.829472,34.166622,69.493618,67.083607,57.437611,23.444481,49.306583,40.459499,28.052444,16.253643,28.761234,12.144012,-4.215374,12.490139,8.329411,-3.979225,-16.986523,-13.220022,-1.7681,14.413472,25.729174,36.177467,61.214295,68.591431,73.369555,58.708401,85.708707,93.391385,99.465711,74.970866,107.30048,122.519239,135.598841,86.073282,114.474458,129.566629,143.608796,33.414803,62.432728,86.598759,105.723667,68.776302,104.616222,111.289272,107.075558,56.75211,94.712391,105.29829,105.077419,41.872044,77.579327,90.906315,94.965191,26.126804,52.165318,66.67654,75.910892,-14.750259,-12.129633,0.035383,9.73205,14.951257,38.640629,42.329907,39.757941,34.560841,58.893159,62.456837,59.752971,50.204567,73.820889,77.392532,76.086079,60.975568,84.343406,90.799967,91.955441,-30.902252,367.802914,-42.645264,375.807805
19,0.311165,-2.172009,-0.377712,-0.235454,21.884251,43.940907,69.057484,83.514576,31.806622,68.963184,67.146091,57.927189,23.216228,53.636112,45.294285,32.739773,17.930145,34.876842,18.289661,1.345482,15.769672,11.877995,-0.306015,-13.362064,-11.653105,1.471574,20.065796,32.693323,37.683065,64.88653,70.132104,72.539567,59.543391,87.565233,92.565597,95.911419,75.376937,109.272665,123.351264,134.832951,86.205798,115.179215,130.14029,143.819982,33.625431,62.593346,86.693802,105.767899,68.909454,104.189301,111.521759,107.778397,56.873817,94.692993,105.464516,105.277061,41.975899,77.315941,90.594292,94.542046,26.288223,52.247086,66.798248,75.757027,-14.355242,-11.338302,0.970161,10.728825,15.699239,39.132348,43.937085,42.1328,35.294559,59.414023,63.321836,60.675461,50.772115,74.388313,78.219185,76.952128,61.24906,84.537487,91.036286,92.157488,-30.558386,365.57323,-42.990274,375.514676
20,0.368328,0.529633,-0.145855,-0.258796,36.44474,61.015549,83.480415,96.288643,47.739029,82.19799,79.935608,70.24704,29.109192,54.149437,45.784492,33.299217,13.290939,22.358036,6.570339,-8.706551,0.510063,-5.073338,-15.184937,-26.047039,-10.133922,1.316334,18.796764,32.022343,41.656828,66.935285,70.214417,70.802775,61.95388,88.071402,94.461025,98.864077,75.342974,107.033101,121.713335,134.556432,82.525782,110.922574,127.224065,142.813389,33.719673,62.61961,86.734715,105.100994,68.798847,104.392376,111.967449,108.584919,56.577015,94.354992,105.499249,106.047192,41.475105,76.97382,90.601215,95.033283,25.567646,51.889286,66.681004,76.131649,-14.418906,-11.954324,0.134307,10.499176,15.110573,38.140636,43.415912,41.998184,34.983152,59.160908,63.901364,61.837665,50.553395,74.253759,78.474894,77.483429,61.076221,84.253806,90.751184,91.872016,-30.117931,366.09022,-43.064003,375.243236
21,-0.716858,-0.402304,0.460682,-0.272566,37.988319,63.256645,85.400963,98.367119,51.565475,85.598831,83.683205,74.57943,30.428009,54.90097,47.182961,35.371399,11.629772,18.925781,3.626232,-10.933628,-4.233913,-11.487923,-21.547909,-32.291107,-8.211693,2.967787,19.317875,30.957272,44.663888,69.66311,71.850001,71.666911,63.549572,89.06052,96.390047,100.959762,75.095788,105.689659,120.761761,133.799928,80.009083,107.331479,124.282028,140.517323,33.691921,62.507629,86.556702,105.448036,68.614311,104.220543,110.909843,106.627464,56.366158,93.882179,104.490738,104.380989,41.324844,76.257477,89.575195,93.6866,25.520153,51.28109,65.724106,74.70623,-14.268606,-11.409994,0.852773,10.95971,16.128775,39.137226,43.709412,41.962616,35.59479,59.359436,63.473742,61.203736,51.026774,74.444074,78.672001,77.911051,61.592516,84.811783,91.234072,92.416161,-30.726471,365.630256,-42.495003,374.913011
22,1.457462,-4.071946,-0.436478,0.443985,38.097553,63.826046,84.46764,93.659878,51.022511,83.536434,82.589207,74.030056,28.836651,52.30299,45.751247,34.242954,9.076424,15.694885,0.918674,-13.475533,-7.6157,-14.455261,-24.004498,-34.245529,-6.052158,4.652091,22.016615,34.315383,50.475096,76.636584,78.972231,78.197572,68.230377,95.989657,104.499666,109.710043,78.136193,110.063008,125.581813,138.568913,81.08107,109.065801,125.873398,141.736276,33.455944,62.20459,86.168633,104.855804,68.693504,104.537888,111.068459,106.666718,56.58268,94.002914,104.664001,104.962234,41.592751,76.361046,89.600143,93.905983,25.649357,51.492462,65.955276,75.170746,-14.7397,-12.380711,-0.304677,9.632941,14.800462,37.340474,42.177322,40.70124,34.456421,58.331045,63.014628,61.055288,50.140532,73.818172,78.501384,77.992685,60.866455,84.24547,90.820159,92.065356,-29.153881,361.450741,-42.816353,375.249427
23,-0.195179,0.767681,0.100937,0.558779,37.592239,62.420425,83.476868,93.34053,48.404846,80.817375,80.760384,72.612762,27.637997,50.272865,44.077148,32.99263,10.100727,16.512966,2.447834,-11.477737,-3.971786,-9.90406,-18.974247,-28.827839,-7.397082,3.793698,20.492677,31.85605,47.329097,72.301334,74.214671,73.472554,66.246583,92.839027,100.458102,105.413387,77.779769,109.535474,125.285843,138.553784,83.027875,112.030129,128.885028,144.521035,33.350544,62.396278,86.421776,105.008926,68.381996,104.824219,110.973587,106.012688,56.147804,94.245415,104.827766,104.593277,41.229916,76.730118,89.885445,93.596878,25.576115,51.907082,66.382027,74.801559,-15.023937,-12.506743,-0.533462,9.710993,14.039821,36.749461,41.273543,39.490562,33.896283,57.647591,62.087384,60.023438,49.858024,73.284463,77.596247,76.681662,60.859354,84.158772,90.347213,90.96589,-29.261398,362.15783,-42.627754,375.747614
24,-0.711937,0.184572,0.024891,0.219646,38.986473,64.769554,85.769463,96.605759,50.5093,82.227974,82.10392,74.208755,28.365326,49.96273,43.588715,32.936325,9.285278,14.459324,0.429153,-13.178215,-6.185303,-13.712997,-23.061962,-33.469048,-6.658917,4.53248,21.540026,33.548567,48.566205,73.99132,75.603129,74.223686,66.577195,94.27491,102.964736,108.359376,77.077482,108.589952,124.295922,137.608879,80.961336,108.512764,125.420583,141.089997,32.945309,61.624546,85.785427,104.906445,68.421993,104.068279,110.625629,106.0956,56.342983,93.831768,104.39249,104.287548,41.493359,76.527042,89.33939,92.988911,25.690613,51.998577,66.230564,74.360218,-14.902968,-12.986235,-1.869741,7.521818,14.266198,37.561602,41.865606,39.666612,33.917958,57.830496,62.225211,60.105196,49.607255,73.088158,77.441068,76.538956,60.409996,83.730348,89.804489,90.196727,-29.8318,362.240699,-42.461329,375.865557
25,-0.329304,1.016721,-0.279636,-0.016796,33.612614,57.017612,79.118557,94.37376,40.714703,70.736446,71.236324,65.548725,24.374428,43.464832,36.592884,26.375771,11.734886,17.49258,3.824043,-10.07515,2.250252,-3.483639,-12.786655,-23.381195,-7.667796,4.341363,20.440374,32.31998,42.909065,69.529605,78.993041,84.209778,63.151776,92.839027,104.056484,112.419342,76.186794,109.737892,126.265513,140.522572,83.497919,112.888151,129.046999,144.063341,31.728745,60.356712,84.986,105.182877,67.83371,104.005852,110.925636,106.959572,56.086464,93.534737,104.522667,104.848366,41.645393,76.442528,89.664345,93.768768,26.307278,52.161827,66.346321,75.026093,-15.644282,-13.844381,-2.575486,6.257416,15.651939,38.133102,41.764582,39.657658,35.333647,58.03878,61.724662,59.537895,50.854552,73.175164,77.209134,76.8474,61.307662,83.474701,89.488141,90.873018,-30.153379,363.182841,-42.73324,375.774182
26,7.359753,2.771729,0.29995,-0.239159,-10.187531,-6.380196,0.291595,1.269493,5.981483,26.290283,22.065125,15.031414,10.989189,30.362778,22.105751,12.177544,16.643085,30.436592,15.407009,-0.258236,23.698425,23.442307,11.922626,-0.58857,-1.35783,11.703309,28.686771,36.611819,39.581211,66.822838,80.192234,91.866397,56.956542,87.814026,99.406307,109.518369,68.817067,103.97874,121.448487,136.597963,77.008074,108.390189,123.837796,136.649524,32.148628,60.769386,84.946518,104.373322,67.521286,104.010201,110.575333,106.203461,55.733986,93.516312,104.71756,105.20874,41.169834,76.465874,89.937515,94.254341,25.673332,51.613655,66.129799,75.472641,-15.263837,-13.261642,-1.949584,7.537441,14.707528,37.1149,40.826161,38.751656,34.22708,57.675564,61.778817,59.617491,49.843142,72.883209,76.860367,76.108494,60.349172,83.167987,89.47153,90.83288,-22.791138,365.903008,-42.430801,375.483461
27,-21.934433,-1.954771,-0.014992,0.202418,39.169064,67.818146,91.171761,112.941971,66.777992,101.389389,111.898384,116.588631,50.704422,85.220833,97.368164,101.365242,30.522251,48.012085,47.531662,42.151451,9.989433,2.23629,-5.172443,-12.958546,-6.909439,0.350372,15.332257,27.101762,41.613479,62.975108,63.362715,59.540426,59.518196,80.94454,82.109276,80.584411,68.481454,97.251897,112.51734,122.176031,69.068021,98.190689,115.758434,131.334543,31.595936,60.014191,84.370422,103.954353,67.817574,103.948517,110.408821,106.292267,56.055565,93.478203,104.252129,104.586639,41.43671,76.278877,89.494514,93.630066,25.927277,51.931801,66.145706,74.906845,-15.7282,-13.755892,-2.27575,6.560796,14.876601,37.638852,41.493869,39.318772,34.61055,57.608503,61.443636,59.184806,50.241432,72.909267,76.945768,76.507958,60.635014,83.110065,89.051134,90.274656,-44.643316,363.917547,-42.363539,375.655189
28,19.597492,-1.07563,-0.316372,0.188339,-3.525639,4.744492,15.694084,21.429806,10.965157,32.217579,31.323109,27.286663,12.955742,31.619854,26.038456,18.016205,16.330204,28.335285,15.309162,1.45174,21.38752,19.615574,9.278469,-1.477547,1.018944,16.635684,35.455605,46.970019,45.298991,72.938043,86.42989,97.788261,61.325446,91.893196,104.28459,115.417695,72.040315,106.866992,123.906401,139.314363,79.529405,111.126906,125.897543,138.818075,31.577797,60.333881,84.870014,104.703655,67.37978,103.932667,111.076756,107.692738,55.803623,93.881664,105.243702,105.856876,41.468296,77.215405,90.888691,95.117626,26.30476,52.92738,67.434826,76.212788,-15.635081,-13.540569,-1.95792,6.978229,14.036363,36.60126,40.392982,38.271053,33.987242,57.082822,60.674596,58.281521,49.696546,72.249711,75.732928,74.669154,60.131254,82.617667,88.151615,88.855632,-24.974327,362.819347,-42.608414,375.820958
29,-19.76017,0.659988,0.088062,-0.874509,37.037258,66.728039,90.892925,113.349323,66.932659,103.029842,112.466526,115.64043,52.272205,89.477177,100.787601,103.725758,33.348999,55.328579,55.761852,50.980282,13.350277,8.650703,1.470394,-6.541729,-8.721813,-0.707166,15.031038,27.562976,39.751087,60.889982,58.849995,52.978272,58.078053,78.107602,76.848573,73.68547,68.223893,94.9286,108.60718,117.510725,69.672558,98.489931,115.788506,131.700476,31.773777,60.177727,84.669914,104.810371,67.305222,102.949219,110.811081,108.403816,55.749893,93.177223,105.105057,106.528587,41.480484,76.579857,90.426178,95.119286,26.330452,52.711258,67.13253,76.07975,-15.037399,-12.766589,-1.283235,7.076288,15.051416,37.068834,42.351335,41.559695,34.807472,57.480865,62.033661,60.364794,50.448358,72.69277,76.696729,76.032356,60.965688,83.261477,88.967091,89.752495,-44.716415,363.463836,-42.50227,374.930949
30,13.465748,-2.951114,0.697632,0.096331,33.981857,55.8078,72.077866,82.646713,51.470947,74.79023,77.206879,76.420212,31.258163,48.927498,47.630081,41.975098,12.008457,17.773876,8.827343,-0.775166,-6.050262,-12.614536,-20.91917,-29.667549,2.670891,18.992265,37.306388,48.311114,52.756032,76.658937,84.711809,89.749469,66.788813,93.668274,105.032696,114.208745,73.016095,104.117987,120.506423,134.874941,74.355894,101.662791,116.77571,131.718754,31.984119,60.738716,84.577789,103.531837,66.494637,103.551064,109.89006,105.690651,54.822464,93.138313,104.485016,105.442314,40.378246,76.291008,90.163193,94.798737,25.177517,51.401711,65.848274,74.667549,-15.131506,-12.815681,-1.47954,7.785554,14.204694,35.461471,38.440496,36.048717,34.170825,56.60969,60.163982,58.073545,50.009559,72.364814,76.094168,75.197182,60.624023,83.427832,88.81463,88.963695,-31.186008,360.406727,-41.739979,374.921285
31,-14.041157,8.941707,0.730076,0.132578,34.358482,63.065014,85.305347,105.849323,69.904346,103.889294,109.372501,109.21114,56.793308,93.3391,102.0508,104.424419,39.800606,67.460804,77.709332,82.860775,20.371685,24.835567,27.076149,28.704185,-12.784373,-7.549976,7.476431,17.913177,30.506803,46.687943,47.020345,44.34118,49.886985,65.698178,65.264998,61.431595,62.17754,83.28346,87.755795,87.949753,66.218178,93.494385,109.934444,122.684978,32.10228,60.517101,84.034023,102.591877,66.183872,104.01495,109.615574,104.366627,54.23418,93.352604,104.525356,104.924297,39.631805,76.106701,90.23077,95.098515,24.300213,50.037518,64.846058,74.451084,-14.845602,-12.581029,-1.291448,7.369232,14.102744,35.136478,37.075565,34.115312,33.973286,55.96903,58.669993,55.941057,49.585025,72.045564,75.336861,74.269135,59.796752,82.88517,88.717126,89.42849,-45.200214,369.230568,-40.982952,374.935997
32,22.970181,-5.754212,-0.061111,0.692037,-16.050568,-20.016918,-19.323921,-23.236084,5.478573,21.889915,16.0009,6.756649,18.03194,47.239609,43.928604,35.273323,30.271339,57.428055,49.423485,37.152214,40.122414,55.47821,49.638176,39.748077,19.521652,42.740424,61.629813,69.278096,62.297706,95.12404,108.233467,117.868445,62.023225,91.612664,100.137617,106.007118,56.053319,87.987915,98.620286,107.699943,48.813454,71.084481,81.333382,90.708638,30.791702,59.68111,83.692417,103.234005,66.174374,104.217854,110.703678,106.325741,54.705448,94.310932,105.764523,106.306057,40.408516,77.208652,91.776752,97.056026,25.033836,51.196804,66.400967,76.452198,-15.484101,-13.957631,-2.906098,4.946949,12.942578,34.107284,35.896255,33.100073,33.186277,54.737665,56.649828,53.527542,49.23138,71.389281,74.822233,74.178423,60.049497,82.874055,88.446906,89.29338,-22.229776,363.33362,-41.043806,375.485298
33,-15.98156,6.255749,-1.081867,0.477331,31.656189,57.155228,79.163132,100.798645,55.500069,89.130249,101.651802,111.457558,42.929764,77.298203,92.485542,101.535416,26.568546,45.135841,51.397133,53.791809,8.436756,5.596676,2.20705,-0.824146,-10.894872,-4.662465,9.647452,20.173366,33.348557,44.257755,47.096175,49.356178,51.996687,66.186562,69.062093,71.051259,62.603988,84.787206,100.250127,114.200286,64.532639,89.583422,106.524956,124.230035,30.512753,59.290466,83.653679,104.351578,66.151657,104.408455,112.146378,109.038277,54.781837,94.404259,106.914482,108.92189,40.885735,77.864685,92.95578,99.022179,26.065407,52.328224,67.478256,77.668304,-15.393513,-13.154011,-1.369315,5.862399,15.13447,36.627627,38.36763,35.577376,34.958884,55.518128,57.350016,54.646892,50.370799,70.879284,74.251351,73.916046,60.437598,81.970029,87.313107,88.235843,-38.226013,369.323641,-42.14035,375.696901
34,16.892166,-4.608063,-3.190155,0.551925,21.146507,36.336479,43.283844,44.992218,32.162247,51.964302,56.781235,57.686005,14.800816,25.220032,21.30764,14.668407,-1.034088,0.457878,-9.63604,-19.208908,-14.107647,-18.487244,-24.838486,-29.701195,13.021001,36.512648,58.313199,71.917432,62.34266,87.069316,94.7628,99.546789,68.714685,97.252885,109.681761,120.842901,69.483354,99.524436,114.542815,128.485255,65.597586,90.469355,104.279711,116.957133,31.763134,60.910263,85.307579,104.983749,65.739555,102.615051,112.380867,112.094765,54.999504,93.465385,107.912865,112.557335,41.696606,77.423286,93.700676,101.850357,27.430573,53.911057,69.292717,80.313377,-14.52876,-11.649586,0.128564,8.024404,16.915476,36.28059,37.935748,35.454925,36.589466,56.701266,59.982127,58.358462,51.443774,71.691858,75.969,75.993824,61.271105,82.233085,87.228941,87.798465,-21.402197,364.589561,-45.398855,376.122809
35,-3.668346,9.205072,-4.909973,1.324238,23.788891,43.727932,57.125988,61.336384,33.461666,60.028324,74.966984,84.000263,13.990631,35.292721,41.716404,41.481571,-3.651867,5.540714,3.818378,-1.914253,-18.483009,-20.182114,-24.514389,-30.419884,8.075163,29.075428,52.198303,70.368917,48.233,69.913322,76.219583,78.481933,57.368912,81.997014,92.534907,100.180349,61.13439,89.61226,104.315403,116.258118,60.368994,86.483119,102.238305,115.449373,32.608795,62.281265,85.998001,104.118462,61.756554,98.314819,111.974373,116.435738,49.056644,88.138847,106.496086,114.309883,35.752716,72.862244,91.135254,99.661789,23.820133,51.729584,66.96064,75.198097,-13.355194,-8.204098,5.340978,15.739316,17.984993,43.248939,48.910896,48.996544,38.609816,63.377597,69.375353,69.219495,54.326222,77.789649,83.070791,82.558695,64.444335,86.301697,90.877711,90.174188,-25.174456,373.807107,-50.412741,377.45952
36,7.858315,10.741422,-7.856541,1.942977,12.705631,30.709934,50.223598,60.877247,7.449303,31.546154,46.363277,51.144505,-0.722237,15.353508,16.639996,12.358131,-4.599609,0.616322,-4.729671,-13.802433,-3.618336,-3.581829,-8.070717,-13.908405,-5.88642,5.466579,23.368949,39.647778,27.029761,50.649479,57.722247,61.502669,45.388776,72.833191,84.478022,93.000752,60.217211,86.567162,98.959481,109.112854,70.121915,92.875398,106.046082,117.501154,31.992531,62.975636,87.040272,105.022831,55.548534,92.859936,109.352131,115.917606,41.230087,80.873165,100.797787,108.370914,29.184723,65.265598,83.076611,89.678936,19.96994,47.50248,62.127399,68.232594,-13.688523,-7.20899,8.349397,21.861004,17.498832,44.870196,51.074013,52.472042,40.144252,68.927601,74.419374,74.764558,56.799634,84.721812,91.414445,94.015558,66.197677,89.225826,93.904284,93.572005,-17.619381,384.514706,-58.572521,379.368673
37,70.935688,0.129676,-6.548939,-1.034566,-40.554771,-75.047035,-100.783653,-119.496117,-44.427223,-73.205395,-92.951889,-110.386391,-29.738731,-63.559456,-84.1325,-99.779091,-18.648834,-55.714588,-71.72739,-81.72781,-10.752411,-42.181892,-54.372597,-61.355667,19.06297,45.886731,65.663783,85.422494,62.105045,73.494908,83.13495,93.338403,58.89285,57.475987,56.473037,57.792705,49.169074,44.902183,47.495453,52.876446,34.873669,35.192239,38.572457,44.520874,27.646351,58.361092,79.6978,88.916473,48.905239,93.555107,102.892342,101.468239,33.310547,78.895569,90.810356,88.263245,20.15419,56.278381,66.473122,64.634285,11.141396,37.349854,43.96122,40.892715,-18.525494,-9.284915,11.510277,28.303178,14.514805,41.228712,44.855376,45.258976,37.512326,70.750041,77.83201,81.127136,54.052914,89.762128,105.872069,118.65811,63.335854,90.475222,101.681316,110.10648,52.353945,385.085959,-66.083822,378.775684
38,9.635696,2.790625,30.172863,13.136968,-33.079834,-60.303612,-86.074905,-105.888634,-61.53019,-92.125397,-108.842583,-122.948456,-50.150986,-83.549194,-103.382206,-119.884186,-37.312317,-66.034527,-83.606071,-98.77573,-23.028946,-42.474289,-55.410919,-67.861862,-9.836902,-13.280044,-19.723576,-30.050838,30.630304,53.853584,66.222624,75.031382,45.409833,71.056693,85.631828,95.730737,55.504234,82.250437,96.046159,105.463714,61.708483,85.49962,98.478569,109.472304,2.970772,7.401066,18.888359,26.178589,22.386532,26.699581,26.39883,22.001553,27.263489,29.59631,20.160027,6.464024,28.221073,28.807697,16.925468,1.612244,26.601906,26.8923,19.573231,7.143173,-25.851995,-34.062083,-26.960045,-8.347915,-9.997947,3.484637,13.251453,22.565762,16.012438,39.467282,56.933818,69.671076,37.095387,62.840554,81.127136,98.455907,53.553045,74.448149,86.428408,99.668932,61.094656,387.916212,-36.805944,391.95228
39,-0.743637,-7.120934,-35.048733,-53.277761,-31.576881,-58.289795,-80.699043,-96.901875,-53.671188,-88.241558,-105.328217,-117.985668,-40.352669,-77.1064,-97.358723,-112.247887,-27.711067,-59.296875,-78.193817,-92.550488,-16.167984,-39.567719,-52.519684,-63.655014,-9.569832,-3.218308,13.750211,29.659402,33.005904,58.950587,73.271001,84.193661,50.597114,78.430866,93.285545,103.736431,62.15111,90.074091,104.199621,114.291429,67.990662,91.902706,103.841098,113.002822,18.648577,38.968534,59.15637,67.265596,38.413639,59.820099,56.162424,47.716598,38.372955,60.333252,49.913921,35.32774,36.673851,58.611517,48.032656,32.422743,33.467245,51.532917,46.036691,33.371572,-20.773117,-22.826905,-15.886436,-2.518213,8.772572,15.366806,10.541289,12.121142,28.130153,37.20734,35.43816,40.753913,42.577279,52.695609,51.313419,58.622506,52.058036,60.303383,59.314852,64.790353,59.9053,381.064386,-72.300396,338.943628
40,4.075241,0.282014,-35.048733,-53.277762,-32.958984,-60.582848,-83.021278,-98.723431,-58.260498,-90.197754,-107.173233,-120.372219,-44.32251,-79.579639,-99.061432,-113.761253,-29.933395,-61.9067,-80.770454,-94.820251,-16.440353,-40.800934,-54.866867,-66.883278,-11.713806,-4.475608,13.030263,29.236968,30.927323,57.893543,72.334124,83.743315,49.185006,76.097256,90.587052,101.549417,60.917461,87.337868,102.06281,112.646954,66.766521,91.442418,103.457628,112.778606,34.326382,70.536003,99.424381,108.352604,54.440746,92.940617,85.926018,73.431644,49.482422,91.070194,79.667816,64.191456,45.126629,88.415337,79.139843,63.233242,40.332584,76.173534,72.500153,59.599972,-15.694238,-11.591726,-4.812827,3.311489,27.543092,27.248975,7.831125,1.676524,40.247869,34.947399,13.942502,11.836751,48.059172,42.550665,21.499703,18.789107,50.563028,46.158618,32.201296,29.911776,64.053411,381.177945,-107.276258,285.497411
41,2.131462,0.61701,-0.174179,-28.889498,-33.396721,-61.59153,-84.715347,-101.218758,-58.767242,-91.835918,-108.952389,-121.520519,-44.801788,-81.659889,-101.600876,-116.245766,-30.412674,-63.36731,-82.683849,-97.069187,-17.358971,-42.377014,-56.67675,-68.499069,-12.355516,-5.928781,11.549674,28.231486,29.899302,56.663845,71.041008,82.005597,48.456969,75.215892,89.965101,100.942225,60.487369,86.620946,101.251965,111.879088,66.710884,91.013994,102.812151,111.954732,17.679234,46.41243,74.622517,87.541409,56.45525,94.128513,79.457302,66.349239,58.088608,87.203865,68.418617,57.72789,57.482185,83.731613,64.861908,53.230247,54.800777,77.022572,64.136066,54.026928,-33.146818,-51.799642,-53.666172,-44.059475,-33.602536,-38.115627,-40.250956,-40.14524,-10.466633,-17.470612,-20.2014,-18.614353,10.784462,1.764333,-2.961241,-0.470353,30.175512,21.898055,16.266479,17.55274,66.718397,381.30441,-106.916914,256.117367
42,0.933723,0.4974,7.047443,-34.677858,-33.954735,-62.402,-85.653934,-101.739178,-59.127159,-92.186165,-109.827862,-122.931633,-45.285873,-82.458858,-102.699909,-117.830315,-31.283684,-64.332047,-83.611622,-98.010864,-18.683853,-43.715973,-58.039856,-69.789963,-11.957844,-5.518943,12.135932,29.866822,30.410534,57.258193,71.552919,82.133976,48.951342,75.535142,90.049329,101.070481,60.828108,86.827501,101.057328,111.575029,66.860073,90.820159,102.412009,111.479563,33.988209,59.431286,71.608086,72.024422,56.534271,74.499092,78.534679,75.948772,43.344955,61.804447,55.817242,46.424046,30.045547,49.943562,45.473442,37.564945,16.434631,34.217777,33.617363,30.006638,-10.329856,-29.025781,-45.723587,-55.100448,-49.838264,-77.360854,-79.107959,-77.378145,-49.994801,-67.584282,-56.181575,-49.237617,-45.852768,-59.661766,-47.434814,-39.191072,-38.617226,-50.928529,-41.688691,-35.082509,68.273191,381.633092,-99.2484,221.270792
43,-2.340889,-0.694198,0.663414,-50.808918,-33.979111,-62.280693,-84.888325,-100.929108,-59.010315,-91.734295,-108.808079,-121.525784,-44.94873,-81.498642,-101.434765,-116.530952,-30.667763,-63.290749,-82.359409,-96.687126,-17.739029,-42.437096,-56.785583,-68.871975,-11.206403,-3.86749,13.918728,30.673591,32.607614,59.154425,73.279214,83.572328,50.803731,76.84036,90.743465,101.174654,62.385577,88.021137,101.678043,111.608559,67.870928,91.55431,102.904036,111.804925,13.044777,30.99987,50.309143,57.070656,31.497574,52.799492,58.299236,58.919506,38.112144,57.510223,55.895462,49.682465,45.44632,65.633812,62.133293,54.76141,52.674866,68.089828,64.487457,58.790874,-36.003207,-62.844753,-79.482413,-84.426151,-65.967595,-93.279864,-97.912256,-97.851741,-54.713644,-80.90292,-75.632399,-67.601696,-40.130728,-62.112269,-54.915938,-45.454602,-23.100335,-39.969004,-36.311712,-30.3557,65.376663,381.713182,-99.140625,171.236162
44,-1.093483,0.825788,2.729416,-47.480201,-34.201241,-62.309532,-85.047398,-101.297436,-60.218925,-93.032284,-110.09491,-122.708702,-46.042786,-82.205143,-101.968632,-116.420174,-31.520004,-63.64666,-82.813339,-96.77084,-18.141975,-42.986298,-57.657623,-69.733143,-11.583451,-4.27566,13.399284,29.319219,32.061678,58.035816,72.030991,82.60859,50.160848,76.34364,89.848084,99.893827,61.761898,87.706148,100.875288,110.441044,67.258302,91.291933,102.284185,110.969072,-8.474236,5.111275,29.491367,45.441456,34.496727,59.199257,58.633862,57.348003,53.53775,62.606049,47.619267,38.969479,65.755577,71.957817,55.89695,46.289749,74.231186,78.581257,63.583832,54.530411,-49.419349,-82.976066,-100.434575,-102.939357,-72.725838,-105.893991,-118.10884,-121.170487,-55.711376,-88.261006,-87.112479,-75.792548,-39.124042,-69.524604,-69.717635,-58.786547,-22.694851,-50.854305,-52.396089,-43.587918,64.064798,383.7779,-96.629591,124.994891
45,0.167656,-1.148434,2.771759,-37.756795,-34.672852,-62.959557,-85.523872,-101.84269,-61.109962,-92.887402,-110.2565,-123.166008,-47.171745,-82.168922,-101.958103,-116.733398,-32.901878,-64.097786,-83.102932,-96.976604,-19.845085,-43.841057,-58.02784,-69.781666,-11.117976,-3.863168,14.041673,30.590228,32.769462,58.562423,72.870611,83.701634,51.0009,76.63467,90.425883,100.664595,62.692909,88.13377,101.259437,110.489148,68.419271,91.922651,102.832899,111.294064,-10.322399,-1.202602,19.159069,36.615543,17.402458,44.987297,54.15184,60.853844,39.316463,59.005451,48.60323,40.255051,57.141609,70.525703,55.8498,47.343807,70.797844,79.839535,67.138996,59.546013,-43.653342,-79.009343,-100.527849,-107.171638,-69.499656,-107.288747,-125.069068,-134.87948,-54.750509,-100.407775,-106.599798,-102.311479,-41.200832,-86.900645,-87.787504,-76.118066,-28.081,-66.727403,-69.743848,-60.32583,63.479376,383.750189,-94.61091,88.358819
46,-1.952477,-0.557236,11.069355,-37.677014,-33.629036,-61.699791,-84.407902,-100.277252,-59.832573,-92.663326,-109.957924,-122.39193,-45.708389,-81.728325,-101.49044,-115.712528,-31.185493,-62.991486,-81.799278,-95.291061,-18.115425,-42.25708,-56.191978,-67.536449,-10.881596,-2.897206,14.925569,31.208288,32.557102,59.346221,73.796621,84.721256,50.58075,77.4415,91.325957,101.611908,62.212737,88.820187,102.411947,112.26756,67.588852,91.668672,102.817029,111.643819,-15.622272,-9.895191,6.419964,21.293964,17.592545,40.532742,43.034134,42.817326,39.858856,51.488972,38.784771,32.551689,55.616913,64.464054,51.15675,44.565067,67.141113,73.128147,60.909405,54.866695,-41.595139,-75.878073,-99.685759,-104.598158,-76.716057,-121.704165,-138.638042,-143.264908,-64.148273,-107.290291,-101.778449,-88.310993,-50.128151,-92.323041,-88.658185,-75.388886,-35.135151,-71.745581,-71.716712,-61.840413,61.439238,385.198097,-83.629217,52.686949
47,0.723495,0.391621,11.006012,-37.069606,-34.198036,-62.321548,-85.454407,-101.090069,-60.102081,-92.881565,-110.439835,-123.482723,-46.305885,-82.137966,-101.976929,-116.447296,-32.167053,-63.591614,-82.424583,-95.917625,-19.369011,-43.134956,-57.048683,-68.463192,-10.360793,-3.096289,14.518942,30.854828,32.613665,58.805905,73.090196,84.084301,50.604648,77.051238,90.894754,101.33434,62.298694,88.630922,101.991179,111.679449,68.001591,92.122661,103.002836,111.451775,-17.869663,-9.818459,6.982098,19.720688,11.609344,28.382835,31.623974,31.893539,31.822186,50.316811,52.469845,48.479176,48.200111,59.958057,49.307041,38.788719,61.311092,68.988705,57.754154,48.698158,-40.709484,-76.521141,-98.514847,-104.123761,-84.692481,-128.660719,-138.789516,-139.686965,-70.881785,-120.444209,-138.78859,-145.372604,-55.823083,-96.985598,-98.016923,-89.283994,-40.314899,-75.836515,-81.202903,-77.469967,61.821785,387.76236,-72.964153,17.789985
48,-0.70015,0.111583,-4.653511,-14.11457,-34.18911,-61.992416,-84.563198,-100.109367,-59.617195,-92.723866,-110.165749,-122.884254,-45.606194,-81.64587,-101.390076,-115.529995,-31.214676,-63.022728,-81.943989,-95.528812,-18.20343,-42.269211,-56.289825,-67.78101,-10.429336,-2.224312,15.856827,32.044327,32.532711,59.144792,73.535602,84.260413,50.493127,77.47534,91.426425,101.763259,62.15321,88.836366,102.342539,112.040318,67.729334,92.062825,103.00154,111.149383,-11.653748,-8.018589,5.494423,19.796906,14.84333,28.605995,35.94326,40.792694,37.16526,45.960846,41.325073,34.68544,53.774757,60.268879,51.49704,43.026237,65.114822,70.059185,61.461639,54.536533,-42.090192,-76.263673,-98.291218,-102.070467,-87.970193,-125.057058,-146.009775,-160.701264,-77.797183,-114.831498,-122.496454,-123.999242,-65.346046,-97.171992,-98.79257,-94.008611,-53.003343,-77.89938,-80.29511,-74.924029,61.156483,389.370573,-77.582817,5.172045
49,0.989685,1.261252,13.432102,-36.752795,-33.664742,-62.107315,-85.498295,-100.488396,-59.912109,-93.350773,-110.740356,-123.106956,-46.092224,-82.654495,-102.772865,-116.736488,-31.700592,-64.206276,-83.362198,-96.722488,-18.766022,-43.124542,-56.877823,-67.81889,-11.047581,-3.546203,14.098113,30.912318,31.655422,58.773363,72.844738,83.011141,49.672093,76.866172,90.856839,100.802052,61.197067,87.846877,101.244802,110.358175,66.720764,91.07488,102.010446,110.012496,9.230747,20.654755,28.851814,30.65918,43.507462,56.506634,59.267006,59.700336,42.000103,58.399773,60.474243,59.017754,37.746449,53.144646,54.088497,52.958565,32.956638,42.610989,42.270184,41.881371,-35.260072,-71.274332,-93.453938,-99.104533,-82.892271,-130.903417,-142.433053,-142.141143,-75.655432,-124.772944,-133.257621,-130.733928,-66.325099,-107.270099,-111.999439,-107.414873,-55.076458,-87.70553,-92.193859,-90.006258,63.539286,391.119638,-62.757597,-31.092938
50,2.017708,-1.109778,-7.702618,-1.402105,-34.431381,-63.08979,-85.642776,-101.902313,-60.234718,-93.437233,-111.056786,-124.026375,-46.818924,-82.94632,-102.685947,-117.21199,-32.704124,-64.914207,-83.528824,-96.869774,-19.572716,-43.00724,-56.464691,-67.668457,-10.449343,-2.358186,15.75605,31.605405,32.89395,59.719997,73.94828,84.474008,50.900309,77.325657,91.661818,102.484751,62.42695,88.121111,102.302957,112.446203,67.954352,91.689049,103.334189,112.08941,-14.1152,-9.698524,4.268417,19.810181,19.207706,35.422153,42.36866,44.502869,39.442806,59.037037,61.743393,57.866364,54.629459,73.295689,71.246395,64.277573,64.795704,78.563519,75.850353,70.155201,-40.558906,-74.453336,-98.991252,-106.797152,-94.879199,-130.621279,-145.088567,-151.716007,-84.851488,-118.217582,-128.282591,-131.315508,-71.145737,-98.191213,-102.691707,-103.093887,-55.907588,-76.610433,-82.872604,-85.734334,66.146278,390.847751,-69.87093,-31.657151
51,0.17498,-0.008892,0.855446,-7.174595,-34.171829,-62.696228,-85.906906,-102.671242,-60.344009,-93.272724,-110.65052,-123.407764,-46.652184,-82.202511,-102.037354,-116.344299,-32.367096,-63.903809,-82.642765,-95.970669,-19.365234,-42.711411,-56.204796,-67.169724,-10.048212,-1.762727,15.704488,31.467454,33.335466,60.372019,74.683171,85.335797,51.102233,78.158114,92.419248,102.943927,62.528591,89.261517,103.150482,112.999425,67.827949,92.161625,103.50178,112.000983,-11.311569,-8.342514,1.763592,12.161007,18.121147,31.450081,35.887928,37.097168,38.21949,42.677479,40.100727,35.039291,52.785931,57.866249,52.93848,45.253601,63.158913,71.491642,67.789593,62.072124,-41.723951,-75.670529,-100.040978,-112.357746,-93.205269,-126.895445,-135.637574,-137.523663,-83.391183,-105.352038,-104.431031,-100.767873,-70.017557,-86.740094,-86.485991,-83.68388,-56.373402,-69.558196,-71.791677,-71.45557,66.263523,391.295256,-69.073219,-38.375349
52,1.393204,-0.205505,0.653343,-8.257111,-34.439964,-63.339729,-86.474876,-102.451,-60.757141,-93.430824,-110.805416,-123.654213,-47.0224,-82.819347,-102.619343,-117.324085,-32.77359,-64.491119,-83.142757,-96.705208,-19.75399,-43.070526,-56.463432,-67.658272,-9.929219,-1.873507,15.617605,31.718902,33.107298,60.391038,74.894605,85.56168,50.938162,77.888882,92.453273,103.399027,62.519081,88.842973,102.972332,113.082974,68.135219,92.146929,103.522651,112.096449,-11.556702,-8.712559,0.647335,8.56905,16.457405,33.705139,38.65757,39.445038,36.942616,45.638866,42.007313,35.294037,51.718712,57.029915,50.937653,42.132797,62.342091,68.39716,60.56242,51.98307,-38.104327,-69.450627,-89.989246,-99.919422,-89.819618,-122.107395,-130.149769,-132.153292,-82.580802,-95.229015,-88.242141,-82.707174,-69.460044,-76.391836,-71.698496,-67.715286,-55.280513,-59.006255,-54.344562,-50.717034,67.629461,391.188011,-68.447142,-46.5342
53,0.154381,0.929899,3.043098,-4.403021,-34.267044,-63.061409,-86.171379,-102.46645,-60.540619,-93.388824,-110.794201,-123.625603,-46.685715,-82.67498,-102.530537,-117.124901,-32.546539,-64.578209,-83.293819,-96.81118,-19.88102,-43.651772,-57.236481,-68.442078,-10.703322,-2.471807,15.175596,31.158208,32.85795,59.862887,74.553619,85.401746,51.373626,78.116556,92.238258,102.57787,63.208339,89.310856,102.712116,111.977518,68.643734,92.638153,103.573596,111.459555,-13.571148,-12.210217,-3.740616,4.217262,16.279507,31.880665,35.518627,35.149899,37.697983,35.580425,28.836193,22.48455,51.859703,49.275799,42.076664,33.716984,61.579399,65.285053,57.668667,49.517212,-37.336893,-68.884777,-89.984337,-101.756343,-86.352641,-116.844654,-124.440048,-125.908627,-78.141565,-86.778718,-78.961147,-72.963237,-64.671361,-72.205282,-67.478473,-62.303696,-50.485192,-58.859721,-54.53324,-49.157959,67.481661,392.129627,-65.706224,-50.925503
54,1.143494,-0.584776,3.542404,-2.171762,-34.485168,-63.728371,-87.042732,-103.548145,-61.221313,-93.652954,-110.883465,-123.842869,-47.535667,-83.182526,-103.156185,-117.99305,-33.354721,-65.270576,-84.247055,-97.965431,-20.310631,-43.904228,-57.648926,-69.146805,-10.184619,-1.889748,15.74265,31.534577,33.573328,60.128599,74.444197,85.184879,51.711771,77.839482,91.943276,102.438993,63.363086,89.106153,102.675806,112.162893,69.024858,92.642414,103.764528,112.230262,-14.880123,-14.792747,-6.135464,3.896656,10.797558,28.460484,34.145851,34.976578,32.686214,33.621311,28.089695,22.023754,48.535023,46.908932,41.359634,33.42453,60.975323,60.863056,52.887897,45.463028,-33.733478,-63.739578,-83.154772,-89.948429,-82.975202,-113.781448,-128.511978,-137.455939,-76.667613,-83.690025,-75.375702,-67.991619,-64.375206,-69.928482,-63.75764,-56.331412,-50.490163,-55.921142,-50.374936,-43.799907,68.282976,391.58945,-62.505999,-53.052666
55,-0.655289,0.011362,1.355667,-0.73554,-34.476585,-63.185349,-86.071186,-102.154827,-61.025162,-93.715096,-111.199951,-124.122562,-47.068634,-82.788963,-102.626724,-117.314816,-32.719345,-64.619751,-83.57317,-97.325363,-19.670792,-43.512268,-57.242546,-68.812637,-10.086127,-1.680846,15.992986,31.805785,33.65027,60.544179,75.20348,85.91588,51.838112,78.468163,92.764865,103.161288,63.532714,89.584842,103.157583,112.583845,69.174664,93.111655,104.476757,113.109773,-14.188499,-14.03801,-3.665714,8.591709,7.349796,25.795326,34.214115,37.404099,28.702011,37.409649,33.655701,26.28027,44.943581,48.926582,44.591217,36.260891,57.89114,60.179386,53.390751,45.947628,-30.986943,-59.07171,-76.156135,-79.764582,-82.011618,-111.292536,-125.390757,-133.796254,-76.762122,-80.056661,-71.277914,-63.883024,-64.504449,-65.709293,-58.954477,-51.297086,-49.874542,-51.799518,-45.666035,-39.064175,67.310457,391.645273,-61.467562,-53.743746
56,0.759773,-0.14888,0.187454,-1.367957,-34.762917,-63.792,-87.001991,-103.05851,-60.972519,-93.66703,-111.103191,-124.058075,-47.088661,-83.195515,-103.194523,-117.970791,-32.951202,-65.161972,-84.136734,-97.765732,-20.124321,-44.24572,-58.132896,-69.707336,-9.937494,-1.549565,16.110682,31.823198,33.29082,60.337686,74.823468,85.750512,51.42315,77.937665,92.068074,102.735395,63.205128,89.188899,102.658146,112.280095,69.085249,92.790059,104.041478,112.843567,-13.629627,-12.235737,-0.305443,13.000546,8.382511,28.051758,36.932831,40.277882,29.656105,38.816986,34.901619,27.585411,45.711365,50.509071,46.685543,39.037457,59.015064,63.679447,57.476635,50.194416,-29.389429,-56.348702,-71.959638,-74.666653,-78.711367,-107.490085,-122.13756,-131.815255,-72.609284,-76.275128,-67.979577,-60.558289,-59.536197,-61.561672,-55.277116,-47.483535,-44.226232,-48.574634,-43.527464,-37.123205,68.091917,391.826927,-61.258421,-54.781168
57,-0.565109,0.625408,1.779327,0.549116,-34.239006,-62.875328,-86.018143,-102.090054,-61.107674,-93.52232,-110.707054,-123.455257,-47.237892,-82.905064,-102.50948,-116.92503,-33.118172,-65.118141,-83.781395,-97.186718,-20.399551,-44.454689,-57.995796,-69.16935,-10.378268,-2.089819,15.432539,31.340001,33.110941,59.99528,74.467848,85.06286,51.210852,77.937788,91.848736,101.951165,62.92509,88.959187,102.21379,111.56589,68.558148,92.174902,103.239649,111.817337,-13.981991,-13.019428,-2.883167,8.521099,8.391953,25.610619,34.010754,37.161598,29.779472,38.243179,34.57243,27.763996,45.641727,49.602585,45.073757,37.116508,57.929363,60.146542,53.349266,46.010742,-28.574046,-54.737788,-69.725539,-72.995749,-79.061739,-104.620543,-115.904242,-121.97738,-73.604268,-76.7176,-68.475835,-61.824759,-60.927433,-60.630568,-54.561151,-47.919709,-45.967933,-45.452255,-39.724133,-34.397974,67.636013,392.734689,-59.369888,-53.949699
58,1.162376,-0.799112,0.922852,-0.747859,-34.572258,-63.510475,-86.948433,-103.093586,-60.855675,-93.775978,-111.466312,-124.620552,-47.305412,-83.188591,-103.203049,-117.864132,-33.551216,-65.694809,-84.742012,-98.373814,-21.277199,-44.955711,-58.49968,-69.589577,-9.973618,-1.769149,15.556473,31.615655,32.932606,59.49893,73.902337,84.493521,51.195291,77.667754,91.777908,101.923872,62.924658,88.946158,102.379034,111.564963,68.639411,92.325758,103.34796,111.609053,-14.210186,-13.269196,-3.102207,7.858486,8.571224,24.363556,32.680607,36.173401,30.128117,39.957333,37.641277,31.905899,45.804005,49.991455,45.625706,38.194714,57.342281,58.630543,52.247429,45.655346,-26.989253,-51.793127,-66.95415,-70.81105,-76.360065,-101.370403,-112.313594,-118.289521,-70.005948,-77.607702,-71.285571,-64.791064,-57.178813,-59.655468,-54.09969,-47.491655,-42.126934,-42.701336,-38.08046,-33.268065,68.809948,392.164038,-58.435478,-54.469097
59,-0.5159,-0.367044,0.581646,0.754158,-34.197807,-62.620697,-85.950851,-102.478924,-60.813675,-93.727112,-111.256771,-124.129372,-47.119102,-82.692318,-102.407112,-116.61232,-33.241997,-65.089645,-84.043522,-97.496624,-20.943146,-44.585724,-57.990189,-68.75164,-10.387716,-1.459286,16.629818,32.759643,33.303356,59.618788,73.683123,83.929431,51.36214,78.382268,92.102901,101.844707,62.771949,89.559834,102.467337,111.221755,68.04599,92.501067,103.349565,111.209898,-15.372391,-13.870926,-3.281651,7.627258,9.795685,25.549393,33.246689,36.369438,31.266918,40.4072,38.322659,33.941288,46.549759,49.361401,44.12796,37.234554,57.089996,57.87426,51.526966,45.513611,-26.558574,-51.68068,-68.135559,-74.782929,-75.147936,-99.307599,-110.062638,-116.879574,-67.117789,-78.616827,-74.27778,-69.283314,-53.690748,-59.471081,-54.164312,-47.997885,-38.821373,-43.737199,-39.687669,-34.255701,68.291759,391.907403,-57.856121,-53.604529
60,0.737,-3.929981,-0.676918,2.113871,-35.311546,-63.6866,-86.218014,-101.518593,-59.974136,-93.13076,-110.91116,-124.085026,-45.685043,-81.361542,-100.829716,-114.976902,-31.70723,-63.637276,-82.305336,-95.532074,-19.901962,-43.951492,-57.645721,-68.790207,-8.771337,1.795393,22.290231,39.77449,33.640451,60.971431,75.437391,86.11731,51.708375,80.036808,93.958007,103.436571,63.307078,91.438837,104.054878,111.797392,69.04153,94.589405,104.609212,111.05472,-14.492626,-10.754585,1.185036,12.018585,11.483631,29.354324,35.591984,38.327808,32.029266,38.993111,34.251423,29.549561,46.835918,47.576466,41.034508,34.633827,57.626381,57.271614,49.883137,43.821201,-27.345305,-51.860404,-68.19098,-77.174152,-72.048837,-96.384304,-106.403601,-112.756468,-63.69836,-77.287032,-73.145648,-67.528089,-50.587667,-59.460213,-54.828469,-48.213209,-36.277379,-45.040504,-41.50662,-35.071517,68.972597,387.935431,-58.589201,-51.532649
61,1.711922,-7.030655,3.362446,5.420729,-36.098785,-63.53302,-86.049042,-101.340294,-56.823006,-90.643959,-107.912693,-120.66227,-41.741524,-77.701664,-97.134018,-111.38752,-27.87838,-60.349274,-79.485741,-92.819881,-17.706184,-43.601761,-58.942451,-70.830574,-5.411312,6.485646,28.51881,48.256403,33.24,62.310859,77.292682,87.960683,50.446814,82.886775,96.740048,103.979419,61.411649,93.406884,104.734627,109.04178,67.404156,95.371906,103.847953,106.783258,-16.166153,-12.477379,-0.449581,10.91074,8.409348,28.523254,36.495323,40.353813,29.096832,40.100555,36.643696,32.495384,43.828754,47.991886,42.135029,35.992126,54.048443,53.856754,47.455444,42.726231,-27.644301,-52.097989,-68.627648,-77.349307,-72.996953,-96.34889,-102.738915,-104.619802,-63.478158,-78.410241,-73.87174,-67.844869,-50.065783,-60.619608,-56.144895,-49.991929,-36.039022,-46.007638,-42.656135,-36.825136,70.666494,380.659442,-55.24478,-46.357254
62,4.079819,-8.392313,-0.510292,7.145758,-35.768394,-67.448502,-90.764923,-102.136459,-53.234138,-88.652115,-106.095715,-118.894272,-36.546021,-75.151978,-96.857014,-111.722488,-24.202995,-60.175896,-79.699917,-90.67749,-17.282639,-46.242027,-63.640366,-75.087662,-5.766192,9.217052,34.321126,57.101717,26.262944,57.132593,74.677243,87.930858,45.402793,82.623533,96.483969,102.532731,57.846736,94.921807,97.845998,93.460237,64.25822,94.368276,98.475235,96.153975,-16.250496,-10.80265,3.775921,16.205692,7.357121,29.808655,38.733559,43.643703,28.619385,43.198872,36.027718,29.462814,43.979015,53.287411,44.737701,37.776489,54.962139,58.933697,50.758667,45.502224,-27.686785,-52.779837,-69.59537,-79.292809,-68.229605,-93.024001,-103.171415,-108.864124,-57.546969,-77.482503,-73.739193,-65.72683,-43.313838,-61.27799,-57.466045,-49.39295,-28.327291,-45.432341,-43.297011,-36.461241,74.921923,372.194001,-55.579462,-39.284624
63,6.091232,-11.78556,-2.60622,6.180475,-35.973701,-68.179665,-88.397942,-97.1521,-51.107597,-84.476395,-101.911812,-115.529022,-35.634727,-73.819313,-95.823154,-112.085781,-25.952225,-64.259033,-80.652122,-87.161064,-21.708527,-52.574844,-68.340683,-76.762733,-9.72112,7.922084,35.175628,55.883876,20.342994,50.931369,67.153573,79.238561,43.309701,76.294672,88.103203,94.53914,58.218227,89.077378,81.595759,70.965858,64.736044,85.759404,82.458536,76.897109,-13.001289,-3.861752,13.004723,27.408772,9.553871,38.478928,50.055656,54.211979,28.134499,53.002224,47.644787,38.715878,43.43605,60.64476,53.981895,45.47287,54.883175,64.174576,57.421188,51.082649,-29.109021,-53.377612,-67.151041,-74.297077,-67.668263,-88.464227,-91.75645,-89.963928,-54.995936,-69.602872,-63.746556,-57.081896,-38.378097,-50.421342,-44.542795,-37.680194,-21.389602,-31.144067,-27.859347,-23.441167,80.59988,360.623008,-58.598957,-32.889582
64,3.938141,-13.5565,-1.773663,8.690599,-37.843437,-67.996101,-85.174828,-91.025448,-45.056763,-80.26268,-97.154503,-107.124939,-29.895973,-69.335747,-91.021442,-102.473145,-19.977951,-61.54644,-73.43914,-72.745972,-15.620041,-50.332947,-62.872353,-63.372459,-6.691336,9.142519,33.377086,53.259977,19.656082,42.892083,51.408391,56.529044,40.797694,64.053517,70.040652,71.620536,53.632271,72.253416,59.975273,48.379719,58.463005,70.26882,59.899814,49.440591,-5.487785,9.751053,28.718948,41.818542,19.033585,52.265396,62.202587,64.931202,31.156025,60.104542,52.99221,44.267578,42.147903,66.15366,56.21973,47.747326,50.542088,67.829647,58.993778,51.399937,-33.592224,-57.424456,-67.654462,-70.271598,-61.420016,-75.590161,-77.533786,-76.118096,-46.335595,-57.726354,-51.91212,-46.296661,-27.547013,-38.460596,-32.397879,-26.561137,-7.475412,-17.271436,-14.610518,-11.79578,85.077524,347.268246,-59.833117,-23.997244
65,3.052711,-10.49368,-15.418568,40.121373,-32.234688,-58.895874,-77.163277,-85.804367,-41.940651,-78.229408,-81.358795,-74.247894,-30.748558,-69.564514,-73.224678,-64.573746,-23.155518,-57.931824,-60.791931,-53.110657,-19.488945,-46.3377,-50.006905,-44.571991,-5.68005,3.883669,20.230917,35.835678,31.576567,52.436412,38.808528,29.548869,44.792329,56.25938,42.666941,33.566659,50.713576,58.377728,45.894265,37.387651,51.904,57.951341,47.53874,39.671305,4.95369,25.877666,50.033855,65.225487,60.642529,98.587074,110.231323,116.264534,68.343201,102.79232,110.818748,112.312202,68.603153,84.421005,68.418503,56.817055,63.295784,75.149231,61.458263,51.345234,-43.93409,-75.045924,-84.299995,-86.646573,-80.202269,-104.668554,-121.376023,-134.947899,-60.58972,-85.23925,-101.462225,-112.521662,-39.739292,-58.763452,-56.815875,-52.614408,-17.905119,-37.016037,-36.654674,-32.272062,89.148874,336.717355,-74.233046,16.066917
66,38.518867,-69.623775,1.973934,17.963751,-35.535736,-58.283501,-76.085587,-85.355759,-42.235336,-71.269226,-74.153366,-72.788887,-37.960625,-69.521828,-72.564926,-68.804054,-38.217201,-69.88678,-72.957687,-68.352127,-40.863304,-63.915482,-66.640434,-62.633629,14.861966,37.8769,58.472021,70.597208,40.840117,52.569422,51.742461,50.778537,36.955769,50.959898,49.179819,45.197226,31.882726,43.228746,41.322758,39.496305,25.144644,34.77635,35.373847,35.504634,8.94722,30.30138,56.093044,70.13792,58.918591,102.473431,111.925793,114.040203,60.864372,90.812016,76.137486,63.309803,58.118877,74.617596,56.23827,44.970417,52.103863,63.300991,49.567451,40.378933,-36.424036,-62.376376,-72.023643,-72.981855,-71.548875,-89.370846,-105.314803,-118.020907,-53.871121,-67.660081,-66.463111,-62.020694,-34.086258,-44.852381,-41.489515,-36.415422,-12.284442,-25.197101,-25.668751,-22.662988,128.543072,265.694115,-71.383781,32.631202
67,17.733078,-38.418451,-21.801968,42.081702,-32.299232,-56.957588,-73.840141,-79.703064,-44.486732,-67.925606,-71.832504,-70.787086,-36.261177,-63.609238,-70.952339,-69.198303,-28.745728,-57.321739,-67.33223,-69.866867,-21.691818,-42.723656,-52.979851,-58.699608,-15.030544,-8.531684,12.969007,35.281221,10.570744,28.106626,27.052114,24.652802,26.649502,48.522609,48.257082,45.817262,37.331767,55.592846,57.163344,58.206741,43.207196,56.798585,60.643165,63.660723,21.954632,50.895882,79.380054,98.749924,50.988464,94.356308,112.642021,117.369003,49.486198,93.116913,87.551479,76.732178,49.144306,89.895744,79.28587,66.349297,49.996948,82.982426,73.867664,61.851883,-34.086166,-59.157358,-63.426442,-59.88558,-75.556137,-82.133945,-73.125023,-64.746295,-57.542615,-53.458196,-41.526936,-41.458455,-36.778916,-29.645076,-20.99409,-20.645633,-15.080686,-12.678533,-8.087791,-8.022336,146.406641,226.353067,-93.055258,73.790307
68,-6.151314,-23.256872,-6.335449,13.312216,-11.654205,-26.499367,-37.704391,-39.27372,-2.034645,-11.442719,-13.343239,-15.069351,5.319328,-7.744904,-12.654533,-15.2108,6.391068,-9.884033,-18.372917,-20.499001,4.084053,-10.714073,-18.280678,-20.13073,-14.591128,-13.16068,1.117868,14.935016,-18.711054,-16.32755,-8.990242,-3.832292,-3.84668,5.836217,11.821869,13.192296,12.02793,23.140905,22.579532,19.491826,25.443949,33.945004,31.349943,25.876016,32.943192,71.177673,103.280067,120.27523,58.082142,108.912163,126.950226,129.083862,48.787766,104.006538,99.195442,83.1423,43.851814,94.453354,85.572739,70.476379,42.221317,82.131901,74.689407,62.105598,-27.738347,-41.443573,-36.754864,-33.32043,-64.36937,-61.088231,-45.343358,-33.335219,-45.763323,-31.379861,-18.195469,-18.605121,-23.181599,-8.913394,-0.712353,-3.514926,-0.010745,8.066858,11.908104,9.343023,140.253639,203.890104,-99.392395,87.896432
69,16.11763,-11.99193,2.183475,21.33875,11.911926,12.169075,6.747093,1.383934,-11.041489,-16.902809,-10.207329,-5.146751,-22.553329,-29.270897,-19.413185,-12.54982,-29.052658,-33.34774,-23.092918,-16.653328,-31.572304,-33.417892,-24.959793,-19.46331,-19.980025,-42.391226,-58.638685,-69.232895,-34.366266,-48.323279,-49.465909,-47.757892,-29.113343,-46.683373,-47.492736,-43.534349,-22.394651,-39.241399,-40.060518,-35.722366,-15.860408,-30.331432,-33.5293,-31.417745,35.963974,70.69828,98.252392,115.73679,67.529011,111.746807,129.386845,136.157856,55.339794,103.57069,119.929218,123.635387,45.131493,88.35783,103.987598,107.724323,36.269302,69.938793,83.980865,91.454144,-24.0516,-33.68522,-31.216562,-27.769129,-60.19529,-46.887119,-25.677952,-6.619984,-48.908951,-28.542677,-5.615181,10.742596,-30.646637,-12.533018,6.088899,17.480492,-8.252943,3.402818,13.061138,19.600507,156.217718,191.710931,-97.362471,109.047939
70,15.349274,-29.944936,6.851006,16.714169,-4.769554,-8.742142,-12.680168,-10.496063,-4.863281,-7.135735,-13.706589,-17.099876,-5.377007,-7.032509,-12.768288,-12.992821,-6.034126,-9.927292,-15.344467,-15.560303,-7.622452,-12.793922,-16.308861,-17.529602,-21.880764,-47.717754,-61.451169,-70.537712,-58.691698,-69.201865,-58.493047,-48.083317,-52.070973,-68.554536,-58.010066,-46.498863,-41.940509,-54.021792,-41.88728,-30.98012,-28.614523,-36.947001,-31.331048,-26.98104,45.007668,77.705956,100.120296,118.075504,70.320225,104.962749,123.693066,138.229008,54.695091,91.988811,116.55035,135.151119,40.722198,74.566383,95.577908,109.06477,29.032059,54.500656,70.969505,83.187733,-14.17172,-24.930247,-26.8618,-24.11369,-54.866167,-44.263158,-25.785737,-8.57917,-48.254983,-33.192915,-14.572912,1.729444,-33.026065,-21.188481,-4.238363,9.468129,-12.322789,-3.744236,4.307523,11.0532,172.454138,160.982753,-89.624319,124.978866
71,8.731728,-25.447962,16.129131,8.726692,-21.069031,-30.793762,-33.820152,-28.657951,-8.538322,-11.969376,-17.116699,-18.55751,1.169357,4.824944,1.597137,2.430038,8.449631,7.655182,-2.164192,-6.759911,11.664047,6.416245,-3.290291,-9.517937,-19.312935,-41.138371,-54.229829,-61.036083,-61.336159,-75.512665,-67.846474,-59.498961,-57.879186,-81.127043,-81.901486,-79.025615,-50.686838,-70.442462,-64.775534,-57.751795,-39.48661,-55.54502,-54.545559,-51.672992,43.060055,77.192802,102.876549,127.361069,68.752499,94.228935,112.463493,128.226013,54.757633,83.395958,106.091537,125.286598,41.858425,67.024326,89.152794,106.894913,29.569874,47.304726,62.101192,74.345627,-3.535088,-9.456643,-7.9424,-5.454352,-45.415545,-41.913277,-30.017215,-16.671623,-42.262476,-40.841198,-26.683804,-11.907702,-31.655762,-29.737177,-16.768201,-5.472816,-16.408505,-11.278095,-7.102347,-2.961426,182.05596,135.274312,-72.625093,133.445079
72,0.088921,-24.438096,39.742355,9.409713,-19.479103,-28.139305,-30.220757,-24.528122,-2.521019,5.995216,7.795143,9.815025,8.840103,17.001457,11.451645,8.007317,16.110764,20.006561,9.003525,2.143135,18.853683,18.428421,9.327164,3.05912,-22.016399,-44.064415,-56.981767,-60.478848,-62.72647,-84.413678,-90.705118,-93.968566,-52.657324,-73.767968,-77.569756,-78.494036,-38.979207,-54.810036,-55.400771,-53.091522,-22.250125,-33.443128,-35.327843,-34.388928,41.476135,69.00135,87.55394,107.242126,70.267982,92.573547,108.803329,122.452698,55.093231,76.255531,94.956436,109.060364,37.849617,55.3965,75.108719,90.828552,19.866486,29.420128,40.982437,52.085609,4.933611,1.828244,2.118904,5.437865,-37.31423,-42.256641,-31.895632,-20.425863,-40.24438,-47.424934,-36.938911,-24.852503,-34.491526,-43.280648,-34.868142,-24.812612,-21.330815,-28.557713,-26.34606,-22.935523,182.859192,110.699145,-32.168427,142.717722
73,7.064095,-6.285235,5.723648,-2.673669,-19.564819,-30.455132,-36.570396,-32.781487,-10.638885,-2.656517,-0.034676,0.476074,-0.208282,8.729439,5.86647,0.28759,7.411423,14.150047,9.141769,1.346741,12.079468,16.139259,13.196869,7.694664,-25.350428,-48.528846,-64.073092,-70.643089,-62.616986,-84.604332,-95.814471,-100.807208,-55.513497,-78.744774,-87.138723,-89.987393,-44.641781,-64.106684,-70.351411,-69.548717,-30.636664,-46.242383,-53.530197,-54.979078,41.201019,70.853462,91.970787,112.801895,67.615929,90.696945,110.27401,128.967361,51.895294,76.716042,98.001823,115.358505,34.610939,56.373138,75.628395,89.262657,17.486,29.512253,40.540695,48.849678,9.971518,7.308532,7.279818,9.299118,-33.620784,-41.040837,-40.687717,-38.668602,-34.67687,-40.315424,-33.047987,-24.930185,-27.586997,-29.68824,-17.225092,-5.713766,-13.539889,-16.311927,-12.501433,-8.968506,191.570778,103.746172,-24.797287,139.376315
74,5.520515,-6.034065,7.177792,-4.263001,-20.996361,-32.557068,-40.714417,-41.283531,-9.698181,-4.079475,-6.488228,-10.072861,-2.340088,3.270721,-0.152893,-5.16655,0.497475,-1.663628,-9.126778,-16.494026,-0.759659,-7.621078,-15.677032,-22.723045,-27.430212,-52.111173,-66.304412,-74.348021,-67.273153,-85.378744,-99.596962,-109.576569,-58.446425,-78.080864,-92.611724,-103.238383,-44.944914,-60.680154,-68.779801,-71.957446,-28.683066,-38.084659,-42.906378,-43.837605,40.780735,71.913128,94.164333,114.408245,66.802311,91.55302,113.181095,132.921696,51.164188,79.73505,99.165173,111.18948,35.070248,59.73238,77.963963,87.144642,19.83902,35.464497,48.654728,57.027798,10.416986,9.589839,10.828984,12.120371,-33.6817,-37.458232,-37.725457,-36.237457,-33.110941,-26.228117,-11.79402,1.747043,-24.299528,-15.631746,-0.810906,11.803468,-9.209148,-4.398111,1.649971,6.850097,198.011999,97.766633,-16.69879,135.167839
75,-0.494385,-7.722105,12.304058,6.587534,-22.114449,-33.903351,-41.343727,-42.130737,-10.537949,-7.338753,-8.146935,-8.703117,-2.979012,0.285301,-2.388382,-5.48069,-0.699577,-5.354118,-13.436508,-20.484009,-3.232956,-12.68486,-21.439247,-28.248482,-29.50904,-55.841669,-71.012819,-79.135932,-70.234579,-86.327817,-100.758734,-112.970464,-60.031744,-79.558706,-93.778714,-106.326336,-45.235326,-60.562859,-67.934469,-72.49063,-27.853944,-36.182685,-39.992685,-41.76662,41.522369,72.094574,93.262825,112.744904,68.815041,90.749016,109.805717,128.8908,54.223137,78.050537,96.635056,112.279816,37.143059,57.28569,74.00528,86.311798,18.636818,30.743179,42.033234,50.441895,9.920018,7.377877,3.869898,2.93864,-33.40052,-36.480013,-32.720185,-27.004628,-36.383435,-37.506058,-28.095326,-17.829814,-31.819617,-31.848639,-20.9634,-10.323866,-19.993981,-21.31581,-16.828469,-11.605187,197.118788,91.300099,-4.793558,143.010944
76,-4.976578,-8.70477,5.141773,5.243474,-24.707451,-38.116608,-44.937057,-42.546387,-10.217171,-8.613167,-7.872505,-6.239548,1.11042,3.322105,0.304756,-3.07045,5.099831,-11.670456,-25.125618,-32.389526,2.067261,-17.56382,-28.987656,-34.99752,-26.196069,-52.708052,-68.868629,-74.094659,-73.652403,-89.530965,-103.332213,-114.236533,-64.602694,-83.700399,-97.990525,-108.293581,-49.867595,-60.148853,-59.614558,-57.660312,-32.602921,-37.374684,-37.597881,-37.413,35.010624,65.8354,88.706646,109.611225,66.091061,86.626453,101.355915,115.436954,58.017368,81.048832,97.002125,111.868229,45.603275,66.824284,83.920498,99.32539,29.378757,44.502697,58.295116,72.146587,6.73944,1.888266,-3.646856,-4.927806,-24.705908,-29.492738,-26.259301,-21.823769,-30.556142,-36.267622,-30.561761,-24.152006,-33.120883,-40.413977,-37.924016,-34.152856,-31.46202,-39.479755,-42.951672,-44.980142,192.840414,83.344655,1.046419,149.003744
77,-7.327652,-8.590903,-0.523281,-2.907209,-24.56337,-37.958794,-44.578857,-40.03212,-11.16909,-7.846184,-5.302048,-3.093224,1.780357,8.352814,8.122559,6.161385,7.644997,-8.671074,-23.898811,-33.14827,5.294266,-15.351677,-28.003006,-35.651779,-22.729987,-47.103338,-61.79339,-65.161072,-70.851527,-91.404689,-108.812562,-123.800622,-61.501465,-80.399592,-97.791472,-111.10869,-46.610755,-55.762197,-55.176834,-52.762609,-29.773332,-35.062069,-35.718383,-34.223252,37.468529,67.034569,89.103241,111.088257,62.522163,81.687126,98.190193,114.790764,51.607819,72.277794,90.625763,107.677689,36.72924,55.908966,73.177299,87.564468,19.496155,33.962059,47.471695,59.752007,7.488349,3.05893,-1.819414,-4.056508,-26.367982,-29.541335,-25.939681,-21.782211,-30.813209,-34.111792,-27.715437,-21.501617,-30.768254,-35.293541,-30.908922,-27.045137,-24.954823,-30.13204,-30.283761,-29.974453,186.169882,75.130692,1.180258,146.473475
78,-6.260033,-5.666465,-5.352745,-3.459443,-24.495049,-37.954216,-43.249283,-37.960396,-8.714218,-4.33342,-1.247177,1.485786,6.931801,10.651016,11.011162,11.370163,13.931923,-14.772949,-25.748863,-26.619072,11.45153,-17.854729,-27.227325,-27.418098,-23.013113,-46.105945,-58.432562,-55.297093,-69.585922,-94.609288,-113.058768,-130.315352,-59.836026,-77.865788,-91.21283,-100.580213,-45.104168,-50.157575,-42.040205,-36.4358,-28.378019,-32.461234,-28.682109,-24.641224,37.568092,67.657814,88.401604,103.122368,55.637856,80.063553,98.630104,115.484848,40.607414,67.687454,87.818871,104.31015,24.407845,49.138069,69.043922,84.089127,8.281689,25.327721,38.055725,48.355522,5.864745,3.409611,2.632173,-1.371477,-32.604403,-30.624376,-23.873883,-17.610168,-35.466102,-30.019037,-21.670319,-13.572555,-30.307411,-25.056403,-16.323289,-6.538381,-17.984128,-17.256647,-13.077626,-7.23437,180.29912,69.682376,-3.783216,143.23218
79,-6.670303,-4.045053,-6.362801,4.720387,-22.146034,-36.008835,-40.328865,-31.81263,-4.981155,-0.924568,2.987709,5.687027,12.291527,16.827049,16.39698,15.164566,20.54306,-8.838959,-20.359612,-23.101959,18.592644,-10.360451,-20.744934,-23.712273,-20.568908,-42.435655,-54.892596,-52.758965,-70.845105,-95.567438,-111.859544,-127.548347,-61.681776,-75.430907,-83.988557,-88.754763,-46.273567,-45.496808,-38.887168,-35.547489,-28.732436,-27.573689,-24.768121,-23.192127,29.727516,58.662758,80.23098,95.745506,49.797821,73.302383,89.231186,102.596054,38.094749,65.537224,83.866768,98.079529,26.059113,50.355721,68.492203,82.893333,14.034061,31.751289,44.527016,56.679611,3.507053,-0.719269,-1.218089,-4.725265,-37.491207,-35.285976,-29.940181,-25.432154,-40.320117,-35.342293,-28.219938,-21.510633,-36.518885,-34.440304,-25.529535,-16.073447,-26.095601,-28.728576,-23.320043,-16.291488,174.736776,65.635702,-9.038057,147.950946
80,-3.267632,-2.349572,-11.823406,-6.879737,-21.111946,-33.941345,-37.832909,-29.86805,-2.995377,2.375221,6.428261,9.246483,14.240685,18.992386,18.577881,17.036133,22.612381,-7.795258,-19.450493,-21.4888,20.572701,-9.016685,-19.46846,-21.819191,-22.875749,-44.469096,-54.908929,-50.76276,-70.552748,-95.805363,-111.651074,-128.182308,-61.509061,-74.07283,-82.8065,-89.332314,-46.394597,-45.856196,-38.855243,-35.628907,-28.882489,-28.3075,-24.82805,-22.468073,23.80022,48.355808,67.609463,77.959614,61.576824,83.262005,75.572948,65.742016,56.987286,77.258892,69.880772,61.033802,49.795933,66.757679,61.493053,53.853893,41.895275,55.621319,53.218517,48.102551,10.174801,7.873548,5.132324,3.260792,-13.337842,-6.457364,-0.224092,1.577661,-20.793525,-13.28591,-5.778542,-2.123226,-23.722038,-17.448937,-10.476451,-6.627363,-24.29817,-21.540211,-16.751343,-13.040637,172.280817,63.433126,-20.049791,141.218206
81,-0.410728,-0.778981,-55.710182,6.311386,-20.376663,-33.474197,-38.474464,-31.334839,-3.486443,2.948112,7.471962,10.766144,13.184166,20.075684,20.662422,19.554977,21.551628,-8.450317,-19.420166,-20.255241,19.724464,-10.242348,-19.621925,-20.225372,-22.33287,-42.689264,-53.483205,-52.226924,-69.329565,-95.206569,-111.349207,-127.489839,-60.750024,-75.549622,-85.296832,-92.941132,-46.360079,-47.433548,-39.80413,-35.791836,-29.63674,-29.176082,-25.185832,-22.324781,39.139881,67.171955,85.580235,102.467709,68.775558,94.204273,101.895847,101.970119,57.074318,80.545177,86.226025,86.617985,42.48539,63.75618,70.785027,72.412319,26.298008,41.406097,49.073582,52.936993,9.271824,8.912437,3.582821,2.494037,-14.697401,-13.523834,-6.65194,-0.389398,-24.147622,-24.091429,-15.190601,-8.76121,-28.991818,-30.576766,-23.543888,-18.446083,-29.791672,-31.437937,-28.376105,-26.495435,172.98234,62.778587,-74.647722,147.654034
82,-0.527115,-1.587819,-38.03421,3.418102,-20.209351,-32.0327,-35.11425,-27.033119,-0.14019,4.908371,7.912216,10.293617,14.654617,21.501846,22.533646,22.241249,21.390152,-2.983017,-15.657692,-20.258446,19.051437,-5.792656,-17.84935,-23.430862,-23.312324,-45.190557,-56.25339,-52.774403,-69.722483,-96.36618,-113.155345,-130.460929,-59.196014,-74.860302,-85.202786,-93.485431,-43.104659,-47.507278,-42.761543,-39.207066,-25.962096,-29.765613,-28.702549,-25.845141,35.286169,62.986135,82.107439,99.637584,55.824737,78.641338,88.459196,91.997051,44.526157,65.487556,74.51334,77.14837,31.119489,50.607834,59.732551,62.869606,17.027692,29.908704,38.180322,42.090711,8.064635,7.822141,3.017249,1.375583,-12.086902,-13.783433,-8.685937,-3.317232,-20.854967,-22.6151,-15.43504,-9.840607,-25.039823,-26.851086,-21.28654,-17.014276,-25.163941,-26.337848,-23.626665,-21.736979,174.196815,61.260376,-110.940342,151.141744
83,1.655273,-2.518861,-38.034211,3.418101,-21.081276,-32.933121,-36.356621,-27.857323,-0.910378,5.046043,8.376846,11.014366,13.51387,20.801239,21.294022,20.710831,19.374046,-0.726128,-11.640244,-15.993347,16.178741,-7.327766,-18.08773,-23.056068,-22.190011,-44.392001,-55.274368,-52.225257,-68.674702,-96.229094,-113.272455,-130.986734,-58.101117,-73.981254,-82.818387,-90.727534,-42.230891,-47.790033,-45.466334,-44.689113,-25.580293,-28.631567,-27.487146,-25.286917,31.432457,58.800316,78.634644,96.807461,42.873917,63.078403,75.022545,82.023983,31.977997,50.429935,62.800655,67.678757,19.75359,37.459488,48.680077,53.326893,7.757378,18.411312,27.287064,31.244431,6.857445,6.731845,2.451677,0.257129,-9.476403,-14.043032,-10.719933,-6.245066,-17.562311,-21.138772,-15.679479,-10.920005,-21.087827,-23.125406,-19.029192,-15.582469,-20.536211,-21.237757,-18.877224,-16.978523,180.030727,57.624404,-144.795914,153.442734
84,1.370201,-1.799839,-20.883923,5.212785,-19.856873,-32.211685,-37.231636,-29.301453,-0.805779,4.220123,8.040962,11.002808,13.705444,20.234756,22.354202,23.166389,19.871063,-5.597076,-15.327415,-16.076546,16.471825,-9.673004,-18.74588,-20.703735,-21.850167,-43.71781,-54.978893,-52.555992,-69.707416,-96.72637,-114.290966,-132.576128,-59.668806,-76.237182,-88.34826,-100.161916,-44.092017,-48.222224,-42.239844,-39.451875,-27.413416,-30.950634,-28.197646,-24.579103,26.842003,47.041912,60.270252,69.449043,24.384727,29.857407,28.624706,25.718422,6.470604,5.081348,1.161346,-5.481606,-11.42664,-16.789455,-23.190651,-30.937614,-26.461887,-38.232765,-48.159256,-58.902912,7.632351,8.632584,7.953885,5.678691,-12.154272,-14.445768,-10.35221,-6.309472,-19.695603,-21.487229,-15.072782,-10.005049,-21.332174,-19.469349,-13.227926,-9.670423,-17.557742,-14.149304,-7.713059,-3.206699,183.04636,54.814004,-164.034405,157.644958
85,-0.21492,-2.386376,-57.787743,0.339813,-19.215889,-30.01133,-34.814186,-29.545212,1.578255,6.492462,10.617943,14.013863,15.988197,21.254196,22.996788,23.216972,21.994514,-4.005432,-15.293312,-17.310562,18.35186,-6.765633,-16.862869,-20.141487,-22.297796,-46.133887,-57.480711,-54.241315,-70.660132,-97.516467,-115.391544,-133.14664,-60.29057,-78.313725,-91.634555,-103.666808,-44.55249,-50.739109,-44.429576,-40.195751,-27.582118,-33.193903,-30.836612,-26.670559,31.343822,57.061443,74.284515,86.780949,52.65255,67.682648,64.039364,57.833004,42.015152,55.445023,51.246872,42.726288,29.846535,43.221645,38.484306,29.766827,17.331104,28.226795,25.127048,17.687073,11.704976,14.805279,12.70138,8.956218,-14.590511,-12.307598,-3.888917,2.198932,-24.426425,-18.4107,-8.598683,-3.370893,-28.98342,-23.145969,-13.358899,-7.02695,-30.020704,-27.980717,-20.569927,-15.439517,184.161415,51.777458,-220.492172,157.3346
86,-0.756454,-1.11441,5.345364,11.372018,-19.085312,-30.841141,-35.001526,-27.998657,1.972961,7.449646,11.915932,15.991745,17.629051,24.274406,26.317863,27.420502,24.769249,-0.818024,-14.683571,-18.003159,21.932602,-2.680206,-14.482384,-19.004402,-19.77875,-43.157425,-54.870366,-53.638199,-72.40279,-100.230089,-118.592006,-136.887294,-63.427738,-81.511779,-95.141453,-107.491289,-48.165568,-53.695596,-45.495234,-39.236212,-31.292639,-35.985361,-32.013266,-26.116781,15.310535,28.579216,37.281418,44.544697,9.026184,8.980751,14.452343,19.559097,-8.992367,-19.093666,-14.475002,-9.515648,-25.084877,-39.231834,-35.688858,-30.199585,-38.304749,-56.839428,-70.57045,-82.728195,3.181628,-3.025029,-6.467615,-6.374495,-46.873503,-33.287856,-18.195376,-10.69937,-49.103372,-33.189426,-18.030935,-9.884759,-42.97452,-30.886939,-18.297944,-10.821142,-31.765709,-28.87264,-25.026763,-22.698216,184.509344,50.032546,-214.042425,168.076115
87,-0.790901,0.155457,-13.026924,-2.563136,-19.031525,-30.433617,-34.604301,-26.974182,1.675529,7.74971,12.765312,17.650108,18.035774,26.673203,28.936615,30.391731,25.771065,1.098747,-12.74929,-15.320549,22.777061,-2.22393,-13.877907,-17.699547,-20.863149,-43.6589,-55.147904,-54.676254,-73.712825,-101.666156,-119.34709,-137.999728,-64.029496,-82.776273,-96.209458,-108.908708,-47.842274,-52.365461,-43.930416,-38.529108,-30.194192,-34.326344,-31.114118,-26.509699,20.468845,34.063969,38.16679,30.7057,12.162724,2.383118,-1.699448,-5.845242,-6.420422,-21.860161,-29.253387,-35.489445,-23.223839,-37.795143,-47.03064,-53.98756,-36.55798,-52.350197,-65.654812,-76.913452,1.192956,-2.892575,-7.801609,-10.370488,-40.744589,-30.771218,-21.774369,-17.579478,-44.922622,-36.07879,-28.281689,-23.058654,-42.327376,-35.087572,-28.507201,-22.387982,-34.094378,-30.918493,-26.51538,-20.624452,184.319601,49.749204,-226.468191,165.074181
88,-0.335197,3.578838,-8.468628,-0.474367,-19.513092,-30.814819,-35.366249,-29.131508,0.495529,7.949638,12.357674,16.749344,17.374649,28.533783,30.182762,30.655975,25.125847,4.526253,-8.490257,-11.696777,22.816544,-2.553864,-15.263786,-20.063438,-23.202069,-45.015217,-55.127001,-53.298108,-74.437436,-101.884413,-117.643489,-135.160228,-63.941965,-82.007172,-93.8957,-105.646248,-47.119547,-50.271597,-42.799149,-38.706795,-29.136129,-31.631772,-28.108047,-24.072997,20.474224,34.121532,38.279285,28.876305,12.442932,5.87677,1.022358,-4.09584,-6.142101,-18.903179,-30.220928,-39.063663,-22.530785,-36.261692,-49.856243,-59.498405,-35.174332,-51.148739,-65.049076,-76.640453,1.700853,-5.257554,-11.324408,-14.652508,-40.828508,-39.89972,-29.464456,-19.868813,-43.813585,-46.495096,-36.247986,-23.913588,-40.771265,-43.566583,-36.087744,-25.08734,-32.321833,-35.027057,-30.53564,-22.498269,185.087128,52.601039,-233.834095,163.872811
89,-2.109489,4.794487,-0.379601,-0.189265,-19.732361,-31.954193,-36.640205,-29.664917,-0.919762,7.717323,12.457237,16.707687,16.909332,28.693314,29.72374,29.775009,25.666237,0.71434,-12.490082,-14.611244,23.621864,-3.779411,-14.778557,-16.563148,-21.683348,-43.155016,-53.145646,-50.966104,-73.755649,-101.50647,-116.49138,-133.351805,-63.42002,-79.899753,-90.886016,-101.390749,-46.808047,-46.157785,-38.157926,-35.272762,-28.558145,-28.463173,-24.545542,-21.828215,18.939114,31.757812,35.347195,28.19046,10.3755,4.254055,-0.704556,-5.468559,-10.289097,-21.221752,-31.951904,-39.64674,-27.129707,-39.653034,-50.891075,-57.931938,-39.839172,-56.749306,-69.922142,-80.50169,2.075431,-5.840292,-12.081098,-15.506516,-43.617342,-42.034185,-35.002604,-28.571051,-46.467926,-47.337928,-38.992174,-30.44777,-42.361215,-43.142605,-35.723231,-26.278011,-32.417978,-33.737461,-28.412847,-20.012444,183.075886,57.652377,-234.115448,163.940397
90,-1.599998,6.632087,-1.880322,2.179296,-21.254768,-32.381058,-35.73761,-29.166985,-1.527214,7.238731,10.511971,13.304558,14.60598,25.218544,24.73011,23.596344,22.030563,4.051552,-6.839561,-10.084648,19.903107,-4.28009,-15.014648,-18.144493,-22.493483,-42.715137,-52.480564,-53.035144,-69.275873,-97.111322,-112.417613,-128.852331,-58.813717,-75.727587,-86.361471,-97.511341,-42.90397,-46.597849,-43.538054,-43.84764,-25.735843,-25.179132,-22.903444,-21.881475,18.609352,32.600956,36.153717,27.421188,16.091595,7.698841,0.455761,-3.40313,-3.843441,-18.387451,-26.345043,-27.885303,-21.263924,-34.037704,-40.650616,-41.355686,-34.45055,-50.046844,-60.06506,-64.894009,2.201896,-6.255872,-13.569591,-17.094737,-45.192965,-42.922341,-28.134846,-17.242629,-48.742749,-46.58908,-28.427852,-16.089008,-44.915953,-43.874656,-27.751376,-14.261443,-36.15042,-34.851562,-23.991641,-13.303632,181.781759,64.921759,-235.689898,166.756988
91,-4.242783,6.6516,6.765118,-0.093552,-20.816231,-30.984993,-33.542519,-25.66967,-0.628281,9.495735,12.449684,13.924026,14.164238,26.437569,25.724373,23.598633,20.687485,9.29924,2.559013,-0.646248,18.515854,-3.046875,-12.837181,-17.018051,-21.868476,-41.285492,-48.909259,-47.013244,-64.757132,-92.299792,-106.686002,-121.546547,-53.174453,-70.011475,-79.312754,-88.191599,-36.925573,-43.516195,-47.133688,-50.862579,-20.611948,-20.24901,-19.839882,-19.337975,16.466389,27.525444,30.748444,24.377518,7.932816,-1.265659,-4.66198,-5.461922,-14.009514,-28.681469,-32.282581,-31.555367,-31.493397,-46.337471,-49.760857,-48.810539,-43.103428,-62.441597,-72.359047,-77.809124,1.734507,-6.270384,-10.448478,-12.495813,-44.779855,-41.016908,-23.236495,-10.906543,-44.632333,-40.032607,-20.715781,-8.172852,-37.978171,-33.851267,-17.054167,-4.117394,-26.775967,-20.525405,-8.696928,2.266919,178.038797,71.914808,-228.424959,167.004885
92,-3.72036,9.998071,5.276012,-3.51082,-19.767952,-30.371246,-28.119507,-18.228149,-3.250008,5.472794,9.645309,13.672829,8.541527,17.638321,18.215103,18.796806,16.480408,21.356392,14.992447,10.266037,21.477013,20.887642,13.424034,7.917252,-15.598031,-36.423851,-46.903884,-49.080432,-61.910778,-88.275703,-101.913714,-116.181085,-54.431012,-77.366011,-88.749205,-100.248243,-41.694033,-59.133893,-63.871199,-67.146966,-25.847981,-38.395881,-41.609805,-43.132508,17.721462,30.723381,33.56781,24.735546,9.264107,3.367596,0.783749,-0.241299,-11.141739,-25.508995,-28.52314,-27.983208,-27.714729,-40.35244,-41.592979,-39.146805,-39.232578,-51.738338,-54.840202,-53.3424,1.014806,-1.200613,-2.642362,-2.394187,-40.857839,-33.479591,-16.506256,-2.626924,-40.302024,-28.355172,-8.660804,4.528219,-32.460463,-19.63447,-1.311332,11.825327,-21.307165,-8.271529,5.890804,16.239432,174.162025,82.584646,-223.305359,164.165832
93,-4.858475,9.533121,-1.175251,3.655069,-18.005562,-27.313271,-25.943184,-15.911293,-1.341362,10.151138,10.336533,9.410934,10.655479,15.325356,5.34874,-1.110191,19.02317,20.184174,9.125061,2.634888,25.500183,26.738777,18.019867,11.185799,-11.321629,-29.641865,-39.462249,-42.93429,-53.735733,-82.240372,-94.518206,-102.09915,-47.832085,-64.708133,-59.475558,-54.986828,-37.189587,-48.869276,-44.824871,-40.207515,-23.579827,-34.129761,-32.44308,-29.525558,21.052094,34.688358,38.828373,32.88929,12.847366,13.956871,16.591988,19.199352,-9.812565,-15.417309,-12.066708,-6.522675,-27.393208,-34.001541,-28.355713,-22.327766,-39.628086,-50.160198,-47.02343,-41.325989,-2.300882,-5.124111,-3.722377,-1.154239,-42.025046,-30.750285,-12.210341,3.445611,-38.661439,-19.435695,3.398557,20.013741,-27.55606,-8.001989,13.204585,28.049137,-13.693339,2.711028,18.596631,30.170449,168.261509,92.943231,-225.522652,168.646365
94,2.699776,-0.323696,9.162941,-6.533873,-18.094711,-31.315155,-36.806374,-30.025749,-6.000023,-4.281693,-11.075592,-15.272713,7.879601,4.464912,-7.017746,-12.957344,17.669907,11.068497,-2.081337,-8.772011,23.42926,16.49826,5.659676,-1.701622,-9.319527,-20.896278,-23.121052,-16.713706,-46.939637,-68.439772,-60.335679,-51.368068,-39.222905,-50.237696,-36.189323,-27.737174,-26.908205,-29.321164,-18.11189,-11.294274,-13.442787,-10.480373,-3.885243,-0.655203,20.505352,32.211113,41.05648,46.306458,8.331127,16.198254,21.218605,25.651588,-11.131268,-8.431549,-1.782761,6.361828,-26.621647,-27.023335,-17.772102,-9.071045,-38.264351,-45.689049,-37.235126,-27.741165,-5.014319,-4.686671,3.782027,9.107321,-29.269263,-9.993872,12.208736,28.906294,-20.146442,2.510031,26.803754,44.092326,-6.842316,15.178375,37.272302,52.008852,7.42277,25.217818,39.414794,49.397921,169.803257,93.213111,-217.517738,162.706068
95,16.692924,60.261579,-1.49374,-15.775501,-31.433372,-53.063278,-63.661537,-57.551994,-19.426689,-39.361725,-53.425369,-57.170677,-2.548943,-25.091171,-44.709206,-49.736023,6.562614,-23.436584,-40.004997,-42.367859,8.36483,-22.70153,-34.474869,-34.224014,-27.339871,-49.508949,-48.459716,-25.1473,-70.6957,-83.788702,-69.358927,-57.724903,-56.006049,-66.856955,-55.46351,-44.181432,-36.821091,-36.958671,-28.940504,-23.846527,-14.749703,-13.50216,-11.57425,-10.922104,-11.989574,-11.986313,-5.615902,1.68211,-22.437057,-19.129086,-5.071907,9.833221,-11.357632,1.401043,15.826435,29.170418,2.997894,18.259907,30.087261,40.475864,18.768311,30.506401,38.377247,44.177055,20.167932,37.787609,48.375952,55.706776,34.242209,55.148922,70.980864,85.261758,22.827275,43.760973,64.327442,81.143005,11.686883,34.760912,53.837899,68.305465,1.992933,25.577268,41.753961,53.13203,185.683908,153.618738,-219.823751,147.074615
96,0.130463,4.041194,11.614895,30.305744,-21.611137,-49.260864,-72.446365,-74.756355,-21.551857,-59.917603,-65.710831,-62.388496,-8.855667,-52.109299,-58.591576,-55.007744,-2.884598,-45.040512,-48.697357,-43.690567,-1.594048,-33.90152,-37.461319,-33.456917,-24.07241,-34.220102,-19.588219,-1.516034,-41.751615,-25.780365,-12.397383,-7.577578,-23.606133,-1.039506,4.464864,0.82727,-2.720476,17.585962,18.802383,13.541865,17.979003,33.391474,32.203087,26.455112,26.154099,47.431984,60.854931,67.702103,31.252728,46.275845,55.454235,65.907784,9.713745,28.59026,41.892529,51.848259,-5.488472,11.637554,27.192478,38.131428,-15.914726,-0.710506,9.045925,15.632801,-8.936334,-0.301527,17.839385,30.273819,-18.120782,9.81214,31.889765,48.079735,-13.352045,25.46939,54.064709,73.695782,-3.626725,32.962617,58.443183,75.153956,9.40644,37.810333,52.700395,61.197746,185.176277,157.661167,-208.846951,177.381594
97,-6.398048,19.722094,11.381035,6.329355,-30.835762,-60.398827,-78.916512,-80.002213,-37.059288,-73.824348,-70.606041,-61.67942,-22.056541,-60.306587,-59.244804,-51.468201,-11.059685,-47.774506,-46.879578,-39.370308,-2.631226,-30.046577,-31.00296,-25.589218,-18.646463,-14.504493,13.48666,35.515132,-20.841629,1.588529,10.173874,10.520912,-0.503081,24.8404,26.736014,22.102448,19.981816,41.421682,37.318676,29.576718,37.605013,51.301748,46.808109,40.508147,35.647888,63.2131,80.138054,90.490437,40.747547,61.94561,73.6726,81.161327,17.244873,38.996086,57.337818,68.352184,-1.79472,20.333061,40.697765,54.589462,-15.116901,2.659264,18.23782,30.374794,-1.865603,7.899607,25.736769,43.270675,-17.471909,10.673682,33.770992,49.479,-9.093921,27.508388,55.615879,72.305595,5.269965,39.802525,64.305829,77.646141,22.709517,51.603029,68.104282,75.918674,178.041716,177.681068,-198.202429,184.008756
98,-7.882462,23.96836,14.31982,9.690739,-38.048401,-66.144104,-79.95306,-78.665542,-39.438629,-71.499653,-72.083072,-65.667743,-22.687111,-57.550392,-60.791416,-54.952125,-11.059856,-46.329288,-50.203972,-44.304142,-3.265228,-31.414604,-36.212024,-32.431354,-8.891102,2.644956,31.746752,55.437359,10.636879,33.621124,33.742278,30.600016,27.221465,49.036095,44.276898,37.598468,40.409285,58.187537,50.607057,42.727086,49.287543,60.102294,53.06957,45.604594,34.831066,69.673347,90.271568,97.392941,50.592213,78.82925,88.725529,94.313393,26.786213,59.558487,75.571976,83.648186,7.02301,38.412209,56.776485,67.843781,-7.600365,19.24736,34.691448,45.307617,-4.115171,7.803708,29.48224,51.111557,-9.117263,28.796996,51.313481,62.828821,1.186905,45.976207,72.260209,82.381966,14.902412,57.225774,78.291433,84.716131,29.201523,60.447293,75.903174,81.194814,169.620208,201.436605,-184.421654,193.486672
99,-7.882461,23.968361,0.760803,11.98347,-45.26104,-71.889381,-80.989609,-77.328873,-41.81797,-69.174957,-73.560104,-69.656067,-23.31768,-54.794197,-62.338028,-58.43605,-11.060028,-44.884071,-53.528366,-49.237976,-3.899231,-32.782631,-41.421089,-39.273491,0.864259,19.794403,50.006842,75.359585,42.115386,65.653717,57.310681,50.679119,54.946011,73.23179,61.817782,53.094486,60.836753,74.953391,63.895436,55.877454,60.970072,68.902839,59.331031,50.70104,34.548054,66.490574,85.363998,95.393658,66.777363,93.734894,108.470592,119.447708,47.809696,76.927414,95.538712,109.570713,30.742378,58.351936,78.13179,93.349628,16.963921,41.264648,55.867081,68.982468,-8.042559,1.78329,20.068575,36.519502,-10.045742,16.414062,37.715423,56.985503,2.015719,37.396049,58.404713,74.675329,17.461473,52.302969,70.394111,83.613701,34.225042,60.63452,74.393685,85.000554,160.810604,222.679843,-184.587994,202.74502
100,-7.436485,36.799788,11.484661,5.411621,-39.825096,-66.218834,-77.503281,-77.978439,-40.783081,-67.894821,-75.124855,-73.293686,-25.24704,-57.217369,-66.307526,-64.881134,-16.208611,-49.534264,-56.862717,-53.859329,-12.61116,-40.773926,-47.725525,-45.389786,-4.702417,10.750561,40.786888,68.252792,37.224136,64.533874,63.468988,58.853577,57.213918,79.504396,69.090066,58.719702,68.856835,84.998763,72.754706,63.262556,73.712702,83.18855,73.478482,65.599871,37.009563,66.786289,85.715561,99.987431,68.455582,93.799381,111.940498,128.162956,54.755802,83.170738,104.720249,121.096058,40.595398,68.347263,90.19146,106.528988,27.090511,52.021294,68.871002,83.667183,-7.299578,2.382331,19.229449,34.620677,-1.024748,20.035415,37.306388,52.880521,10.983978,38.885531,59.347765,74.966482,25.686319,54.214639,72.713518,86.967304,41.425943,66.368602,80.063176,90.656953,152.365265,257.519657,-174.112186,206.196667
101,4.835358,3.86712,33.573532,14.311399,-36.702461,-65.390854,-81.722145,-90.04818,-49.839134,-67.637444,-82.229347,-94.422226,-32.297058,-53.152885,-71.727448,-87.097092,-18.316498,-34.112892,-49.642868,-63.875771,-8.177719,-18.369026,-28.649712,-39.517937,7.112351,24.562894,47.878923,69.278281,29.331816,63.456514,86.774334,105.401902,39.102522,74.010215,96.32842,113.833982,47.124148,80.492465,101.173172,114.993161,52.551824,80.847221,95.816015,105.341448,38.578205,75.960674,97.192383,109.421024,65.473137,97.305565,111.209679,120.629425,47.8125,83.542728,100.339737,110.645084,31.323624,67.553215,85.24498,96.327496,17.938786,47.844086,62.770729,73.279781,-8.148708,3.386084,24.874239,42.930801,-5.617682,25.799137,46.053149,58.099728,8.435971,45.251752,67.444541,78.124892,24.370541,60.509105,78.41092,84.226512,39.955851,69.055362,81.471518,85.86932,155.060062,259.47361,-142.679214,218.594899
102,-12.602005,35.472215,6.878986,5.954407,-40.24292,-67.469559,-81.910858,-92.450294,-35.325165,-61.422157,-78.142433,-90.382118,-17.87899,-48.027306,-70.484505,-87.086563,-9.411278,-36.634941,-58.385353,-73.176727,-7.039261,-27.608871,-44.80442,-57.286606,3.81247,23.268358,50.885612,72.619905,39.505752,77.590442,96.987111,111.895575,56.042142,96.305387,109.937593,118.519727,67.575946,104.842875,111.301721,112.367286,74.088144,103.594344,109.679847,110.448269,39.713516,71.757889,94.450378,112.0471,69.331284,98.411465,115.78474,129.193783,55.195026,88.147144,107.148285,121.357498,41.518764,75.205135,94.566879,108.350487,29.255676,58.157043,73.583965,87.559147,-11.618464,-4.581263,10.131514,24.168864,-8.724716,15.349485,32.962864,48.038795,7.427031,34.922328,52.255792,64.621374,25.534042,50.14189,64.968967,74.943696,43.532744,64.369617,75.080535,83.143904,140.157137,293.367547,-138.101149,222.971027
103,2.069664,11.730232,8.664093,-1.135837,-40.689812,-68.400764,-84.717865,-97.495308,-46.329689,-65.611839,-82.353172,-97.07634,-29.463158,-51.517296,-73.47496,-90.517845,-18.764191,-38.073578,-57.965813,-74.155426,-12.626953,-26.324959,-39.365616,-51.542473,11.061104,33.528127,57.799374,80.763302,52.976543,87.960313,110.537128,127.74777,63.483437,100.34269,119.792712,134.896554,69.44192,104.638234,122.203571,133.061949,71.756449,99.941622,112.763168,121.602184,40.688953,72.664776,96.434498,117.895374,73.153782,98.374443,116.775913,132.42754,62.384205,91.777382,111.962185,128.545818,51.208878,81.674709,100.599461,115.636482,38.836269,64.934006,80.699902,96.566849,-11.856635,-5.193765,7.95759,17.93022,-6.356896,11.878,25.552135,38.51756,10.252359,30.705578,46.518129,58.622445,27.934898,48.20373,62.017915,71.527478,45.488811,63.490106,74.484458,83.318905,140.641823,304.007529,-131.022034,220.744941
104,-18.592987,27.445897,10.762367,1.50387,-37.335892,-61.922493,-76.096687,-87.425766,-32.950745,-57.693787,-74.27845,-86.950722,-14.14032,-41.749191,-63.726997,-80.435944,-3.745651,-27.347031,-49.683495,-65.478973,0.162964,-16.043015,-32.35714,-45.743179,6.623226,28.914075,58.195009,81.411743,45.785584,88.805799,109.120882,122.983911,58.752059,105.135943,121.518265,129.235152,67.095342,110.131428,119.155015,119.550465,71.518092,106.3762,115.403678,117.18141,38.413696,70.498409,94.499474,118.404922,67.04401,92.84071,113.010693,129.186058,59.439354,88.647881,109.953976,127.035828,52.139053,82.432537,101.972923,116.995354,43.588257,69.200134,85.172825,99.825096,-14.446015,-10.894378,-0.741252,5.27719,-12.19478,1.128798,11.877877,22.460416,4.907984,19.500471,32.952366,44.063241,22.823385,39.1229,50.788047,59.832074,40.737241,56.990258,66.060097,74.025468,120.186939,331.029386,-122.121563,221.82477
105,-1.979485,11.385232,28.909092,-12.70243,-38.326035,-64.217377,-78.90667,-90.024948,-37.945175,-61.310577,-78.9394,-93.17894,-19.144363,-45.837822,-69.370995,-86.554184,-8.207588,-31.545181,-55.042877,-71.843948,-3.65078,-20.985031,-37.476997,-50.565605,8.468328,31.998446,58.739832,83.340826,51.240245,92.351446,115.126727,129.316478,62.103933,106.418005,124.123762,133.135309,69.286062,111.833886,125.771881,129.535506,73.705353,108.027344,120.255778,125.449111,35.175934,71.408672,99.487209,112.862492,79.766521,120.712566,108.443127,94.889717,68.107281,107.852268,98.184643,85.954971,55.266724,93.256302,86.255264,75.226078,41.947632,73.166485,80.568008,81.287956,-17.647897,-17.726259,-6.34399,2.978963,-14.093729,15.737895,18.382974,13.592192,1.814721,32.901299,33.032642,27.048162,19.286197,47.009354,47.75252,41.655902,37.092978,61.226768,68.931861,70.470188,116.820946,342.126089,-94.59898,208.833811
106,-5.434685,9.638004,-5.681934,-9.700249,-38.313789,-64.484711,-79.79393,-90.62336,-39.848557,-63.039665,-80.287399,-94.125938,-20.588379,-47.331963,-68.772926,-84.420433,-9.177589,-32.412872,-54.598503,-70.951653,-4.246101,-21.838303,-37.624397,-50.451279,6.131939,29.560169,57.200765,82.331948,52.066465,92.765606,113.481758,125.835978,63.249033,108.580381,125.882476,134.262068,69.828477,112.329557,125.698151,129.13098,73.100508,107.880749,120.43788,125.641217,39.054108,75.500679,102.830887,121.14418,79.2132,121.290894,112.944145,100.131168,70.760536,111.213112,103.363094,91.652584,60.699692,100.465908,93.839264,83.624554,50.61573,83.138237,91.615963,94.256401,-18.27065,-20.979332,-16.655692,-17.440231,-27.240021,-3.568989,2.084632,0.341233,-13.276894,16.961974,20.79513,17.09591,4.380574,34.677611,38.034055,32.962308,25.913746,48.223305,54.164003,54.536729,110.999451,351.501052,-100.667725,198.870521
107,-5.313034,5.574642,7.934962,-31.246728,-37.967033,-63.463211,-78.87886,-90.528717,-39.980392,-63.821754,-81.16436,-94.974632,-20.44384,-48.871422,-70.401192,-86.915474,-8.714905,-33.175163,-55.649071,-72.806282,-4.031067,-22.623024,-38.910255,-53.399734,4.120234,26.259857,53.995116,77.89444,48.607269,90.053405,108.617369,119.633149,60.459828,107.031804,122.393269,128.629628,67.384211,111.700011,123.171386,125.0402,70.408128,106.729474,117.774894,121.401433,32.376337,64.129,90.904827,107.874555,59.625578,103.269367,100.01049,89.526501,52.946291,96.701174,92.503767,82.109957,46.270695,87.418871,84.210806,75.237007,40.688438,74.430141,84.123573,87.314558,-24.95788,-36.060959,-38.144001,-40.597221,-48.298656,-33.588997,-21.273233,-18.110716,-34.508832,-13.770372,-2.906221,-1.237879,-16.128435,5.380252,14.295406,14.311955,5.710802,21.836922,30.670905,34.443423,105.215349,357.600588,-93.203831,168.148687
108,-4.488258,0.135172,7.934961,-31.246727,-37.71904,-62.674484,-78.535881,-89.350319,-38.475151,-63.695068,-80.319901,-93.46859,-19.192886,-49.237518,-70.235023,-86.387558,-7.856827,-34.18808,-56.011734,-72.700539,-3.615303,-22.409477,-38.564186,-52.988319,4.749842,25.818156,53.417379,77.043457,47.972537,88.017123,106.600848,118.480392,60.563446,103.879754,118.796431,125.094602,68.172331,110.174776,120.507843,121.332705,72.152084,106.848405,116.713095,118.657554,25.698566,52.75732,78.978767,94.604931,40.037956,85.247841,87.076836,78.921833,35.132046,82.189236,81.64444,72.567329,31.841698,74.371834,74.582348,66.849461,30.761147,65.722046,76.631184,80.372715,-31.64511,-51.142587,-59.632311,-63.754213,-69.357291,-63.609007,-44.631098,-36.562666,-55.740769,-44.502719,-26.607573,-19.57167,-36.637446,-23.917108,-9.443244,-4.338399,-14.492142,-4.549462,7.177806,14.350116,100.006828,358.54628,-85.989132,137.712481
109,-2.645531,-1.779832,8.113346,-44.468756,-36.96888,-61.134682,-76.605606,-87.942581,-37.427559,-62.942848,-79.686699,-92.699318,-18.545952,-48.273926,-69.878769,-86.293602,-7.379036,-33.361244,-55.964127,-72.942581,-3.059807,-21.542931,-37.99221,-52.508125,5.155789,25.806115,53.005689,76.187905,44.484688,85.027292,104.491145,116.96479,57.818269,101.579675,117.792554,124.561264,66.744847,109.343616,120.053298,121.036118,72.138869,107.191367,116.388473,117.694371,32.245674,52.622395,68.556919,74.667606,31.11351,65.513134,66.762772,61.007538,22.068615,62.055988,61.848221,53.411694,17.082825,56.955814,56.020546,47.178612,14.701195,50.688629,52.701988,45.565453,-30.745036,-54.829179,-67.888187,-71.346982,-73.680221,-68.246,-53.13061,-48.412817,-60.946391,-50.616473,-37.737437,-33.853397,-43.966108,-30.838217,-20.60179,-18.664927,-25.616695,-16.267559,-7.51768,-5.545681,96.613855,357.946313,-78.623228,94.423589
