YashyHoby/handMotion-similar-search/project/data/handData/tgt/d4_feature_d2/10.csv
,vel_0x_L,vel_0y_L,vel_0x_R,vel_0y_R,posFromWrist_1x_L,posFromWrist_2x_L,posFromWrist_3x_L,posFromWrist_4x_L,posFromWrist_5x_L,posFromWrist_6x_L,posFromWrist_7x_L,posFromWrist_8x_L,posFromWrist_9x_L,posFromWrist_10x_L,posFromWrist_11x_L,posFromWrist_12x_L,posFromWrist_13x_L,posFromWrist_14x_L,posFromWrist_15x_L,posFromWrist_16x_L,posFromWrist_17x_L,posFromWrist_18x_L,posFromWrist_19x_L,posFromWrist_20x_L,posFromWrist_1y_L,posFromWrist_2y_L,posFromWrist_3y_L,posFromWrist_4y_L,posFromWrist_5y_L,posFromWrist_6y_L,posFromWrist_7y_L,posFromWrist_8y_L,posFromWrist_9y_L,posFromWrist_10y_L,posFromWrist_11y_L,posFromWrist_12y_L,posFromWrist_13y_L,posFromWrist_14y_L,posFromWrist_15y_L,posFromWrist_16y_L,posFromWrist_17y_L,posFromWrist_18y_L,posFromWrist_19y_L,posFromWrist_20y_L,posFromWrist_1x_R,posFromWrist_2x_R,posFromWrist_3x_R,posFromWrist_4x_R,posFromWrist_5x_R,posFromWrist_6x_R,posFromWrist_7x_R,posFromWrist_8x_R,posFromWrist_9x_R,posFromWrist_10x_R,posFromWrist_11x_R,posFromWrist_12x_R,posFromWrist_13x_R,posFromWrist_14x_R,posFromWrist_15x_R,posFromWrist_16x_R,posFromWrist_17x_R,posFromWrist_18x_R,posFromWrist_19x_R,posFromWrist_20x_R,posFromWrist_1y_R,posFromWrist_2y_R,posFromWrist_3y_R,posFromWrist_4y_R,posFromWrist_5y_R,posFromWrist_6y_R,posFromWrist_7y_R,posFromWrist_8y_R,posFromWrist_9y_R,posFromWrist_10y_R,posFromWrist_11y_R,posFromWrist_12y_R,posFromWrist_13y_R,posFromWrist_14y_R,posFromWrist_15y_R,posFromWrist_16y_R,posFromWrist_17y_R,posFromWrist_18y_R,posFromWrist_19y_R,posFromWrist_20y_R,posFromBody_0x_L,posFromBody_0y_L,posFromBody_0x_R,posFromBody_0y_R
2,-4.833813,-10.15115,-1.262913,-2.065798,27.829399,43.401375,56.814194,63.532104,38.890915,67.424355,74.270554,77.434616,20.356064,42.909851,49.630737,51.530571,-0.398941,8.930397,10.420532,9.760437,-21.817474,-27.327232,-30.198326,-30.89653,0.078917,9.137023,23.359193,33.580924,37.487872,50.276691,51.246296,48.16032,51.238022,69.160832,69.363126,64.409385,58.145732,84.254856,87.115196,85.053041,59.626877,85.174505,94.619539,98.041067,30.199413,58.233204,79.298916,97.88435,60.460453,93.247662,103.607197,103.913898,46.612301,82.64677,93.529301,92.750988,31.499348,64.989223,77.383633,78.792515,16.839638,39.799633,52.139339,56.981106,-17.210951,-13.622017,-1.355792,6.565921,16.145695,41.515296,48.395712,49.309433,36.212418,61.842667,64.032769,60.094636,50.348137,74.169037,76.314308,73.215981,58.405516,80.908477,84.935901,82.361897,-28.928003,350.039065,-52.053938,353.166106
3,-24.881229,-1.559445,-0.530834,0.258055,32.855988,59.70789,81.865368,103.186855,61.890736,90.757542,99.771938,103.418026,45.867405,78.847446,91.081409,95.2355,28.357658,54.264622,66.47913,72.028599,10.06937,16.997623,19.872837,19.804745,-13.178896,-10.058278,4.112639,13.300174,24.933211,45.688512,52.722625,55.417166,44.516428,66.529029,69.308354,66.223241,57.160751,80.083801,83.681688,81.908216,61.068132,84.61412,94.003764,98.284734,30.774136,58.518105,80.311775,99.135704,61.079979,92.487717,103.064346,104.945526,47.930946,82.597618,93.748055,94.473495,33.339043,66.158981,78.599281,81.139984,18.660908,42.417755,55.342484,61.51577,-16.156934,-14.826212,-3.092893,5.403408,14.296455,38.194915,46.325962,49.110164,34.112657,58.613121,62.18001,59.960823,48.97419,71.716496,74.535464,72.387044,58.506354,79.6287,83.047326,80.634738,-57.109566,349.083739,-55.885105,354.02828
4,26.37228,3.62654,1.448307,0.381,27.540207,47.366867,62.600212,72.280998,35.73349,64.18808,74.794579,79.854927,15.685158,34.870262,40.252533,40.825996,-4.818363,-2.179184,-8.194141,-14.716187,-23.849487,-34.035816,-40.579948,-45.03376,-5.872649,-2.011396,9.100961,16.976794,34.705955,52.162611,57.231146,57.779366,48.961531,69.876581,76.731618,79.888669,54.432803,79.28333,89.99326,97.096533,52.109505,74.362748,83.1607,90.043216,29.83057,57.209301,79.185963,98.71954,59.730778,91.122265,101.367474,103.288364,46.674099,80.55891,92.115612,93.589725,32.311878,64.741001,77.722149,81.386776,18.045273,41.999302,54.823666,61.48859,-16.119822,-15.189366,-4.272141,3.788944,13.753422,37.236795,46.494664,50.071618,33.392462,57.711565,62.649498,61.413131,48.298085,71.078244,74.6334,72.880985,57.77949,78.88541,82.86473,81.051121,-32.531662,353.276793,-56.231174,354.975794
5,-28.904572,-5.840848,0.44426,1.776498,32.08683,62.059021,87.043533,107.894669,63.303909,94.210396,104.071884,108.156967,48.018951,83.898354,95.460091,98.749352,32.757511,63.824158,75.222359,79.596291,17.292595,33.826275,43.432274,48.363533,-12.78462,-10.150039,2.557455,13.872168,25.53997,46.048641,53.014334,55.063892,47.258208,69.482366,68.835654,63.9859,61.485009,84.208296,83.390226,80.103622,67.228723,90.550434,94.006295,93.096897,29.330063,56.640186,78.743877,98.240376,59.755039,90.832844,101.335087,103.070812,46.633015,80.081577,91.818867,92.903309,32.321835,64.390812,77.294254,80.574245,18.34053,43.091984,55.852604,61.931591,-17.641537,-17.019957,-6.496514,1.451258,11.224558,34.342183,44.202983,48.220156,31.116588,56.35886,61.289569,59.626321,46.478794,70.169463,73.270445,70.915532,56.587337,77.439771,80.696365,78.009975,-62.090435,347.68375,-56.441116,357.000096
6,32.620754,2.105751,1.839008,-1.101319,-2.192917,-0.240555,-2.629681,-11.707993,20.397549,47.982616,55.718479,59.617138,15.297375,38.485279,44.302082,45.08852,7.216358,21.876469,23.625011,20.517368,-2.786751,1.646976,1.312809,-1.141663,26.334945,54.74773,80.937624,100.33034,50.753528,71.744901,73.94229,72.299482,48.344089,70.471361,73.230863,71.935031,41.488249,68.501708,73.681394,74.434996,32.85054,55.328987,65.421906,71.493145,28.788185,55.875778,77.525597,97.260475,58.294945,88.856392,99.364471,100.971909,45.049553,77.829666,89.986839,91.479034,30.795364,62.832527,75.7267,78.950157,16.991844,42.0924,54.729996,60.149918,-16.188179,-14.715679,-4.068796,2.87442,12.583128,36.968984,46.204005,49.353338,31.965224,57.492659,62.020385,60.26587,47.294023,71.515931,73.965755,71.467272,57.823333,79.64599,81.872154,78.618093,-30.0945,349.868711,-55.226927,355.977988
7,-16.951561,7.914118,0.720348,0.726988,23.293247,47.728214,67.476482,86.915417,47.205448,75.44157,87.906132,97.284679,34.208508,67.98975,79.86414,83.956318,21.506596,50.377979,62.620983,68.867283,8.98447,22.376575,29.863758,35.414143,-16.991676,-15.216228,-3.27166,5.678444,16.453089,34.112101,40.880687,46.115763,35.116039,56.24913,60.978902,60.411416,47.807663,69.115816,73.879243,74.833225,54.170549,75.205765,83.685023,88.178971,28.230915,54.943829,76.201,95.323849,57.161121,88.13158,99.024754,101.140194,44.084873,77.108402,89.577999,91.344852,30.087948,61.531506,74.874744,78.661709,16.429768,40.304546,53.089542,59.211674,-16.94067,-16.359043,-6.516583,0.655975,11.160955,34.599188,44.704828,48.791038,30.664452,56.253761,62.047987,60.954943,46.174982,70.329273,74.255241,72.561242,56.879725,78.656625,82.293354,79.858412,-47.282095,357.832152,-54.742613,356.754298
8,16.222744,-4.135363,0.700264,0.377913,22.296066,33.078346,37.738609,36.172714,33.602257,61.914825,72.498779,78.341103,15.906715,36.384201,43.865433,45.271111,-3.958569,2.076416,-0.049896,-5.797405,-23.680058,-32.496128,-38.130569,-43.170547,9.349074,21.375152,37.086248,47.859595,34.528237,53.633938,59.488618,60.516701,44.90138,65.351634,73.821012,76.829245,48.177733,74.372752,85.854809,91.732398,46.482376,70.066155,80.117269,87.181455,27.707005,54.278812,75.500278,95.047474,55.783367,87.305088,98.510571,100.916462,42.64967,76.225262,89.261456,91.34428,28.895359,60.893841,74.621258,78.461552,15.744038,39.860058,52.709255,58.653316,-17.231576,-16.643095,-6.94439,-0.481468,10.679549,34.214236,44.455789,48.799807,30.120554,55.429455,61.155941,60.330894,45.774345,69.80563,73.61526,72.132015,56.645938,78.500088,81.98102,79.530208,-31.163349,353.793567,-54.146347,357.228989
9,-22.1101,0.0875,0.333138,0.561743,29.698219,54.339867,74.121323,96.230049,54.414482,83.597374,94.573174,101.764069,38.43853,71.158791,83.159065,86.651802,20.491276,44.162979,54.522514,59.316673,1.764393,-0.769501,-5.2145,-9.767704,-14.663685,-12.476115,-0.317953,6.149909,23.396181,40.429477,47.321564,51.413825,41.63892,63.009626,66.980734,65.22449,51.756725,74.479889,81.603602,82.582407,53.538657,75.727062,89.57416,99.785949,27.056522,53.464565,74.676304,94.064426,55.303173,86.564884,97.8792,100.551739,42.695789,75.895786,88.929691,90.841885,29.042645,60.419025,74.054203,77.909489,15.641956,38.998203,51.61108,57.750149,-17.811598,-17.487717,-7.54658,-1.361288,10.027464,32.331095,42.816871,47.709542,29.619573,54.645595,60.657368,59.890119,45.251381,69.037146,72.873946,71.317342,56.037017,77.701284,81.373396,79.143157,-53.209105,353.912004,-53.748865,357.82167
10,24.876137,-2.37455,0.393848,0.292388,10.384827,13.590088,9.835739,-0.407124,27.082558,55.290527,64.370842,68.832893,13.976898,35.806274,41.78215,41.456795,-2.515526,7.51339,6.291733,0.083771,-19.36821,-22.273808,-26.218128,-31.566753,22.548348,46.608964,71.597812,90.014872,43.330696,64.183563,67.897295,67.396993,46.585128,67.738102,74.541639,76.667027,44.575646,70.956472,81.161222,86.228152,39.20793,62.512721,73.022209,80.319625,26.92028,53.036613,74.060555,93.325996,55.073547,86.425209,97.637901,100.037956,42.581062,76.043129,89.046021,90.5373,28.833046,60.431557,74.060669,77.554092,15.325298,39.200363,51.928139,57.867622,-18.498324,-18.392854,-8.612206,-1.969221,9.420087,31.90582,42.59352,47.81779,28.987619,53.755092,59.754639,59.173259,44.831849,68.480713,72.289849,70.793081,55.856767,77.464225,80.973315,78.580302,-28.254862,351.615553,-53.276911,358.192157
11,-13.614407,8.128639,0.227966,0.305418,20.945606,42.095547,59.261112,78.550701,40.009975,66.709385,80.75758,91.880436,27.206097,59.90221,73.681583,79.217091,14.355869,42.075405,55.409603,62.138386,2.249851,14.709435,21.575146,27.166615,-16.366082,-13.365383,-2.968281,3.246898,15.523313,31.950095,39.107339,45.542226,32.499674,54.381303,60.241788,60.585676,44.041691,66.085538,72.042353,74.415421,50.348013,71.890324,81.92211,89.260962,26.58886,52.807388,73.694687,93.156281,53.918381,85.710411,97.573242,100.657883,41.440773,75.521278,89.227524,91.197968,28.096504,60.524597,74.70108,78.426132,15.194607,39.411049,52.491302,58.670883,-19.103787,-19.115087,-9.509193,-2.839222,8.843585,32.100952,42.534054,47.392762,28.62817,53.695873,59.091316,58.113189,44.647647,68.265327,71.599417,69.810817,55.66176,77.534558,81.070449,78.51429,-41.880226,359.759722,-53.059902,358.513105
12,12.215366,-8.037742,-0.35408,0.650911,21.901703,31.517258,32.371902,28.430672,33.452911,61.143951,68.806572,71.749763,15.099907,34.452324,37.093964,34.131775,-4.966164,-0.723267,-6.613998,-15.381546,-24.448414,-32.736397,-38.897038,-44.561977,12.380031,29.682682,50.391053,64.842564,41.622186,62.498395,66.059417,65.464699,50.54333,72.099287,78.680214,81.012836,51.792973,78.439696,89.253737,95.34523,47.268582,71.103809,80.753607,88.175513,25.955715,52.111931,73.420715,93.138885,54.974213,86.02787,97.655067,100.929222,42.851486,76.06144,89.645576,91.800842,29.426079,61.017265,75.065804,78.95359,16.1273,40.122528,53.069572,59.361191,-19.689057,-20.359358,-11.0666,-4.892423,8.474441,31.037795,41.745069,47.028867,28.272179,52.950237,58.663756,57.914909,44.15772,67.437069,70.862982,69.195783,54.990409,76.537474,80.243302,77.962365,-29.730434,351.730686,-53.479557,359.172722
13,-19.515495,-0.379703,0.81665,-1.206665,27.59903,51.48159,71.018143,93.193016,52.052307,79.090691,89.998283,98.526192,36.055069,65.960083,77.724037,83.131371,17.971344,38.53054,46.057777,50.2565,-1.224174,-3.447762,-7.901115,-12.360649,-12.522366,-10.054881,1.0534,7.062333,28.243095,44.527852,50.245754,53.626713,45.775827,64.178006,69.102478,68.720243,55.126754,75.571327,85.014386,89.257504,55.599145,76.813807,89.163643,98.384461,25.942497,51.450005,72.871971,92.835617,55.673447,85.825195,96.869659,100.181351,43.429413,74.94278,87.848396,90.405693,29.602432,59.53022,73.16185,77.680092,15.876389,38.77224,51.502419,58.494873,-19.111567,-19.941184,-11.359112,-6.063088,11.951483,34.882622,44.153088,48.144635,30.875021,53.920151,59.281816,59.048831,45.810408,67.583109,71.496109,71.127274,55.768217,76.481652,81.188207,80.53217,-49.254999,351.352264,-52.671976,357.967339
14,21.543102,0.667954,0.24828,0.206185,-5.555706,-5.376892,-11.145229,-20.113335,18.643169,47.712994,55.543957,59.669437,14.985409,39.854221,46.234646,47.076244,7.80344,22.983456,24.927807,21.373844,-1.229782,3.118458,3.342533,0.523396,25.541452,53.128325,78.589688,96.753139,46.574816,68.087548,70.948939,69.818227,45.433051,67.623802,73.045983,73.458722,39.867177,66.174891,74.585791,77.34869,33.165467,54.842085,65.756779,72.498565,25.218258,50.433025,71.708164,91.731663,54.859142,85.687695,96.668415,99.643307,42.26366,74.327602,87.808399,90.72813,28.239841,58.495731,73.302212,79.001713,14.61359,36.783314,50.180111,59.164867,-19.449095,-21.321368,-13.691795,-8.591582,11.392272,35.531619,44.404227,47.650879,30.444065,53.865502,59.199811,58.965407,45.177713,67.33481,71.642581,72.0673,54.805467,75.257882,81.659548,83.131122,-27.832174,352.015865,-52.543974,358.16917
15,-17.60313,6.718136,-0.881195,0.106519,20.517197,41.632233,59.90696,77.435303,41.778603,69.264336,83.015671,95.454826,30.10746,61.654816,75.83828,83.997917,18.282337,44.86805,59.336586,68.581581,6.353302,19.289474,27.031059,33.685455,-14.980526,-11.607287,-1.949461,3.310748,16.169469,30.724905,37.651634,44.337969,33.549369,52.969442,59.829542,61.995376,45.570322,65.437406,72.168818,75.622395,51.644648,71.647212,80.217922,87.02961,25.462017,50.53442,72.432461,92.370358,55.883274,86.910381,97.846813,101.076565,43.439884,75.600758,88.868351,91.888103,29.274044,59.340191,74.526958,80.943203,15.272026,36.834698,50.17519,60.302868,-20.033686,-22.400394,-15.686025,-11.506942,11.687315,35.132279,44.118693,47.980749,30.354774,52.767888,58.230947,58.597745,44.893908,66.333713,70.758439,71.844999,54.525799,75.10999,82.767967,86.403955,-45.559902,358.728119,-53.549767,358.269808
16,16.637936,-8.767076,-2.402458,0.21131,11.159992,17.644787,17.135181,13.557072,25.539722,51.051579,58.611889,63.411083,12.61282,30.840855,36.310101,37.17207,-2.644558,3.637447,0.268936,-6.287041,-18.591728,-22.740097,-27.9776,-34.185734,26.233922,52.562321,78.000589,96.02362,47.547879,70.406523,75.219412,75.454928,47.563811,69.992857,79.705579,84.107334,43.128402,70.187556,83.966234,91.439269,36.53457,59.461201,72.711048,82.564747,25.975056,51.123905,73.523769,93.996449,57.267094,88.452129,100.001278,104.288235,45.351734,77.684727,91.007366,94.310246,31.563778,61.830654,76.929188,83.379765,17.694569,39.295864,52.270603,62.016735,-20.200659,-23.596376,-17.46561,-13.250403,11.009666,33.850217,42.949017,47.052579,30.371631,52.856994,58.416878,58.554025,45.441264,66.5943,70.846989,71.520871,55.240498,75.602079,83.416532,87.076294,-28.959646,349.968962,-55.989904,358.489037
17,-16.299419,7.086971,-1.335583,-0.038532,21.883049,43.750648,61.943207,81.258316,42.255821,69.453163,82.850876,95.431709,28.344955,57.926903,73.655434,83.580093,12.883644,35.783157,49.660149,59.109535,-3.430595,0.43745,0.850582,1.117573,-15.036225,-14.362467,-6.004857,-1.328807,17.496917,30.712617,38.482733,46.460825,35.177789,54.582115,62.610966,66.852108,46.657191,66.882242,76.477144,82.774019,51.663729,73.026902,86.027339,98.501911,26.565399,52.32193,74.942665,95.654755,58.304672,89.129448,100.647697,105.006523,46.572418,77.944679,90.981903,94.740944,32.981186,62.133522,76.980057,83.705406,19.121819,39.802094,52.402954,62.040367,-19.681524,-23.47973,-17.985795,-14.208646,11.675397,33.320708,42.644094,47.054184,31.100533,53.210083,58.744525,58.757123,46.138611,67.388966,71.813568,72.245883,55.937907,76.335736,84.432759,88.317971,-45.272169,357.062001,-57.338591,358.456572
18,15.941505,-9.070889,-1.482468,-0.966888,16.614647,25.000076,25.53875,23.548508,27.65625,49.978065,56.623535,60.997009,12.196884,25.150223,28.822174,28.674431,-5.274296,-4.666786,-10.307178,-17.550602,-23.108196,-30.703697,-36.575031,-41.897507,23.96904,49.87272,75.981165,94.847336,51.791491,74.857554,79.824943,79.875393,53.651475,76.847091,85.098737,89.213599,49.672525,77.184125,89.928422,97.967646,42.008373,66.170939,78.117173,87.129461,27.39624,54.089699,77.458992,97.814827,59.420128,90.951347,102.472458,106.786537,47.608566,79.330788,92.224274,96.029434,33.805046,63.021812,77.936554,84.950294,19.548569,40.403709,53.098297,62.823029,-19.088102,-22.873341,-17.380147,-13.187294,11.922399,33.903817,43.596594,48.331862,31.24225,53.706989,60.038073,61.116297,46.237597,67.836841,73.365788,74.878117,56.28124,76.816833,85.323879,89.814307,-29.345512,347.997982,-58.835907,357.496554
19,-14.960861,9.005742,-0.907574,-0.14005,23.265839,43.229141,60.477791,79.718971,41.281929,68.037872,80.331345,92.651138,25.835953,51.642036,65.759468,75.524025,7.780552,19.449921,22.225685,23.197632,-10.767574,-15.676231,-21.128082,-25.924129,-14.556857,-13.750643,-6.613037,-3.178602,20.630874,31.221688,39.822532,48.244671,38.124766,56.65835,68.016535,75.12339,47.048256,67.771633,84.013782,96.819335,47.327677,65.981303,76.14431,86.531161,27.862301,54.533787,77.983074,98.458958,60.063229,91.558056,102.930737,106.921291,48.301678,80.355778,93.229122,96.837101,34.638233,64.187107,78.857861,85.58115,20.62294,41.821346,54.312,63.691006,-18.589715,-22.298321,-16.843969,-12.1736,12.06813,34.018858,43.83989,48.468022,31.416695,53.985051,60.828478,62.39027,46.407596,68.111384,73.789149,75.473824,56.445311,76.948732,85.127512,89.496539,-44.318933,357.003955,-59.756041,357.356735
20,12.704315,-8.97005,-0.064888,0.793802,20.869789,32.761688,38.214798,39.898109,33.030167,58.698463,65.22377,68.920441,15.060196,33.877602,39.279671,40.094376,-4.427319,1.200085,-0.811157,-5.273666,-24.00404,-31.636505,-36.1306,-39.638157,17.583492,37.462616,59.951128,75.74923,48.157479,70.816731,74.626855,73.90561,54.659056,76.936506,83.904731,86.114284,53.898538,81.088048,92.470192,97.800117,48.687051,73.35597,84.066949,91.035051,27.502213,54.370251,77.718487,98.095036,60.388699,91.286144,102.726345,106.800213,48.639164,80.323963,92.997952,96.522388,34.741573,63.75761,78.197079,84.774685,20.395317,41.093388,53.42268,62.872181,-18.910014,-22.767315,-17.422014,-12.700022,11.82224,33.361339,43.233872,48.076401,30.948318,53.228361,59.906977,61.711262,45.821831,67.096145,72.515608,74.201518,55.764759,76.08787,84.206567,88.543669,-31.628695,348.037564,-59.835005,358.154196
21,-16.383648,7.335084,-0.19495,-0.029393,26.057224,46.954708,64.876156,86.272144,46.936054,74.090137,86.046238,96.526394,31.177883,59.03841,72.787685,81.010494,12.909164,28.590717,34.290791,37.04195,-5.975933,-9.414654,-13.370934,-17.153206,-15.089269,-14.374631,-6.088344,-2.291434,22.075834,35.151237,42.836384,49.732485,39.912317,59.72401,68.855538,72.997262,49.403232,71.117147,84.9154,94.006234,49.857221,70.310316,81.875304,91.650208,27.339993,54.332428,77.881851,98.619919,60.081596,91.325226,102.87014,106.990585,48.469162,80.585289,93.055115,96.236343,34.849319,64.409409,78.317642,84.221764,20.84507,41.823692,54.200706,63.100662,-18.990104,-22.78831,-17.375331,-12.761093,11.287543,32.622619,42.725481,47.597279,30.952394,53.570273,59.78749,60.310578,46.073711,67.881672,72.409459,72.549324,55.896535,76.46183,83.512924,85.822205,-48.013258,355.349044,-60.03087,358.101198
22,16.638165,-5.293616,0.062542,0.099171,0.677834,2.215805,-1.790428,-8.091602,25.427971,53.116493,57.757187,59.166527,18.064728,40.217056,45.218925,44.675331,6.876068,19.46434,20.639076,16.279564,-5.945034,-5.334377,-5.193043,-7.427673,22.228975,46.339547,69.670582,87.185036,49.534884,70.332237,71.254788,67.710006,51.37764,74.424499,76.737793,73.918763,47.771477,76.250026,82.56592,82.905794,41.753467,66.602883,75.771461,79.662416,27.723198,54.227772,77.465,98.688641,59.504986,90.749073,102.42548,106.46822,48.0229,80.729427,93.40456,96.340084,34.670506,65.121632,78.905582,84.025211,21.081562,43.237209,55.624981,63.2971,-18.654614,-22.441088,-17.046572,-12.020829,10.563272,32.372345,42.839842,47.962039,30.473026,53.313824,59.232415,59.279716,46.130645,68.054944,72.096447,71.36631,56.566774,77.355112,82.85837,82.965137,-31.351376,350.008128,-59.944611,358.153069
23,-19.247017,6.4657,0.64682,-0.137024,24.185715,48.417892,67.903404,89.049339,50.937195,78.414116,91.458778,100.209274,37.641678,69.793396,83.362198,87.588844,22.725105,49.161873,62.025375,68.350296,6.833839,16.755867,22.057343,26.117477,-16.390906,-16.653036,-8.720517,-3.680325,16.980128,34.192068,41.074954,47.086603,36.539324,56.667056,62.311785,62.65944,49.73866,70.833898,76.90878,78.61377,56.41425,77.762788,89.286217,97.34267,27.653675,54.161625,77.226162,97.947292,59.678135,90.292225,101.391506,104.998913,48.090878,79.6982,91.981716,94.870319,34.600582,64.024601,77.384548,82.289257,20.802212,42.85429,55.195599,62.604504,-18.458433,-22.173091,-16.824085,-12.003354,10.866158,32.224452,42.72968,48.072078,30.738429,53.467397,59.641574,59.824787,46.375424,68.315592,72.694993,71.958064,56.860706,77.474413,82.746293,82.397403,-50.574245,356.42222,-59.273643,357.964437
24,20.414429,-6.003005,-0.71228,1.027527,2.410984,3.287773,-2.434444,-13.522453,26.421318,56.313171,61.027794,62.197609,16.146469,40.130653,42.65728,39.497108,1.876087,14.274788,11.94912,4.916039,-13.349991,-14.860725,-18.062325,-22.975388,22.061878,47.055481,72.402605,90.701969,46.056051,67.398475,68.909446,66.482964,49.773487,71.91453,75.21194,74.635006,48.196073,75.482901,83.420916,86.444525,43.642104,68.040247,77.569139,83.447839,27.395782,54.187145,77.476101,98.492489,59.56358,90.860424,102.1982,105.658207,47.933178,80.310459,92.82526,95.440922,34.507999,64.520473,78.09557,82.806759,21.00174,43.648853,56.032047,63.118458,-18.874754,-22.651533,-17.349025,-12.335571,9.831098,31.50222,42.05024,47.376213,29.620252,52.660134,58.747366,58.917612,45.323629,67.387237,71.736503,71.033722,56.081168,76.711981,81.569454,80.914961,-30.078878,350.407313,-59.904985,358.980061
25,-17.986794,7.372011,0.707073,-1.204936,23.309326,45.951576,63.688545,83.583298,46.739731,74.604836,88.591118,98.648415,33.313293,64.718513,79.08268,84.530983,18.943119,44.776039,57.930222,64.521561,4.224186,15.131836,21.084652,25.83252,-16.09753,-16.491559,-9.427991,-4.707604,16.347989,32.344434,39.820926,46.807739,35.487097,56.648222,62.916692,63.939835,48.576826,69.721217,76.835605,79.601283,55.721349,77.221484,88.465431,96.176143,27.336102,53.91243,77.290421,98.185043,58.565254,89.435463,101.197586,105.393219,46.909447,79.283295,91.776352,94.675827,33.466759,63.652725,76.969528,81.886711,19.716053,42.223892,54.669914,62.351418,-18.568905,-22.173091,-16.589001,-11.986249,11.299152,33.426239,43.72312,48.881009,30.957643,54.414154,60.092846,59.978731,46.460825,68.933035,73.154725,72.461021,57.062321,77.915744,83.228379,82.868929,-48.01569,357.760321,-59.14793,357.756122
26,15.969028,-6.550607,-0.174522,0.279606,11.739063,18.423672,17.819653,11.776943,27.308865,57.853947,68.212452,73.328648,13.09473,40.783825,50.53854,51.871204,-2.733536,10.661488,14.485874,11.723156,-18.106899,-24.277611,-28.703327,-34.41925,16.335577,37.677199,62.868403,82.96242,39.23226,62.07349,65.191639,64.976748,46.29873,68.462991,74.132049,75.476417,48.130371,75.655679,85.218903,88.985308,46.706344,70.762082,81.710739,89.625598,27.701969,54.251175,77.27211,97.832451,58.083115,89.684143,101.335716,104.722252,45.846977,79.032097,92.017593,94.39888,32.104683,62.807121,76.864586,81.553688,18.408794,40.769005,53.538895,60.784836,-19.164117,-22.630661,-16.592583,-11.512623,11.22604,34.423323,43.884289,47.665699,31.159505,54.843381,59.360362,57.953441,46.572037,69.053263,72.779221,71.506421,56.760979,78.055361,83.356017,82.233456,-31.992531,351.141541,-59.268322,357.967555
27,-18.65324,7.402084,-0.322266,-0.687961,22.832279,46.081581,65.353775,84.968719,46.946411,74.421959,87.639427,98.893318,33.932304,64.88903,78.799438,86.435509,20.344448,46.94767,59.977913,68.101616,6.43301,17.558041,22.583141,26.858025,-17.458447,-16.352868,-7.826803,-2.929563,16.079499,32.350423,39.609308,45.818065,34.137048,55.801254,62.461653,63.473434,46.564133,67.647823,73.802857,76.348518,52.657973,73.492191,83.60413,91.49997,27.750378,54.226913,77.414703,98.26973,58.390503,90.46566,102.439041,106.054344,46.129074,80.069962,92.908859,94.828491,32.44566,63.750572,77.882423,82.593498,18.785419,41.417999,54.41906,61.991844,-18.175431,-21.315501,-15.523868,-10.690972,11.938269,35.090474,44.837592,48.958258,31.440716,55.443966,60.201403,58.781452,46.672073,69.319839,72.97145,71.546127,56.939499,78.193806,83.449013,82.518743,-50.539684,358.401197,-59.484501,357.137166
28,16.959915,-9.692653,0.901451,0.334502,17.956352,26.602249,27.945786,23.679428,30.176697,57.517433,67.971497,73.252602,13.832817,37.207718,45.342178,45.757828,-3.456974,6.626472,7.785873,3.363876,-20.384159,-25.779591,-28.250198,-32.550488,17.704584,38.873922,62.333953,80.252564,45.803862,68.498991,69.86738,67.819983,52.11321,73.319228,78.993597,80.625475,52.106171,78.105626,87.428395,91.578948,48.098816,72.034511,82.025728,89.272015,27.05555,53.480988,76.365738,97.000351,56.852875,89.392662,101.278381,104.633446,44.186096,78.710861,91.417465,92.932777,30.175152,61.569901,75.522423,80.146408,16.374664,38.596344,51.570168,59.322853,-18.22903,-21.433444,-15.57648,-11.076974,11.67231,35.223485,44.789859,48.647963,31.250834,56.093271,60.379615,58.353769,46.368199,69.608955,73.101434,71.42522,56.360342,77.834789,83.204481,82.126998,-33.421812,348.640526,-58.425093,357.40365
29,-17.341919,9.623555,-0.634975,-0.69037,23.592281,45.965424,64.362602,82.711029,46.176109,72.193794,85.957031,98.491058,32.924995,61.938057,75.567169,83.138237,18.268032,42.007484,54.768791,63.119431,3.177624,9.314976,10.908337,12.306061,-15.355351,-13.558476,-4.648262,0.050388,18.577673,34.436044,40.221934,45.582116,35.204774,57.474752,64.712332,66.771647,45.456207,67.151535,74.626793,78.630196,49.037175,70.013111,81.129606,91.384867,27.543583,53.983212,76.794605,97.486782,57.669582,89.585896,101.691799,105.504169,45.019627,79.140987,92.155323,94.003544,31.293697,63.064671,77.030582,81.407719,17.628994,40.657711,53.442478,60.482082,-18.132576,-21.023607,-15.290575,-11.099143,11.552946,35.209714,45.469422,50.129725,31.050515,55.554808,61.22047,60.539548,46.566171,69.746596,73.77507,72.603356,57.196134,78.713559,83.821553,82.709675,-50.62254,358.106926,-58.918877,356.556126
30,17.967739,-7.929556,-0.101166,-0.339751,9.104176,13.346272,8.908138,-3.76545,25.887966,57.519207,68.328037,73.076191,10.77158,41.444035,50.292492,50.439205,-5.510216,11.979275,16.048565,13.106289,-20.86956,-20.571213,-21.55941,-25.257626,17.785354,43.086659,70.063499,90.957616,40.210695,62.305919,65.781541,66.521558,45.870676,67.638314,73.565736,76.526236,46.338868,72.606628,81.000979,85.280406,44.088374,68.133861,78.437288,86.313923,27.579575,54.117107,77.267704,98.339481,57.471485,89.202747,101.630344,105.893154,44.867306,78.699589,91.875744,94.104252,31.188469,62.920017,77.069263,81.621838,17.744923,41.153584,54.032421,60.986881,-18.352346,-20.87553,-14.715679,-10.360422,11.564123,35.320309,45.403164,49.811711,30.96919,55.979836,61.118767,60.062835,46.321145,69.886214,73.378385,71.707542,56.770056,78.506572,83.238753,81.625894,-32.567482,350.123833,-58.932724,356.162838
31,-14.601917,7.037386,0.360661,-0.063047,22.491646,44.65313,62.500648,81.352844,42.363739,69.325333,83.012924,94.706955,29.403648,60.594292,74.724312,82.10598,16.094513,41.833191,55.241547,63.524666,3.281078,15.732079,22.959595,30.096016,-15.688742,-14.683136,-6.367332,-0.610465,15.275755,30.276597,38.644211,46.872576,33.070001,55.193753,62.157656,64.46144,45.347033,66.986785,74.313348,78.420244,52.096291,72.819914,82.953404,91.099271,27.142811,53.789978,77.018623,97.638588,57.51915,89.512939,101.662674,105.549316,44.740791,78.791885,91.876831,93.69976,30.769272,62.725067,76.813087,81.061592,17.173862,40.969963,53.856468,60.654602,-18.645043,-21.182182,-14.938289,-10.223954,11.460629,35.688095,45.644793,49.921935,30.649199,55.999905,60.79044,59.357831,45.853509,69.809767,73.122306,71.357665,56.238323,78.307365,82.91975,81.188145,-47.08437,357.126329,-58.487034,356.064901
32,13.002663,-8.996109,-0.259838,-0.656469,9.207001,14.7369,10.875435,-0.387383,27.560577,58.970375,70.485535,76.029625,13.696175,44.316101,54.535675,55.931168,-1.270809,16.735497,22.834396,21.516151,-15.654144,-15.797482,-16.888218,-20.225258,20.18516,46.767848,74.316683,95.6504,43.178049,66.414421,68.71487,67.119487,47.656066,70.375463,74.618272,74.55788,46.832315,74.372937,80.637949,81.87907,42.82743,67.639055,77.437981,84.000814,27.764797,54.236469,77.417049,98.339939,58.257351,88.750248,100.883617,104.924526,45.680981,78.360043,91.377468,93.4659,31.806679,63.115025,76.80479,80.727596,18.036575,41.977215,54.87093,61.139889,-18.800839,-21.168165,-14.940142,-10.664728,11.059993,34.667299,45.113739,49.880316,30.791658,56.036955,60.859909,59.475403,46.402162,70.418317,73.279646,71.035821,57.024097,78.837677,82.554496,80.017481,-33.903894,348.085451,-58.569059,355.363664
33,-16.148415,8.574415,0.806408,-1.705546,23.368835,46.896172,65.975304,85.186729,46.511307,73.506088,87.495689,99.088783,34.093781,65.780296,79.500618,85.551453,21.087971,47.659607,61.150703,68.735733,7.856426,20.448875,27.959976,34.715767,-16.978523,-15.947167,-8.083376,-3.580165,15.104583,31.072066,38.086296,44.440907,33.046783,54.777432,61.782213,63.65004,45.399335,67.19334,73.975203,77.373822,52.080421,72.924026,82.66787,89.670243,28.015366,54.280586,76.888046,97.363701,58.498535,89.424706,100.330696,102.719994,45.545769,78.218994,90.751877,92.310448,31.392517,62.386208,75.81459,79.61998,17.463169,41.394539,53.97068,59.710579,-17.805484,-20.164041,-14.056864,-9.006668,12.304819,37.087297,47.073265,51.09649,31.355439,56.630377,62.028289,61.289136,46.720176,70.750905,74.538367,73.244201,57.464501,79.725463,83.692248,81.515422,-50.007963,356.637621,-57.718306,353.635872
34,18.699188,-8.255721,-0.506001,1.068406,13.346214,18.44101,13.895416,2.98748,27.040901,56.412048,67.56649,73.411217,11.839371,37.541656,46.526871,47.635918,-5.103035,7.222824,9.459,5.521889,-21.786919,-26.555672,-30.137501,-35.34811,19.922227,43.70231,68.59174,88.024471,42.20122,64.065435,66.529215,65.07913,46.420255,67.74823,74.859283,77.115644,45.653994,72.019197,82.088713,85.970467,41.65726,65.658349,75.986969,82.939572,27.37999,54.411106,77.450581,97.661877,58.573208,90.003605,101.231861,103.722439,45.701923,78.941288,91.495686,92.751102,31.459122,62.55518,75.833645,79.337368,17.533436,41.417484,53.826313,59.325771,-18.275837,-21.037069,-15.149105,-9.890872,10.935689,35.610413,45.748163,49.939225,29.986432,55.941674,61.374352,60.293905,45.238414,69.629147,73.392649,71.739529,55.932597,78.049063,82.015045,79.665936,-31.272984,348.34894,-58.188515,354.671318
35,-17.429409,7.064062,0.335255,-0.935766,22.711887,45.705242,64.816074,82.961369,44.033833,71.08675,85.287151,97.201939,31.284428,62.364407,76.171474,82.859058,17.723866,43.546658,56.418514,64.122562,4.14053,13.485374,16.866531,19.452152,-15.574751,-13.24534,-3.874777,1.787489,18.397485,35.130056,41.074151,46.082542,35.130365,58.025195,63.705245,64.061792,45.757179,68.124228,74.00614,76.570881,50.376912,71.490984,81.631945,90.570688,28.046722,55.17128,77.913666,98.193283,58.407097,89.571877,100.461502,102.450485,45.227509,78.131676,90.712852,92.289619,31.069679,62.080307,75.295486,78.826904,17.466831,41.82827,54.227028,59.285545,-17.854452,-20.205785,-14.216365,-9.267872,11.165524,36.523269,46.425442,50.303676,30.441101,57.140497,62.370263,61.061957,45.881853,70.920101,74.740661,73.168557,56.79383,79.089989,82.394995,79.712495,-48.635702,355.37359,-57.78657,353.69614
36,18.769684,-7.875524,-0.732136,0.306035,13.856907,18.839436,14.134884,3.579884,26.148434,53.959637,65.136738,71.124172,10.273533,32.392216,39.315891,38.977489,-7.365875,0.514355,-1.711864,-8.478928,-24.440174,-30.483055,-35.982227,-42.736988,21.888669,46.953655,72.457625,91.923392,45.695058,66.952946,68.825033,67.678822,48.483583,69.876519,77.930934,81.969349,46.185912,72.515917,84.212804,90.655595,40.286092,63.481276,74.357006,82.885478,28.151264,55.469341,78.537426,98.960323,58.254948,89.865704,101.166172,103.555584,45.405178,78.792057,91.650639,93.27364,31.407394,62.944279,76.387196,79.89069,17.922306,42.62289,55.075436,59.989872,-18.342219,-20.634394,-14.212537,-8.679823,10.608783,35.334018,45.591194,49.87235,30.027743,56.345028,61.710953,60.543932,45.53815,70.457158,74.025653,72.050381,56.359725,78.690897,81.697462,78.416725,-29.803391,347.368282,-58.456078,353.872391
37,-12.13892,6.133545,0.428066,0.877535,22.846069,43.564453,60.521736,79.185104,41.102829,66.619492,79.984016,91.391144,25.725861,54.897766,67.890701,73.240013,8.358192,30.711021,40.232162,44.908447,-9.322243,-10.613823,-14.827938,-18.553963,-13.42948,-11.77321,-2.696455,1.636509,25.281236,40.637082,46.588833,50.370243,39.861682,62.018965,67.9659,67.601202,47.360034,70.015519,78.382824,81.714814,47.803896,69.357383,81.701908,92.64402,28.229656,55.288582,78.647346,99.263191,59.450111,89.815063,100.866737,103.337402,46.753349,78.967552,91.134453,92.629738,32.522621,62.654686,75.201874,78.46035,18.516941,42.407913,54.051476,58.838882,-18.08472,-20.619698,-14.673009,-10.473673,11.213628,33.657186,44.043481,48.946032,30.646791,56.246166,61.242638,59.731421,45.969538,70.809938,73.63786,71.054964,56.358737,78.31391,80.826782,77.152138,-41.899652,353.389194,-57.985353,354.637294
38,11.147919,-6.6583,0.338459,-0.073359,18.946953,25.621605,22.165947,14.115028,28.141937,55.549164,65.288086,69.32888,10.089455,29.649696,33.022728,29.80648,-8.598461,-4.073982,-9.975071,-18.609123,-25.950451,-33.400784,-39.55925,-45.828552,19.426927,43.769618,68.893082,87.458035,47.922951,69.362879,71.291159,70.314885,51.822181,73.026469,81.442124,86.580685,49.726804,74.72263,86.749572,94.796948,43.30896,66.093318,76.486777,85.194018,28.267365,55.26495,78.511105,99.013653,58.826923,89.061985,100.209446,102.30875,46.365108,78.885899,90.558414,91.128788,32.557926,63.150158,75.470295,77.98708,18.903522,43.066463,54.625797,58.825207,-17.894343,-19.865355,-13.691178,-9.754342,12.391887,34.775486,44.314813,48.431404,31.911069,56.923506,60.215976,57.532674,47.138288,71.112268,72.862831,69.728256,57.364404,79.051828,81.056678,76.94583,-30.72258,346.709143,-57.617741,354.542183
39,-14.118404,5.451326,0.557842,0.754096,24.523716,46.799984,64.891949,84.269428,43.412762,70.666523,83.274479,94.073353,27.321453,57.612019,70.134373,75.302753,9.186573,31.846104,40.032406,44.037495,-9.138451,-10.806885,-14.707546,-17.945366,-13.113688,-11.619019,-3.1397,1.195426,28.25705,43.72417,49.140793,51.654034,43.721453,64.818358,69.009914,67.043596,50.867581,72.501838,79.637716,81.509124,49.908103,71.322776,82.899311,91.758704,28.12048,54.547348,77.458763,97.654953,57.941666,88.383522,99.645996,102.045937,45.168571,78.176537,89.912109,90.23243,31.317215,62.35096,74.508591,76.792259,17.85181,42.212219,53.831978,57.93869,-18.44139,-20.599937,-13.941638,-9.365376,11.94148,34.631484,43.944434,48.08165,31.765894,57.153711,59.437797,55.853433,47.115503,71.445721,72.167583,68.130835,57.279373,78.823845,80.152838,75.295921,-44.758244,352.084223,-56.977158,355.220032
40,16.679192,-2.14558,0.255833,0.984796,8.087025,8.241291,-0.913639,-14.702797,25.205898,54.409275,59.065647,59.480724,12.884388,36.150684,37.352085,31.984463,-2.763634,9.154873,4.439793,-5.539227,-18.970814,-19.362316,-24.347477,-32.386494,25.267219,52.387568,77.599149,95.492751,47.376892,67.918352,67.896369,64.714926,47.316191,68.706966,73.098964,73.976438,42.676574,68.914695,78.090127,82.9836,35.12771,58.392919,67.835606,74.475011,27.930622,54.016514,76.53574,97.091846,56.716061,87.301998,99.234867,102.409,44.055576,77.525883,89.288235,89.574451,30.614834,62.072468,73.774395,75.513783,17.682438,42.376156,53.065853,55.928822,-18.692899,-21.035648,-14.023272,-9.567732,12.233992,35.651662,44.331671,47.945119,32.061493,57.528351,58.936013,54.885372,47.351698,71.584536,71.438928,66.961838,57.641231,79.432704,79.723363,73.895236,-27.767315,349.775097,-56.409588,356.041282
41,-14.482555,8.574539,-0.584965,1.754267,20.737495,42.963753,61.29158,80.197105,41.193008,68.924675,82.479172,92.773361,28.354568,61.898117,74.983635,79.141159,15.131493,43.528976,55.06794,60.25692,2.221813,14.872856,21.216888,26.602592,-16.373492,-15.920059,-7.758754,-2.786796,18.174814,33.621062,39.799746,44.016311,36.003886,57.458388,60.270069,57.82395,47.545471,68.999787,72.551238,72.730623,53.100044,73.403764,81.775824,86.941987,27.599316,53.459358,75.923195,96.591797,58.043518,87.882156,99.64817,103.345413,45.417366,78.32016,89.590187,89.624176,31.481895,62.323494,73.294373,74.561577,17.874184,41.918793,52.085266,54.623795,-18.589035,-21.139389,-14.969411,-11.305698,11.551711,34.41406,43.54318,47.733871,31.595772,56.718803,58.231071,54.103426,47.113156,70.978394,70.653586,65.945117,57.424302,78.594566,78.377081,72.328566,-41.762753,357.890089,-56.507435,357.336003
42,12.980862,-10.228956,-0.42326,1.639288,12.907391,16.736813,10.389576,-2.034931,25.126705,51.286182,62.078533,68.098927,9.895878,33.225918,41.041889,41.124516,-7.125664,5.139599,5.879116,1.110821,-24.091587,-26.785011,-30.780487,-37.092991,23.95916,51.158117,77.114902,95.866094,53.176244,73.595747,73.239632,69.65255,54.723215,73.041722,76.45584,76.509069,49.720258,72.586436,80.192728,83.099505,40.459117,62.15673,71.447326,77.621318,27.591019,54.093075,76.892223,98.068027,58.083057,87.775669,99.694118,103.626194,45.691509,77.74229,90.05476,91.684399,32.216091,62.452412,74.574795,77.323895,19.04583,42.247868,53.176403,56.996441,-18.871543,-21.427702,-14.883023,-10.846151,11.688056,33.740734,42.256301,46.006774,31.715135,56.107227,58.044029,54.485414,46.932289,70.098821,70.59233,66.397501,56.719235,77.422543,78.188248,72.804353,-28.121595,347.167362,-56.270399,358.481519
43,-13.186913,9.56131,-0.116558,1.39593,23.00806,45.163136,63.654499,80.572414,39.050503,67.959538,81.655712,92.931004,25.05003,56.957874,70.914745,76.686115,9.861488,35.730228,46.946697,53.188076,-4.687843,-0.403233,-2.140217,-3.891449,-12.122594,-10.982249,-3.090732,2.786611,26.225091,40.644492,46.113726,49.113808,41.386485,64.525167,67.283002,64.375237,49.543776,73.17041,76.95466,76.523766,50.849118,72.220009,82.242595,90.534996,27.830486,54.213295,77.455444,98.664207,58.386154,87.844276,99.602623,103.370247,46.711235,79.08783,90.079651,90.33783,33.587494,63.988838,74.349289,75.414162,20.403328,44.101753,53.181381,54.7435,-19.212961,-21.624809,-15.207212,-11.657181,11.120446,32.595758,41.243965,45.110528,30.965732,54.838874,56.310818,52.496186,46.459775,69.318357,68.505351,63.618547,56.967287,77.492198,76.486963,70.159954,-40.806427,356.427577,-55.884876,359.576354
44,16.772976,-9.203775,1.123238,-0.145669,-5.680504,-4.982872,-10.583725,-20.931816,9.733543,36.902275,46.576309,51.42437,8.073006,35.120773,43.561821,44.16893,5.019836,26.238213,32.428207,31.072426,0.550232,12.55085,17.196465,16.930504,31.120232,63.047356,88.916085,107.048415,59.585998,81.196358,80.041069,74.759742,52.648957,73.985577,73.921048,70.413933,41.458547,65.308841,68.726109,67.857836,28.743397,50.138494,58.797013,63.577545,28.270912,54.995155,78.097687,99.079857,57.644005,86.467323,98.66375,103.05645,45.726814,77.559471,88.756943,89.415779,32.341003,62.152176,72.901726,74.336128,18.815289,41.032448,50.751686,53.142242,-18.474118,-20.62649,-14.127692,-11.195473,10.755069,32.134914,41.611565,46.194742,30.78857,56.031274,58.021613,54.360987,46.202091,70.562752,70.496308,65.633587,56.347066,78.395791,78.843667,73.255563,-23.720741,347.152449,-54.448929,359.359332
45,-13.816338,7.753505,-0.088234,0.0783,24.017258,46.66832,64.79702,82.513046,38.312874,67.639389,80.255241,89.294014,22.530212,54.550896,67.762642,71.240158,4.754963,28.264046,38.594055,42.683945,-12.788944,-15.187283,-20.658588,-25.4282,-11.45748,-11.17738,-4.002476,0.243852,28.750066,43.229302,49.144559,51.907335,44.59553,66.340135,69.084879,66.471601,51.752588,74.911401,79.485254,78.90764,50.83226,71.499691,82.464402,91.320276,28.905716,55.725174,78.927383,99.779663,59.09935,89.722366,100.968018,102.907448,46.377296,80.599823,90.84938,89.708061,32.435875,64.006119,74.861755,75.739059,18.682995,42.693214,52.323761,54.116364,-18.696234,-20.545782,-13.817951,-10.807125,12.784558,35.386197,42.609328,44.950224,32.592794,56.079439,55.734193,50.961751,47.392144,69.992795,69.279887,64.96625,56.947094,77.191164,76.255028,70.38349,-37.198963,354.848989,-54.199047,359.380667
46,9.188175,-6.876773,1.094456,-0.848945,16.504383,20.693035,13.573666,1.024704,26.047039,54.553471,64.382,68.174114,10.018101,34.240894,38.059216,33.897572,-6.381741,4.815903,-0.320148,-9.839573,-21.621208,-23.656082,-28.765068,-35.807247,24.270382,52.2335,77.85319,97.111168,54.996337,77.60236,76.119671,71.363346,56.142857,76.760579,80.17655,79.88657,50.520482,75.267886,83.394178,87.21585,40.436331,62.967204,71.786027,78.44019,28.404808,55.005283,78.072796,98.817959,58.850384,88.840542,100.033092,102.091312,46.307545,79.758053,90.127888,88.971119,32.602787,63.538113,74.192104,74.918118,18.971958,42.699337,52.525463,54.72147,-18.96738,-20.132116,-12.70311,-9.315482,13.785903,36.012902,43.591901,46.439953,33.575737,57.100235,57.214782,52.633519,48.248252,70.734418,70.055781,65.691694,57.581209,77.84646,77.576116,72.195371,-27.788286,347.969145,-52.88209,358.52865
47,-8.208218,5.759708,1.412601,-0.950462,23.626442,45.564079,63.065186,81.160126,39.486809,68.520584,81.00174,90.26001,23.206787,57.22538,69.358292,71.861687,5.358753,31.822357,41.241188,44.116859,-11.271114,-10.500126,-14.371433,-18.173561,-11.740729,-9.458681,-0.33938,4.951272,28.436373,45.525244,50.922601,53.101773,43.967405,67.675858,68.627555,64.33479,51.650885,75.85081,78.470324,76.379208,51.481071,73.394378,83.416594,90.818245,27.788429,54.398346,77.104568,97.586746,59.47403,89.525871,99.931755,100.781822,46.692123,79.728355,90.422058,89.449539,32.653999,63.34465,74.951591,76.80542,18.55545,42.024422,52.617416,56.09539,-18.21421,-19.445822,-11.913198,-8.22781,13.508644,37.758154,45.409215,46.920927,32.791754,56.855642,58.666843,54.824239,47.757892,70.583006,71.927621,68.974346,57.775106,79.090298,80.788743,76.77793,-35.815401,353.740801,-51.288385,357.590137
48,13.356285,-8.366934,1.41695,-0.033901,-7.783012,-7.377605,-13.827496,-23.161411,9.935532,38.251762,45.205765,48.554535,7.575989,36.414757,42.189331,42.329292,4.430695,27.994766,30.530434,26.878853,1.006508,14.463387,17.351761,15.683327,29.944566,62.722116,89.151231,107.540257,61.155756,84.610723,83.374357,80.122518,52.915781,76.213223,78.363558,77.894378,40.831595,65.73035,70.371202,71.70464,27.047977,48.39423,57.70187,63.865981,27.080669,53.646412,76.485271,97.076397,59.472942,89.815578,99.778805,100.580463,46.838436,79.439678,90.978298,91.585178,32.90205,63.478718,76.118031,79.330616,18.954735,42.256222,54.114933,59.491024,-18.357409,-20.046345,-12.599986,-8.466043,12.619685,36.949532,44.940468,46.837502,31.880935,55.407039,58.993318,56.837055,46.753769,68.750377,71.467951,69.931786,56.673478,77.006284,80.31802,78.263769,-22.418346,345.367785,-49.830666,357.550153
49,-12.265034,5.475039,1.578655,-0.991218,23.916378,45.963421,63.778667,83.257999,40.08688,68.727436,79.629879,88.68845,23.501186,55.063305,66.768665,71.63229,4.939957,25.052204,29.396038,29.758358,-12.967358,-15.151577,-20.022068,-25.152683,-10.7752,-8.433377,0.142211,6.054257,28.611683,42.524977,49.026678,53.734282,45.428728,65.340087,69.924808,70.095486,53.57015,74.467724,84.078002,88.694155,52.812287,72.759584,82.716962,90.704439,27.071571,52.842751,75.154381,95.641937,55.486565,87.841759,98.83564,98.717995,42.93354,78.489876,90.890808,90.201302,29.633217,63.022499,76.317101,78.667145,16.806965,41.639214,54.514046,60.388184,-17.976409,-19.406858,-12.768441,-8.70477,12.319701,37.727711,44.617698,44.497964,31.016614,56.046403,58.211619,54.398284,45.698886,69.142801,70.773506,68.114595,55.713198,77.505165,80.979367,78.438461,-34.602556,351.011448,-48.171186,356.727561
50,11.643677,-8.052192,-0.205994,-1.559074,19.149456,25.681057,23.108425,17.486172,29.732494,55.517979,61.889591,64.610882,13.293972,32.475185,36.333218,34.575176,-4.542789,1.25433,-2.928829,-10.35038,-21.490002,-28.602104,-34.73093,-41.10363,20.865279,44.780164,68.763962,85.378343,52.101848,74.98723,77.437363,76.347654,55.778097,78.60531,85.118682,86.814348,52.292657,80.298568,91.554866,96.837181,43.780301,68.348135,79.312661,86.707026,27.169533,53.892632,75.929832,96.065598,56.173553,87.95414,99.282074,100.762138,43.199615,77.800026,91.400642,92.470894,29.488449,62.387352,77.128716,80.815887,16.276474,40.452003,54.040146,60.818253,-19.357519,-20.23172,-12.551697,-8.041633,9.901926,35.704273,44.34754,46.046665,29.625933,55.863622,59.366723,55.784952,44.992215,69.747584,72.583287,70.192002,55.271127,77.716846,82.361156,80.701613,-23.03381,343.135832,-48.45211,355.345061
51,-13.609715,4.162904,-0.254345,-2.467546,24.536247,45.194092,63.120461,83.930054,41.952209,69.257126,81.787262,92.77153,26.31752,54.70562,69.073563,78.105469,8.653336,26.079025,34.076614,38.39138,-8.946877,-13.139477,-17.720833,-21.669559,-12.348786,-8.922811,0.347593,4.279983,25.332366,38.353243,45.98794,53.007171,42.155277,62.587377,71.544707,75.752812,50.305714,72.737725,85.31017,93.371625,50.529559,71.971278,84.137592,95.024313,27.346172,54.610004,76.56744,97.008076,56.061687,87.813435,99.677296,103.000088,43.354626,77.988796,91.462154,93.905468,29.725628,62.606678,76.930676,81.357937,16.355267,40.266209,53.645725,61.31052,-18.615403,-19.53147,-12.125187,-7.250919,8.259673,33.994899,44.84636,49.270407,27.791761,54.050506,60.008927,59.038704,43.835012,68.568707,73.275818,72.797561,55.037895,77.675164,83.422028,83.500883,-36.73645,347.784681,-48.799381,353.36346
52,9.646454,-1.179618,-1.154652,-2.038134,27.273788,48.632698,65.796776,78.942833,37.65255,67.580681,76.060638,79.504738,16.387138,40.006828,45.674744,45.976639,-3.979511,2.171402,-3.315926,-10.626583,-21.880188,-31.243916,-38.067913,-43.47044,-2.413577,4.145367,15.530661,23.034015,34.897504,55.81064,62.046196,63.222665,48.397997,71.173648,79.491244,83.012561,53.159571,79.856189,92.030776,99.426623,51.01288,74.882255,84.888538,92.38967,27.235451,54.979477,77.308617,98.84491,56.355057,88.331566,100.20916,104.016151,44.077492,78.619194,92.58316,96.031837,30.737,63.604889,78.142662,83.221436,17.597122,42.089424,55.425568,62.908058,-20.370782,-21.13766,-12.398989,-8.010943,7.033742,33.290944,44.828576,49.922429,26.704707,53.136847,60.256546,60.548131,42.782661,67.312519,72.655967,72.828683,54.176045,76.690368,82.497501,82.883996,-27.080011,346.794281,-49.944048,351.514544
53,-27.694473,-11.457727,-0.812416,-4.285232,32.669907,61.397095,85.702286,106.178284,64.581413,95.583458,104.485588,106.146812,48.024559,85.268898,96.244354,97.572556,30.137157,60.240097,70.338821,73.03894,12.305031,19.237862,19.687042,16.915226,-12.158718,-8.300552,3.128646,11.296435,26.499448,50.335787,58.752923,62.103439,46.920124,73.112735,76.961638,73.975635,60.612661,86.637928,89.90119,88.405224,65.432466,92.611724,100.466191,103.824117,27.416382,55.764198,78.046989,99.074249,57.351265,87.658081,98.922272,103.502769,44.780502,76.650352,89.619827,95.071907,30.31311,59.892883,73.999672,81.370239,15.618095,37.612495,50.665627,60.434532,-20.243329,-20.420429,-11.242651,-7.567389,7.254871,31.575456,43.268081,49.851787,26.538475,51.516084,61.352245,65.651741,42.16701,65.817356,74.580295,78.518428,53.063796,75.239295,83.306061,86.594579,-54.83717,335.421229,-50.819149,347.313988
54,25.232048,6.145463,-0.51939,-6.071609,27.456665,47.875214,66.624069,80.69458,37.658272,68.769951,78.249207,82.766647,17.900162,42.524185,50.41008,53.172569,-1.987495,5.601082,0.947227,-5.654469,-19.482193,-27.309608,-35.206261,-42.333469,-4.974366,-3.067328,4.346859,7.279077,27.877223,45.185987,53.744533,56.943266,43.439068,65.051157,75.510689,81.196728,51.146384,77.12645,90.590201,99.777983,52.222076,75.76405,85.472574,93.526865,28.843746,57.138119,78.84264,99.06435,56.765614,87.238255,98.637714,103.283443,43.930378,75.746326,88.889294,94.589825,29.739017,58.745441,73.327847,81.2253,15.642128,37.231007,49.95512,59.523983,-18.686848,-18.108432,-7.983958,-4.462888,8.084734,33.523928,45.95231,53.021003,26.608253,52.138652,63.195927,68.416245,41.800892,66.066889,76.031553,80.951703,52.515885,75.310123,84.439922,89.156356,-29.605951,341.789873,-51.339369,341.46556
55,-27.98172,-13.309066,-1.317444,-4.094546,32.499218,61.823959,86.332169,106.567268,63.617706,94.175377,104.602318,107.994919,46.25988,82.990837,95.326767,98.204613,28.425636,58.8414,69.525604,73.015366,11.358261,18.059921,17.535152,15.095673,-14.005055,-10.454962,0.508576,7.955738,18.350308,43.616539,55.337755,62.906688,39.776898,70.02966,79.101969,79.22547,55.457489,83.890158,91.900298,93.314506,63.221554,91.134346,101.871754,108.686715,28.657207,57.35384,79.193058,99.991779,54.678783,83.970623,96.647243,103.375111,41.664562,73.888721,87.916889,94.690876,27.606869,57.461414,72.500324,80.840092,13.79797,35.636616,48.501377,58.144855,-18.937061,-18.486221,-7.801238,-3.476116,3.06387,28.153557,42.557519,52.54077,21.991668,48.918862,62.759475,70.643212,38.336508,64.037771,75.509083,81.441692,50.645218,74.19065,83.723061,88.56769,-57.577229,328.614095,-52.64637,337.504302
56,23.218288,-2.785685,-1.751175,-10.738458,24.407215,45.126286,64.530888,78.794804,39.100285,67.516994,76.817837,84.164028,20.206547,39.194469,45.066319,49.978237,-0.290966,3.172646,-1.488934,-4.972687,-20.443554,-26.805325,-33.464241,-37.221737,-3.852238,-1.169615,7.321746,10.609277,28.948037,47.108587,61.154953,70.904108,43.887376,68.044446,85.114792,98.185687,52.073443,79.637098,95.529863,108.717034,54.918964,78.6875,89.343522,98.558351,29.286575,58.299007,81.055126,101.241245,53.795757,81.337337,95.400066,103.981876,39.663792,69.369793,85.73267,95.659733,25.26329,52.906666,69.857311,80.173359,11.756344,31.125355,43.239613,51.576862,-16.416965,-12.889657,-1.078965,2.894612,7.650012,31.116588,45.381551,56.836561,26.401203,52.71787,67.693457,78.320271,41.773845,68.6743,82.515779,91.602414,51.790873,75.886008,88.171808,96.140822,-34.369183,326.004693,-54.407787,326.942126
57,-27.073402,-15.910364,-0.295429,-14.615643,33.961086,63.26334,86.101742,104.493198,60.296116,89.289837,102.559719,109.674625,42.092228,76.31464,92.100506,99.827328,24.376831,53.95689,69.565258,77.640438,7.588234,20.059891,25.604496,28.183651,-11.351146,-2.564124,10.922598,19.708508,15.801869,47.235916,63.432617,74.852985,34.037012,69.725786,87.622908,96.37782,49.359019,83.167987,99.656335,108.934334,59.947053,90.405938,103.653562,112.556551,29.179859,57.455978,79.178123,97.681046,51.076469,78.615532,91.967354,99.791451,35.824471,63.916054,80.628433,91.635818,19.489346,43.089523,59.393349,70.481644,3.839951,17.287617,27.393551,34.456673,-12.233436,-4.698836,9.708462,15.630388,13.33494,36.950953,51.734495,63.967931,29.696267,58.468995,75.831791,89.035573,42.544305,72.933041,90.669982,103.610152,50.146028,76.749587,92.259191,103.082124,-61.341162,310.227879,-54.601793,312.460033
58,29.925098,-2.126869,-2.210712,-12.715089,-16.256733,-14.641285,-18.102779,-30.023746,22.583542,17.752304,8.17091,3.154278,34.524994,35.396805,26.225739,21.555519,42.000275,43.68084,33.926125,30.018997,44.674072,47.201157,40.374069,36.634598,29.866143,59.044015,82.824037,96.61383,77.895304,93.802334,93.443811,92.275308,69.534237,77.958228,72.004624,69.124831,54.032907,63.610087,60.161018,59.319607,34.721639,39.052998,38.839342,38.260802,30.128231,56.62405,75.130863,92.024746,50.501347,76.368198,88.863659,95.753231,34.382801,61.898861,77.182217,86.993809,17.388725,42.002621,57.966213,69.369335,1.285801,19.028606,31.455631,41.381321,-8.649936,1.103789,16.123465,24.529178,11.946543,41.746922,60.409625,74.182931,25.142421,59.99386,81.178141,95.295459,37.19252,72.49943,91.446185,103.295163,46.995954,76.710005,92.634263,102.662221,-31.329775,308.785698,-56.726217,300.429633
59,88.224335,29.81032,5.327511,-18.989981,-31.510735,-64.615288,-91.240196,-110.79277,-59.479637,-94.625645,-99.140968,-98.720169,-44.636421,-86.387901,-92.404861,-92.520161,-30.934982,-71.422462,-76.997452,-75.517731,-19.778366,-48.792229,-56.913986,-58.857193,20.108095,36.307884,44.828267,52.846188,46.628354,21.410165,8.169333,2.744497,35.408242,-1.062292,-16.769374,-24.400675,18.11189,-15.055677,-26.238121,-28.628232,-2.951546,-30.565281,-37.355232,-36.965649,29.270782,52.17556,64.39785,73.662071,40.41378,63.601685,74.153023,79.312248,24.089069,47.435532,59.27639,64.231453,7.414398,26.814938,40.473175,49.187965,-7.361698,6.288929,16.355438,23.097839,4.888039,22.522784,42.92197,59.887773,19.283666,53.203599,74.308717,89.003648,23.498564,62.771702,87.631739,103.724081,29.71084,67.386187,89.168645,103.39279,37.2426,67.302021,85.025624,97.162977,57.155771,338.908383,-51.137495,281.752016
60,-8.584099,-6.505406,-16.139374,-35.115638,-29.935913,-58.467636,-78.174591,-90.122681,-55.135117,-74.260197,-77.387466,-78.150787,-44.344826,-66.173515,-69.781952,-70.225639,-32.91172,-55.178719,-58.899651,-59.063759,-24.023666,-42.279739,-46.396408,-48.505898,-4.530257,-1.446812,3.372808,8.184091,15.745182,16.221154,7.342,-1.431313,28.55549,25.716021,13.136412,1.937975,36.478747,28.97669,15.163246,3.528419,41.620333,30.034721,16.218128,5.384327,32.319775,57.270641,70.208645,76.245861,42.915344,67.030277,73.134556,73.118362,23.770781,49.59177,58.261414,59.399786,6.457529,30.52577,40.730925,43.854389,-7.579451,12.542124,21.600609,24.415855,5.471488,23.516564,45.007344,62.200511,18.331166,53.491572,73.715388,84.941489,25.126335,66.622612,83.688357,90.135224,33.636191,73.740397,84.843924,87.450594,42.949202,75.076522,83.101111,84.521278,48.466215,332.49639,-67.382326,246.729792
61,-18.191986,-5.133435,-16.139374,-35.115638,-15.569687,-31.1166,-42.461014,-49.42131,-37.562599,-41.336174,-39.047585,-35.599022,-28.756599,-25.067253,-16.125526,-7.17556,-16.290779,-13.288193,-5.876884,1.363335,-3.756866,-3.07251,1.156197,6.695023,-12.283392,-16.677737,-14.054209,-7.997111,-0.731742,-1.086869,-5.091692,-9.405329,13.456588,13.53779,3.216949,-4.498826,23.938906,24.628411,13.009145,5.500912,31.284302,32.934026,23.968978,17.702485,35.368767,62.365723,76.01944,78.829651,45.416908,70.45887,72.116089,66.924477,23.452492,51.748009,57.246437,54.568119,5.50066,34.236603,40.988674,38.520813,-7.797203,18.795319,26.845779,25.733871,6.054937,24.510344,47.092717,64.513249,17.378665,53.779545,73.122059,80.879331,26.754107,70.473522,79.744976,76.546366,37.561541,80.094607,80.519203,71.508397,48.655805,82.851022,81.176598,71.879579,29.936943,327.431652,-83.858986,211.682851
62,19.095841,-45.562016,0.750732,-27.97411,-17.968083,-37.012539,-49.248848,-55.355359,-43.323384,-53.601838,-49.773789,-44.619427,-33.991013,-40.546647,-32.551003,-23.912831,-21.611081,-28.059082,-21.913205,-14.783421,-8.91409,-14.699536,-11.741524,-6.804829,-14.512459,-21.082486,-21.624038,-19.366504,3.872708,8.53051,1.280302,-4.54622,18.458525,23.134452,11.111523,3.524651,28.721814,33.101339,21.196786,14.112254,35.494322,39.38645,30.286693,23.898768,28.874588,52.487869,67.515793,71.071014,22.049446,48.830795,57.985897,59.719105,2.309303,35.373688,39.971752,35.673294,-12.075119,19.683437,26.337776,24.110126,-21.051807,3.933048,11.971092,11.672459,-4.246761,2.629333,19.786191,37.402533,-13.223357,19.242046,32.188823,35.887857,-2.658046,39.993395,41.620519,32.687395,11.511821,51.037951,49.04193,39.658523,27.054461,53.750276,51.611241,44.516243,49.303236,282.108641,-82.837801,183.947747
63,19.09584,-45.562017,-25.860443,-43.742016,-20.366478,-42.908478,-56.036682,-61.289406,-49.084167,-65.8675,-60.499992,-53.639832,-39.225426,-56.026039,-48.976479,-40.650101,-26.931381,-42.829971,-37.949524,-30.930176,-14.071312,-26.326561,-24.639244,-20.30468,-16.741525,-25.487236,-29.193866,-30.735897,8.477158,18.14789,7.652296,0.312889,23.460464,32.731115,19.006098,11.54813,33.504724,41.574268,29.384428,22.723596,39.704342,45.838875,36.604409,30.095051,33.627892,63.502464,82.682819,92.366638,40.906963,70.604897,84.112301,89.39415,24.5438,57.798557,62.749786,59.907646,11.113472,43.706703,46.711121,43.02578,1.22715,28.468609,33.783531,31.820812,-10.493618,-6.611987,7.386399,20.818225,-16.848229,-0.248175,13.805046,22.953925,-2.860403,32.161158,38.403816,35.058179,13.429727,48.512297,47.055913,38.171141,28.937293,54.957805,51.520345,42.868062,69.11665,237.509544,-107.980671,141.168651
64,8.022881,-25.099319,7.949409,-17.724344,-16.218567,-37.778206,-52.350197,-60.4002,-49.034843,-68.444824,-57.527504,-50.570984,-42.969818,-61.029282,-48.201256,-41.621246,-35.041466,-50.918884,-40.458412,-36.326065,-25.92659,-40.904274,-34.054871,-29.470711,-24.522756,-42.37622,-54.361605,-67.575761,-13.868649,-1.532892,-5.91359,-10.479971,3.310748,14.563464,7.449446,3.313959,18.259782,26.681303,18.453246,14.420512,30.417203,38.028991,30.934919,26.955722,32.356567,56.231003,64.134521,49.001598,39.054508,59.468136,71.150379,75.943451,19.745007,42.025051,48.213215,46.2953,2.941074,24.487324,31.509705,30.749588,-11.409073,6.60038,15.73082,16.379642,5.281636,6.836882,9.267131,13.533159,-24.301751,-29.542941,-20.049587,-11.830576,-24.981592,-17.918611,0.435464,10.360916,-19.512883,-8.263934,6.479409,12.989693,-11.200166,-1.335167,8.362241,12.403435,77.685385,214.264451,-99.485407,125.298533
65,1.188068,-26.766427,-3.035889,-24.974861,-19.389153,-42.895489,-59.800472,-67.972183,-37.438087,-54.872131,-52.66325,-50.928612,-30.318546,-56.412277,-49.779625,-43.149376,-24.220848,-49.047031,-43.004494,-37.506466,-18.733177,-38.496208,-35.432453,-30.603561,-22.415183,-38.40045,-42.889983,-47.010774,-29.973186,-34.563866,-44.268546,-53.696105,-16.422923,-5.993927,-3.665381,-4.809739,-0.684534,8.864148,7.61043,4.473509,13.49123,22.171887,19.865046,16.397112,30.892125,55.104933,64.65972,53.698969,42.756329,64.017706,76.829052,84.834423,25.205069,47.840824,59.122382,64.683867,9.477797,33.720103,38.392096,36.395331,-3.776979,18.168955,24.933529,23.372412,2.501077,1.107355,1.025088,-0.002455,-32.76676,-41.998138,-39.358864,-37.102534,-34.56521,-37.108941,-27.793428,-22.507562,-29.618678,-16.810562,-2.453251,3.648461,-19.3879,-6.717272,2.625211,6.749227,79.899931,190.038822,-101.494818,102.864469
66,1.188068,-26.766426,-3.035888,-24.974862,-22.559738,-48.012772,-67.250748,-75.544167,-25.841331,-41.299438,-47.798996,-51.28624,-17.667274,-51.795273,-51.357994,-44.677505,-13.40023,-47.175179,-45.550575,-38.686867,-11.539764,-36.088142,-36.810036,-31.736412,-20.307611,-34.424681,-31.418363,-26.445787,-46.077725,-67.594841,-82.623502,-96.912239,-36.156595,-26.551319,-14.780208,-12.933439,-19.62885,-8.953007,-3.232387,-5.473495,-3.434743,6.314782,8.795173,5.838501,29.427681,53.978863,65.184917,58.396339,46.458149,68.567276,82.507725,93.725395,30.665131,53.656597,70.031548,83.072433,16.014519,42.952881,45.274487,42.041073,3.855114,29.73753,34.136238,30.365181,-0.279482,-4.622173,-7.216956,-13.538068,-41.231769,-54.453335,-58.66814,-62.374493,-44.148828,-56.299271,-56.02232,-55.37604,-39.724472,-25.357189,-11.385911,-5.69277,-27.575634,-12.099376,-3.111819,1.09502,82.180624,167.716435,-103.438082,82.333646
67,2.405663,-10.318803,-0.008812,-10.545612,-28.872414,-51.173058,-71.096649,-77.231483,-32.822342,-49.026833,-52.238159,-50.507812,-22.530785,-58.224792,-58.392105,-51.773186,-16.398582,-52.685394,-50.77961,-43.628998,-14.019012,-42.27047,-42.133369,-36.601639,-17.257696,-28.882397,-32.711416,-35.30938,-55.903296,-68.121171,-80.202732,-93.62758,-51.387489,-42.22734,-30.672603,-27.393656,-39.505444,-26.142778,-17.30475,-16.182807,-23.099903,-15.240063,-8.312408,-4.809554,31.344395,54.310226,69.132786,66.12751,42.749348,65.655212,83.175545,97.927437,26.950836,53.727722,73.608456,89.595566,13.364353,45.408497,44.779701,37.809391,4.048119,31.747055,33.596191,27.617168,-6.926822,-11.757927,-13.561872,-17.150868,-53.056571,-58.394709,-63.0803,-68.285643,-52.801666,-57.010265,-60.409502,-68.202342,-44.454183,-23.179746,-7.247337,-6.03141,-29.444295,-10.964002,-1.66192,-2.288717,85.695877,160.477804,-102.337303,74.868206
68,-18.623772,-28.740927,10.863476,-25.282934,-27.073174,-46.869049,-58.658638,-57.406883,-25.974312,-38.439445,-45.614204,-50.454597,-10.989189,-40.852432,-45.672455,-42.994652,-1.783104,-32.711105,-35.139313,-31.297188,3.293266,-21.873665,-26.318092,-24.241104,-11.703741,-28.951434,-35.54576,-32.953107,-64.949454,-93.466442,-108.18067,-123.430737,-61.501342,-49.152649,-30.855816,-25.50045,-47.02087,-31.547668,-21.034382,-19.745312,-29.00599,-17.234355,-10.097674,-8.770411,28.967285,51.233654,62.93581,55.140953,36.855812,62.588024,80.44138,94.886684,19.572315,51.419735,71.122856,83.723545,7.412853,43.194923,41.193638,32.13747,-0.808239,31.161633,30.158329,21.377563,-8.240809,-10.743121,-5.609871,-0.141285,-48.213394,-53.999346,-59.352396,-67.644643,-43.66455,-46.334267,-49.934347,-53.593306,-32.650901,-10.956499,-0.168393,1.5801,-15.833331,2.590059,5.814326,4.734651,67.901945,132.65875,-90.643988,50.507144
69,-0.904884,-7.072954,7.743702,0.989427,-30.342636,-49.25766,-61.044846,-63.438721,-29.430542,-40.340996,-47.282295,-52.28405,-13.118935,-46.203804,-54.836426,-53.489914,-3.635101,-36.740341,-41.198158,-38.777161,0.845261,-25.137291,-31.640625,-30.306587,-15.799924,-31.16781,-40.178338,-43.925507,-71.039032,-96.98529,-117.117931,-135.402722,-69.141535,-60.748203,-43.241899,-31.753822,-56.650137,-42.050024,-28.507572,-20.605186,-39.211573,-30.075353,-20.296743,-13.55051,26.828613,47.922363,59.275646,53.805656,42.769032,66.429176,82.185745,96.560555,24.830303,52.685909,69.581337,81.539497,9.370594,42.085991,43.638783,38.48156,-2.200184,26.581535,29.287777,23.965931,-11.852374,-14.886542,-11.376001,-9.181731,-52.896051,-56.257929,-59.989383,-65.766196,-52.339557,-48.757076,-51.53007,-57.317659,-43.246129,-15.760434,-2.826965,-4.147899,-25.123649,-3.527184,3.278453,0.257839,67.747478,127.039802,-82.149868,52.950577
70,-5.060349,-5.760511,4.726696,-1.306577,-31.793175,-49.580498,-60.431557,-66.206474,-30.116272,-40.008545,-45.953407,-50.524635,-13.688278,-44.37458,-57.671814,-61.483612,-3.133392,-33.539658,-42.828827,-45.008926,2.354393,-20.73658,-31.325111,-34.960213,-16.162923,-33.246854,-43.821149,-50.682145,-75.094059,-99.154952,-116.900508,-133.213238,-73.903264,-69.719117,-55.062657,-42.160063,-61.654143,-51.148082,-37.910832,-26.922469,-43.483374,-37.644657,-28.755901,-20.927091,28.663044,49.579926,61.026592,61.176395,50.929813,75.604191,88.810444,98.421993,32.270622,58.665562,67.922802,71.435795,15.142994,43.747044,48.920975,48.188553,-1.054573,23.262291,30.907173,31.705627,-9.193093,-12.781996,-9.703429,-8.395463,-46.852168,-52.785086,-59.68591,-68.409885,-49.387115,-41.405627,-33.093898,-27.579556,-42.008404,-13.942286,3.629411,11.862007,-25.373893,-4.039434,7.255951,12.10166,63.457775,123.570478,-76.652527,53.935187
71,-7.449532,-7.191021,6.927452,4.366526,-35.412254,-53.253365,-62.924538,-71.473274,-32.089806,-41.262245,-44.304771,-44.59259,-14.20887,-44.609528,-58.489265,-63.222198,-2.185707,-33.339386,-44.262543,-47.45842,4.306526,-19.371529,-31.014862,-34.699974,-20.129214,-44.422969,-61.609559,-75.825739,-78.368559,-99.667604,-116.739524,-132.08691,-75.539186,-70.32529,-53.966556,-39.263783,-61.430329,-52.030465,-37.459467,-25.114664,-42.324937,-38.920297,-27.880712,-17.276469,35.866585,57.600346,67.663136,72.124386,55.573139,71.609058,85.835552,97.547894,37.191753,58.867092,74.682598,86.243649,20.743046,46.020241,49.426517,49.026661,5.553532,28.564854,33.869991,34.588509,-8.680039,-21.094651,-34.47084,-48.941524,-45.970094,-51.097293,-56.198803,-62.393913,-47.497861,-34.76894,-24.482742,-15.181678,-39.207652,-6.247567,12.375122,24.150432,-24.945931,-1.508099,9.971611,17.371873,56.264906,116.863133,-69.468412,58.785389
72,-14.1679,1.569232,4.764233,5.103579,-34.808693,-55.012207,-65.915508,-75.334854,-37.461319,-42.757874,-42.742653,-41.580162,-16.121521,-29.712296,-38.122902,-41.965256,0.161934,-27.041473,-38.739624,-42.096405,11.304703,-11.555214,-21.160126,-22.930412,-17.813172,-43.750939,-59.959588,-72.903123,-78.586538,-100.266861,-115.533909,-127.417683,-77.168347,-84.835186,-89.207084,-89.160432,-65.982013,-51.539055,-37.845315,-30.259832,-48.133767,-36.813064,-24.785041,-17.344641,32.599525,52.735519,61.085014,67.446442,53.612137,64.483566,75.465202,86.126518,35.475941,54.393883,68.466225,78.932304,19.542732,42.194138,48.067875,50.443497,5.697269,27.115459,32.433987,34.440651,-5.780302,-15.655891,-22.895077,-27.697499,-41.196108,-53.833515,-60.954326,-67.67592,-42.956334,-30.098756,-17.280112,-5.664736,-35.54187,-3.809692,15.027704,26.154171,-23.236649,1.701378,12.881537,18.648347,42.215509,118.860126,-64.585676,64.316728
73,-6.860046,7.270586,-5.81131,2.571442,-33.364105,-55.233765,-64.720173,-68.040104,-41.885948,-38.539124,-34.32518,-31.481209,-17.492523,-26.61644,-34.143448,-37.879257,1.65699,-18.889618,-32.41848,-38.115692,15.403519,-3.209724,-15.315742,-19.069519,-13.482554,-37.477128,-50.913307,-59.657258,-78.055238,-97.334766,-108.965919,-118.238454,-75.149788,-85.489679,-83.354257,-78.103496,-63.581157,-47.079595,-29.604197,-18.399986,-44.617235,-28.271963,-15.245003,-7.032971,31.910992,56.237183,68.718109,75.208054,56.520424,73.244133,85.079269,96.06205,39.992065,62.447662,74.447479,83.843422,24.164085,47.773247,50.540199,51.011524,9.365044,32.59449,36.130199,35.816689,-9.683916,-19.584545,-28.696621,-35.136201,-35.431831,-41.54577,-44.603897,-48.209782,-32.854492,-13.291745,1.510631,14.748777,-22.789669,9.24555,23.372716,30.37512,-11.165123,14.621942,22.803532,25.330019,35.559053,126.135436,-70.193396,66.892894
74,-8.797874,7.762027,-2.581272,5.288799,-29.142609,-43.818111,-46.274872,-45.243587,-30.545197,-23.252335,-13.46386,-4.405975,-9.739494,-21.263351,-29.986725,-37.132072,5.223541,-6.966019,-19.230309,-27.90699,16.944351,9.245567,-2.160645,-10.291328,-13.947967,-36.764621,-49.116401,-59.219602,-70.520267,-89.631155,-97.876626,-101.94604,-66.659508,-71.081825,-59.672603,-48.20796,-54.285343,-35.852536,-16.534414,-3.510758,-36.01318,-20.866946,-6.508926,2.49978,27.633591,53.152084,68.11861,73.683643,55.633907,78.636074,94.452038,107.676258,40.25465,66.003284,79.881535,90.684986,25.234222,48.931103,53.183155,54.888325,11.222591,33.464928,37.398262,37.759953,-10.879249,-15.377088,-19.14729,-20.903441,-29.130973,-31.084602,-30.715489,-28.904534,-25.114695,-6.419357,7.889603,20.884823,-13.818662,18.948546,33.666016,41.141922,0.213379,24.627762,34.09654,39.04988,27.258139,132.445649,-72.277708,70.729879
75,25.703545,6.936053,-3.446217,8.108385,-10.822678,-31.758957,-45.339546,-52.102318,-48.64563,-64.565849,-63.312721,-56.637611,-44.917603,-61.996536,-56.107407,-49.90036,-37.877312,-41.926117,-31.429596,-26.29818,-28.859596,-31.321449,-24.351654,-22.604141,-29.802509,-55.258776,-71.795599,-84.073711,-50.107125,-62.568111,-69.242744,-73.625201,-33.202332,-35.283753,-39.85915,-42.819156,-16.074929,-11.631493,-11.608522,-13.224653,0.355312,3.24412,2.892142,2.127178,25.303631,49.081249,67.248917,78.615074,49.153233,76.531105,94.314651,108.06015,36.407833,63.982658,76.897659,84.694405,23.726349,48.192501,48.543663,46.134167,12.598858,33.095856,33.981686,31.091022,-11.718314,-11.483662,-3.935107,3.114289,-26.780197,-30.222442,-28.909443,-25.70469,-18.895688,-2.04045,11.808562,22.35297,-4.161731,21.071525,28.421028,29.286306,12.878079,32.293459,34.686843,33.740363,52.994442,138.980819,-75.691166,78.43738
76,6.582642,-0.523767,-4.097271,11.021769,-15.408669,-34.253883,-49.346466,-59.265976,-30.495529,-60.579071,-74.693241,-84.664078,-24.795685,-50.992126,-51.996117,-51.035042,-18.256416,-42.22023,-45.042915,-42.847481,-13.076248,-33.752174,-38.850746,-38.744888,-29.838633,-52.530736,-70.744329,-86.194251,-41.638056,-48.447675,-54.200714,-58.513919,-25.125224,-17.99901,-12.665133,-9.430832,-7.686321,0.071939,3.877247,6.158369,9.184756,17.32414,18.482392,18.576006,25.835323,51.057644,68.552341,82.478085,43.765869,68.851376,87.082043,102.94035,30.056019,62.58173,80.85371,92.727871,18.567982,50.696011,56.924686,57.775841,10.147705,36.36692,42.02837,42.258968,-10.595908,-10.537276,-2.712757,7.560875,-30.877553,-37.202894,-37.669388,-37.111565,-23.84452,-10.868597,5.115219,17.501858,-8.398951,17.307683,29.262069,33.49225,9.808096,31.081236,36.346292,36.727478,59.590645,138.04723,-79.774876,89.049327
77,5.439377,4.577064,-6.371212,4.492528,-4.274826,-17.110863,-31.364479,-45.159416,-34.665298,-68.603668,-92.133236,-111.296597,-30.641212,-61.673813,-69.464493,-72.359161,-25.295906,-52.403526,-59.109764,-58.993378,-20.662651,-42.973824,-48.905525,-49.523392,-27.067429,-45.691044,-59.272615,-68.847047,-38.79201,-44.931298,-46.807306,-46.794987,-24.347508,-20.817484,-12.694403,-6.15948,-8.205333,-2.955869,3.658465,8.224908,7.545406,12.123582,14.515608,15.793038,19.492836,44.457664,63.768597,78.743248,31.392059,54.431934,70.56427,85.806541,22.830219,59.835663,81.405144,96.350899,18.627949,57.982807,68.329926,71.071701,17.483025,48.519745,54.714375,56.335773,-22.413825,-30.260079,-22.841354,-12.603599,-38.404125,-44.235,-48.280795,-52.683753,-22.748049,-10.742997,-2.455474,5.447961,-2.429663,14.642289,17.941119,19.812527,17.632027,28.366287,25.511689,22.852901,65.088673,142.369203,-86.087437,93.286764
78,3.112335,5.605702,0.971031,5.519128,6.11721,-2.900162,-15.312996,-25.857697,-38.36174,-53.255196,-48.364906,-40.176544,-45.328789,-61.070251,-47.859993,-35.979881,-46.606636,-58.977356,-46.412888,-36.473923,-43.489037,-53.78334,-45.658264,-38.351555,-27.158572,-50.087859,-62.117179,-72.737848,-45.946104,-53.043974,-56.952096,-57.04784,-32.636544,-37.970791,-40.127949,-37.584327,-18.357039,-24.394377,-27.32005,-26.094242,-4.735886,-10.159116,-13.812209,-13.58929,9.569435,30.652485,50.570011,66.371269,17.081623,36.787777,54.172153,68.592682,14.488678,45.959587,70.418015,89.14856,15.96056,49.967251,68.920326,80.785332,20.490475,47.545567,60.202904,68.091946,-29.152092,-42.507872,-42.299217,-39.423964,-45.836837,-56.299919,-61.031946,-64.055833,-25.602493,-28.451224,-31.370321,-32.503472,-3.739821,-4.000778,-6.897428,-10.180296,15.529549,12.919792,8.384996,4.018964,68.537922,147.520916,-84.779491,98.351903
79,3.882179,-1.485838,-3.380985,-2.66876,0.624962,-8.749123,-23.422966,-35.43251,-5.944633,-22.777176,-29.259109,-32.884483,-13.647995,-32.132607,-40.705376,-46.355324,-20.256271,-38.536949,-44.664345,-47.284927,-25.99411,-40.660744,-45.555954,-47.317314,-27.23962,-49.840147,-61.770666,-70.109905,-42.56073,-63.037291,-75.031258,-83.655537,-30.670009,-52.607492,-65.49755,-73.340285,-18.650045,-38.221313,-50.706073,-57.122033,-7.302851,-23.80818,-34.806824,-40.459086,-0.53587,12.330551,32.467403,47.655659,26.568375,44.764938,62.070866,76.917286,35.565033,56.449642,65.431538,69.611664,41.383553,61.974392,60.013905,53.780994,45.100365,64.578609,71.031933,72.659054,-29.330828,-49.196738,-56.580451,-61.322204,-49.36788,-54.408134,-59.069024,-63.020587,-35.398424,-39.245104,-42.900975,-45.188581,-20.461987,-26.737064,-27.762985,-28.415378,-5.263204,-11.224403,-15.851979,-19.64435,72.777672,145.800534,-87.802906,95.4486
80,5.8675,-28.539404,-4.10079,-12.506126,19.93309,26.36364,20.994301,14.292755,1.612358,-3.165665,-1.906128,0.032616,-15.726929,-23.238258,-17.866859,-13.759346,-29.227753,-35.538368,-26.56929,-20.749741,-38.99826,-44.03801,-35.667458,-29.81987,-24.566753,-51.817148,-72.094038,-87.813439,-67.708524,-91.653944,-89.07747,-80.684817,-59.662044,-80.706029,-72.871816,-63.771379,-46.144632,-63.710061,-56.814424,-49.986681,-29.52491,-42.864728,-39.413868,-34.923409,-11.658268,-6.525135,6.31814,15.463714,12.683029,32.754163,46.167926,55.917406,27.109451,51.078529,60.069723,63.133907,38.61474,61.720104,63.349628,59.852171,47.525682,67.903432,73.309049,73.770303,-29.457941,-54.383773,-69.498807,-80.960239,-58.18641,-77.604382,-86.809362,-92.360091,-47.105329,-66.792765,-77.079226,-81.588812,-33.351644,-52.580105,-61.367482,-66.066148,-18.30946,-34.407221,-43.143361,-48.176668,78.837976,117.404653,-91.710891,83.085997
81,3.004646,-2.323236,-4.10079,-12.506125,17.937698,27.685432,31.071053,35.525208,20.700073,12.714958,10.027199,10.09758,4.626503,-3.881607,-9.086838,-11.542168,-11.782722,-19.124107,-23.582611,-24.781609,-28.28476,-34.016762,-38.439331,-39.951897,-30.659851,-61.933286,-86.076153,-104.765502,-51.428275,-82.425006,-103.784134,-122.142161,-43.501838,-75.246397,-99.532402,-121.969815,-34.76011,-62.930061,-85.930175,-106.880237,-24.62202,-46.983573,-63.440181,-78.146752,-22.780666,-25.380821,-19.831123,-16.72823,-1.202316,20.743389,30.264988,34.917526,18.65387,45.707417,54.707909,56.656151,35.845928,61.465816,66.685352,65.923347,49.951,71.228256,75.586166,74.881554,-29.585055,-59.570808,-82.417163,-100.598275,-67.00494,-100.800632,-114.5497,-121.699595,-58.812235,-94.340427,-111.257477,-117.989044,-46.241302,-78.423147,-94.971979,-103.716918,-31.355717,-57.59004,-70.434743,-76.708986,81.867685,115.059311,-95.786619,70.557765
82,-0.517616,-28.890085,-3.254814,2.936109,27.543068,41.318207,46.19545,51.773872,24.258614,18.296471,16.995277,19.72126,5.943604,-0.673141,-1.522865,-1.891365,-10.157776,-16.73275,-17.990112,-18.040695,-24.071388,-32.280693,-32.165222,-29.577942,-26.156363,-58.152185,-84.031134,-102.377737,-63.676129,-109.009762,-126.080725,-134.232891,-56.108524,-101.09515,-120.654037,-129.205883,-46.060836,-85.869135,-106.455487,-118.618466,-34.389762,-64.857662,-80.981991,-91.348342,-23.246498,-30.786209,-30.204906,-33.091564,-10.963211,1.185436,10.333729,17.618237,8.186188,22.828732,31.530418,37.807388,25.157146,40.038929,47.283726,51.730099,39.849758,54.194813,60.510807,64.330444,-25.60768,-54.202721,-79.880734,-99.841215,-65.031242,-104.243557,-124.533476,-140.228177,-59.760752,-98.507592,-121.244526,-139.9122,-50.962152,-87.782132,-110.47442,-128.31609,-39.46969,-67.890039,-85.778979,-102.060741,82.669744,86.022893,-97.721758,73.347541
83,1.513824,-1.693443,2.043686,-6.304624,24.978905,38.840904,45.845833,54.099197,25.613594,21.089172,18.271294,17.11441,7.64534,3.315926,0.564308,-1.253815,-9.597588,-13.473473,-15.35923,-14.775467,-25.604553,-30.977211,-32.152061,-31.042671,-29.505088,-59.795579,-85.848325,-104.533876,-66.96684,-105.556525,-126.612921,-142.901599,-62.391536,-103.554453,-127.393879,-145.44337,-56.09006,-94.644023,-117.271659,-134.49709,-48.563457,-78.801152,-94.759805,-108.621476,-24.279785,-35.534821,-38.650246,-44.264603,-15.174294,-6.313248,-0.258865,5.662479,4.783859,14.689007,21.816559,27.754269,23.067398,33.144665,39.340324,43.765526,39.210091,48.447933,53.007603,56.549606,-24.453348,-51.376899,-76.622752,-97.199224,-64.375484,-102.638756,-124.02774,-141.103057,-58.993534,-99.866193,-124.686216,-144.723175,-50.429863,-89.029305,-114.104356,-134.890564,-39.70533,-71.933889,-91.169759,-109.204801,84.738321,83.954394,-95.12332,66.66786
84,0.007668,-7.958331,7.168751,-2.568601,24.834366,37.561913,45.467033,54.498367,23.682404,21.750755,20.818176,20.801468,5.505295,3.099632,2.723465,2.077904,-12.452774,-13.827553,-14.441185,-13.953209,-29.334984,-31.348343,-31.333122,-29.986725,-30.687022,-59.010484,-83.339344,-101.816951,-65.324063,-103.781077,-125.656623,-143.213686,-61.614345,-102.542425,-127.79927,-147.522877,-55.953067,-94.4873,-119.01265,-137.973052,-48.616161,-79.122995,-96.285287,-111.563543,-25.544243,-39.42667,-44.338646,-50.496426,-17.351418,-8.834896,-3.333492,1.563778,2.770958,11.175041,17.388725,22.254066,20.993385,29.863415,35.128555,39.287624,36.775589,45.145054,47.894382,49.941959,-22.658573,-48.325286,-71.719182,-91.5356,-62.346365,-100.545479,-122.050832,-139.606968,-56.948638,-98.960685,-123.990319,-143.567207,-49.127547,-88.61675,-113.463912,-132.717937,-39.844731,-72.883147,-91.00538,-106.795392,85.342655,75.178163,-87.357903,63.281359
85,-2.688904,-4.7311,5.146866,5.095613,24.459572,38.582726,46.085014,55.158234,24.766617,21.985703,21.082878,21.696167,6.606445,2.40097,0.718346,-0.114212,-10.771408,-14.116859,-16.158142,-16.331177,-26.364899,-31.166954,-32.580528,-32.282066,-29.07725,-56.283586,-80.449116,-98.192572,-61.829453,-101.914763,-123.581594,-140.164543,-57.273569,-100.151048,-124.811229,-143.354137,-51.199397,-91.161917,-114.771847,-132.613209,-43.669243,-74.323938,-90.807655,-105.095959,-25.475121,-39.5644,-45.294685,-51.869259,-19.635372,-9.763069,-2.97781,3.132763,0.754509,10.126476,15.364094,18.993244,19.741116,29.187698,33.461266,36.456642,36.734905,45.126915,47.439995,48.671093,-21.012492,-47.560538,-71.702911,-91.234566,-57.741977,-98.076666,-119.996766,-137.531135,-52.987936,-96.408541,-121.466271,-140.841513,-45.556027,-87.300571,-111.935003,-130.142266,-37.025238,-71.812395,-90.782029,-106.569633,83.756819,69.245631,-81.107969,67.175541
86,-1.671295,4.82388,5.542717,7.988651,23.257141,37.606659,45.015221,53.915863,23.067627,19.480362,18.953934,20.323792,5.373917,0.484314,-1.3377,-2.301178,-11.4505,-16.36734,-18.458061,-19.420052,-26.69323,-34.197922,-36.295166,-36.316566,-25.894202,-54.442127,-78.92913,-96.24376,-58.924034,-98.203008,-118.667094,-135.621226,-53.700011,-95.219475,-118.532972,-136.657614,-46.965634,-84.886284,-107.970317,-126.364839,-38.885593,-68.394818,-85.703489,-100.269022,-25.477123,-40.172138,-46.094742,-52.715321,-19.77253,-10.713329,-3.59951,2.607536,0.949802,9.541569,16.197166,20.883865,20.259705,29.134426,34.288044,37.65049,36.908169,45.498219,48.879662,50.679302,-16.788826,-43.561705,-68.184404,-87.449544,-53.701308,-92.117906,-113.279464,-130.649947,-49.27581,-90.271167,-113.811104,-132.661775,-41.93946,-80.897733,-103.866107,-121.567172,-33.292518,-64.932318,-82.575831,-97.592574,82.801094,72.174298,-74.849682,73.268979
87,-4.412041,6.402468,4.474697,7.482544,24.139252,39.495277,46.517258,55.098724,24.509811,19.650536,19.04686,21.104851,5.624657,0.907402,0.364037,1.057663,-11.934814,-17.148628,-18.077545,-17.728729,-27.582207,-34.158554,-34.984474,-33.587608,-21.126915,-49.967353,-74.797595,-92.420699,-50.212718,-87.821683,-106.995618,-121.570413,-44.636594,-85.144648,-107.598179,-123.280437,-37.964462,-74.442221,-96.062986,-112.189013,-30.438075,-59.038427,-75.343005,-87.802448,-26.696548,-40.4599,-45.016594,-50.199738,-22.036686,-11.050644,-2.925968,4.521332,-0.981903,9.605541,17.363548,23.269844,18.743706,29.626236,35.721416,39.86618,35.716953,44.647694,48.874054,51.612167,-13.600713,-38.454266,-61.31606,-79.329735,-46.045831,-83.704351,-104.806782,-121.058595,-40.866824,-81.167088,-103.893771,-122.16825,-34.000796,-70.394266,-91.85911,-108.368916,-26.922562,-56.184693,-71.740919,-85.065886,78.605633,77.638021,-70.158405,79.812778
88,-2.395477,4.766916,-0.840626,10.62209,24.397545,40.396271,46.683311,53.461876,24.813538,18.812256,15.812874,16.124954,6.808548,0.819168,-2.039337,-2.580986,-10.447197,-17.251625,-19.620094,-19.543304,-27.224236,-35.927811,-37.677727,-35.567322,-17.119684,-43.521937,-66.712706,-82.578178,-39.970609,-75.643853,-92.84795,-105.82835,-33.586173,-70.606162,-91.806005,-107.184852,-26.343714,-59.653955,-80.718533,-97.109254,-18.757213,-44.285111,-59.101844,-70.449007,-26.049042,-39.371738,-42.087364,-47.605877,-22.38533,-10.064049,-2.472668,4.100533,-1.605549,10.454407,17.72707,22.505379,17.729187,29.386368,34.82626,37.799892,34.063454,43.402863,47.909489,50.555992,-13.845307,-38.928201,-61.244398,-78.560881,-43.324892,-80.746413,-101.34632,-116.736591,-37.299194,-76.834185,-99.845322,-117.791504,-30.635954,-66.762199,-87.963616,-103.548556,-24.785843,-54.022965,-69.600927,-82.65833,76.182775,82.300625,-71.026411,90.330556
89,-4.570427,1.821514,-6.80809,7.276638,25.313187,40.766716,47.875328,56.119766,23.021965,18.531418,16.241112,16.339417,5.285568,0.360947,-2.34787,-2.9282,-11.730766,-18.360443,-20.237045,-18.848076,-28.008728,-36.437187,-37.683563,-34.153175,-13.883716,-37.498679,-58.715348,-74.707285,-26.565892,-58.412555,-75.772572,-89.055024,-20.407955,-54.524255,-76.42583,-92.693049,-14.608202,-45.816922,-66.929913,-82.702389,-9.393781,-34.13254,-49.027264,-59.491952,-22.157536,-33.953075,-37.322559,-43.755112,-15.515614,-3.898544,3.949528,11.281528,4.808064,16.932621,23.108711,27.945786,23.004227,34.644527,40.069599,43.651543,38.112946,48.044472,52.196388,54.338665,-17.164886,-43.324027,-65.707533,-83.218715,-45.233937,-81.938598,-102.583983,-119.840321,-38.658228,-77.826946,-102.757996,-122.605412,-31.73011,-68.138338,-92.440583,-110.63917,-25.393498,-56.084904,-73.739594,-88.840132,71.657438,83.894851,-77.789412,97.379906
90,-2.760544,8.817033,-1.02293,0.318169,25.912857,40.657196,47.496414,56.435165,24.257126,19.654198,17.018852,15.991287,6.024399,0.496902,-1.551018,-2.278519,-11.664276,-18.123093,-18.867302,-17.552261,-28.670769,-34.870262,-34.438934,-31.245689,-14.990283,-40.156355,-62.909961,-80.723936,-33.702294,-66.651635,-84.180971,-98.764813,-28.304691,-63.340176,-84.35486,-101.27895,-23.369536,-55.68084,-75.759296,-91.140706,-19.087238,-43.90022,-58.729798,-69.675028,-23.104019,-35.224228,-39.219532,-45.279751,-18.607063,-8.24873,-1.219883,6.137409,2.513237,13.358173,19.400539,25.011978,21.664009,32.147598,37.302017,41.181049,37.794628,46.853828,50.19928,52.431107,-20.797323,-46.876529,-68.797091,-86.957301,-48.436684,-85.240238,-106.728239,-124.29231,-41.520298,-81.527865,-106.587386,-125.817422,-34.54176,-71.581325,-95.755685,-114.613303,-27.544945,-58.657581,-76.69855,-92.538581,69.21524,92.254838,-78.493996,97.241029
91,2.942047,3.467934,-2.914524,-2.9672,23.296623,35.799065,41.749992,51.074295,20.878601,15.470123,11.933784,10.680656,2.138786,-3.851509,-6.954575,-8.257713,-15.478592,-22.679214,-24.410248,-24.14669,-32.023315,-37.903404,-38.255196,-36.581726,-17.560829,-43.649298,-65.906122,-84.295024,-39.282926,-72.809201,-92.858479,-109.776085,-33.34374,-69.94744,-90.94224,-109.435717,-27.544481,-60.837741,-81.959222,-99.273636,-22.083337,-47.791515,-63.760944,-76.114947,-23.530712,-35.876942,-40.628414,-47.144508,-19.570713,-10.034008,-3.600254,3.296585,0.8325,11.856079,18.099747,23.81115,19.76469,30.115643,35.44384,39.535675,36.189308,44.640026,48.190098,50.907555,-19.158004,-45.227854,-67.502617,-85.167527,-49.600864,-86.049292,-108.178694,-126.351223,-43.297876,-82.482804,-107.691947,-127.596111,-36.32999,-72.632625,-97.249057,-116.989953,-29.157742,-60.100534,-78.404622,-94.884849,72.248526,95.80138,-81.317282,94.352437
92,0.312538,-0.169752,-3.183231,-3.534377,22.714119,33.92189,39.388618,47.098389,19.750328,13.352394,8.625526,6.379509,0.395622,-6.147766,-9.637756,-10.645752,-17.513237,-24.335518,-26.602592,-26.160278,-33.639793,-38.71479,-40.017128,-38.642006,-20.558194,-46.356683,-68.307719,-86.441716,-42.651133,-75.227532,-94.933169,-110.815993,-36.810069,-72.644142,-94.622163,-112.303159,-30.629378,-63.288831,-85.8365,-103.034854,-24.361062,-50.124353,-66.800237,-80.187943,-23.555889,-36.180897,-40.666122,-47.775536,-20.792713,-11.307793,-4.701519,2.397251,0.161362,10.053062,15.955925,21.643639,19.604588,28.936958,33.820324,37.51379,36.203156,44.187756,47.331905,49.448948,-17.977861,-44.004424,-65.849559,-83.16212,-46.896103,-84.230557,-107.031186,-125.7888,-41.283485,-81.519899,-107.221686,-127.591696,-34.884043,-72.093513,-97.115799,-117.198947,-28.426216,-59.981016,-78.319684,-94.847151,72.960577,95.726646,-84.101,90.913078
93,-2.19326,-0.371676,-3.190327,-0.175155,23.357162,35.005875,40.558319,48.028564,21.048317,14.003448,9.409447,7.343559,1.654587,-6.014442,-9.525948,-10.793495,-16.211243,-24.121857,-26.905289,-27.257538,-32.211456,-38.023796,-39.944916,-39.364815,-20.606514,-47.052178,-69.455196,-88.166343,-41.932513,-75.418403,-95.752227,-111.903664,-35.567435,-72.64831,-95.216171,-113.03768,-29.210322,-63.22282,-86.514087,-104.106471,-22.86945,-49.532908,-66.531314,-79.927665,-23.511429,-35.593758,-39.085178,-46.463413,-20.058346,-10.278625,-3.762188,3.070965,1.014175,10.942211,16.327057,21.186848,20.441093,29.766655,33.915997,37.028961,36.93964,44.895802,47.700748,49.399853,-17.434241,-43.285217,-65.375254,-82.975881,-46.431308,-83.871293,-106.233001,-124.134785,-41.029598,-81.428107,-107.263893,-127.305576,-34.743808,-72.578655,-97.564539,-117.087117,-28.36428,-60.333117,-78.930704,-95.248374,71.06904,95.403553,-86.989603,90.786505
94,-2.89032,3.532401,-1.076946,3.430081,23.326607,35.796661,41.093445,47.792816,21.40892,14.537544,10.05146,7.267342,3.196335,-3.71418,-7.305565,-9.236984,-14.480324,-21.849174,-25.185814,-26.230659,-30.78701,-37.924004,-39.824638,-38.780594,-19.201785,-45.746558,-68.535208,-86.73432,-41.047104,-75.113201,-95.503218,-111.75182,-34.771688,-71.683954,-93.659814,-111.721068,-28.578585,-62.002107,-83.52759,-100.130331,-23.084774,-49.236073,-65.305723,-77.639472,-23.42268,-34.977436,-37.414913,-44.060955,-19.431267,-8.566132,-1.236935,6.069374,1.408081,11.999073,17.833557,22.87199,20.94017,30.460911,34.776649,38.291874,37.660103,45.93544,48.718529,50.077915,-16.242334,-42.767872,-65.116273,-82.965939,-45.605983,-83.477109,-105.330703,-122.646661,-39.503992,-80.664501,-106.388272,-125.67592,-32.531105,-71.286899,-96.063202,-114.013676,-25.9541,-58.475139,-77.380769,-93.284835,68.613682,99.000792,-87.631588,94.281424
95,-0.457649,4.553167,1.97176,5.632471,23.691902,35.606918,40.875435,48.255272,19.240265,13.347244,10.561867,9.963226,2.231026,-4.134064,-7.438316,-8.620949,-14.409943,-22.288284,-25.705376,-26.428413,-30.55584,-38.703346,-41.205597,-40.34626,-20.569556,-46.233676,-68.457402,-86.231054,-38.42407,-70.256963,-88.832877,-105.038408,-30.778042,-64.592166,-85.718804,-104.27789,-23.313498,-53.297244,-73.184118,-90.1954,-16.530771,-39.2665,-54.630713,-67.387731,-23.75679,-35.645885,-38.022366,-43.318405,-19.74844,-8.174229,-0.399055,7.546406,0.938473,12.75444,18.975506,24.557362,20.052738,30.934696,35.82859,39.67947,36.198807,45.27317,48.983803,50.998936,-15.641595,-41.540058,-63.324862,-81.273083,-43.31955,-80.996225,-102.232716,-119.618329,-37.306172,-77.702087,-102.791156,-122.069666,-30.632064,-68.255447,-92.616417,-110.331468,-24.421732,-55.862634,-73.85868,-89.121467,68.381252,103.684453,-85.434608,100.04439
96,-0.768356,4.978812,0.534439,6.697172,22.65358,34.644012,39.097939,45.624847,17.372589,11.943054,8.437386,7.059975,0.715942,-6.130829,-9.957504,-11.709251,-15.525627,-23.573112,-27.817841,-29.071426,-31.389885,-39.789734,-42.593994,-42.036896,-20.911962,-46.55978,-68.202188,-85.906494,-38.834525,-68.358354,-86.084181,-101.663594,-31.378997,-62.688524,-82.625417,-100.492034,-24.191527,-51.946947,-71.187974,-87.758512,-17.331365,-39.015053,-53.741939,-65.776446,-22.583084,-34.020767,-36.545506,-42.429085,-19.318714,-7.117596,0.936356,9.120083,0.753994,13.325443,20.14904,25.942726,19.516182,31.667233,37.154217,41.303959,35.668545,45.67709,49.962559,52.606258,-16.834027,-43.593012,-65.649704,-83.059615,-44.369338,-81.051059,-101.495725,-118.320273,-37.878444,-76.9596,-101.47331,-120.528283,-30.866808,-66.860536,-90.613512,-108.088817,-24.23679,-54.738282,-72.053715,-86.692793,67.636814,108.732287,-84.876251,106.810583
97,0.089378,4.729773,-0.743694,2.77704,22.289658,33.901405,37.356033,43.45253,17.654343,9.808731,5.240936,3.778496,-0.502052,-7.965775,-11.763382,-13.349762,-17.607307,-25.30529,-28.998528,-29.719391,-33.206062,-40.433121,-42.812233,-42.0924,-22.391595,-48.26406,-70.408314,-89.367635,-41.628701,-73.633229,-92.253386,-106.900461,-34.315105,-68.918709,-89.250989,-106.134694,-27.605645,-58.021058,-77.314264,-92.638308,-21.50807,-45.271882,-60.517534,-72.236126,-21.389065,-32.367325,-34.507599,-39.92609,-15.652542,-4.192886,3.527813,12.011433,4.048634,16.150246,23.006973,29.426994,21.93821,33.745365,39.606171,44.639053,37.197075,47.55146,52.253265,55.646896,-18.047021,-44.301907,-65.477574,-82.632703,-47.302699,-81.503782,-100.69476,-116.715812,-40.445995,-76.641925,-100.531369,-119.538948,-32.694744,-65.979976,-89.321014,-107.529636,-25.174871,-53.746663,-70.781718,-85.839279,67.972069,113.680455,-85.374069,109.806018
98,-1.488075,0.96908,0.181389,3.289012,21.990166,33.254814,36.718025,42.421761,17.408638,9.979935,4.567451,2.245216,-1.288033,-8.74157,-12.98996,-14.79229,-18.700676,-26.105347,-29.770317,-30.384064,-34.190483,-40.569191,-42.948074,-42.11586,-21.960793,-47.83085,-70.055781,-89.213167,-41.320288,-73.485121,-92.674308,-107.591849,-34.495139,-69.408667,-90.289322,-107.088275,-28.2648,-59.156617,-79.266873,-94.46365,-22.539178,-46.898481,-62.132771,-73.379342,-21.412582,-31.310349,-33.137283,-38.342342,-15.380802,-1.914425,6.160069,14.431572,4.496498,18.153362,25.284519,31.634331,22.800579,34.997234,40.565586,45.178871,38.260632,48.712292,52.852879,55.544071,-19.277151,-46.244513,-67.677896,-86.098507,-46.159205,-81.525951,-101.753595,-118.107821,-38.234497,-76.794757,-101.40029,-119.9842,-30.028855,-66.431001,-90.328379,-107.599445,-22.489809,-52.97219,-70.671895,-85.448244,66.485395,114.803109,-85.191278,113.248604
99,0.014076,0.723993,1.615162,1.165693,21.165962,31.304855,34.458961,40.065651,16.072311,8.501472,3.41835,1.88324,-2.436218,-10.671501,-15.734138,-18.201485,-19.607735,-28.016052,-32.43576,-33.647461,-34.871864,-41.839027,-45.248108,-45.392303,-22.971863,-48.759823,-70.803177,-89.887111,-42.370786,-73.689175,-92.357683,-107.227028,-35.666606,-69.193405,-89.73962,-106.529217,-29.279575,-58.95846,-79.069488,-94.541147,-23.072671,-46.656512,-61.861902,-73.648111,-21.558952,-31.734581,-33.711662,-39.239845,-16.238365,-3.441753,4.28278,12.259884,3.782444,17.019882,23.932228,29.95142,22.314262,34.779911,40.345917,44.503956,37.95187,49.464741,54.129982,57.042503,-19.625516,-46.468235,-67.609013,-86.151952,-46.34282,-81.089221,-101.449752,-117.659111,-38.726864,-76.625963,-101.300316,-119.856006,-31.044834,-66.716287,-90.269346,-107.684722,-23.995191,-53.643015,-71.100258,-85.893094,66.620121,115.569447,-83.455467,114.456643
100,-1.101837,0.073545,-0.279808,1.508871,21.147194,31.336327,34.24427,39.723244,16.514511,9.487724,4.850922,3.34671,-1.578369,-9.391594,-14.593506,-17.517929,-18.697701,-26.926689,-32.067375,-34.026833,-34.032211,-41.224709,-44.904785,-45.059052,-23.084002,-48.769518,-70.636049,-89.971246,-41.625767,-72.090518,-90.889011,-106.156399,-34.426349,-66.788875,-87.426264,-104.742716,-27.535281,-55.936734,-76.09988,-92.416994,-20.70235,-43.505172,-58.758944,-71.095874,-20.750084,-30.218239,-32.077618,-37.576733,-14.556198,-2.118931,5.469761,13.196182,5.191498,18.369312,25.494633,31.512051,23.434582,36.07378,41.499367,45.457649,38.785801,50.444813,54.612007,57.033863,-20.709575,-47.434135,-68.568923,-86.512883,-46.984283,-82.275045,-102.780967,-118.984152,-39.027959,-77.73253,-102.527204,-121.159094,-31.074197,-67.532103,-91.286313,-108.908183,-23.796139,-54.494245,-72.129112,-87.095344,65.574188,115.678992,-83.679371,116.001514
101,0.189056,0.23706,0.475273,-0.928294,21.177979,30.884514,33.936882,39.986343,16.328545,9.479828,4.820824,3.186035,-1.912422,-10.660515,-16.073914,-19.351616,-19.113007,-28.3358,-33.280907,-35.32711,-34.499474,-42.021561,-45.503197,-45.695457,-22.840891,-48.548328,-70.444222,-89.745394,-41.710458,-71.865037,-91.110201,-106.934979,-34.585109,-66.486391,-86.923832,-104.352608,-27.610956,-55.704398,-76.20958,-93.223362,-20.591416,-43.370865,-58.93308,-71.880042,-20.783329,-30.012188,-31.676846,-36.452579,-14.797497,-2.757168,4.864712,12.615108,5.20792,18.517513,25.777531,32.005291,23.633251,36.239262,41.914101,46.042843,39.039402,50.117455,53.928738,56.174927,-21.424799,-47.519875,-68.25165,-85.783981,-46.679329,-81.621324,-102.117799,-118.394682,-38.663261,-77.020671,-101.702929,-120.200944,-30.700514,-66.739197,-90.495105,-108.633146,-23.138528,-53.503984,-71.185628,-86.26582,65.879259,115.926518,-83.088083,115.083687
102,-0.031471,0.757801,-0.27832,-0.979794,21.214943,31.060982,33.92292,39.432335,17.201729,9.998703,5.214157,3.936539,-1.342506,-10.364914,-15.752678,-18.65078,-18.843155,-27.994423,-32.93129,-34.545937,-34.360199,-41.967087,-45.357742,-45.360832,-22.955376,-48.87931,-70.805739,-89.759936,-42.093125,-72.904265,-91.825302,-106.964095,-35.103195,-67.528985,-88.28194,-105.315698,-28.202957,-57.007425,-77.524586,-93.791126,-21.436625,-44.219532,-59.375059,-71.501697,-20.32362,-28.682842,-29.557514,-33.82822,-14.037323,-1.383591,6.619949,14.708691,5.819263,19.759083,27.469311,34.08514,24.06229,37.591496,43.911896,48.642368,39.234924,51.085854,55.46711,58.234921,-20.895691,-47.025964,-68.102924,-85.58533,-46.184492,-81.386827,-102.422506,-118.892205,-38.092656,-76.740077,-101.42428,-119.663345,-30.005482,-66.447858,-90.109073,-108.038706,-22.507315,-52.966416,-70.492202,-85.422494,66.085997,116.775479,-83.128195,114.195052
103,-0.981102,-0.244717,-0.005894,-0.440898,21.869316,31.622314,33.806076,39.540482,18.849678,11.60511,6.227074,4.385376,0.55069,-8.53466,-14.141121,-17.002716,-17.054901,-26.064262,-30.764465,-32.402687,-33.007164,-40.815926,-43.981934,-44.059525,-22.513089,-48.775477,-71.298569,-91.119711,-40.620286,-72.156221,-91.21141,-106.263166,-33.327871,-66.714558,-87.22573,-103.798305,-26.411516,-56.149927,-76.086511,-91.659687,-19.924511,-42.971155,-57.938528,-69.46415,-20.671234,-27.962151,-27.451801,-30.742264,-14.388084,0.189228,8.784657,17.147427,5.063496,21.21048,29.742908,36.79945,23.234196,38.703003,46.053944,51.725979,38.589821,51.645069,56.766872,60.348244,-21.356349,-47.805193,-68.970085,-87.061566,-45.654704,-80.939414,-102.26955,-118.358373,-36.793273,-75.93266,-100.570673,-118.329103,-28.102057,-65.471214,-89.252718,-106.981786,-20.66388,-51.981497,-69.972479,-85.228258,65.372257,116.676277,-82.866726,113.899669
104,0.515213,-1.763005,-3.505497,0.871298,21.24012,29.914284,31.761131,38.118324,19.50634,12.648468,7.157249,4.659233,2.453728,-5.955505,-12.253647,-15.671654,-14.711037,-24.048157,-30.39711,-33.694496,-31.269264,-39.783325,-43.520966,-44.171677,-22.034986,-48.456629,-70.746089,-91.009548,-39.429707,-69.962136,-89.810386,-105.863764,-31.420647,-64.171244,-84.238029,-101.563465,-23.471177,-52.744361,-72.133188,-88.79842,-15.674694,-37.283231,-51.866734,-64.267297,-18.835545,-22.90535,-19.139271,-18.925037,-13.106632,5.001411,17.032013,28.49659,5.355549,25.201206,36.295795,45.191059,22.899628,42.408943,52.564259,60.499077,38.460331,54.244709,61.034145,65.849247,-24.372857,-53.073738,-76.541118,-95.089305,-47.273584,-79.379722,-100.131967,-116.458066,-36.45556,-73.32707,-97.831826,-116.098895,-25.767644,-61.219914,-84.968474,-102.707206,-17.016932,-46.516091,-64.404599,-79.85693,65.93648,115.115859,-86.323214,114.973555
105,3.020897,-2.404808,-2.678089,0.44837,20.436516,27.791519,28.290825,32.378197,17.509346,9.92981,4.739113,1.442528,1.578026,-7.47963,-14.208298,-18.403358,-14.34803,-24.022751,-30.888176,-34.552574,-30.273399,-39.841347,-44.205322,-46.072655,-22.461681,-48.500626,-70.443882,-90.079031,-40.105997,-68.788724,-88.641543,-105.011299,-31.341946,-61.64238,-80.660302,-97.443972,-21.577693,-48.186039,-66.57596,-83.36426,-11.335739,-30.130249,-43.743436,-56.210381,-14.568558,-13.236179,-4.228535,0.618439,-10.82634,9.112988,23.807373,37.33881,4.289017,29.703655,45.266762,57.720909,19.597263,44.824162,59.432144,70.626354,34.579239,53.376503,62.174721,69.425926,-27.89121,-57.910586,-81.909606,-100.053328,-49.077931,-76.123376,-94.843755,-109.490644,-35.988202,-68.390032,-91.080221,-108.429339,-22.929286,-54.709013,-77.29404,-94.322952,-12.298336,-39.943871,-56.612315,-70.858166,68.991995,113.190172,-88.966684,115.901046
106,0.376053,-1.814505,-4.137783,-0.122883,18.082581,23.674278,22.877655,24.630661,19.801826,13.952065,8.47435,3.970871,6.492233,0.05722,-7.739067,-12.715302,-8.347893,-16.930389,-24.165688,-27.608414,-24.616013,-33.551674,-37.336464,-38.259773,-23.310225,-49.161695,-70.995221,-89.542729,-38.615342,-67.420057,-87.604661,-105.107352,-29.858887,-58.888157,-79.113269,-96.994583,-19.083409,-44.299807,-62.788159,-80.262475,-7.269722,-24.629059,-37.471694,-50.286294,-4.804058,3.732548,16.770744,26.879025,-8.926907,17.095585,37.024841,53.569908,-1.111736,33.767624,54.674721,70.752926,11.187572,44.334698,64.888859,79.881706,26.712971,53.77224,68.413181,80.345707,-32.288395,-61.370863,-83.332706,-100.747001,-59.317261,-77.715981,-90.892747,-100.871922,-41.427363,-63.223561,-79.596312,-91.250992,-23.037195,-44.296226,-61.678874,-74.417583,-7.597122,-29.163052,-42.564559,-53.637519,69.493475,112.241161,-92.97904,116.643657
107,-1.942062,1.647779,4.622669,-19.633543,16.620712,21.383057,17.553864,14.96212,23.928452,16.762848,11.74633,9.247055,11.582108,4.844055,-1.636047,-5.258446,-2.59758,-10.681915,-15.166626,-15.918732,-18.125153,-24.782867,-26.404953,-25.861359,-23.544135,-50.202375,-72.294387,-89.72764,-41.642255,-69.422345,-86.959524,-102.871432,-32.348849,-61.541479,-82.075282,-100.894122,-22.385111,-46.732743,-65.242305,-81.495446,-11.964791,-29.461863,-40.637699,-49.938484,8.639259,27.969646,52.124634,67.980366,19.904366,46.117859,52.141113,53.179092,18.88464,48.992386,56.210289,56.16251,20.441494,52.367592,60.762119,61.528702,23.966389,47.297344,52.515507,54.38261,-32.488405,-56.642696,-62.135271,-56.067336,-62.035267,-65.506628,-51.980972,-45.975312,-37.655772,-38.398073,-32.415755,-30.146798,-12.940355,-12.335108,-13.821965,-15.724681,8.117586,5.884536,0.752429,-3.535829,67.671432,114.880405,-88.236351,98.001578
108,0.740776,0.182102,-5.047588,2.463872,12.84874,14.913254,10.407944,7.03022,22.287598,15.182877,8.90625,5.454254,12.010002,6.516151,-0.637207,-5.229836,-0.024033,-5.803185,-10.304375,-12.34417,-14.224548,-18.678703,-21.00071,-21.22776,-24.487651,-49.246046,-69.772779,-87.505428,-43.489241,-70.068439,-88.559569,-104.614121,-33.311538,-61.957554,-82.229627,-100.178033,-21.923959,-46.103599,-64.382184,-80.18186,-10.221854,-27.504189,-39.038981,-49.213689,18.686371,41.199245,63.062038,77.2752,11.337376,40.030575,61.582203,75.305729,2.03207,38.879242,66.39719,85.836124,1.333809,40.141468,65.926266,84.737148,7.117939,38.538494,55.495205,67.876396,-31.221688,-50.024101,-51.649094,-46.267669,-55.485462,-55.289991,-52.224732,-49.859073,-35.644098,-32.095425,-31.925148,-29.231379,-13.443837,-10.732222,-12.542991,-12.54648,8.495035,3.157113,-0.18275,-2.116279,68.357306,115.71385,-93.338842,101.116794
109,3.163033,-1.907161,4.047031,3.619778,10.064163,10.027428,2.920418,-3.682365,19.801254,10.016212,2.509003,-2.300377,11.946602,5.598221,-1.811943,-6.70578,1.807823,-3.621483,-7.121086,-8.686981,-10.186501,-13.101654,-13.998985,-13.468094,-24.510282,-49.698862,-69.171175,-85.606603,-46.281934,-70.302597,-87.997672,-103.701481,-36.611912,-63.164651,-81.651921,-99.536354,-25.232515,-47.350926,-63.128064,-78.170248,-12.832137,-27.357903,-37.641415,-47.836377,24.692459,46.341419,65.305996,79.984703,16.392975,42.455292,61.087132,74.07526,0.556126,39.924316,66.104107,82.359695,-7.383156,29.370518,53.493576,66.673794,-9.047985,20.924435,39.079514,50.278988,-22.283809,-36.286209,-40.68537,-42.376992,-59.35817,-57.45706,-50.539748,-42.415493,-45.425548,-34.975464,-21.552283,-9.089969,-24.794489,-14.674275,-3.952829,3.254185,-2.126067,0.394091,5.143315,8.41973,71.462173,114.081725,-89.349976,105.011608
110,-2.242699,-3.724013,3.281651,2.903196,0.129089,0.320892,0.449867,1.00399,10.872116,5.816116,1.573334,-1.371689,9.098053,5.502319,0.422859,-3.841095,4.970398,2.461281,-0.360374,-2.815933,-0.45948,-2.95372,-5.029564,-6.658058,-27.591412,-51.952443,-68.71274,-83.33956,-50.303491,-72.195402,-88.973112,-104.501426,-40.695158,-64.350506,-81.744948,-97.84149,-28.576825,-48.93362,-66.335318,-81.267525,-15.04978,-28.452243,-40.574034,-51.009978,27.485905,46.375008,66.032295,86.156559,21.636143,34.589996,45.641785,56.909523,3.051682,33.533649,54.4907,66.748352,-9.185543,19.297428,37.856941,49.23317,-16.959515,5.171127,19.221497,27.7668,-10.906389,-22.737181,-26.094798,-27.291552,-53.628411,-62.240772,-64.031349,-64.677999,-47.629297,-34.045071,-14.908711,-2.071726,-32.081933,-15.60683,0.017506,8.856337,-13.286774,-2.717697,7.058906,12.577447,68.639059,110.498827,-86.648741,108.055919
