YashyHoby/handMotion-similar-search/project/data/handData/tgt/d4_feature_d2/12.csv
,vel_0x_L,vel_0y_L,vel_0x_R,vel_0y_R,posFromWrist_1x_L,posFromWrist_2x_L,posFromWrist_3x_L,posFromWrist_4x_L,posFromWrist_5x_L,posFromWrist_6x_L,posFromWrist_7x_L,posFromWrist_8x_L,posFromWrist_9x_L,posFromWrist_10x_L,posFromWrist_11x_L,posFromWrist_12x_L,posFromWrist_13x_L,posFromWrist_14x_L,posFromWrist_15x_L,posFromWrist_16x_L,posFromWrist_17x_L,posFromWrist_18x_L,posFromWrist_19x_L,posFromWrist_20x_L,posFromWrist_1y_L,posFromWrist_2y_L,posFromWrist_3y_L,posFromWrist_4y_L,posFromWrist_5y_L,posFromWrist_6y_L,posFromWrist_7y_L,posFromWrist_8y_L,posFromWrist_9y_L,posFromWrist_10y_L,posFromWrist_11y_L,posFromWrist_12y_L,posFromWrist_13y_L,posFromWrist_14y_L,posFromWrist_15y_L,posFromWrist_16y_L,posFromWrist_17y_L,posFromWrist_18y_L,posFromWrist_19y_L,posFromWrist_20y_L,posFromWrist_1x_R,posFromWrist_2x_R,posFromWrist_3x_R,posFromWrist_4x_R,posFromWrist_5x_R,posFromWrist_6x_R,posFromWrist_7x_R,posFromWrist_8x_R,posFromWrist_9x_R,posFromWrist_10x_R,posFromWrist_11x_R,posFromWrist_12x_R,posFromWrist_13x_R,posFromWrist_14x_R,posFromWrist_15x_R,posFromWrist_16x_R,posFromWrist_17x_R,posFromWrist_18x_R,posFromWrist_19x_R,posFromWrist_20x_R,posFromWrist_1y_R,posFromWrist_2y_R,posFromWrist_3y_R,posFromWrist_4y_R,posFromWrist_5y_R,posFromWrist_6y_R,posFromWrist_7y_R,posFromWrist_8y_R,posFromWrist_9y_R,posFromWrist_10y_R,posFromWrist_11y_R,posFromWrist_12y_R,posFromWrist_13y_R,posFromWrist_14y_R,posFromWrist_15y_R,posFromWrist_16y_R,posFromWrist_17y_R,posFromWrist_18y_R,posFromWrist_19y_R,posFromWrist_20y_R,posFromBody_0x_L,posFromBody_0y_L,posFromBody_0x_R,posFromBody_0y_R
2,-15.44735,7.243509,-2.121391,-2.887449,23.363056,42.682114,56.817112,72.490025,39.670658,64.760799,77.961216,90.441227,26.141338,54.77869,69.790707,79.886227,12.250214,36.647186,50.061607,59.284344,-1.293926,5.028248,8.666553,12.385826,-6.085627,0.257067,14.320662,23.930446,23.984663,38.755547,43.338477,48.677171,36.653933,53.651845,58.134864,59.768903,43.610858,60.667372,67.613861,72.410756,45.477943,62.366743,72.770823,83.313903,33.532162,63.01775,85.605125,102.942009,63.255386,99.462891,110.653038,109.406891,49.867115,90.27626,102.876549,102.494659,35.739899,74.328232,87.413063,88.559418,22.745533,52.097225,66.594715,71.329994,-13.840984,-9.621023,4.936698,17.500561,16.26512,42.251978,45.931438,43.415356,36.663196,61.135748,60.602534,56.006327,50.990403,72.980465,71.368903,67.110286,59.741424,80.482091,79.636234,74.30705,-53.659544,361.789767,-71.857653,358.247331
3,7.923546,-12.984259,1.019554,-0.677773,-11.425552,-8.697109,-5.572586,-11.708565,15.023918,51.922131,61.641598,63.3288,20.891933,58.886776,65.408306,62.952175,22.601967,52.834682,59.032688,56.199131,21.464024,39.853706,43.391647,40.612907,18.599409,45.780459,69.853733,84.319076,50.364871,63.809294,60.924809,56.075858,51.325893,68.751303,68.387038,65.586348,49.377791,69.423086,67.533462,65.92826,45.330051,64.137868,68.315778,69.484281,32.753448,62.62682,85.20298,101.962852,63.38974,99.072075,108.69175,106.262054,49.991512,89.285088,100.365715,98.806343,35.671349,73.497276,85.205612,85.821304,22.10083,50.395832,63.322792,67.11113,-13.888347,-9.188708,6.251859,18.412614,17.731322,43.849894,46.003378,42.71875,37.781681,61.630431,60.11168,54.847457,52.125684,73.450695,71.647706,67.311963,60.842434,81.551237,81.188762,76.350185,-44.936028,351.633491,-70.038128,360.397542
4,-1.043472,6.08223,0.078793,1.067294,33.381958,55.907307,72.1451,80.162144,36.876526,67.019405,75.688648,78.400326,15.946026,40.006027,46.909618,47.632084,-3.917027,6.943474,10.302429,9.669971,-21.714191,-21.230106,-20.02676,-19.89069,-3.246219,8.272517,24.516334,35.955598,40.695559,52.24338,51.105505,47.703737,54.213959,70.816052,75.569969,76.321163,61.712929,85.561988,92.323658,96.942281,63.293493,87.825511,98.873339,106.303828,32.188339,62.23177,84.808445,101.030216,63.956909,99.286022,109.042225,106.82642,50.568924,89.493084,100.443363,99.063206,36.117039,73.404636,84.792194,85.264034,22.401581,50.330715,63.099918,66.791496,-14.70302,-10.358261,5.144056,17.714958,16.32051,42.113966,44.542857,41.397291,36.748967,60.331079,58.570575,53.111529,51.347135,72.498442,69.975937,65.023246,60.234007,80.700872,80.060397,74.873363,-45.574579,359.10313,-69.554415,362.852244
5,-29.118176,-5.61231,0.958557,0.212915,35.284538,67.855167,93.202171,111.115608,66.986904,101.704903,109.831467,110.397491,49.605045,90.647278,102.314644,102.546272,33.698902,70.193939,83.035812,86.025124,19.223156,41.73872,53.592739,58.633289,-10.296758,-3.177923,14.06415,30.965485,30.644506,56.032447,56.534231,52.530767,50.940385,76.208159,70.856189,61.901886,63.89099,87.036403,83.358301,77.119843,69.301993,90.550001,91.832928,88.431901,32.588711,62.777824,85.208302,100.631733,63.335724,98.577976,107.477016,103.976154,49.467888,88.471012,98.972683,96.855755,34.788609,72.288265,83.432751,83.498211,21.104507,49.898701,62.801857,66.25391,-14.560006,-10.010359,5.581311,19.007703,16.3667,43.874038,45.346106,41.253721,36.166661,61.250419,58.834434,53.102267,50.459411,72.634231,69.639212,64.456253,59.245815,79.801231,78.834466,73.629339,-74.53454,354.227858,-68.437643,363.802197
6,26.352654,2.594752,-1.484299,0.424658,32.593861,55.630302,72.21611,82.255669,38.067169,69.515991,80.799637,85.690956,16.658478,45.639839,57.052002,59.7472,-3.059349,12.479782,19.504967,20.645256,-20.591068,-18.97047,-16.181374,-14.758415,-1.943224,8.611836,24.276495,36.787993,39.963138,55.075254,55.164731,51.818105,54.559577,70.671371,74.872498,75.1329,62.085223,85.732419,91.617172,94.319617,63.161162,88.525946,99.084896,105.058508,32.088203,62.546997,85.359478,102.069569,62.498932,98.591251,108.5499,105.724354,48.768196,88.881283,100.377331,98.53426,34.164791,72.634792,84.456654,84.466038,20.753002,49.340458,62.676315,66.272163,-14.770575,-10.830405,4.201375,16.911956,15.989775,43.300315,44.88903,40.830854,35.980051,61.30019,58.573106,52.486492,50.399513,72.573715,69.126375,63.616448,59.066122,80.241696,79.204536,73.548075,-48.013859,357.224296,-69.753914,364.628541
7,-26.652603,-2.152928,1.316471,-1.383765,35.86504,68.100758,93.235359,111.100273,65.991096,100.88253,110.85743,113.767548,48.694496,90.172806,102.22538,103.049355,32.482166,68.764973,81.282578,84.473763,17.522736,38.53632,49.397793,53.925648,-10.082731,-3.680633,13.181366,29.547881,29.470755,53.647152,56.092592,54.355677,49.609293,74.366392,69.165648,60.864726,62.171488,85.304242,81.773601,75.89632,66.932383,88.352489,89.421019,85.853697,32.181358,62.139359,84.475937,100.263863,62.323666,98.153343,107.850838,104.936256,48.258476,88.009987,99.035797,97.107925,33.309803,71.547775,83.138924,83.548622,19.325523,48.165321,61.08839,64.288845,-13.66234,-9.064652,6.161456,18.926193,17.316545,44.176059,46.221789,42.522939,37.091743,62.622637,60.581971,54.807443,51.300019,74.337369,71.642643,66.515506,59.880424,81.361725,80.310301,74.776723,-74.516087,355.142227,-68.287067,363.315635
8,27.601662,3.851744,-0.803947,0.433364,32.773933,55.82634,73.670883,83.862762,37.223682,70.01667,79.883194,82.552185,16.747856,45.228367,55.223236,57.315102,-2.758255,10.960407,16.413918,17.087631,-20.35223,-19.996548,-17.353134,-16.078949,-4.561997,5.356169,21.491058,34.844955,39.806106,54.880617,52.738619,46.806318,55.5369,73.157627,74.497117,71.079108,64.146884,89.651842,93.767877,93.685502,65.564364,92.248385,102.115174,106.270854,32.047977,61.934738,84.207115,100.530396,62.934437,98.601494,108.794632,106.4645,49.020824,88.788643,100.218086,98.693275,34.115067,72.260742,84.064865,84.571724,20.044041,48.341503,61.545696,65.195675,-14.15764,-10.141023,4.799551,17.183534,16.145757,42.579997,45.171291,41.710489,36.406067,61.431286,59.697149,53.945036,50.855231,73.618779,70.992596,65.869473,59.614095,81.103979,80.479929,75.24016,-46.881323,359.055536,-69.057913,363.810564
9,-29.388428,-4.886125,0.547943,0.230391,36.003284,69.361668,95.537796,113.430977,67.373257,103.139877,111.319199,111.64238,50.655785,92.440681,104.204407,105.06855,36.19257,74.012146,87.015724,90.337715,23.709126,49.014816,62.36475,68.124676,-10.966194,-3.759303,13.953741,31.539146,30.320564,56.105313,56.960124,53.073738,50.928591,75.294994,70.935045,62.964363,64.29317,87.025164,84.040767,78.229003,70.212874,91.635265,92.757702,88.916209,32.222271,62.05759,84.363327,100.041046,62.719574,98.426056,108.06633,105.237236,49.019222,88.667793,99.219818,97.04258,34.449005,72.661743,83.637772,83.639717,20.624886,49.789982,62.287159,65.048389,-14.148934,-9.785526,5.565503,18.48653,16.391894,43.255731,45.719943,42.300823,36.309675,61.468336,59.682885,54.118555,50.787182,73.269766,70.506373,65.511197,59.769027,80.909836,79.97796,74.762644,-76.203232,354.055481,-68.443451,363.927026
10,28.584194,4.118197,-0.323639,-0.032728,32.929401,56.129322,74.198856,84.689312,39.199791,71.644535,81.876125,85.259457,18.483524,46.479492,57.007771,60.192776,-1.515312,12.037868,17.879219,19.537582,-19.719257,-19.607048,-16.836376,-14.831371,-3.730528,6.234075,22.411386,35.868715,40.587002,55.268162,53.159509,47.27556,56.044118,73.542579,74.823592,70.963018,64.398949,89.833758,94.217729,93.626592,65.710713,92.34558,102.688095,106.739663,31.95797,61.406422,83.695221,100.349007,63.240051,98.547935,108.096428,105.256462,49.752674,89.062729,99.80484,98.0056,35.085239,72.881584,84.183311,84.44458,21.087685,49.49192,62.237091,65.557652,-14.22501,-10.164303,4.784175,16.830816,16.52299,42.684664,44.920337,41.535735,36.494061,60.781486,58.85123,53.288012,50.807066,72.677641,70.179405,65.49965,59.556173,80.43232,79.920779,75.047684,-47.636805,358.012355,-68.784857,363.732975
11,-30.490437,-4.242377,0.155811,-0.090217,36.687927,70.59042,97.120514,115.248413,70.568733,106.168213,114.127579,114.937706,53.86322,95.969925,106.822815,106.910248,38.956089,76.650238,88.925743,91.900291,25.758476,50.519943,63.68042,69.724903,-11.118841,-3.723859,14.859002,32.394513,29.86639,54.026979,56.1373,53.77794,51.154597,74.555471,70.613325,63.23094,64.802117,86.551909,83.423448,77.963909,70.525269,91.284523,92.158291,88.271535,31.894684,61.581688,84.031048,100.414295,62.724323,98.444996,108.089504,105.341091,49.150887,88.678837,99.488239,97.681789,34.574375,72.549877,83.783855,83.983669,20.836086,49.142017,61.948528,65.42347,-14.00135,-9.939038,5.155974,17.816476,16.344531,42.926355,45.307327,41.868261,36.205625,60.826626,59.104036,53.546499,50.526225,72.452685,70.04763,65.311126,59.379381,80.282637,80.095904,75.402872,-78.134966,353.701682,-68.63677,363.574462
12,30.333538,5.19321,0.063515,0.058107,33.36422,56.544399,74.744396,86.154613,39.070473,70.60461,81.256657,85.467281,18.548756,45.42429,56.505718,60.04858,-1.194534,11.818771,17.575893,18.853226,-19.299431,-19.005375,-16.486244,-14.963093,-4.201313,5.592673,21.314575,34.417765,38.819829,52.705212,51.492989,46.482376,54.17271,71.678705,73.558635,70.38349,62.729218,87.99798,92.874225,93.130119,64.680407,91.036101,101.702126,106.351314,31.878834,61.733322,84.246655,100.862675,62.407322,98.263493,108.084583,105.615635,48.709831,88.335285,99.550037,98.15958,34.068489,72.24123,83.882847,84.428959,20.458603,49.065971,62.274113,66.303806,-13.974365,-9.738904,5.419278,18.056067,16.573625,43.025464,45.710742,42.629026,36.366917,60.748018,59.403958,54.303127,50.495905,72.252058,70.000082,65.491067,59.119597,79.857424,79.718547,75.158711,-47.797022,358.85196,-68.56885,363.589637
13,-30.630398,-4.903353,-0.847607,0.653505,36.412296,70.215168,96.566048,114.543228,70.410347,106.11351,113.977432,113.684807,53.598003,95.295868,106.030655,105.619926,38.072205,75.531521,88.122826,90.800285,24.037342,46.981659,58.96328,63.855,-10.975333,-4.027053,13.897733,31.08454,29.278402,53.649561,55.860843,53.389406,50.569759,74.952403,70.169463,62.062931,64.244079,86.894562,83.457349,77.836209,70.163041,91.113968,92.527805,89.472086,31.806221,62.250023,85.071487,101.820488,61.581402,98.611908,108.770027,106.689148,48.002186,88.888092,100.546074,99.317093,33.83646,73.237495,84.751854,84.867783,20.966663,50.589352,63.692894,67.211266,-14.396368,-10.410378,4.570765,17.696001,14.356786,41.51684,45.655414,43.3294,34.108581,59.360609,59.583405,55.288911,48.866436,71.031499,69.402832,65.177436,58.270468,79.259988,79.361259,74.833719,-78.457918,353.999597,-69.446955,364.294132
14,27.910538,2.003307,0.448895,0.391374,29.087448,47.174206,60.049095,64.198837,43.188686,79.061852,84.951897,84.071732,26.631203,60.992317,68.645439,67.340012,9.18829,30.952206,37.198391,35.764217,-8.124561,-2.340832,0.266991,-0.276947,0.803002,15.521213,33.113164,45.184876,42.876831,55.1199,50.668683,44.126597,57.048736,72.710184,68.973666,61.951101,64.450264,88.151924,86.985891,83.508787,66.737499,92.807164,99.121947,100.213817,32.492981,62.413845,85.162067,102.241459,60.577698,97.731915,108.004818,105.65752,46.969585,88.100681,99.776402,97.936192,33.112621,72.487049,84.431019,84.623623,20.819836,50.112591,63.148384,66.398735,-14.854926,-10.895675,4.178465,17.335131,14.691535,42.590062,45.346477,42.048511,34.334526,59.681835,58.1545,52.884658,48.832411,70.981728,68.318309,63.601257,57.855628,78.875654,78.482242,73.742342,-50.602541,355.952932,-69.053221,364.635534
15,0.749073,-0.483691,0.925999,-0.035074,32.088203,52.033596,66.469288,73.072872,42.402706,76.709576,83.981609,84.222279,23.756676,55.268497,64.407635,64.785748,5.270576,23.753986,30.432014,30.129604,-12.450085,-8.052406,-5.399265,-5.518684,-0.951883,12.779742,30.246772,43.160574,44.235525,57.709465,53.599605,46.825214,58.38872,75.805794,72.793485,65.854283,65.377261,90.571738,90.635279,87.721153,66.92911,93.492532,100.993046,103.162091,31.612473,61.12421,83.347893,100.587387,60.840797,97.363701,107.373734,105.200272,47.412701,87.587242,98.761024,96.974373,33.483295,71.771965,83.5952,84.145203,20.918655,49.134007,61.798325,65.401726,-14.884258,-10.651205,4.577682,17.027614,15.477247,42.779327,45.830785,42.836446,35.151669,59.826393,58.491904,53.148271,49.487706,71.201683,69.36362,65.023554,58.234344,79.153839,79.661242,75.500129,-49.871006,355.480604,-68.14476,364.611822
16,0.206451,0.159316,-0.138702,0.00704,31.717758,51.137981,64.262524,69.869785,41.762295,74.900494,83.280315,84.705563,22.817287,52.445469,62.239323,63.783245,4.209709,21.531029,28.91407,29.61319,-13.50935,-9.974213,-6.843166,-6.189423,1.778288,16.718924,34.89417,47.797104,43.610364,58.343889,54.96188,49.280102,56.726707,74.812415,73.481076,68.795763,62.924102,88.136981,89.188096,87.892758,64.23037,90.034077,97.468826,100.051723,31.264458,60.938416,83.079643,99.993896,61.119919,97.559052,107.530746,105.222473,47.475586,87.711296,99.171066,97.779922,33.154736,71.739578,83.472977,83.921127,20.200996,48.995075,62.047749,65.901833,-15.024307,-10.920499,4.06009,16.822171,14.740441,41.466204,45.538829,43.265735,34.479269,59.192092,58.994491,54.5618,48.904103,70.815928,69.047952,64.860533,57.877426,78.745793,78.79686,74.271173,-49.716311,355.616316,-68.335218,364.595258
17,0.687675,2.220607,1.218853,0.247557,33.302422,56.298466,73.515987,83.864651,39.963112,72.963467,83.606586,87.153111,19.297256,48.274097,60.287189,64.370785,-0.233459,15.099621,22.463379,24.797916,-17.85965,-17.154694,-14.633789,-13.070698,-4.300175,5.710555,21.932635,35.430102,39.158715,54.033587,52.39189,47.352068,54.622562,72.733896,72.762363,68.65275,63.252367,89.289984,92.428017,91.728384,65.186328,92.314211,102.108382,105.933758,31.195221,60.784035,82.686367,98.744602,60.205021,96.756535,106.194019,102.947788,46.168327,86.779232,97.341442,94.429722,31.679592,70.091686,81.028805,80.277271,18.773689,46.635361,59.02256,61.781673,-15.136878,-11.49206,3.553119,16.775549,15.419634,43.211148,45.122632,41.171655,35.112396,60.397337,57.479321,51.229315,49.414223,71.894337,67.838694,62.100722,58.112695,79.386762,78.743014,73.623534,-49.151802,357.818767,-67.239532,364.82466
18,-28.724842,-2.936109,-1.003361,0.945955,36.524677,70.303116,96.245155,113.981438,71.194553,105.116501,114.321213,116.44043,54.068012,94.848862,105.98362,106.099434,37.866268,74.711781,87.768631,91.328087,22.958908,45.652599,58.248539,64.392872,-11.499532,-4.625538,13.542359,30.235039,28.125213,52.087399,55.903265,55.514979,49.256822,73.711467,70.180455,62.936823,62.678335,85.443675,82.977487,77.846213,68.066244,89.261332,91.424819,88.779061,30.204563,60.507603,82.741013,99.424438,60.695972,97.445297,107.488747,105.215149,46.936626,87.724571,98.948822,97.178879,32.463455,71.199532,82.681961,82.662048,19.340229,46.702595,59.460926,63.238392,-15.465391,-12.299756,2.459766,15.057529,14.358885,40.879328,44.212492,41.39902,34.214174,58.708463,57.688964,52.822537,48.614432,70.446352,67.896369,63.214576,57.530945,78.839468,79.536939,75.649503,-77.89876,354.865322,-68.265009,365.753279
19,29.909019,3.266906,1.022243,0.147522,34.242268,57.238655,74.734497,85.317421,40.557575,70.912285,80.771255,84.211006,19.479618,45.070438,55.934486,59.596367,-0.769844,11.731224,17.683811,19.324665,-19.204216,-19.013844,-16.013947,-13.856621,-4.557613,5.509248,21.408127,34.690887,39.843218,53.112085,51.111866,45.892844,55.133547,72.636763,74.334837,71.340374,63.776443,89.12227,93.708041,94.049521,65.766535,92.346691,102.728479,107.01544,30.795021,60.541019,82.632122,98.31007,60.988255,96.922932,105.98402,102.391491,47.242641,87.267094,97.438488,94.515324,32.654743,70.416813,80.785961,79.747066,19.390869,46.823673,58.64645,60.503025,-16.009597,-12.898982,1.715797,14.694746,14.989974,41.309852,42.868309,39.021135,34.879597,58.886119,55.668243,49.711675,49.209212,70.844272,66.021873,60.063823,58.139186,78.634148,76.610463,70.70064,-48.000555,358.120495,-67.25358,365.889068
20,-31.4641,-4.497097,0.428123,-0.275407,37.9212,71.938934,98.019619,115.204639,72.699795,109.000797,116.046925,114.580822,55.169106,97.626858,107.260494,105.632801,38.759079,76.903038,88.575039,90.093212,23.782597,46.71587,58.286076,62.721691,-10.809163,-3.546017,14.762671,31.604972,29.82267,54.9541,55.841392,52.74078,51.169417,75.804435,69.973961,61.723674,65.033928,87.357937,82.757717,76.700866,70.953879,91.444333,91.690717,87.885965,30.318031,59.702568,81.464481,97.987576,60.492325,96.374989,105.30447,101.776257,46.647663,86.394367,96.387691,93.408108,31.822071,68.862019,79.387379,78.550472,18.368225,44.426594,56.36673,59.259224,-15.248585,-11.826933,3.302721,15.696708,15.529055,43.30402,44.96628,41.07798,34.897751,60.417282,57.23726,51.128662,48.897002,71.548659,67.438983,61.9038,57.509949,79.11963,79.596528,75.896999,-79.547195,353.608007,-66.907997,365.59827
21,31.907272,4.171858,-1.021099,0.147275,33.586578,56.702099,74.569073,85.412464,40.061989,70.491772,80.295238,84.067554,19.139042,44.263573,54.923573,58.796024,-1.138859,10.827084,16.009827,17.575951,-19.574776,-20.606346,-17.969685,-15.822887,-4.244909,5.806576,21.786039,35.572436,40.805537,53.791154,51.647242,46.388885,55.701712,73.52955,74.931531,71.611706,63.936253,89.384709,94.60194,94.967935,65.306618,91.786924,102.84809,107.210757,31.035748,61.114197,83.342972,99.846039,60.966339,96.827087,106.705742,104.229927,46.954823,86.690826,97.853622,96.035271,32.164822,69.576302,80.875053,80.666428,18.797779,45.482883,57.649212,60.27832,-15.56345,-12.475312,2.366646,14.974598,14.952245,41.148993,44.0646,41.050686,34.833222,59.393831,57.516927,52.085361,49.122267,71.419971,68.021537,62.689327,58.010622,79.202807,78.499655,73.55635,-47.681808,357.770278,-67.970982,365.735958
22,-32.049122,-4.532542,0.505943,-0.057181,37.505264,71.736145,98.29525,115.902328,72.428627,109.049721,116.252975,115.026855,55.394669,98.206444,107.89959,106.247635,39.704361,78.095913,89.248695,90.251312,25.598259,49.705124,61.444416,65.729656,-10.504857,-2.949385,15.438838,32.407295,30.393553,55.681087,56.37121,53.075467,51.793467,76.115657,70.294446,62.196559,65.893494,87.828043,82.781244,76.437315,72.111946,92.358239,91.971249,87.371584,30.714397,60.356712,82.356834,98.844795,60.579071,96.559868,106.234932,103.460083,46.784306,86.481056,97.722931,95.737267,32.279663,69.926834,81.487427,81.37413,19.135094,46.396179,58.957558,61.79987,-15.841389,-12.522737,2.222336,14.75841,14.988616,41.110399,43.383863,40.015872,34.884413,58.973187,56.603392,50.985833,49.237556,71.15679,67.612749,62.30209,58.071199,79.136858,78.368683,73.229752,-79.76366,353.22358,-67.497768,365.66462
23,29.792233,1.833493,0.063515,0.283373,22.934132,36.843796,44.559002,43.547745,40.238628,73.704815,81.033382,81.808491,25.46402,56.48592,65.531673,66.595974,9.476509,29.981689,37.406731,37.401295,-6.545162,-0.697289,2.60519,2.779713,5.169559,22.403667,41.000359,53.788437,46.835835,60.191461,55.798969,49.913476,58.212669,74.718369,71.709148,66.120303,63.050999,86.104219,84.480739,81.537282,63.497022,87.713681,93.124067,94.073356,30.38372,59.981461,81.995201,98.412781,60.681782,96.627274,106.288719,103.530807,47.187424,86.570435,97.681503,95.51651,32.686043,70.079498,81.576347,81.46534,19.351616,46.566124,59.276791,62.558556,-15.556967,-12.564542,2.077901,14.484424,14.778788,41.074707,43.580909,40.113809,34.528546,58.800842,56.758076,50.992502,48.783443,70.515821,67.32808,62.069415,57.565834,78.646251,78.490887,73.685902,-49.995947,355.014326,-67.458773,365.905246
24,1.304398,-2.569126,0.100708,0.295229,6.653481,13.282585,15.198727,8.085995,33.595276,67.292118,74.872799,75.418568,27.299938,60.258236,68.024311,67.596416,17.83041,41.614895,48.046703,46.450653,6.392212,16.537971,18.864727,16.572704,12.02614,36.327088,59.589889,75.730829,51.90894,64.282055,59.66189,55.05358,57.955726,74.288648,71.307091,67.186363,59.431437,80.786026,78.663603,77.060439,57.925406,79.195027,84.269058,86.15436,30.585308,60.30653,82.624969,98.487968,60.586395,96.566849,105.915871,102.640228,47.140617,86.765213,97.540398,94.816475,32.812557,70.683289,81.835442,81.24733,19.753075,48.041611,60.878334,63.975277,-15.726471,-12.764736,1.910125,15.034743,14.2691,41.406554,43.652169,39.84433,33.904805,58.742364,56.353488,50.535981,48.195826,70.205896,66.276161,60.705225,57.211077,78.057523,77.365177,72.360491,-48.713121,352.369911,-67.379637,366.125186
25,1.148357,5.107624,-0.255604,-0.531795,21.290932,36.783714,47.771072,48.204575,38.003769,67.273865,75.798454,79.612999,24.094105,49.556007,59.597054,62.631226,8.290043,23.900299,31.4855,32.421455,-8.099957,-4.237232,-2.566109,-3.584576,4.772195,20.991991,38.732267,50.339986,44.343033,54.629848,53.893104,52.090425,56.104695,71.466098,72.234026,70.968019,62.341549,84.009645,86.270327,88.193729,64.719866,87.080246,95.47719,100.710291,30.702553,60.296917,82.616787,98.766689,61.768684,96.353016,106.456089,104.912167,48.635044,86.47974,97.993755,96.727352,34.502964,70.599804,82.636585,83.669758,21.379681,48.059921,60.52351,64.457474,-15.650271,-12.54015,2.167995,15.197517,14.558339,41.328007,45.038774,42.913078,34.55905,59.020488,57.833151,52.552009,48.853344,70.590539,69.023499,64.664784,57.490313,78.17843,78.557948,74.185092,-47.549629,357.435483,-67.620106,365.551339
26,-0.021,0.544145,0.04406,-0.268491,28.483829,48.497143,63.745365,69.653263,39.903316,70.121326,79.116955,83.120785,22.18832,48.417034,59.213047,62.93478,3.653126,18.698673,25.702057,27.007313,-14.641743,-12.055206,-10.516663,-10.817013,0.695557,14.638861,32.085514,44.039097,41.874004,54.207414,54.260211,52.359842,55.119962,71.919717,73.290144,71.547362,62.015692,85.546983,89.112637,90.767425,64.179611,87.785868,97.160198,102.648698,30.874958,60.545769,82.70628,98.528767,61.338501,95.867558,106.179485,104.783421,48.040466,85.955486,97.776432,96.616688,34.002743,70.312672,82.707882,84.003468,21.028805,48.031712,60.619011,64.435158,-15.583766,-12.338103,2.543808,15.913822,14.165174,41.353572,45.291704,43.282346,34.141618,59.138493,58.263304,53.033353,48.606837,70.80364,69.590924,65.256415,57.404047,78.429754,78.971182,74.637908,-47.486029,357.861607,-67.491446,365.164828
27,2.531662,3.520638,-0.076962,0.048227,31.141834,53.198833,70.055752,79.992313,36.135979,62.183475,71.220989,76.136341,14.238911,31.005878,37.644024,40.529308,-6.028175,-0.630512,1.094341,1.455688,-23.677425,-25.617313,-24.464664,-23.558407,-2.641868,7.672921,22.696302,34.300131,41.312446,53.114555,54.188457,51.901839,53.542177,71.540322,79.740592,83.487298,59.549504,81.829485,91.226539,97.804316,59.367031,81.227233,92.78302,100.647367,30.878048,60.541935,82.59201,98.588905,61.406536,96.132317,106.385193,104.923325,48.051224,85.980148,97.972183,97.216187,33.952446,70.30735,82.768135,84.205399,20.881805,48.134079,60.907059,64.875584,-15.727583,-12.610731,2.197697,15.438159,13.893904,40.916008,44.372117,41.993244,33.969025,58.683207,57.831607,52.860143,48.464008,70.670877,69.503855,65.403875,57.317412,78.255309,78.611547,74.147548,-44.907818,361.293803,-67.521858,365.124613
28,-29.319935,-8.857726,0.08852,-0.59089,36.852837,68.764458,92.887802,110.962029,68.218174,101.424751,110.007362,111.681976,50.362473,90.091782,100.976601,101.44249,33.410912,68.198376,79.579811,82.176933,17.713223,36.414471,46.009254,49.769325,-9.127822,-1.635521,16.030777,32.741427,32.872338,57.397255,57.727743,54.093917,53.079543,76.611513,71.075836,62.672593,65.509468,86.995895,83.263391,77.259954,69.832923,90.687087,91.768399,88.527737,30.866833,60.528946,82.471218,98.205471,61.25988,95.426388,105.496616,103.995495,47.758713,84.978046,96.962986,96.458874,33.505039,69.259014,81.576061,83.253422,20.181828,46.538029,58.954067,62.808094,-15.225676,-12.135561,2.683364,16.097591,14.51956,41.359685,45.206921,43.123462,34.484765,59.318743,59.210803,54.585697,48.939116,71.153765,70.571705,66.611898,57.734659,78.965377,79.951593,75.844697,-74.232645,352.384222,-67.438231,364.481869
29,27.696362,7.293588,1.099262,0.506168,32.902164,54.608517,70.761623,80.299931,39.655037,66.627102,74.77541,79.149456,17.391872,35.93153,43.43771,46.881695,-3.888645,3.241081,6.019249,6.340027,-23.229046,-24.126148,-22.492504,-21.450291,-1.944397,9.728963,25.278766,36.232363,41.380742,52.079495,53.857536,52.552626,53.819127,70.959374,78.346638,81.104226,60.167564,83.132789,92.312729,98.483694,60.993661,84.095107,95.903453,103.583352,30.035877,59.663715,81.316109,96.843109,60.780258,95.981712,104.894829,101.730766,47.514038,85.531425,95.792198,93.005219,33.38522,69.388161,80.085068,79.718742,20.090218,46.753292,57.897263,59.652042,-16.2369,-12.951408,2.404005,15.44279,14.327392,41.096381,43.576401,40.430959,34.521259,58.52031,56.452535,51.034184,49.172718,70.902935,68.507142,64.032707,58.114671,79.427826,79.106847,74.402948,-46.550703,359.620722,-66.353388,364.930948
30,-30.725155,-6.896471,-0.873585,0.262007,36.902847,70.074005,94.947395,112.168121,69.785385,104.270096,112.707138,114.265251,52.961769,94.572601,104.916801,104.410057,37.353573,73.908634,85.470314,87.907791,22.963085,45.99987,57.964325,62.92345,-9.902852,-1.890736,16.649517,34.007681,29.380846,53.105354,55.558822,54.051309,50.180978,73.952849,69.531026,62.056262,63.706912,86.450392,83.36744,77.436375,69.218383,90.270457,91.290204,87.035971,29.860439,59.582405,81.329556,97.730541,60.629711,96.021938,105.281467,102.264118,47.174206,85.759907,96.284924,93.845158,32.674999,69.041576,79.948025,79.581127,19.230022,45.621357,57.487793,60.260525,-15.736784,-12.603877,2.11773,14.323996,14.313375,41.17147,43.923562,41.04908,34.323102,58.772313,56.566527,50.973113,48.690385,70.461172,67.619295,62.594478,57.430847,78.529851,78.805814,74.156564,-77.295971,352.699272,-67.247086,365.167977
31,31.771317,-1.655158,-0.556183,0.011239,-16.946468,-16.657162,-14.132938,-20.33392,13.301353,44.570446,51.537437,51.863022,24.077339,57.97348,63.287773,61.028137,30.98917,60.216637,65.3722,62.445831,33.939972,55.676537,59.546928,55.937004,21.94906,51.228265,76.005186,90.963482,57.925591,71.097387,67.636461,62.547857,55.583398,72.469296,70.637037,66.122959,50.25477,69.669655,66.13358,62.997647,43.674399,60.957598,64.153491,64.265692,30.114784,59.853458,81.714077,97.871876,60.277863,95.272579,105.675373,103.841343,46.90424,85.751324,96.847286,94.635944,32.618179,69.569149,80.927753,80.868359,19.51767,46.866245,59.094944,62.104969,-15.95186,-12.544843,2.292608,14.886666,14.230753,40.979549,45.106082,43.176382,34.320879,59.10311,57.451657,51.959267,48.777885,70.864958,68.09607,63.05174,57.563178,78.784757,78.268709,72.837019,-45.526085,351.045782,-67.804699,365.180883
32,-20.555706,13.614607,-0.614548,0.838447,29.991245,56.485348,76.373692,94.636745,57.329407,88.405209,98.635769,105.62067,42.963982,78.154736,89.921436,94.826946,27.418499,56.604252,68.041248,73.900623,11.318264,24.312801,29.792233,31.508846,-15.316387,-11.1922,4.448623,17.86038,19.560987,35.559283,41.208458,44.782757,39.238867,57.694274,58.815785,56.071227,52.390038,70.945542,72.683261,70.839949,58.08324,78.086236,84.788132,87.21091,30.391216,60.230427,82.274837,98.5219,61.274242,96.763973,106.400242,103.69772,47.922363,86.983738,97.245655,94.461994,33.558483,70.440845,81.009808,80.330944,20.387993,48.090134,59.922752,62.36166,-16.390288,-13.039464,1.900739,14.306829,13.764723,40.348584,43.593568,41.067482,33.816502,58.255462,56.154651,50.637314,48.283697,69.8688,66.552989,61.482415,57.203359,77.914447,76.942063,71.516301,-66.059933,364.673171,-68.397388,366.032113
33,15.117588,-7.134951,-0.287075,0.240641,32.49939,53.533859,68.586159,75.673485,43.313541,75.084915,84.148293,87.103844,23.520012,51.437645,62.519646,65.412254,4.022827,20.049877,28.020344,29.485588,-14.383278,-11.475163,-8.152142,-6.787319,-1.347703,11.279948,28.109035,40.078611,39.667538,52.997106,51.17127,46.252541,53.880198,70.989385,71.541249,67.853267,61.09981,86.050064,88.630058,87.964141,63.112317,88.739109,97.336989,100.617665,30.581474,60.941277,83.349838,98.842049,62.144108,97.81208,106.741562,103.285789,48.906612,87.718048,97.806129,94.984818,34.533463,71.313972,81.613541,80.761757,21.178551,48.862495,60.434532,62.343121,-16.808277,-13.649805,1.540117,14.748407,13.441706,40.531241,42.398821,38.929189,33.512937,57.979623,55.29947,49.629671,48.136916,69.714795,65.954133,60.712882,57.268505,77.781004,76.353643,70.858783,-50.793314,357.617322,-68.535433,366.351856
34,-23.079185,5.797746,-0.587597,-1.283482,32.801571,63.690147,86.519394,103.696861,66.610909,101.349564,108.490677,109.404373,51.31073,91.461639,100.651588,100.559349,36.384487,71.336117,81.116982,82.196503,21.308441,44.723969,54.673519,56.59996,-16.001014,-11.745237,4.730576,20.504471,19.403214,39.712431,42.43476,41.394574,40.766943,60.52337,57.404603,51.552578,55.237102,73.781245,70.422516,65.418695,62.239908,80.159939,78.740112,73.320463,30.976067,61.06287,83.269558,98.680172,61.293411,96.902447,106.710148,104.162121,47.834129,86.830502,97.717152,95.657902,33.501205,70.717106,82.037945,81.912518,20.397377,47.937527,59.933739,62.164536,-15.989281,-12.678348,2.506326,16.155884,14.508259,42.470019,44.960598,41.67066,34.440243,59.921488,57.634624,52.034232,48.779738,71.039588,67.898715,62.746014,57.409729,78.652982,78.0779,72.78731,-73.691254,363.385197,-68.941784,365.038502
35,22.585144,-5.771132,-0.446434,-0.051191,30.063629,49.159126,63.292465,69.527893,40.917263,75.338058,84.770164,87.290039,23.753414,55.489769,67.403297,69.924088,6.544533,25.765457,35.557537,37.33429,-10.311584,-5.4883,-0.838509,0.84589,-3.789438,8.020638,25.456669,38.444818,36.853016,49.610713,47.132484,41.882402,52.667791,69.214802,67.983622,62.2869,61.861563,86.266252,86.79922,84.26208,65.891456,91.962974,99.219636,100.905854,31.405678,61.313896,83.428974,98.650875,62.663383,97.985172,106.872654,103.58202,49.248219,87.9146,98.405399,96.265812,34.894466,71.781979,82.637844,82.230206,21.57835,49.097672,61.16724,63.655243,-16.105125,-12.360889,2.931601,16.171507,14.519313,41.022836,42.283286,38.59796,34.705275,58.538032,55.514547,49.876364,49.122453,70.319146,66.584358,61.287593,57.945228,78.236352,77.138244,71.703343,-51.002541,357.59131,-69.284649,364.964556
36,-17.271481,7.513111,-0.876217,0.177532,30.331707,57.730522,78.074627,95.100918,61.956024,97.418003,103.061199,102.013149,47.092724,85.906506,94.637203,94.102879,32.762375,65.659447,75.44363,76.811199,18.311234,41.490498,52.45245,55.542698,-16.339036,-12.051828,3.12488,17.492657,17.68643,36.699381,38.743937,37.613102,37.844234,56.472234,54.957805,49.731991,51.874236,70.214911,68.350296,63.95626,58.831532,77.274527,76.913596,71.574285,31.311836,61.62426,84.02298,99.758835,63.547668,98.356361,107.323494,104.165955,50.455856,88.403778,99.286079,97.427673,36.271591,72.765312,84.132271,84.225769,22.812195,50.693321,63.063469,65.933647,-16.390844,-12.770973,2.61797,15.445939,13.602998,40.362416,42.661816,39.417079,33.631868,57.661485,56.148415,51.007816,48.275978,69.317987,67.381617,63.040131,57.640552,77.763097,77.444094,72.754459,-68.162098,365.109083,-70.048943,365.146751
37,17.719746,-10.663432,1.078491,-1.296203,32.100563,52.615128,67.592239,75.096016,40.504818,71.105118,80.935249,83.761024,21.13718,46.033287,56.211433,58.03791,2.547398,14.915142,19.955406,19.628048,-14.694271,-13.862171,-12.460098,-12.410831,0.201677,12.002983,27.766073,40.429971,42.992428,58.628929,56.408754,51.055735,55.853371,76.317272,78.21017,76.097626,61.930044,89.440717,94.904887,96.906527,62.690562,89.899337,100.333181,106.17372,31.31155,61.446877,83.62175,99.636726,60.953007,96.931572,106.629753,104.037209,47.809868,86.529007,97.960968,96.537323,34.134293,70.849457,82.65976,83.574829,21.450577,48.294754,60.306702,62.87756,-15.32707,-11.794267,3.434126,16.869286,15.459463,41.469045,44.119867,41.422794,35.275355,58.944165,57.83698,52.753192,49.610713,70.122224,68.650897,64.359676,58.608922,78.944876,79.164213,74.609009,-50.398436,354.514194,-68.926535,363.919091
38,-22.905464,4.842282,0.60276,-0.300107,32.800083,63.595791,86.636238,103.6092,65.040493,99.984283,107.378769,109.054184,50.012112,90.553665,100.455437,101.621933,35.08049,69.532185,80.290146,83.361282,20.07185,40.491314,49.098129,51.380367,-13.854816,-9.332525,6.877205,23.364195,22.496972,43.035035,45.782929,44.945346,43.320508,63.182775,60.76716,55.638603,57.536626,77.194128,75.228489,71.036562,64.065497,83.752393,85.211678,82.499971,30.930576,60.264359,82.205772,98.729668,60.728989,96.275826,106.13903,103.653717,47.46809,86.187057,97.70977,96.374702,33.444958,70.281143,81.617088,81.929512,20.454941,47.197552,59.238052,61.829338,-15.305395,-12.312353,2.10112,14.780085,15.023566,40.328144,43.134762,40.054713,34.906829,58.03279,57.318955,52.715894,49.263614,69.557023,67.381803,62.916198,58.384459,78.624947,78.504225,73.929384,-73.29978,359.34692,-68.319654,363.609428
39,22.118568,-5.357836,0.065231,0.599473,24.91888,39.892044,47.497101,46.11042,40.759048,73.339806,83.521042,86.330223,25.614395,56.385612,68.206558,69.792366,9.372826,28.819485,36.150627,35.56612,-6.869545,-1.714668,1.200943,0.971603,4.842035,19.988053,38.174228,51.948152,41.889997,57.700141,55.72987,51.082164,53.657465,72.272991,71.884766,68.728456,59.20296,85.014324,87.077776,86.961067,60.29409,87.057954,95.004985,98.707601,29.943981,59.438381,81.575546,98.432693,60.438137,96.148682,106.061783,103.972664,47.589512,85.995598,97.295036,95.919342,33.690434,70.048027,81.525879,82.224426,20.626144,46.793461,58.576527,61.536083,-15.724619,-13.483882,0.368279,12.610607,14.191109,40.139559,42.997923,39.841057,33.933395,57.684518,56.759867,51.795999,48.157109,69.062031,67.290535,62.992707,57.122095,77.777299,78.050977,73.763769,-50.951557,353.846441,-68.024769,364.066257
40,1.077747,1.001221,0.093327,-0.319435,29.967842,49.755592,62.125225,66.449261,41.685104,75.19392,83.457813,84.922543,23.014526,53.486996,61.683826,61.300564,3.709831,21.335163,25.737877,24.280987,-15.482769,-12.306747,-11.140881,-11.496162,4.585956,20.022201,38.564182,51.811992,40.588978,56.009723,54.5463,49.588174,52.949743,71.179576,72.95663,70.957522,59.072235,84.686553,89.653447,91.057899,59.88839,86.399941,95.122064,99.611319,29.71693,59.469509,81.664181,97.165203,60.305042,95.442524,105.647449,104.292812,47.593117,85.31599,97.313404,96.914349,33.970871,69.979534,82.015629,83.770237,21.135349,47.094555,58.973866,62.402287,-15.292675,-13.249354,0.928417,14.170793,14.223343,39.1476,43.230414,41.135469,34.198922,57.59603,58.042361,53.566259,48.54311,68.768532,67.965529,63.851408,57.476419,77.644104,78.413884,74.142114,-49.793186,354.762184,-67.850819,363.661344
41,-1.997623,2.984397,0.400887,0.928664,33.041954,53.498726,65.866241,71.481857,43.78252,78.954163,86.634521,87.195854,23.87289,56.900597,64.757767,64.035072,4.225674,24.434338,29.890194,28.872929,-14.285774,-9.688454,-8.016186,-7.98563,1.339799,14.951751,31.631093,42.389682,38.593884,52.405228,50.113053,45.01426,51.186954,67.089167,67.610279,65.319092,57.44011,80.070462,83.537748,84.33544,58.680984,82.880847,91.084822,95.104774,29.862156,59.109249,80.949955,97.176075,59.601574,95.528355,105.453014,103.435421,46.800213,85.040646,96.681461,95.552273,33.409595,69.562855,81.522732,82.761555,21.151371,47.462597,59.554253,62.805176,-16.21609,-13.895325,0.27621,13.117702,14.514558,39.345695,41.275149,37.947728,34.591531,57.259243,55.411732,50.02018,48.817344,68.853994,66.777575,62.244292,57.535946,77.219693,77.001899,72.247859,-51.463337,357.610267,-67.122459,364.453695
42,1.595192,-0.224154,0.476017,0.282261,35.065899,57.176514,71.88961,78.685112,40.053463,72.284889,81.041336,82.255783,18.895912,47.212601,56.034279,56.932755,-0.414619,14.764137,20.436172,20.450764,-17.21283,-13.838425,-11.159306,-10.302658,-1.137381,10.600817,27.204947,39.022123,43.05918,55.844788,51.43587,44.399164,55.978416,72.810652,70.837232,65.881329,61.585785,85.506598,85.833875,84.209778,61.603508,87.042454,93.952943,96.015407,29.58149,58.574009,80.534134,98.102303,60.701237,95.380669,105.177727,103.302498,47.982674,85.641518,95.899658,93.511391,34.186249,69.619675,80.336151,80.228119,21.345921,47.44297,58.518562,60.435047,-16.867804,-14.239707,0.140482,11.226595,14.881417,39.415782,41.416866,38.355774,35.306416,57.181623,53.512413,47.082466,49.518643,69.285197,65.249376,59.705856,58.068173,77.898392,75.90904,69.885658,-49.890289,357.225608,-66.668587,364.575451
43,-22.783127,0.737238,-0.082798,0.733039,33.535252,64.796619,88.487778,106.002617,64.890575,101.03508,109.099731,110.421982,50.189381,93.117256,102.754555,101.978073,36.418419,73.905373,84.079628,85.208473,23.098869,47.455387,57.986813,60.637264,-13.095904,-7.539108,8.894097,25.828654,23.846774,44.814929,46.198632,44.857352,44.901071,64.754261,60.729925,54.952494,59.564077,78.477178,74.671068,69.335277,66.66593,85.250705,84.208296,78.984273,29.087391,58.616066,80.619678,98.513203,60.689449,95.532932,105.478535,104.097347,47.986164,85.416813,96.710186,95.874653,34.239922,69.678326,81.501102,82.991009,21.33585,46.657276,58.421574,61.764793,-16.751158,-13.907798,0.669313,11.326508,14.596439,38.503852,40.441889,37.660094,35.245715,56.806304,54.603049,49.11529,49.576195,68.736854,66.624002,62.205019,58.058972,77.376477,77.306761,72.676283,-72.123871,357.884223,-66.201839,365.229867
44,25.796413,1.736792,1.281509,2.068577,33.699646,53.905621,66.643581,71.375942,39.205971,68.354015,76.973019,79.030094,17.532692,41.630173,50.660763,52.063236,-2.244015,9.91848,14.607754,15.007896,-19.094868,-18.53857,-16.623459,-15.542221,1.303922,11.493481,26.40849,37.832872,44.267574,56.626857,52.434127,45.61398,55.826016,72.367716,72.190431,68.645648,59.639412,81.943352,85.412676,85.742547,57.661361,80.334013,87.66107,90.140534,28.895645,58.0616,80.0564,97.378979,60.681095,95.774403,104.314098,101.419773,47.992744,85.643063,94.484196,91.775951,34.281864,69.249172,79.594746,79.565792,21.487827,47.301121,58.304901,60.125885,-17.447641,-14.726362,-0.538772,10.905185,16.269505,39.273139,38.184355,33.669042,36.298374,56.384054,50.395376,43.392509,49.787319,68.280456,63.790522,58.336417,57.597573,76.164811,73.876093,68.067417,-46.311636,359.585524,-64.904509,367.262953
45,-21.751671,1.834605,-0.606136,0.669127,31.382732,60.285702,83.167591,101.966915,61.362534,95.5723,104.501667,107.64925,47.626705,86.861973,97.623997,99.133015,34.043941,67.738266,79.424801,83.075466,20.335064,41.702614,52.088814,54.909439,-12.779495,-9.416753,5.003759,20.925486,26.424792,43.182989,43.57671,41.844302,46.922224,63.625463,59.029689,52.684216,59.691344,76.313444,72.64584,67.925391,64.440013,81.620707,80.642765,76.431572,28.772278,58.334484,80.397949,97.559395,59.733467,94.95163,105.279007,103.744354,47.808151,86.022034,96.515923,94.553833,35.263023,70.802879,82.253265,82.551384,23.556576,50.014744,61.728058,63.824272,-17.662903,-15.061543,-0.989427,10.594827,15.134717,37.446314,37.935378,34.481986,36.008888,55.665032,50.556359,43.675634,50.140408,68.532707,64.157628,58.240025,58.57959,76.574648,73.899188,67.101332,-67.835712,361.422182,-65.283051,367.934133
46,22.378578,0.782872,0.691624,1.715426,33.261051,55.131741,70.393238,77.632084,41.217899,69.996929,76.029453,75.910206,19.269562,43.339691,49.864597,49.301205,-1.379642,10.467339,12.819099,11.499424,-19.388809,-17.787609,-17.457848,-18.283024,-2.786364,5.819235,20.04548,32.573589,43.716636,52.940789,47.521141,40.197789,56.291799,70.395593,69.455011,66.017921,61.009037,82.014921,84.786712,84.933184,59.349741,81.388031,88.511991,90.900373,27.936172,57.52985,79.484882,95.993328,59.381962,95.625744,104.748516,102.131939,47.56691,86.655293,95.969067,93.156109,35.06218,70.733814,80.817432,80.237904,23.380852,49.217033,59.620972,60.667191,-18.346233,-16.314891,-2.300573,9.56341,15.285944,36.680053,35.043791,30.539963,36.389147,55.052221,48.392872,40.89032,50.491645,67.787503,62.485427,56.472851,58.854071,75.865074,72.837019,66.245595,-45.117416,362.176077,-64.251709,369.620583
47,-26.852016,-2.700469,-1.086617,0.526237,34.643669,65.20483,89.232674,106.957741,67.964458,104.906845,110.517883,107.878189,53.03587,95.174789,101.933441,98.39035,38.702259,75.425377,83.386574,82.28405,24.839401,48.639908,58.159561,59.831314,-11.907517,-6.440074,9.95713,25.838348,28.269462,47.312301,43.577698,38.386341,49.501353,67.496535,59.37475,51.641993,63.385501,80.734218,73.851084,66.991602,69.225608,86.597852,83.544355,77.139726,28.371735,58.180103,80.537853,97.116795,60.999069,95.906582,106.136913,105.558758,49.374332,87.081013,97.55064,96.753445,36.561127,71.661358,82.931614,83.927937,24.205914,49.791527,61.076202,63.636818,-17.836483,-15.590497,-1.954833,9.301773,14.976389,35.301476,36.701172,34.25178,35.871123,54.023027,50.10694,44.164883,49.953737,67.057983,63.584523,58.420706,58.333268,75.904039,73.857692,67.539513,-71.679325,359.418505,-65.048218,370.089717
48,26.402149,2.662431,1.965008,-0.761691,32.889004,55.387287,71.019459,78.808994,40.833378,70.149479,77.654972,79.1078,18.32571,41.977558,49.177265,49.669476,-2.995777,7.901688,9.115963,7.743702,-21.59483,-21.927166,-21.797333,-22.125664,-2.761911,4.273129,18.507092,31.275534,44.904591,54.250639,48.196011,40.667154,57.660003,71.149874,70.719598,68.254398,61.7895,80.948986,84.815117,85.501843,58.498141,78.852868,85.948669,88.506124,28.498821,57.416153,79.133492,95.177422,60.100136,94.947166,103.705215,100.892487,48.109016,85.749321,95.097885,92.764893,35.034885,70.010376,80.798378,80.748711,22.540913,48.251381,59.863243,61.984177,-17.050709,-14.303927,-0.511046,10.768654,16.76536,37.659353,36.354135,32.014007,37.281749,55.305583,49.032297,41.899939,50.996639,68.380986,63.605888,57.730522,59.015177,76.68691,74.191082,67.734706,-45.288334,362.015356,-63.094368,369.262446
49,-27.019215,-5.821088,-1.837749,1.35326,35.13485,66.259403,91.178741,109.826317,65.053024,102.702484,111.978149,113.799133,49.578896,92.972374,103.442688,103.375854,34.8979,72.535801,83.400192,85.486565,21.039333,43.882599,54.187431,57.703228,-10.145469,-3.605174,12.459257,27.841964,32.553212,52.111975,50.130034,46.273289,53.484687,71.669751,64.112921,56.214426,65.956665,83.447963,77.602854,71.268435,70.140193,88.278389,86.232166,80.564034,28.473988,58.854618,81.203671,98.771152,59.176369,95.225544,106.810398,107.158413,47.163734,86.527233,98.225842,97.813168,34.688301,71.198559,83.519726,85.075207,23.322315,49.614716,61.617336,64.790096,-18.498386,-15.841636,-1.784957,9.710623,14.284538,35.937999,36.281269,32.779156,35.246209,54.302942,49.376803,42.557581,49.220945,66.919045,62.60831,56.838475,57.465427,74.688729,72.183638,65.677676,-72.341251,356.12872,-64.96582,370.550159
50,27.853432,4.066882,1.08181,-1.534683,36.032639,58.046951,72.473717,79.036789,40.327778,68.894119,73.976326,73.425865,15.886345,36.303291,40.872688,40.148335,-6.108971,2.425175,3.419437,2.874413,-24.059887,-23.909454,-22.27787,-20.35326,0.387793,11.361211,27.002405,38.918876,51.629396,61.527864,52.335821,41.556113,63.081689,78.73511,77.202403,72.293369,66.251647,87.88084,89.994495,87.377265,62.599233,84.89459,91.265627,90.814972,28.251286,57.736816,79.741116,97.534275,58.682613,94.250851,104.981747,104.075489,46.594334,85.278111,96.294994,95.156307,33.836117,69.988232,81.711216,82.68877,21.955776,47.881908,59.592819,62.040424,-17.594668,-14.561797,-0.37112,10.7865,15.730732,37.838306,37.814409,34.060724,36.555873,55.774639,50.397537,43.548922,50.453853,68.003135,63.156284,57.250042,58.571748,76.363709,73.678369,67.024576,-44.519348,360.21581,-63.915539,369.035684
51,-27.017956,-5.465838,0.787411,-1.664235,34.326324,65.310802,90.298862,110.286884,62.904568,100.73061,110.604458,113.283863,46.677589,90.357456,101.717319,102.313557,31.836891,69.536591,80.74934,83.033695,18.26334,39.936848,50.090446,53.557949,-10.831208,-4.159631,11.691206,26.958377,34.949436,55.427355,52.386024,46.938341,55.681273,72.382783,64.484226,56.36979,67.919525,83.429932,76.852957,70.361013,72.155295,89.902734,86.807062,80.878343,28.091412,57.552452,79.50222,96.467857,58.09885,93.919945,104.335098,103.004723,45.429268,84.697037,95.14492,93.231468,32.08271,68.389893,79.076958,79.079933,19.713993,45.134811,55.889339,57.537746,-16.758074,-13.778678,0.50481,11.712509,16.678786,38.348673,39.170077,35.960105,37.883013,57.450854,52.192313,45.020743,51.894676,69.625813,64.221108,57.725891,60.018436,77.644227,74.94277,68.239145,-71.496305,354.834416,-63.08713,367.455892
52,20.779896,3.899045,-1.899204,0.647515,33.053112,52.823124,64.692192,68.602982,44.708862,84.520798,88.695259,84.13662,24.368134,65.950928,70.528564,65.734863,5.646172,34.365463,39.678097,37.00304,-10.453892,0.988026,4.220181,3.675385,-2.649463,9.396869,25.045103,36.416935,44.466595,54.06193,46.191593,37.836762,58.694014,70.05541,62.680929,53.954422,63.818001,83.335207,79.409857,74.206211,62.573545,86.53252,89.188034,87.321443,28.263588,58.91098,81.668415,96.976147,58.616524,96.299572,105.535641,102.668781,46.352463,86.888981,97.609463,95.459118,33.52272,71.300411,82.617474,82.509098,21.875439,47.168827,59.042759,61.613731,-18.184817,-15.753889,-1.092056,11.633469,14.629352,37.416674,36.794353,32.825346,36.147209,55.608716,50.296452,43.663593,50.760691,67.764161,62.680188,56.680703,59.271133,77.32967,76.40008,71.063424,-50.688972,359.020184,-64.958897,368.390129
53,5.248146,4.074354,-2.955322,0.575452,32.879219,56.209145,71.54068,77.117271,37.04813,69.860344,80.265999,82.736893,14.521751,41.013622,49.808807,51.424026,-5.517368,6.030865,9.387875,9.277153,-22.182484,-20.155277,-19.014874,-19.047146,-2.444452,4.899339,17.495435,26.427386,41.488188,53.763737,47.947836,39.964064,54.858016,68.786933,69.725725,68.21426,59.974717,79.572754,84.896751,87.628775,57.79326,78.863489,88.281291,94.238662,29.011345,60.019684,83.305836,100.155659,59.105186,97.742786,109.511318,109.318142,47.34272,88.891926,101.369076,101.137905,35.159512,74.130192,86.957417,88.763638,24.288597,51.994915,65.079861,68.82906,-18.41459,-16.175829,-2.136503,10.072171,12.663774,34.201083,35.335191,32.595449,34.392139,53.307834,49.959912,44.439054,49.306592,66.260415,62.603185,57.391636,58.207914,75.522483,74.136742,68.553023,-45.441055,363.193184,-67.914448,369.064228
54,-27.925758,-7.479951,-2.154121,0.942805,30.967655,60.267792,85.132256,104.137001,61.149616,100.717278,111.978607,115.882301,47.020626,90.91198,105.569687,109.862709,33.861923,71.129723,86.045723,92.73159,21.328983,44.542923,56.485634,62.344151,-10.250939,-4.804429,8.742253,23.237915,32.459722,52.010828,48.758311,43.749796,52.707435,70.622649,63.821089,55.244142,64.662191,81.421314,76.958489,71.009084,69.219433,86.996265,86.276255,82.073522,27.89011,59.062672,81.947193,99.778233,58.067608,97.610264,111.159496,113.10133,47.021141,89.261799,105.252628,108.686085,35.882778,75.202503,91.207638,96.990223,25.676422,52.98975,67.063923,72.762051,-18.919585,-17.293265,-4.879579,5.092124,12.571334,32.689742,33.196404,30.213427,34.3583,52.481799,50.000544,44.64456,49.052304,66.090231,64.467183,60.102726,57.188106,73.989158,74.051465,69.380663,-73.102942,356.07401,-69.804697,370.36781
55,22.75423,2.746411,-2.511692,0.929344,29.251499,42.093372,41.332397,32.554893,36.483593,72.896633,78.924351,77.094898,16.195164,54.785213,60.11713,57.496319,-1.321735,29.962406,37.752228,36.644669,-15.883884,2.982903,8.914833,9.888382,14.651582,37.942541,59.340417,71.938304,61.398002,68.85739,59.536474,50.8259,67.199021,75.242568,69.87442,63.043157,66.075781,79.03145,73.748085,69.735481,60.949139,78.331756,78.171946,75.538291,28.955956,60.632229,83.227959,97.177505,57.547646,98.589134,111.262321,112.79686,46.612644,89.053001,105.886917,110.639305,35.721531,72.631416,89.75029,97.042465,25.667439,45.732193,54.598789,56.488667,-18.875557,-17.826726,-5.193024,7.846563,11.774507,30.67038,28.938775,24.812242,33.816934,51.929194,50.622,47.339224,49.183339,67.658568,70.233684,69.317493,57.590966,77.814843,83.005089,82.41599,-49.933805,359.002646,-71.901484,371.479379
56,-2.562962,13.769663,-4.726524,0.740696,19.777908,45.15873,65.239105,71.076736,20.281448,62.192917,79.183502,81.072121,5.915565,48.969612,61.338844,61.371689,-3.392029,32.370701,43.928318,44.326286,-4.823399,16.396179,23.502045,26.034794,-11.699542,-4.427319,11.811866,27.208343,8.68359,36.58644,43.61339,44.358408,31.028718,58.524694,67.299675,65.45025,49.195503,73.10199,74.709847,71.81295,60.45989,79.536074,81.04544,78.295817,32.480507,66.332531,89.356842,100.660286,54.370022,96.620064,109.748154,112.120056,40.313187,82.557335,100.907021,107.602386,27.393265,61.677189,77.728043,84.444695,16.278934,33.577824,40.826569,41.163712,-15.700413,-13.765834,0.064714,16.238197,14.03099,34.698668,35.21027,30.78116,36.856907,58.901248,64.035115,63.466209,51.990574,75.142039,81.855543,82.663115,59.947979,81.703823,87.867934,87.183245,-52.037544,373.067167,-76.168785,372.514933
57,13.231659,24.97656,-7.826557,0.562979,17.012329,32.698059,46.657219,53.294907,7.752628,34.237804,50.94326,61.101379,-6.518269,23.370094,45.84549,63.476944,-16.190357,15.161934,34.040279,48.410797,-22.702675,3.208065,19.450207,33.590012,-21.805923,-24.568081,-5.528514,17.379036,-35.362608,-12.833094,7.643713,21.57862,-5.192407,21.66717,38.527502,43.813399,22.711369,43.966046,50.823491,50.755381,46.062102,59.190302,59.526841,56.462045,31.939201,62.307415,82.958164,100.276279,48.065071,86.331253,104.030857,112.552471,33.019238,73.593807,95.784473,107.140217,22.321758,59.146786,81.468716,94.468632,16.543922,44.103642,60.539303,69.894218,-15.747528,-8.37243,6.105757,18.636027,16.957466,44.330127,48.411458,46.442176,38.774566,68.349493,74.510702,73.477803,53.630171,81.48677,86.978234,85.617749,61.972837,85.132823,88.892806,85.793367,-38.484249,398.272558,-83.673706,373.306743
58,96.552544,-15.518928,-8.156033,2.166822,-24.496994,-58.819771,-86.531696,-102.825737,-64.651966,-107.100334,-123.391457,-127.416172,-58.870811,-109.684925,-122.27108,-120.254917,-56.871986,-105.423431,-115.649014,-113.416386,-57.005367,-92.643242,-97.831879,-95.067444,30.245969,47.895534,45.793118,35.950164,79.825252,58.189574,44.877112,39.58115,64.396417,41.700794,28.137934,21.742567,38.486191,18.786019,8.917377,7.882996,8.292525,-3.20886,-8.996356,-8.69946,32.005463,60.92062,82.026672,101.078682,45.350075,80.295696,99.225426,108.218994,29.789085,68.948536,91.830025,102.236252,19.24696,55.533257,78.5289,91.699505,13.998413,42.378387,60.699062,72.605667,-13.126347,-2.888993,10.994908,21.410165,22.160864,50.978855,52.301487,49.080771,41.195923,72.00203,73.297492,69.863737,54.102994,84.759171,86.407537,83.043004,61.097648,85.666038,87.256173,82.880971,58.57029,383.207897,-91.327744,375.927832
59,-2.852898,-14.133434,-14.093685,0.17426,-17.194176,-41.810303,-63.584175,-81.02766,-27.130966,-66.133289,-89.689922,-101.859627,-31.635475,-76.840496,-103.705902,-116.953983,-40.149879,-82.953644,-105.372448,-115.52702,-49.636574,-83.733044,-99.135246,-105.258236,19.251679,37.208822,46.622487,48.392933,57.776773,73.730671,73.853554,70.150568,51.641437,71.410152,73.08927,68.871902,37.801317,54.56217,55.275202,52.88225,18.489123,30.561452,32.795335,33.458473,35.090904,64.855156,83.927364,99.241619,44.640598,78.46344,97.307396,105.766869,27.315044,68.288326,89.27599,96.96991,15.504742,53.709297,73.640728,81.610222,8.780823,39.558964,56.866894,64.943962,-10.632927,2.704112,20.721648,34.977101,21.170202,55.742159,62.005935,61.624565,38.752459,72.356725,75.223981,72.4483,51.623962,83.782588,85.040568,80.515127,60.322125,84.211075,84.743425,79.425232,56.430187,369.351244,-104.708633,376.378873
60,6.887627,-3.139885,-12.772694,-4.073242,-29.519119,-58.904915,-80.563889,-89.523296,-44.972878,-78.970184,-83.213139,-77.907085,-32.567482,-71.234665,-76.10733,-69.150867,-23.337479,-60.150089,-67.237473,-61.457291,-16.831741,-46.69075,-55.683403,-53.529739,-16.023553,-13.743789,-1.089092,13.650484,3.433632,32.045438,31.584471,26.433808,21.287405,50.081745,46.746667,37.775382,35.082076,59.435266,54.988865,46.200855,43.889846,64.18591,59.759702,51.861454,34.184589,63.076687,80.801353,92.87447,37.522259,70.517006,84.648685,85.230732,19.625759,58.19006,76.443157,78.743019,7.353516,43.045921,60.467377,63.929615,0.116673,29.278221,43.473129,46.95282,-9.176914,6.674355,27.401869,42.954513,27.121584,61.428013,58.804362,51.931664,43.006198,77.393706,72.263111,64.281747,54.14412,87.010159,81.679863,74.106114,60.727022,85.580513,82.175966,74.651432,64.324579,366.323605,-116.474562,372.417877
61,-3.245087,-1.554258,-11.362953,-7.15397,-19.88102,-42.429314,-59.230156,-70.158806,-30.368385,-63.231983,-62.911377,-53.212166,-20.118599,-55.941868,-57.881985,-47.710648,-11.859169,-45.719032,-48.362045,-38.840446,-6.283035,-31.051254,-35.635071,-30.719147,-22.778307,-30.635182,-20.952285,-7.279015,-11.377328,8.544158,2.749005,-3.552501,10.396176,27.855611,18.365067,10.253532,27.452566,40.854752,29.756103,21.576582,38.529911,49.733658,40.974301,33.874424,30.304298,57.168102,75.50354,85.822506,29.047508,62.175407,75.100994,73.133068,13.22113,52.174473,67.85368,65.671234,2.708931,38.118839,52.780609,50.4356,-3.504295,25.146503,37.540855,36.907997,-9.067616,2.679968,21.010454,39.219724,22.724707,58.199331,50.831395,40.343952,39.146365,76.342158,66.338221,55.154171,51.106617,85.59169,75.302219,64.561846,59.422607,87.45081,82.304222,74.002126,61.908274,364.981275,-127.008734,365.475834
62,25.8181,-43.538425,-11.385784,-0.581504,-25.799904,-50.150757,-68.222694,-79.587708,-29.19136,-66.781883,-68.176575,-59.842644,-18.20755,-60.918617,-64.449806,-55.431404,-11.729393,-53.06591,-56.909294,-48.62812,-7.947235,-42.452545,-49.151573,-44.355125,-18.970097,-19.986262,-6.84139,10.860971,-7.162677,14.618175,14.091012,10.673003,11.77074,34.801853,32.01092,26.272701,28.561974,48.714468,44.095907,38.44488,41.841462,57.871622,53.162473,47.778949,31.000843,53.215199,70.427055,81.454811,37.142544,66.199608,67.487926,59.269981,23.806458,57.462616,61.753578,53.187447,13.937588,43.943424,48.436604,40.30283,6.432667,29.910564,35.471249,30.436535,-15.036719,-13.448931,-1.019376,16.131801,9.852278,29.493726,19.407599,11.182567,29.924373,51.229747,38.815753,28.838616,43.697679,67.318941,53.46258,43.105863,52.082953,73.14114,64.49071,56.000522,88.204279,321.595281,-137.916613,365.046761
63,2.350731,-26.191653,-12.275247,-42.219528,-21.338825,-40.846996,-56.29652,-65.969753,-24.214611,-50.174446,-51.606217,-45.027466,-15.828266,-44.959488,-48.165665,-41.120968,-9.53785,-38.521328,-41.589203,-35.208836,-3.768883,-29.532795,-35.745678,-32.828064,-20.826531,-25.709661,-17.353904,-3.527184,-7.858142,-0.727297,-2.450473,-4.768768,10.362522,16.771998,12.715552,8.727062,25.54525,31.746998,26.808941,24.024986,36.702191,43.011693,38.698304,35.563174,30.404863,55.598917,73.377457,82.789736,36.654596,66.342945,65.753832,56.051845,23.963985,58.785581,60.666303,50.336208,14.3684,47.880049,50.299358,40.008001,7.232723,34.29285,38.901472,32.269621,-17.615015,-15.914255,-2.070646,15.266801,6.858155,28.032433,17.356034,8.98487,26.764419,49.200536,35.786772,27.167186,42.098652,66.045245,52.251438,44.09776,53.687599,73.896934,65.2767,57.775044,90.908947,295.445248,-149.837923,322.868853
64,2.350731,-26.191654,-12.275248,-42.219529,-16.877747,-31.543236,-44.370346,-52.351799,-19.237862,-33.567009,-35.035858,-30.212288,-13.448982,-29.000359,-31.881523,-26.810532,-7.346306,-23.976746,-26.269112,-21.789551,0.40947,-16.613045,-22.339783,-21.301003,-22.682964,-31.433059,-27.866417,-17.915338,-8.553605,-16.072768,-18.991957,-20.210539,8.954304,-1.257856,-6.579815,-8.818576,22.528526,14.779529,9.521975,9.605091,31.56292,28.151766,24.234134,23.347399,29.808884,57.982635,76.327858,84.12466,36.166649,66.486282,64.019737,52.83371,24.121513,60.108547,59.579029,47.48497,14.799213,51.816673,52.162113,39.713173,8.03278,38.675137,42.331696,34.102707,-20.193311,-18.379578,-3.121916,14.401802,3.864032,26.571141,15.304469,6.787173,23.604465,47.171325,32.757791,25.495757,40.499625,64.771551,51.040297,45.089657,55.292245,74.652728,66.06269,59.549566,93.459949,269.386358,-161.912899,280.782087
65,21.636314,-43.840075,9.333144,-45.58403,-13.786926,-29.989586,-47.233772,-57.747803,-17.745667,-45.037193,-45.626678,-40.209045,-15.154495,-42.497063,-41.225395,-34.006119,-14.036522,-39.251976,-35.533791,-26.878052,-12.902641,-32.661095,-31.196022,-24.791222,-24.682998,-35.375823,-35.298141,-29.903934,-21.545336,-21.034846,-17.184028,-15.169112,-2.220915,1.770384,1.854427,0.425831,15.715789,18.194574,15.608775,13.820174,31.020319,33.632856,29.965128,27.304056,12.56833,28.812646,42.892427,51.033182,9.226255,34.912576,34.653282,25.692901,6.491947,36.785087,38.696022,30.316772,5.452852,35.982913,37.217102,28.717403,5.88953,29.034404,31.692237,25.833692,-18.193246,-19.002486,-8.141422,4.826813,-0.719269,12.809011,9.146563,6.786462,15.976869,30.325503,23.291267,19.934144,30.168009,44.66222,37.521804,33.890077,42.249817,56.87747,51.61297,46.426244,115.780563,226.294759,-151.895456,235.946534
66,-20.060349,-24.529054,9.333143,-45.584031,-10.754814,-11.775398,-4.922676,3.444786,-19.553719,-3.002472,3.598251,4.687843,-7.552414,13.850212,18.93322,17.884483,6.914864,27.151108,28.710251,25.045395,22.302017,37.161713,36.423683,32.934608,-18.186978,-34.404366,-42.59636,-46.98101,-41.686036,-54.329433,-53.250777,-48.584113,-38.070426,-48.21855,-43.516009,-36.406437,-32.436936,-40.709144,-37.308796,-32.877525,-25.704659,-34.519407,-31.297641,-26.310245,-4.672222,-0.357342,9.456997,17.941704,-17.714138,3.338871,5.286827,-1.447906,-11.137619,13.461628,17.813015,13.148575,-3.893509,20.149155,22.272091,17.721634,3.746281,19.393673,21.05278,17.564678,-16.193181,-19.625392,-13.160927,-4.748174,-5.30257,-0.953118,2.988658,6.785753,8.349273,13.479683,13.824744,14.372532,19.836394,24.55289,24.003311,22.690498,29.207389,39.102213,37.16325,33.302923,96.667013,203.932943,-141.615515,192.529742
67,13.189545,-29.651251,-12.281055,-63.860979,-17.689018,-22.561913,-16.906815,-10.315704,-26.820259,-12.539749,-7.648544,-7.649002,-13.967056,0.919418,4.363632,4.589195,0.825691,12.621346,14.027252,12.320938,16.125069,21.759911,21.150398,19.43367,-25.582578,-52.460063,-70.207409,-77.183137,-61.719537,-84.103474,-78.273958,-70.853071,-56.11649,-79.027899,-73.613284,-65.141621,-48.834696,-71.116714,-65.218778,-57.34415,-40.392859,-60.524605,-56.548928,-49.555694,-1.631355,3.844242,15.048866,27.748432,-11.453762,9.148464,17.762661,17.824802,-6.132374,17.217636,25.826168,24.355888,1.859093,20.865383,28.863487,26.134415,11.334457,29.765682,38.809319,37.806301,7.555595,15.458969,27.953115,33.572093,15.063519,27.252186,37.469718,44.623503,18.331042,28.351899,34.808707,37.275945,17.690999,25.258327,28.511832,28.805579,16.477542,21.42517,18.696296,14.513632,110.336809,176.77346,-153.416319,131.16053
68,2.959442,-37.70227,-5.159512,0.382729,-17.168541,-21.373329,-12.770462,-1.398125,-22.327309,-9.288368,-4.586678,-5.745392,-7.039146,7.176704,9.562683,7.29229,8.69648,21.078529,20.451851,16.869965,23.53157,30.047379,27.378273,23.351898,-27.284605,-54.977442,-71.407559,-76.923414,-74.974818,-93.730333,-83.953514,-75.049259,-69.837277,-87.134586,-76.808837,-66.764206,-61.413255,-75.795821,-66.42427,-57.236549,-50.676278,-63.273023,-56.118373,-47.673294,5.763073,13.170605,23.548851,31.697559,9.204311,24.145317,33.931332,38.272362,9.208088,25.805912,33.628807,34.969139,9.385357,24.642105,28.800774,25.951138,9.777775,24.173355,28.244076,25.26329,-21.607581,-39.376787,-44.708132,-45.438979,-53.208848,-63.255918,-52.894384,-43.049207,-40.993073,-46.677507,-36.198122,-27.417306,-26.701681,-27.804574,-19.380984,-11.845211,-11.012692,-11.075492,-7.598759,-4.633874,114.620104,140.855469,-157.251978,133.327538
69,10.413322,-37.053304,-6.989765,-31.608307,-14.640656,-22.271004,-21.661835,-15.572433,-18.34774,-18.2658,-18.590927,-18.364563,-4.406891,-3.912849,-6.447144,-7.613754,8.448257,9.714546,5.872078,4.483223,19.218979,22.350197,17.16259,12.711868,-16.18784,-35.735859,-48.87434,-54.457225,-65.3261,-89.39777,-82.509974,-73.280356,-64.000535,-86.879248,-78.287821,-68.500072,-58.716923,-76.677648,-67.703893,-56.144895,-50.058249,-64.279215,-57.954182,-48.927785,5.801926,16.435833,30.949802,41.326675,13.3354,38.999462,44.870911,43.173237,17.070065,44.524899,48.371487,44.503555,21.269073,47.182274,48.381329,42.50061,25.785542,47.533779,47.539101,42.330379,-28.175972,-48.091283,-58.248484,-61.324828,-56.603577,-69.802419,-63.014536,-54.113708,-45.588322,-57.480772,-51.46551,-42.668855,-33.225797,-42.831568,-38.49848,-32.154582,-20.007164,-29.161045,-28.755222,-26.46635,126.863852,105.051777,-162.411318,102.968843
70,10.74955,-7.755697,-9.149494,-14.512644,-21.088142,-27.566299,-29.868736,-37.292404,-3.27095,-19.159012,-28.782806,-29.000931,3.41732,-17.453613,-27.591591,-27.809486,6.107941,-14.217682,-22.884636,-22.0047,6.378937,-10.334702,-17.57412,-17.433128,-26.850098,-51.914714,-71.916568,-84.822558,-66.639439,-87.267782,-76.890347,-65.776168,-63.344931,-80.153177,-69.2881,-59.017154,-57.407228,-72.439223,-62.572032,-51.020938,-49.250894,-62.356307,-55.945626,-46.534122,17.184105,34.352016,50.086384,62.131977,15.619755,44.463959,55.517521,59.770203,14.357643,48.679276,56.051559,56.058311,17.302952,51.739082,54.79826,52.116623,22.465611,50.478058,53.833179,51.547279,-24.188347,-42.594508,-55.805515,-64.772971,-45.534352,-55.14494,-60.056228,-64.041723,-36.519873,-45.17478,-49.394741,-50.798297,-27.506598,-36.054059,-39.644073,-41.687364,-18.826836,-27.289143,-32.231523,-35.82586,138.741817,97.755163,-170.432396,88.915283
71,3.190041,-7.506627,-4.653912,-16.586006,-14.975281,-23.027344,-32.018623,-42.25605,3.667374,-35.401039,-34.884682,-24.53373,6.526108,-40.268784,-37.863808,-26.927834,3.411484,-39.637756,-36.619034,-27.255936,-2.694397,-35.941658,-33.388252,-24.753914,-33.051599,-62.643693,-81.792589,-93.639714,-80.331049,-86.545302,-71.042954,-65.55609,-68.21037,-71.781334,-57.025548,-53.707421,-52.766375,-56.746344,-41.930629,-37.160626,-36.695985,-41.782367,-30.402229,-26.381042,4.402256,19.415188,40.691185,54.350967,15.071526,61.440525,56.726818,45.09161,15.875759,65.748367,58.886948,47.975693,19.964561,66.824398,58.728848,47.994003,26.234837,62.671738,55.485191,44.880867,-33.644743,-60.843576,-68.222442,-58.318478,-69.479063,-76.850425,-63.947368,-60.96118,-51.30851,-56.064094,-45.938169,-44.352851,-32.490566,-39.192554,-30.313833,-28.00023,-14.697555,-23.535089,-18.699136,-16.425116,141.809092,90.814942,-175.209074,72.895682
72,-4.805489,-4.232589,1.151962,3.606996,-2.938499,-11.711884,-27.312813,-40.648727,9.358177,-30.862312,-31.348343,-20.989952,9.536705,-37.164574,-35.528641,-24.772339,3.661079,-38.663521,-35.003357,-24.891586,-5.138512,-35.248833,-31.778526,-23.831291,-31.877415,-61.640064,-78.357413,-84.21021,-68.782117,-81.554201,-67.187814,-61.249091,-54.335237,-64.913453,-52.618236,-48.037282,-38.413511,-48.05096,-36.634543,-31.821902,-23.054053,-30.188572,-21.954711,-19.325008,2.744751,15.937042,37.055569,50.585403,14.259911,59.397812,53.559036,40.807056,16.507416,63.876915,57.905102,47.305813,21.977806,66.52359,59.795265,48.898602,29.28978,63.754864,57.508163,47.084255,-34.111916,-62.469249,-69.226473,-55.370112,-70.8347,-76.476835,-65.144338,-62.923979,-51.900696,-57.713818,-48.194807,-46.436866,-32.546635,-40.580734,-32.526134,-30.882709,-14.292102,-24.832527,-20.566932,-19.374377,137.027864,86.58138,-174.03285,76.501705
73,-15.952492,1.528693,9.362125,9.00497,-16.931419,-22.436485,-17.446518,-9.781036,-17.075844,-15.073242,-16.004448,-16.566696,-3.305626,-2.69165,-4.89006,-6.14296,9.854279,8.408432,5.644684,5.076942,21.56044,18.732834,14.7369,13.515244,-13.499505,-32.631666,-46.996942,-52.132044,-53.405338,-71.89866,-60.522906,-50.905805,-55.345134,-68.844577,-55.983572,-48.195456,-53.572558,-65.745386,-52.616229,-43.346196,-48.963939,-59.207499,-49.667338,-42.087784,0.78043,12.8195,33.231411,47.83556,6.994343,42.875462,43.798542,36.212883,12.006054,50.864868,48.877544,40.194054,19.835072,56.047611,51.254768,42.639256,27.559147,52.781811,46.833,39.048958,-28.609306,-52.194567,-60.47048,-55.001987,-60.600156,-73.631562,-60.569775,-53.289556,-46.340658,-60.106215,-47.37436,-40.917428,-30.831765,-41.595695,-31.721866,-27.243232,-14.018918,-21.410103,-16.591811,-15.564716,120.961447,88.482875,-164.784651,85.879478
74,-6.457405,35.494621,24.757919,-11.736746,-15.521774,-19.769821,-14.812241,-7.689133,-13.968048,-9.91066,-10.729523,-12.100525,-0.231056,2.596588,0.4393,-1.807022,12.542915,13.473892,10.565338,8.733177,23.624992,22.423859,18.260269,15.848732,-17.577152,-37.936242,-51.801227,-55.259044,-57.070472,-73.936568,-63.209225,-53.738338,-56.019748,-68.811304,-56.994396,-48.555872,-51.190145,-61.947581,-50.201027,-41.168732,-43.866505,-52.952708,-44.413058,-36.678654,14.746914,20.530872,19.405518,14.863529,18.862896,22.588062,20.487843,17.695026,8.447399,13.911953,13.692055,10.599747,-1.636276,2.2966,4.468575,3.4025,-11.116447,-5.345535,-1.631241,-1.856518,-1.268508,-8.188537,-6.442328,-3.354807,-25.816026,-12.196756,3.15841,13.297519,-29.051191,-14.526723,1.512576,12.511189,-29.568876,-21.388675,-6.00356,4.222061,-27.303253,-24.406603,-13.788836,-6.363596,114.391718,124.513305,-140.139055,74.67854
75,-6.457405,35.49462,1.310863,29.263489,-14.112129,-17.103157,-12.177963,-5.597229,-10.860253,-4.748078,-5.454598,-7.634354,2.843513,7.884827,5.768661,2.528915,15.231552,18.539352,15.485992,12.389412,25.689545,26.114883,21.783638,18.18222,-21.654799,-43.240818,-56.605512,-58.386043,-60.735606,-75.974475,-65.895542,-56.57087,-56.69436,-68.778031,-58.005218,-48.916288,-48.807731,-58.149776,-47.785824,-38.991268,-38.76907,-46.697915,-39.158777,-31.269523,-1.082382,0.545654,6.219692,13.788414,-10.182266,7.630749,13.403835,12.972736,-4.911461,14.410515,19.48185,16.528873,2.600269,18.999138,23.712502,21.871147,12.051544,27.0508,29.830627,26.802006,14.882745,23.094006,33.195447,38.9144,6.473172,20.430834,30.775819,37.80493,0.499036,17.14213,27.464823,32.933131,-2.995976,12.837818,20.206803,22.907272,-4.118042,6.151051,8.963968,9.534541,106.785326,160.272247,-139.977179,104.206352
76,-6.457405,35.494621,-4.903336,70.612738,-12.702484,-14.436493,-9.543686,-3.505325,-7.752457,0.414505,-0.179672,-3.168182,5.918083,13.173065,11.098022,6.864853,17.920189,23.604813,20.406647,16.045647,27.754097,29.805908,25.307007,20.515709,-25.732446,-48.545395,-61.409797,-61.513043,-64.40074,-78.012383,-68.58186,-59.403402,-57.368973,-68.744758,-59.016042,-49.276705,-46.425318,-54.351972,-45.370621,-36.813805,-33.671635,-40.443124,-33.904496,-25.860393,0.723152,9.272404,24.00753,36.303463,-3.687229,15.903111,25.558434,27.358074,0.128403,19.865055,27.317562,26.513557,6.550541,25.124359,28.19109,24.653664,14.409714,27.527905,28.539963,24.337635,-20.001391,-34.930726,-40.517409,-40.689384,-34.323534,-47.802538,-39.643085,-30.777085,-23.823,-40.354141,-33.146263,-26.161056,-13.756633,-27.795095,-22.616397,-18.123993,-4.044714,-14.150045,-14.735933,-14.444224,99.485035,194.933176,-145.7234,173.985398
77,13.497849,-0.726988,-14.995708,8.579849,-1.533051,-10.391006,-27.942009,-40.677567,4.392357,-23.56041,-26.026268,-21.106339,4.976349,-29.436493,-28.446693,-20.239792,1.593018,-30.963135,-29.917717,-21.772614,-3.760643,-27.297592,-28.82103,-25.082474,-15.367949,-34.557939,-44.160128,-46.770565,-41.55389,-40.676725,-31.081823,-26.684329,-37.596183,-33.668548,-24.756605,-22.28523,-32.363761,-31.43238,-23.017034,-20.243267,-26.323398,-29.490268,-23.026358,-19.257669,11.903915,31.443615,55.249729,67.700386,11.554642,53.838329,44.476547,30.804062,7.119255,53.331356,43.32922,32.058392,7.872906,52.433567,40.654964,29.263515,11.336861,46.826878,39.405499,30.019569,-29.271795,-50.386978,-51.992365,-38.369606,-39.304569,-34.757825,-29.180898,-32.271939,-17.306417,-10.315406,-9.436513,-14.765697,4.457021,7.364972,5.986455,1.171158,24.24105,24.926171,19.932601,15.167445,112.246771,193.475279,-161.455221,181.834339
78,-25.82943,-25.078077,-4.058933,10.823797,1.718216,1.947556,3.417549,5.655098,-2.493439,2.501678,5.136108,6.382713,1.876144,8.474922,11.641045,12.579689,7.879143,14.20166,16.469994,16.635132,15.111923,20.800095,21.191368,19.709473,-9.497399,-14.55272,-13.280661,-6.475827,0.79621,-9.208839,-6.419696,-3.650808,4.884952,-4.550511,-4.10492,-2.455814,6.690595,-1.821884,-2.955251,-2.908074,6.75531,-0.541736,-1.719317,-1.620701,5.299587,25.935402,52.669888,68.91758,18.027477,55.291042,43.361549,27.386341,20.140285,56.330853,42.481384,29.731007,23.598289,56.984253,41.212749,29.087334,26.790276,52.945004,43.141708,34.460163,-30.048183,-56.013552,-63.942058,-57.304629,-49.371245,-57.204161,-49.767436,-46.835094,-27.853017,-31.608616,-31.006981,-30.844825,-7.101359,-12.425047,-13.628995,-12.493776,12.334954,4.99425,0.958058,0.902915,85.787058,168.187544,-166.144438,192.448478
79,-2.590256,-22.229284,3.304939,-5.784161,2.44812,2.912636,1.571732,0.199013,8.366776,12.224693,9.005814,5.852966,10.66864,10.071259,7.662621,7.592354,11.713257,10.278854,8.726921,8.4589,12.847366,12.72171,10.277023,7.513733,-8.523595,-14.982873,-20.269573,-22.242251,5.872773,1.309603,3.015705,5.242054,12.192928,5.421007,4.291592,4.285664,14.194505,9.463683,7.541393,5.552412,14.205621,8.337417,5.342522,2.641621,5.315552,19.871063,36.458302,50.344563,29.754696,46.996822,45.043716,39.377346,34.391899,50.184803,42.334785,33.634758,37.67601,52.97945,43.281956,33.768139,38.48156,52.872906,45.018082,36.900673,-31.159196,-54.232608,-66.716071,-70.736455,-45.464852,-57.570218,-60.15614,-58.106705,-29.963708,-43.197192,-43.564916,-40.013217,-14.247117,-25.67965,-28.490282,-26.561507,1.006532,-8.489076,-13.467147,-14.405754,82.616959,146.218106,-163.419342,186.924163
80,14.909477,9.531608,13.104343,-25.391275,-19.131432,-26.88343,-24.701843,-18.463669,-15.364265,-18.711891,-22.319527,-23.071518,-1.616364,-5.998993,-10.925903,-12.45266,9.836655,6.311302,-1.292267,-3.593903,19.386406,15.260353,7.40387,4.08268,-16.630621,-40.507313,-59.478306,-67.803064,-58.119457,-83.559299,-74.267498,-63.762796,-55.926916,-79.077207,-70.362032,-60.895539,-50.512609,-69.521053,-60.631124,-49.779168,-42.451648,-58.625378,-52.300469,-42.821626,10.123272,20.67564,35.027676,45.884056,5.529213,29.615078,42.388058,45.357857,3.771629,28.813133,37.13316,35.288372,4.416161,27.25462,32.592659,29.322453,6.390839,23.525906,27.706375,24.694233,-27.729517,-54.248231,-69.423456,-75.95628,-66.981073,-87.944659,-78.321907,-68.62453,-54.453242,-71.117857,-60.304094,-49.903534,-39.541568,-49.904275,-41.383644,-33.217708,-23.599217,-30.778134,-25.379296,-19.189682,97.429304,156.758268,-150.41213,162.541441
81,11.365128,-7.883799,-6.473923,-29.147244,-12.153625,-18.891907,-25.634995,-34.338112,1.315842,-4.445801,-15.786781,-25.302887,2.10434,-9.385757,-22.176361,-30.657234,-0.885429,-14.900322,-24.561539,-29.48513,-5.910072,-20.732231,-28.510094,-31.98555,-37.673865,-63.963362,-80.156913,-93.0462,-57.569816,-76.325393,-86.822839,-93.067874,-45.431291,-62.419169,-73.88937,-78.260496,-33.228854,-47.619262,-55.456656,-56.242954,-20.454824,-30.646112,-35.713907,-35.849727,4.013844,18.151417,38.450375,53.455238,8.679314,43.093414,44.703026,37.131386,11.194897,44.125271,43.106747,35.244884,15.794277,46.562977,43.822746,35.856113,21.492176,43.843517,40.990734,33.95628,-34.264316,-62.92651,-77.359465,-77.420536,-64.027551,-80.644031,-70.127535,-62.550883,-46.469779,-60.674442,-54.231929,-47.590734,-29.43744,-43.182094,-38.190963,-32.749177,-12.911085,-25.394733,-23.456604,-19.413403,108.755236,149.965677,-156.925249,134.485404
82,9.408531,-36.419127,-7.761211,-29.304306,-4.737854,-16.43898,-34.929085,-45.263443,2.3703,-41.223793,-36.849289,-25.080643,4.194031,-45.132751,-37.304764,-25.396729,-0.291595,-44.890251,-35.84404,-24.383698,-8.502846,-41.398544,-34.422112,-24.868011,-29.198065,-57.795638,-73.017454,-75.463264,-66.108231,-69.885998,-56.724268,-54.750478,-49.338487,-49.211559,-38.538741,-37.383205,-31.73119,-31.482707,-23.000701,-21.420878,-14.8427,-15.539862,-9.265433,-6.304007,2.856674,19.920444,45.385151,61.48201,8.780365,55.582752,52.25338,40.366917,9.534245,58.992462,53.152771,42.352924,15.585709,60.273113,52.692089,42.413063,23.631535,54.718666,46.91494,37.541313,-29.889886,-55.649132,-64.939821,-59.666706,-60.523678,-65.934867,-54.689345,-52.132106,-42.872755,-45.645472,-36.860272,-35.618008,-24.901162,-29.238666,-22.650298,-21.328284,-7.446266,-12.87564,-9.475323,-8.787423,118.169632,114.461629,-164.680595,106.096177
83,-5.641136,-5.074556,3.017349,-2.018158,3.226776,-6.259575,-24.366989,-37.37709,9.861488,-31.695213,-31.054573,-22.30648,9.303932,-39.058571,-35.137138,-25.143127,3.10318,-39.361839,-34.459991,-25.115662,-5.054626,-37.504921,-33.129158,-25.3759,-28.119841,-55.164761,-70.027252,-73.670248,-58.294365,-68.156523,-56.071813,-51.345498,-40.475326,-49.568476,-39.082083,-34.214854,-22.336359,-31.161296,-22.934443,-18.180834,-6.152935,-15.375204,-11.062741,-8.616004,1.774178,18.278503,45.084801,60.297146,4.147568,48.449192,45.67194,34.465656,5.661621,53.394184,47.69371,36.476498,12.283859,55.818157,48.466415,38.184872,21.383572,54.732685,48.227806,38.470058,-28.114499,-55.0215,-65.575202,-63.552752,-64.894002,-67.259722,-58.174168,-58.657643,-46.655153,-49.724334,-40.430094,-39.807341,-27.064712,-32.656705,-24.719493,-23.943413,-8.920279,-17.993761,-13.921754,-12.864926,112.397346,110.310843,-161.794395,105.00179
84,-20.897141,-3.802374,0.816021,2.483046,-7.458916,-11.650314,-12.875404,-14.631157,-1.629181,2.849121,-3.634872,-9.554329,6.140671,9.01165,4.188538,0.50766,12.810059,14.775925,8.983154,5.326195,17.619438,18.288116,13.380547,9.68399,-17.494911,-41.585414,-56.854531,-60.726034,-41.000514,-55.773435,-48.445699,-42.241604,-33.931419,-45.479209,-36.69299,-30.544131,-24.325957,-34.822231,-25.606599,-20.136099,-13.529824,-20.697441,-14.114662,-8.99756,0.887947,17.437248,41.528435,58.421745,10.349007,51.427402,47.581615,36.7099,12.568932,53.835297,47.45121,37.68528,18.227921,54.814339,45.838623,35.906353,24.74287,51.41922,42.875118,33.842583,-28.599148,-54.021823,-61.258045,-54.406621,-61.936713,-62.416699,-50.968667,-48.679455,-43.82189,-44.708533,-35.944853,-34.972685,-24.935804,-28.182703,-20.809981,-19.693503,-6.233797,-12.105767,-8.260291,-7.203957,91.435204,106.880376,-161.043377,107.856743
85,3.241882,45.21819,25.746231,-30.47636,-19.627533,-26.836967,-21.541786,-12.95929,-23.051491,-21.457214,-17.546082,-16.770401,-6.701317,-3.339615,-1.824188,-3.72551,8.400192,11.223679,10.633392,8.64418,22.038002,22.478828,20.152359,17.475128,-19.162511,-44.394687,-62.347291,-70.743927,-68.409268,-90.335882,-81.279937,-71.540847,-69.259694,-87.325704,-77.207188,-66.92488,-65.321562,-78.659713,-69.111771,-58.403385,-58.612812,-69.524017,-61.573682,-52.270828,0.451927,2.469921,6.365547,11.791649,-5.318756,0.532093,4.204044,4.692078,-4.154606,3.412571,9.239216,9.011021,-1.53059,6.289902,11.018829,10.195999,2.018566,11.916676,16.526756,15.320034,13.575396,20.802479,27.370253,33.036254,11.059931,20.45399,31.159289,39.759855,0.302886,8.305153,24.053329,36.731893,-8.216757,-3.520298,12.129479,23.986454,-13.555173,-9.692653,1.793726,11.618062,94.52136,152.201813,-135.452871,77.48363
86,-8.240319,32.571212,-2.602959,94.086633,-15.986995,-19.337997,-11.643676,-2.870292,-19.435043,-7.665424,-3.408279,-4.549427,-5.389709,9.076367,10.926018,7.515621,9.112187,21.768437,21.702404,18.180714,23.351956,30.874844,29.253559,25.767803,-22.479033,-47.358567,-62.857164,-68.464966,-64.426242,-81.856577,-73.144212,-64.218004,-61.639137,-74.847581,-64.949531,-56.100944,-55.031751,-65.506905,-56.025577,-47.49695,-46.383328,-55.632752,-47.856939,-39.646867,3.124409,7.710514,14.844646,21.592426,-1.960545,17.750359,27.582436,29.709492,0.676575,21.765518,31.048679,31.500893,5.634727,23.735561,31.944752,31.438179,11.89476,25.075893,31.138,30.680294,-16.564239,-33.090255,-42.557334,-46.896721,-59.972649,-76.955957,-66.592231,-56.011421,-57.735524,-74.70219,-63.24187,-52.418072,-52.225998,-66.480679,-56.608517,-46.594514,-44.075098,-55.506612,-51.579625,-46.384625,85.070486,184.602825,-139.266386,171.400063
87,-8.240318,32.571212,5.272293,-1.849548,-12.346458,-11.839027,-1.745567,7.218704,-15.818596,6.126366,10.729523,7.671547,-4.078102,21.492348,23.676224,18.756752,9.824181,32.313194,32.771416,27.717247,24.665909,39.270859,38.354759,34.060478,-25.795555,-50.322448,-63.367038,-66.186006,-60.443218,-73.377274,-65.008487,-56.895162,-54.018581,-62.36946,-52.691874,-45.277008,-44.74194,-52.354099,-42.939384,-36.590515,-34.153844,-41.741488,-34.140197,-27.022907,0.066891,5.750656,15.800658,24.34084,-4.122734,13.992977,19.91189,19.515953,-1.963892,16.207409,20.555763,18.599396,2.372704,18.357697,20.622483,16.973219,6.96559,19.823628,21.090346,17.323494,-8.481851,-14.626017,-12.025368,-5.688108,-23.571877,-25.251596,-15.46448,-6.935698,-19.258842,-19.196103,-9.298778,-1.912348,-13.805802,-12.960547,-5.075482,0.956483,-7.450465,-5.964642,-1.782148,1.285922,75.897646,216.266029,-134.926615,168.642505
88,12.352924,8.936149,5.272293,-1.849548,-10.851402,-20.743847,-28.292312,-28.150177,-10.855236,-23.026313,-16.458435,-11.316204,-2.090034,-13.9365,-7.619362,-3.458233,4.755707,-7.31369,-1.69218,1.980858,10.212021,0.357514,3.078404,5.154362,-26.188874,-48.590936,-53.908078,-48.964896,-48.89765,-51.872599,-45.306863,-42.518894,-34.234366,-34.29164,-29.292882,-26.447948,-18.562451,-19.606929,-15.787542,-13.245031,-3.836553,-6.060741,-3.956626,-0.91616,-2.990627,3.790798,16.756668,27.089252,-6.284924,10.235596,12.241344,9.322414,-4.604359,10.6493,10.062847,5.697899,-0.88932,12.979832,9.300213,2.508259,2.036419,14.571362,11.04269,3.966694,-0.399463,3.83822,18.506598,35.520504,12.828895,26.452765,35.663271,42.140025,19.21784,36.309983,44.644313,48.593375,24.614393,40.559585,46.457552,48.50748,29.174167,43.577327,48.01533,48.956468,87.809829,223.009575,-130.095062,164.600354
89,12.352925,8.93615,-22.009392,57.747256,-9.356346,-29.648666,-54.839058,-63.519058,-5.891876,-52.178993,-43.646393,-30.303955,-0.101967,-49.365349,-38.914948,-25.673218,-0.312767,-46.940575,-36.155777,-23.755531,-4.241867,-38.555832,-32.197952,-23.751755,-26.582194,-46.859424,-44.44912,-31.743787,-37.352083,-30.367926,-25.605241,-28.142627,-14.450152,-6.21382,-5.893892,-7.618889,7.617037,13.140241,11.364299,10.100453,26.480738,29.620005,26.226944,25.190587,-0.810699,17.257004,38.297882,53.873177,33.651981,47.60479,34.10368,19.960957,36.474895,46.624775,29.053288,14.83366,35.220222,44.102612,25.865307,12.110081,30.686703,37.441635,24.999104,14.337502,-21.760845,-41.345482,-47.132113,-44.361372,-36.199759,-37.650214,-36.466212,-34.839088,-18.245826,-19.25242,-20.810136,-21.116047,0.691666,0.085524,-3.570718,-4.668949,17.488458,17.067876,14.703144,13.186862,99.758205,229.466646,-152.509003,219.868532
90,-9.811592,3.342488,0.398712,-1.117374,-9.43943,-27.616539,-50.551186,-58.31131,2.690048,-43.717918,-36.171684,-22.811966,7.794914,-41.324615,-33.025131,-19.29142,6.479645,-40.405884,-31.408424,-17.197723,1.175079,-31.921005,-27.893143,-18.926125,-27.132822,-42.263587,-37.087606,-22.219898,-27.963118,-15.926296,-17.020698,-21.787583,-2.743139,4.343215,-1.076248,-4.261211,19.288667,22.334445,15.971621,14.195802,37.160225,38.663971,33.223698,33.118784,1.081123,16.948643,34.7402,48.044586,30.733337,43.542995,34.248962,26.08017,34.55658,46.183262,29.674816,20.483379,34.411125,44.982033,27.363796,16.748943,31.141148,39.177647,26.827354,18.375835,-20.316133,-35.161734,-39.352858,-36.634111,-32.931062,-32.527091,-29.816742,-28.380489,-15.230616,-12.69854,-14.049021,-16.034482,2.880842,5.784346,1.963478,-0.067617,18.918659,23.607059,19.367831,15.198814,89.976053,231.098416,-152.080851,217.040441
91,0.830498,4.804059,-1.316185,-0.01939,-11.077423,-32.00489,-51.862564,-58.610802,-4.479218,-45.44529,-35.175018,-21.353645,1.925011,-42.340622,-34.048691,-20.008736,2.449951,-40.321426,-31.412315,-16.768913,-0.566826,-31.723824,-27.977486,-18.398781,-24.793284,-39.080045,-33.234072,-19.059018,-24.405183,-10.672262,-11.651253,-16.173606,0.384952,10.187212,4.742493,0.952377,22.003833,27.731925,21.71552,18.546489,39.092889,43.065849,38.256727,37.049506,6.171913,24.630547,45.164967,59.875145,23.360252,48.009567,36.492176,26.717262,23.492546,49.990139,35.650749,27.21262,23.222351,48.387623,33.555222,23.981266,22.159595,40.20504,31.76136,25.602608,-20.811309,-33.588087,-34.41721,-29.427282,-29.486995,-22.682285,-22.573048,-25.165084,-10.969775,-1.603905,-5.195433,-9.829801,7.598697,15.538565,10.535361,6.738884,23.763411,32.588348,27.291706,21.231768,90.893354,234.945745,-153.310232,216.064321
92,4.632568,10.419641,8.989391,-2.965749,-12.96032,-35.06218,-55.777588,-62.056046,-12.413521,-49.01516,-38.968849,-27.093658,-6.653023,-45.574265,-37.405701,-24.154587,-4.998207,-42.6828,-33.213272,-19.367981,-5.522232,-33.277588,-28.505173,-19.725838,-24.257167,-38.480819,-32.87913,-22.253922,-26.620294,-14.374755,-11.987854,-14.057173,-3.214294,7.769128,5.858756,3.183234,17.910028,25.788578,21.694216,18.096699,35.149631,40.273125,37.243032,35.791959,12.413807,28.364067,47.407665,61.006508,5.325851,42.730637,39.605656,32.570343,0.996838,45.597439,37.162457,26.544857,1.655617,45.436192,35.532532,23.620548,6.555061,37.484207,32.384834,24.282532,-19.641695,-29.647114,-29.069439,-20.560664,-23.303062,-15.805821,-13.97807,-15.106189,-4.725944,5.294048,3.858474,-0.599411,13.399469,21.360209,18.00148,14.569392,29.528059,37.059201,32.734758,28.102798,95.44919,245.110681,-144.397573,212.843867
93,1.903381,10.00579,-1.967697,-3.976665,-8.105164,-24.670486,-41.244621,-55.185471,-30.4533,-34.705124,-23.235741,-16.249924,-29.204636,-30.710449,-20.118599,-14.155197,-24.754486,-27.770119,-17.564278,-12.290726,-18.986206,-21.243668,-13.684731,-9.743614,-24.096616,-34.225351,-29.777716,-20.895413,-16.348916,-6.81422,-6.27588,-8.182485,4.712606,14.507333,10.309725,6.363442,23.126147,29.78315,24.93846,20.932649,38.26531,40.580333,35.006803,32.175546,10.289726,32.695484,59.551392,72.962494,7.002697,50.013428,57.418442,55.1651,0.711365,50.075226,51.323776,43.827724,2.846317,49.524422,46.243916,36.735706,10.544586,45.592518,42.016869,34.802971,-20.447846,-28.414082,-22.466097,-14.126704,-20.359481,-10.215432,-2.846447,-1.055191,-1.402105,13.795042,15.182574,13.363839,17.164762,30.690634,26.052746,21.032993,33.675958,42.049869,36.317887,31.120911,97.410221,254.502239,-146.307621,208.252971
94,6.595001,13.110539,-3.545208,19.360113,-10.086479,-31.460838,-51.255112,-60.83519,-40.351295,-38.113861,-25.112343,-21.008606,-38.650589,-32.426033,-22.265511,-20.369797,-35.31498,-28.833961,-20.476112,-19.21154,-31.420212,-27.132683,-19.810181,-19.172516,-25.535771,-41.732225,-38.792535,-24.778403,-24.898384,-11.112542,-13.974365,-18.894762,-2.924376,8.946338,2.697073,-2.748449,17.344641,23.031236,16.756468,12.399359,34.028861,35.136911,30.355885,28.840715,16.421585,40.72134,67.796745,85.174885,17.561932,56.255264,72.438469,77.839851,13.636436,59.2103,52.796803,40.142784,12.478695,55.287266,46.228695,33.593845,12.913799,46.457806,41.490383,31.130333,-24.124713,-36.319802,-32.968977,-22.789422,-37.409079,-30.942452,-26.190696,-24.061542,-16.054057,-5.798549,-4.312958,-8.132653,6.332196,13.794857,10.602484,5.207412,24.793161,29.776481,25.59993,20.682189,103.934526,267.0119,-149.923525,227.012206
95,-6.313591,4.091768,-7.644482,1.184867,-6.320229,-23.624268,-40.726662,-54.871101,-36.452637,-31.562233,-17.320061,-11.721611,-36.480331,-26.952553,-14.814148,-10.567589,-31.4011,-24.613037,-14.307747,-11.166229,-24.503632,-18.957596,-10.671959,-8.373985,-23.224268,-33.219807,-25.655629,-12.427826,-12.064857,-0.444912,-1.703262,-4.672777,9.818007,21.303213,15.035423,9.217669,28.599456,35.801654,29.666442,24.695657,43.498472,45.482142,38.579928,35.078371,21.188393,53.052578,84.615784,101.323357,30.991287,76.326656,83.894405,82.55024,22.198505,72.252445,72.636566,62.79808,18.915768,66.507397,64.454041,53.685894,18.468361,55.306149,57.25462,50.688572,-27.594407,-37.802923,-29.985753,-22.938055,-35.368351,-17.433315,-10.778349,-9.735632,-15.499847,3.731516,4.814247,3.042937,5.706417,19.81898,17.369032,14.668872,26.505253,33.25377,28.362458,25.595361,97.476826,270.588021,-157.712116,227.681426
96,13.196297,13.3547,-2.491264,-5.832265,-19.125938,-42.718964,-62.76535,-72.628326,-26.839256,-62.278175,-53.216515,-41.988487,-20.201912,-61.330948,-52.994957,-41.723557,-19.435501,-56.356087,-47.804718,-36.942673,-21.535263,-51.98307,-46.199455,-35.061264,-22.809861,-35.839198,-31.101089,-15.071361,-11.504164,-1.771805,-9.832271,-14.951133,7.54837,16.352127,10.287989,7.193614,24.900051,29.963523,23.093172,19.224262,38.801921,41.719381,35.784425,32.594708,29.162807,60.557785,87.183552,106.286659,38.558578,75.910606,90.864429,96.430721,27.850456,74.858952,85.932884,84.851131,21.875782,66.067543,75.173721,72.643375,18.830624,53.693104,61.909962,60.843029,-22.221195,-29.329099,-27.917732,-25.975126,-28.620513,-14.625956,-8.959738,-5.756867,-8.64055,9.180557,10.822192,9.514565,11.513673,26.990241,25.250299,21.74127,30.564046,42.651071,40.021677,34.952586,110.56097,283.585695,-160.315533,221.492136
97,-3.363304,3.522676,3.404045,-13.063423,-20.232468,-43.415337,-63.074913,-74.945641,-24.779205,-55.977173,-52.685394,-45.363693,-17.185249,-54.31263,-53.554916,-46.999283,-15.903053,-50.472679,-49.482651,-42.817383,-17.89032,-46.605606,-47.390099,-41.138306,-19.98583,-28.129412,-19.311947,-3.042196,-2.290323,12.233992,4.93429,-1.035307,15.837807,29.472916,22.898535,18.783487,31.428984,38.920729,30.838279,25.695026,43.415047,47.724485,40.739032,36.145851,27.990589,59.291153,86.501083,104.998798,52.185287,89.271183,87.48951,80.450134,42.911339,82.652149,79.351616,70.578117,35.175076,71.912899,69.687996,62.675457,28.521023,57.873516,59.264202,55.558434,-21.263754,-27.254285,-24.581666,-27.723156,-24.243706,-1.673313,-2.306131,-8.027986,-5.667144,18.317148,16.299206,11.392519,14.905129,36.116457,30.611099,23.100891,34.470994,50.240073,44.075036,36.99214,107.056646,286.834477,-157.052507,208.154819
98,-1.045532,0.964974,13.893242,-10.461014,-21.567307,-45.659752,-64.027176,-73.656578,-22.418633,-62.343521,-60.421715,-50.916595,-15.410156,-59.852257,-55.635796,-43.243675,-14.489937,-53.819275,-49.227448,-38.110657,-17.064857,-48.815689,-46.091537,-35.098228,-18.624727,-18.714389,-4.593243,11.115815,5.186417,24.98397,13.690746,7.67817,22.381313,40.743848,30.908675,26.583861,37.69875,53.036811,44.735024,40.632265,50.90846,63.06656,55.29453,50.371664,20.534019,44.53434,65.205345,81.855297,47.091465,55.85701,51.03075,49.143677,45.191116,54.25993,51.010208,47.648735,40.246067,52.094364,48.343849,44.309578,34.874096,47.948055,56.746616,63.970127,-7.227145,-7.720469,-10.039197,-19.16424,1.497571,14.828682,6.64101,-3.011815,3.155817,17.556074,6.79094,-4.106958,3.311304,19.281381,8.427943,-2.677807,4.168585,15.42655,9.573228,3.064364,105.645704,287.638297,-143.524675,197.532652
99,-4.470291,2.654341,11.742382,-29.009788,-24.876595,-47.208824,-63.210068,-77.2752,-21.069489,-58.186798,-71.555099,-71.411247,-13.249626,-58.91304,-66.418419,-58.161964,-10.602036,-51.247444,-55.944214,-48.458061,-12.074432,-42.464104,-47.365952,-40.36274,-16.248695,-12.483649,4.382241,19.629097,10.861465,35.46462,31.282882,25.674031,30.033116,52.573869,41.77014,33.094825,45.596072,63.140229,53.620538,47.588449,57.23516,72.654485,64.028879,56.476742,32.740574,54.823837,71.200905,85.082531,32.557468,57.736702,60.59,57.37587,17.630424,47.706928,53.096581,51.18084,5.955677,35.433941,42.624836,41.940536,-2.821198,25.205097,38.069859,41.90094,-23.968546,-41.296267,-52.901948,-62.115326,-55.175537,-42.068271,-26.417691,-18.303687,-43.828281,-22.7562,-8.671055,-2.650822,-26.893045,-8.964863,3.959683,9.456829,-6.404382,4.276463,14.876662,20.666751,101.136961,290.021076,-131.820745,168.251301
100,-3.426933,1.056858,12.025394,-44.708595,-24.947662,-48.098259,-63.974876,-78.758926,-22.706795,-61.692123,-76.48098,-77.963791,-13.60508,-58.710709,-72.944069,-71.181221,-10.002022,-49.635201,-61.22097,-59.208641,-10.49366,-38.405457,-49.941559,-48.896942,-11.710966,-7.603884,8.647404,25.252893,16.028801,40.715628,35.669878,27.414651,34.52163,58.387485,47.412954,36.824055,48.235593,68.684675,60.384925,52.502732,57.753617,77.467374,71.194335,61.92603,30.998955,49.372845,62.888489,73.014507,23.594742,43.907433,46.597195,42.919579,11.065292,38.466282,42.686405,38.31007,1.89045,29.762306,33.026962,28.948345,-5.235901,21.292534,28.108349,26.197414,-25.593107,-46.970852,-61.34854,-71.987272,-57.643145,-49.807604,-36.377816,-29.592187,-47.139307,-33.103655,-21.490224,-15.81249,-32.79762,-20.019453,-8.545207,-3.193423,-15.548044,-9.449789,-0.947622,3.848347,97.925262,291.065198,-119.580116,123.52997
101,-5.605545,2.894118,11.268539,-38.675672,-22.966003,-45.306244,-60.230026,-75.375366,-20.243225,-59.628754,-75.454102,-78.344078,-11.072044,-55.345345,-72.705803,-74.48822,-7.641449,-46.511421,-62.090149,-64.671364,-8.260117,-34.636459,-48.535194,-51.944618,-10.901171,-6.404135,9.301032,25.978831,16.224118,40.778428,36.563407,27.9533,34.482171,58.560756,51.042829,40.379829,47.98748,69.572954,64.9158,57.077882,57.478271,78.71183,74.292353,64.755002,31.947212,45.94059,55.452919,61.857834,14.934196,45.564709,52.203255,49.602013,1.21582,38.81979,44.439411,39.287968,-5.574417,31.371231,36.379051,31.196251,-6.816959,24.561081,31.533337,27.985611,-29.806831,-58.732144,-78.788617,-91.119278,-78.96266,-85.132761,-70.13337,-62.60547,-69.730263,-68.545458,-54.676995,-46.400865,-55.681118,-52.490135,-39.821976,-31.146259,-37.667597,-37.647188,-28.051514,-20.389863,92.239838,294.989915,-108.391457,85.884897
102,-4.159813,1.660469,11.617461,-22.952311,-22.434654,-44.799728,-60.218124,-75.240326,-20.228348,-59.204521,-75.971146,-79.480591,-11.149178,-56.057167,-73.048096,-73.82103,-7.501717,-47.045631,-62.10537,-63.377151,-7.537537,-34.552803,-48.026161,-49.984131,-10.73111,-6.449213,8.550518,25.051525,17.417321,42.14867,37.142317,27.745016,36.022288,60.516762,49.785961,38.647236,49.582617,71.406015,63.921742,55.105018,58.686233,79.436471,74.633586,65.081414,30.76436,43.788995,50.052387,53.983604,17.668509,42.144397,45.727387,41.661612,2.238301,31.871289,35.529107,31.142301,-6.850891,22.796909,27.932413,25.267999,-10.567171,15.004366,22.023934,20.629455,-26.759607,-54.028536,-73.628218,-86.569464,-80.098369,-91.394156,-80.748036,-74.424062,-72.477107,-75.648584,-63.111036,-54.767686,-59.092125,-56.614434,-41.91715,-31.654262,-41.782146,-41.993297,-30.770481,-21.998712,87.60601,297.393643,-97.24801,63.675845
103,-3.262596,0.832149,11.617462,-22.95231,-21.811638,-44.292984,-60.314598,-75.3899,-18.654099,-58.719978,-76.060066,-79.828262,-9.980164,-55.763741,-73.593292,-74.729691,-6.906395,-47.202187,-63.538284,-65.694695,-7.613525,-35.207176,-49.892693,-53.32592,-11.3086,-7.213004,7.559732,24.229194,16.692989,40.948551,36.627689,27.548773,35.726071,59.576983,49.224958,38.158173,49.645046,71.541804,64.330776,55.308918,58.91471,80.221195,75.831914,66.282522,29.581506,41.637399,44.651854,46.109374,20.402821,38.724085,39.251518,33.72121,3.260781,24.922788,26.618802,22.996633,-8.127365,14.222587,19.485773,19.339747,-14.317384,5.447649,12.514531,13.273299,-23.712383,-49.324928,-68.467821,-82.01965,-81.234079,-97.655551,-91.362703,-86.242655,-75.223951,-82.75171,-71.545077,-63.134508,-62.503132,-60.738733,-44.012324,-32.162266,-45.896695,-46.339406,-33.48945,-23.607562,83.795986,300.571967,-86.177976,43.069711
104,-2.182732,-2.901405,11.617462,-22.952311,-21.92791,-44.437065,-60.540047,-75.45536,-17.918701,-59.670181,-77.162189,-81.47707,-9.165001,-56.102486,-73.813362,-75.229225,-6.255226,-47.831726,-64.068832,-66.218719,-6.881104,-36.125221,-50.952301,-54.08226,-10.563643,-6.909439,8.064789,24.548691,16.010956,40.475049,36.949965,28.315404,35.779485,59.269342,49.96232,39.362985,50.566116,72.571122,65.558807,56.745973,60.919498,82.020911,77.874371,68.754391,28.398652,39.485803,39.251322,38.235144,23.137133,35.303772,32.77565,25.780808,4.283262,17.974286,17.708497,14.850965,-9.403839,5.648264,11.039134,13.411494,-18.067597,-4.109067,3.005128,5.917143,-20.665159,-44.621319,-63.307422,-77.469835,-82.369787,-103.916945,-101.977369,-98.061246,-77.970794,-89.854835,-79.979118,-71.501329,-65.914138,-64.863032,-46.107498,-32.670268,-50.011244,-50.685514,-36.208417,-25.216411,81.022367,298.552683,-75.151401,20.99952
105,-0.436134,-2.669964,11.617461,-22.95231,-22.60643,-45.911751,-62.631798,-77.310333,-20.644684,-61.945839,-78.463898,-81.850376,-11.493416,-58.19149,-74.636307,-74.528618,-7.997704,-49.142418,-64.61071,-65.138512,-8.089485,-37.85202,-52.169838,-53.896523,-10.162636,-6.156146,9.482702,25.283459,16.338295,41.493683,36.005307,26.953129,36.136712,60.734741,49.279669,38.043564,50.818119,74.199048,65.41993,56.254749,60.789329,82.042956,77.170787,68.122622,27.2158,37.334208,33.85079,30.360914,25.871446,31.883461,26.299782,17.840408,5.305743,11.025786,8.798194,6.705298,-10.680313,-2.926058,2.592496,7.483243,-21.817809,-13.665782,-6.504274,-1.439013,-17.617935,-39.917712,-58.147024,-72.920021,-83.505497,-110.178341,-112.592036,-109.879839,-80.717638,-96.957961,-88.41316,-79.868151,-69.325146,-68.987331,-48.202672,-33.178272,-54.125793,-55.031624,-38.927385,-26.825262,77.570257,296.019588,-66.549916,-1.81592
106,1.591644,0.885624,11.617462,-22.952311,-22.512245,-45.835419,-63.990211,-81.257973,-23.147507,-65.98423,-80.519485,-82.275639,-14.515114,-62.406349,-77.05101,-76.075516,-11.221504,-53.390923,-68.034554,-68.393211,-11.394539,-41.609459,-56.036224,-58.528404,-11.669902,-10.21994,4.09856,19.238156,12.628824,36.1088,31.028656,22.671417,33.148053,54.847827,44.698097,34.564546,48.75442,69.482675,61.581463,53.329694,59.649663,79.637098,74.883551,66.005695,26.032946,35.182612,28.450257,22.486684,28.605758,28.463148,19.823913,9.900006,6.328223,4.077285,-0.112111,-1.44037,-11.956787,-11.50038,-5.854144,1.55499,-25.568022,-23.222498,-16.013677,-8.795169,-14.570711,-35.214103,-52.986626,-68.370206,-84.641206,-116.439735,-123.206702,-121.698431,-83.464481,-104.061086,-96.8472,-88.234972,-72.736152,-73.11163,-50.297845,-33.686274,-58.240342,-59.377732,-41.646352,-28.434111,77.615776,297.416938,-56.478579,-24.256506
107,3.28846,2.342625,11.617462,-22.952311,-24.910126,-49.668846,-68.491402,-84.111729,-25.45063,-70.564041,-82.107925,-80.645943,-16.898003,-66.915436,-77.854156,-73.286018,-14.273071,-58.752022,-69.636841,-66.022339,-15.302925,-47.905769,-59.034691,-57.297935,-13.908601,-13.199892,0.869569,16.334157,9.143692,31.142585,24.668487,17.04651,29.631367,50.463116,39.040895,29.399371,45.29016,64.10866,55.239634,47.57437,56.462477,74.272778,67.414963,58.872534,24.850093,33.031016,23.049725,14.612454,31.34007,25.042836,13.348045,1.959604,7.350703,-2.871217,-9.022416,-9.586038,-13.233262,-20.074703,-14.300783,-4.373262,-29.318235,-32.779215,-25.52308,-16.151325,-11.523486,-30.510494,-47.826227,-63.820391,-85.776915,-122.701129,-133.821368,-133.517023,-86.211324,-111.164211,-105.281241,-96.601793,-76.147158,-77.235928,-52.393019,-34.194277,-62.354891,-63.72384,-44.36532,-30.04296,80.427761,300.615471,-45.337592,-46.35291
108,-0.24662,0.576872,11.617461,-22.95231,-22.991524,-47.756424,-66.781197,-83.313904,-24.179192,-65.420265,-81.181068,-83.032722,-15.583191,-61.912994,-80.666656,-81.241894,-12.890739,-54.465179,-72.03392,-74.231644,-14.1782,-44.186096,-59.289436,-62.45533,-16.193058,-15.825272,-1.513811,12.779742,5.488438,28.283603,25.707129,18.899022,27.017102,48.763312,42.233515,32.249955,42.943521,62.953434,57.981105,50.636141,53.818325,73.023814,67.726864,59.12781,23.66724,30.879421,17.649193,6.738224,34.074383,21.622524,6.872177,-5.980797,8.373184,-9.819717,-17.93272,-17.731705,-14.509735,-28.649025,-22.747421,-10.301514,-33.068447,-42.33593,-35.032482,-23.507481,-8.476263,-25.806887,-42.66583,-59.270577,-86.912624,-128.962524,-144.436035,-145.335615,-88.958168,-118.267338,-113.715282,-104.968615,-79.558166,-81.360228,-54.488193,-34.70228,-66.46944,-68.069949,-47.084288,-31.65181,79.967022,301.973964,-33.93425,-68.523599
109,-0.888176,0.121216,-6.672548,2.361977,-22.688599,-45.991974,-64.568939,-81.168251,-22.62291,-66.651535,-76.764908,-73.105659,-13.847351,-63.863754,-74.12796,-68.014412,-11.176186,-56.059456,-64.419479,-58.669167,-12.11277,-44.952278,-54.047928,-50.438461,-17.674326,-17.597694,-4.007355,10.846336,3.261472,25.30958,20.316874,13.725758,24.296626,45.367781,36.447131,27.852956,40.529698,59.353261,51.754688,45.479549,52.240972,69.424568,62.039713,54.699626,23.789095,30.989031,19.537723,9.343427,32.185784,22.950675,10.386855,-1.240272,8.210666,-5.40313,-12.684243,-13.170795,-13.035392,-22.728125,-17.421143,-6.922505,-29.924716,-36.213251,-28.382511,-17.236035,-9.87787,-28.264258,-45.354171,-61.57842,-85.37004,-124.893944,-136.315835,-135.188434,-86.680916,-114.410861,-107.513076,-97.582395,-77.485974,-80.057313,-53.425362,-33.912801,-64.860204,-68.862872,-51.241226,-38.170321,79.171343,303.016558,-40.514301,-65.240244
110,0.572319,-0.789294,-6.672547,2.361977,-21.545334,-44.754066,-63.255157,-79.130516,-21.413269,-63.235931,-76.538544,-75.686302,-12.859726,-60.754967,-76.094742,-73.45665,-10.293045,-53.596115,-66.748352,-64.551659,-11.414452,-42.604523,-54.848099,-54.20311,-17.443936,-18.455284,-5.455587,9.754713,2.551712,23.868572,20.190038,12.91516,23.858754,45.182715,38.593637,29.421972,40.323451,59.55253,53.798564,47.052208,51.970814,70.282837,63.891175,55.981133,23.910948,31.098639,21.426252,11.94863,30.297184,24.278825,13.901532,3.500252,8.048146,-0.986544,-7.435767,-8.609886,-11.561051,-16.807226,-12.094867,-3.543498,-26.780987,-30.090574,-21.73254,-10.964591,-11.279477,-30.721629,-48.042513,-63.886262,-83.827457,-120.825363,-128.195635,-125.041253,-84.403663,-110.554385,-101.31087,-90.196176,-75.413783,-78.754398,-52.362531,-33.123322,-63.250967,-69.655795,-55.398164,-44.688831,79.547796,302.769279,-47.382714,-62.336252
