YashyHoby/handMotion-similar-search/project/data/handData/tgt/d4_feature_d2/18.csv
,vel_0x_L,vel_0y_L,vel_0x_R,vel_0y_R,posFromWrist_1x_L,posFromWrist_2x_L,posFromWrist_3x_L,posFromWrist_4x_L,posFromWrist_5x_L,posFromWrist_6x_L,posFromWrist_7x_L,posFromWrist_8x_L,posFromWrist_9x_L,posFromWrist_10x_L,posFromWrist_11x_L,posFromWrist_12x_L,posFromWrist_13x_L,posFromWrist_14x_L,posFromWrist_15x_L,posFromWrist_16x_L,posFromWrist_17x_L,posFromWrist_18x_L,posFromWrist_19x_L,posFromWrist_20x_L,posFromWrist_1y_L,posFromWrist_2y_L,posFromWrist_3y_L,posFromWrist_4y_L,posFromWrist_5y_L,posFromWrist_6y_L,posFromWrist_7y_L,posFromWrist_8y_L,posFromWrist_9y_L,posFromWrist_10y_L,posFromWrist_11y_L,posFromWrist_12y_L,posFromWrist_13y_L,posFromWrist_14y_L,posFromWrist_15y_L,posFromWrist_16y_L,posFromWrist_17y_L,posFromWrist_18y_L,posFromWrist_19y_L,posFromWrist_20y_L,posFromWrist_1x_R,posFromWrist_2x_R,posFromWrist_3x_R,posFromWrist_4x_R,posFromWrist_5x_R,posFromWrist_6x_R,posFromWrist_7x_R,posFromWrist_8x_R,posFromWrist_9x_R,posFromWrist_10x_R,posFromWrist_11x_R,posFromWrist_12x_R,posFromWrist_13x_R,posFromWrist_14x_R,posFromWrist_15x_R,posFromWrist_16x_R,posFromWrist_17x_R,posFromWrist_18x_R,posFromWrist_19x_R,posFromWrist_20x_R,posFromWrist_1y_R,posFromWrist_2y_R,posFromWrist_3y_R,posFromWrist_4y_R,posFromWrist_5y_R,posFromWrist_6y_R,posFromWrist_7y_R,posFromWrist_8y_R,posFromWrist_9y_R,posFromWrist_10y_R,posFromWrist_11y_R,posFromWrist_12y_R,posFromWrist_13y_R,posFromWrist_14y_R,posFromWrist_15y_R,posFromWrist_16y_R,posFromWrist_17y_R,posFromWrist_18y_R,posFromWrist_19y_R,posFromWrist_20y_R,posFromBody_0x_L,posFromBody_0y_L,posFromBody_0x_R,posFromBody_0y_R
2,-20.492821,3.577325,-3.351917,2.312862,33.011684,53.970852,72.218227,88.68639,52.516651,82.317867,84.196987,81.370525,34.138126,59.713955,60.050182,54.080944,14.178944,23.571739,13.912239,0.750847,-4.92033,-11.48386,-20.970268,-30.85207,-6.742589,0.864444,11.66243,19.550551,35.601521,62.762131,69.724922,70.234548,51.768643,79.512856,86.868195,89.247623,60.993537,95.292865,111.977765,122.619399,63.288121,94.703272,110.517738,123.428144,32.244701,61.754208,88.082142,107.922421,69.745045,100.314388,105.670795,103.195553,58.64233,92.69846,98.252163,95.635128,44.180202,75.562077,83.014812,83.624668,28.846264,53.967075,63.8344,68.675022,-14.591869,-15.496142,-10.51202,-9.196798,6.947415,35.589973,49.747676,55.083714,24.271308,54.562355,66.539774,68.853747,39.719656,67.806275,77.93927,80.115849,51.964886,75.7806,83.359228,85.274849,-33.818321,328.453683,-47.982674,337.271086
3,25.593452,1.274529,2.469635,-0.551925,-29.877949,-42.776527,-51.027145,-59.764309,-27.751637,-39.837971,-53.57254,-65.499859,-12.916718,-24.24202,-39.417744,-51.521759,0.83519,-5.075684,-25.095921,-41.291485,13.528805,11.405354,-2.285671,-14.731636,8.320251,27.260893,46.066301,52.429805,50.205864,81.990345,95.898884,107.03378,59.252423,93.81314,107.852529,117.84356,64.474037,101.03658,114.155578,123.859656,67.101703,96.941293,108.807499,116.621025,29.768028,58.90749,84.703617,105.277119,68.393955,96.53841,102.744198,101.776829,56.555271,87.251415,93.037548,91.135311,41.617298,70.275707,78.286228,79.963245,26.07542,50.359554,60.529232,65.884266,-13.686176,-14.036239,-9.039643,-9.248853,8.049351,36.650599,51.472982,58.680923,24.816688,55.248402,67.839311,71.586141,39.892248,68.360361,79.521193,83.374912,51.868123,75.29944,83.879351,87.683115,-8.589792,331.507797,-45.877962,338.498746
4,-13.208542,-0.826221,1.914082,0.011609,-19.161816,-26.541367,-31.670895,-39.031734,0.271168,12.484245,11.913414,9.530983,11.484489,18.426991,13.364067,6.417904,21.374645,25.827656,14.469166,1.83712,28.780346,32.162418,28.472042,22.138882,8.582628,27.857216,48.493093,59.421063,46.806998,76.716242,90.203211,99.760508,51.40234,82.016897,96.464518,107.241199,52.314949,86.589392,104.062597,118.705966,51.371279,77.472808,92.313717,106.681247,28.499107,56.62159,81.398277,101.078911,66.528168,94.200897,100.600891,99.940567,55.038071,84.770393,91.108131,90.016022,39.75975,67.116394,75.880508,78.506126,23.588333,46.325912,56.549377,62.617722,-14.083478,-14.204447,-9.25614,-9.77262,8.934852,35.41133,49.628744,56.828966,25.385286,53.957386,66.570711,71.277204,39.880083,67.133813,78.363125,83.101975,51.272293,74.445741,83.587642,88.417142,-22.077255,331.40719,-44.242802,339.235969
5,-12.221432,3.321616,1.796551,0.355374,-12.979259,-12.939491,-14.130421,-14.973164,13.328762,32.366524,36.428833,37.418175,28.8097,45.405006,49.420395,47.060738,40.989189,53.886223,57.149391,53.966217,49.670906,59.296989,65.009537,66.322975,29.566962,58.564091,85.021796,104.536161,57.05948,77.743769,88.35323,95.960449,46.116072,70.94653,83.11377,90.287068,32.677145,58.333453,72.28565,83.383804,18.678635,39.07671,49.156971,60.916226,28.010387,55.253048,79.337826,98.825855,64.69923,92.379856,98.931942,98.314877,53.322315,82.234669,88.590374,87.372036,38.054981,64.790668,73.82967,76.427937,21.607304,44.14484,54.523258,60.417767,-14.55272,-14.947058,-10.032342,-9.946942,8.634251,34.651552,48.620607,55.552955,24.87393,53.686426,66.555088,71.485611,39.24813,66.941399,78.123348,82.891654,50.662076,74.317177,83.286115,87.732392,-34.674711,335.246769,-42.822275,340.109305
6,18.601627,-4.942318,1.482468,0.26176,-26.204739,-38.311272,-44.934998,-53.472919,-20.639248,-23.591938,-39.04026,-54.594669,-2.210598,7.114391,-2.811527,-13.238583,15.688419,29.164181,15.446491,1.548042,30.424175,39.240475,27.74477,14.211903,14.03167,35.447701,53.27523,58.114362,51.585738,85.347344,100.330711,112.637012,55.002203,90.189688,100.339912,107.379706,54.639482,90.842266,97.702737,101.888056,52.826366,81.820037,92.337676,98.66203,27.222118,54.076481,77.531719,96.910915,63.639622,91.250668,97.549038,96.536579,52.318897,81.089115,87.731495,86.879597,37.034855,63.777637,72.84811,75.541592,20.336666,42.58913,52.893162,58.987598,-15.268592,-15.528747,-10.070504,-9.741004,8.128268,33.998418,47.850703,54.406127,24.539058,53.086459,65.840451,70.357431,39.062199,66.72626,77.722712,82.201222,50.454039,74.064309,83.166319,87.578078,-16.192331,330.50761,-41.459055,340.574224
7,-15.458622,-3.174836,0.738144,-0.310852,-0.934868,8.594913,21.935806,30.759888,16.762047,39.195786,45.118446,49.575348,24.74865,45.549545,52.192268,54.16729,30.510521,45.977898,48.822098,46.647491,33.256187,40.484505,45.832787,48.033714,18.322026,39.803389,57.340877,69.255928,58.208841,83.904422,93.773496,100.914438,53.424851,79.786658,92.191142,98.244905,44.622083,71.534209,86.583834,100.489533,33.487495,52.460495,62.390332,74.76956,26.98391,53.88834,77.036762,95.96323,63.208408,90.146427,96.379337,95.783672,51.726894,79.601612,86.333942,86.119366,36.191654,62.242527,71.33028,74.367771,19.177494,40.987301,51.42683,57.912998,-15.133173,-15.356339,-9.763419,-9.661593,8.477405,34.058193,47.910971,54.683571,24.780379,53.07911,66.08492,71.100845,39.151861,66.544096,77.680166,82.572095,50.574884,73.926852,83.206395,87.860894,-31.687889,327.587063,-40.757847,340.517661
8,13.765354,3.372499,1.009598,0.245705,-24.517078,-33.892307,-39.168034,-49.241352,-12.144871,-11.217728,-24.587517,-38.497181,6.246815,15.697231,5.654755,-5.195446,23.302631,36.109486,21.618061,7.127323,36.650219,47.776279,38.413754,26.63229,20.585858,46.360789,67.46813,76.99486,57.481174,91.058146,104.975021,115.63024,56.269445,90.599031,98.794484,104.32164,51.984276,87.373437,94.46047,98.036436,48.483459,74.390598,81.67727,84.989562,26.401863,53.136921,76.293468,95.030193,62.699947,89.810314,95.36768,94.092464,51.086369,78.665028,85.11446,84.806957,35.349255,60.938816,69.805012,72.894688,18.283596,39.630146,49.848347,56.434078,-15.010661,-15.075437,-9.689936,-9.412245,8.391572,34.037136,47.696512,54.183331,24.488978,53.000008,66.137038,71.133264,38.747087,66.52304,77.741916,82.619087,49.952811,73.360169,82.858741,87.781236,-17.91235,331.116608,-39.738064,340.920412
9,-18.489475,2.263955,0.008526,-0.300601,30.309219,49.109459,64.944191,78.306999,44.0522,66.311989,72.500038,76.619797,32.791557,52.851677,59.293442,59.285774,18.527412,27.645149,26.260643,19.555893,2.832813,-1.870708,-7.905121,-15.142307,-0.431388,13.038538,28.861155,40.10646,38.983776,62.020508,72.008205,78.666382,47.565787,72.82541,85.765826,91.998357,50.043213,80.06367,100.249386,116.598919,47.064312,73.911662,88.934796,104.730798,26.035652,53.085938,76.123009,94.945564,62.403603,88.780174,94.868088,94.392929,50.562859,77.614403,84.598274,84.970894,34.717712,60.14122,69.616013,73.248596,17.557468,39.131813,49.794388,56.821289,-15.062778,-15.007697,-9.420334,-9.553591,9.035073,34.989451,48.639132,55.172635,24.947784,53.309316,66.4038,71.339201,38.930238,66.388547,77.66584,82.626497,50.041978,73.244634,82.941177,88.107464,-36.382542,333.469777,-39.710255,340.709025
10,24.102802,4.836478,0.800629,0.348334,-22.045383,-32.950172,-41.002007,-51.045055,-20.104923,-30.918961,-44.412861,-57.012806,-7.123203,-17.090378,-32.098789,-46.035175,4.866772,-0.688477,-19.843025,-36.718941,15.981388,13.256207,-0.091839,-13.22279,11.735851,31.916627,50.472502,56.756718,50.597114,79.775666,93.185262,104.153494,58.228601,89.097632,100.518247,109.740733,62.578794,95.218641,106.994877,115.942821,65.173978,91.177633,101.626729,109.195785,25.631104,52.47757,75.574036,94.447746,62.16774,88.835564,94.640007,93.640938,50.305252,77.38987,84.196472,84.302559,34.322548,59.526329,68.801308,72.379761,17.047119,38.228874,48.658562,55.644836,-15.442667,-15.416978,-9.710005,-9.439477,8.748428,34.687862,48.033793,54.246934,24.761792,52.934429,65.728682,70.552007,38.72745,66.228243,77.380676,82.345162,49.6674,72.775701,82.37684,87.511202,-12.263088,338.304665,-38.892975,341.055769
11,-13.271542,-2.758823,-0.207596,0.165059,-15.299892,-19.230881,-21.956463,-27.2929,4.065399,19.201241,20.173759,18.773003,17.723923,26.752396,24.589119,19.004288,29.507904,35.697327,27.993393,17.237949,38.612709,44.104958,45.018768,42.231102,16.693236,39.014343,58.41873,70.699961,51.386902,79.35107,90.559079,97.576828,46.885112,77.04426,90.827508,100.217461,39.413868,71.451772,89.83981,105.509965,31.722422,53.304808,67.045386,81.869005,25.990963,52.851105,75.773849,94.467545,62.410011,88.635063,94.605446,94.00795,50.630379,77.476044,84.188461,84.513245,34.820366,60.066605,69.192696,72.765312,17.651997,38.924675,49.34761,56.282043,-15.535724,-15.559437,-9.787502,-9.65795,8.45604,34.134454,47.76487,54.33709,24.538873,52.274256,65.221958,70.317664,38.656005,65.713245,76.873026,81.766993,49.827025,72.862213,82.379743,87.201338,-25.503244,335.677401,-39.069185,341.352387
12,11.666451,2.725787,0.418224,0.645786,-21.725292,-32.751961,-39.863892,-50.202084,-19.868259,-25.311012,-40.057526,-53.889313,-4.48391,-4.467087,-17.817421,-30.194435,9.598961,11.789932,-8.282146,-25.750465,21.41304,22.9533,8.777275,-4.830437,12.958941,35.423494,54.593354,60.228944,49.604476,79.456108,92.290622,102.634804,54.094102,85.023216,95.279342,103.673322,55.94964,89.618126,101.587826,110.678536,56.616668,83.961479,95.157632,102.987893,25.749149,52.439175,75.173206,93.877773,61.924038,88.586369,94.770527,94.14957,50.220165,77.49155,84.528294,84.906178,34.574375,59.90633,69.127064,72.700481,17.612972,38.764057,49.195461,56.187229,-16.015093,-16.240852,-10.391051,-10.140159,7.790802,33.360228,46.692759,52.892254,24.00078,51.51102,63.917419,68.571362,38.162866,65.033805,75.943497,80.688275,49.272753,72.239954,81.714876,86.599581,-13.841772,338.710597,-38.655939,342.305582
13,-13.540592,0.191797,0.600529,1.096996,-17.01313,-18.228378,-18.387508,-23.431892,4.278431,19.647846,21.695538,21.427174,19.956951,33.581028,35.501804,32.127399,33.071995,43.947086,43.545971,38.162327,42.823963,52.912045,60.711308,64.311047,25.284571,51.261487,73.349918,87.352997,53.44881,79.603691,92.19954,101.666434,40.296281,65.191083,80.131287,92.068012,24.111992,49.674254,69.704483,89.678827,8.886502,24.262416,37.452057,52.075851,24.982338,51.887741,75.189514,94.168854,60.748444,88.681755,94.221153,92.69165,49.280319,77.873955,84.343414,83.916092,34.155121,60.434418,69.395714,72.696533,17.907658,39.821663,50.039177,56.704445,-16.250177,-16.699164,-11.224928,-11.516637,5.993433,32.450768,46.088717,52.215963,22.097323,50.90951,63.258481,67.53482,36.405511,64.080626,74.973213,79.441905,47.807972,71.669813,81.441198,86.353999,-27.268553,339.2942,-37.941599,343.794384
14,13.634663,-2.505152,-0.738888,0.049339,-19.843597,-29.07423,-35.565033,-44.134769,-19.933891,-26.470184,-40.633335,-53.652592,-8.668957,-14.802361,-30.40987,-44.183521,2.224503,-0.522137,-19.79187,-36.738911,13.105888,10.005684,-3.4869,-16.114883,9.636646,30.322416,49.971336,57.364836,49.235085,78.360902,91.290945,102.024463,57.817158,90.136335,103.988558,114.667304,62.864081,97.65593,110.728431,121.102932,65.770179,94.360125,106.480496,115.376508,25.524788,52.790279,76.260166,95.208721,61.440639,88.263187,94.304523,93.643284,50.182972,78.113079,84.787502,84.641476,35.126553,61.108074,69.802837,72.759876,19.075642,41.219845,51.342716,57.652416,-16.630497,-17.127094,-11.350096,-11.91715,5.522895,31.44967,45.331039,52.059796,21.68304,50.190303,62.884397,67.652393,36.181295,63.509558,74.675082,79.514771,48.017059,71.542175,81.05075,85.801889,-13.571005,337.137273,-38.617601,344.191949
15,-9.393482,-1.145408,0.812931,0.069037,-17.577553,-24.710541,-29.485245,-38.484993,-2.354679,4.507542,1.120949,-3.860893,12.074203,17.076473,12.473488,6.097126,25.622234,31.301594,22.031536,10.965328,36.530972,42.742481,42.448139,38.898296,12.565283,31.303939,49.944536,59.364376,48.467837,79.446289,92.96611,102.385394,47.542013,78.20313,93.406884,104.888324,42.833729,75.584172,94.959413,111.88903,36.962315,60.191708,75.22324,91.189365,25.360508,52.479057,75.754166,94.098587,61.149559,88.313599,93.747025,92.414017,49.615974,77.620468,84.382896,84.091301,34.511375,60.375938,69.246826,72.176971,18.683853,40.908737,50.949669,56.963425,-16.776599,-17.1132,-11.342377,-12.347859,5.323256,31.071572,44.742126,51.361955,21.611409,50.238221,62.481352,66.869398,36.180678,63.900067,74.726088,79.219789,47.98643,71.821225,81.272558,85.932861,-22.934246,336.186795,-37.774429,344.455917
16,15.975208,6.591733,-0.33474,-0.478936,-23.407917,-38.24398,-49.031754,-56.820259,-29.741306,-46.433086,-62.038651,-75.55933,-17.604389,-33.701935,-51.714191,-67.094307,-4.912548,-16.595993,-36.338253,-54.096737,7.980995,-0.688248,-13.552551,-26.402836,4.971402,20.348243,37.896475,45.347033,40.906313,68.962613,83.743377,96.058385,52.524962,85.529384,100.67571,112.406498,60.464398,96.558625,110.360336,120.56416,66.229478,98.03903,111.309872,120.706556,25.506535,52.659645,75.827751,94.236259,60.978355,87.969017,93.705597,92.603531,49.58004,77.501335,84.312859,83.937378,34.488144,60.288963,69.269142,72.15889,18.634186,40.970764,51.148911,57.135887,-16.944251,-16.922268,-10.827379,-11.820202,6.260319,31.445842,44.893229,51.500214,22.420834,50.744204,63.040255,67.430585,36.758723,64.438593,75.445851,80.116096,48.267086,72.146773,81.671898,86.306081,-6.866655,342.994655,-38.016787,344.193107
17,-10.485535,-2.86102,0.222645,0.088735,-23.423481,-33.880463,-39.330883,-48.539143,-19.653854,-31.248264,-45.738029,-59.175396,-3.672981,-7.434654,-19.185276,-29.74102,11.717606,13.285789,0.638695,-10.422821,25.098152,30.523911,27.918434,23.822823,11.271735,27.679128,45.552353,51.584997,43.731271,71.791832,86.859118,100.945066,46.623537,75.727741,93.552677,108.44737,45.316466,76.378776,95.724501,112.07107,41.659915,68.073284,84.551258,98.675923,25.452633,52.622623,75.88583,94.277859,60.849438,87.589703,93.386707,92.386837,49.30006,76.940174,84.054852,84.202023,34.140987,59.57983,68.628674,71.801205,18.298244,40.279598,50.414257,56.699467,-16.713861,-16.882192,-11.121434,-12.073379,6.404567,31.49024,45.137019,51.980632,22.59287,50.33097,62.997523,68.01635,36.89902,63.938785,74.947093,79.830439,48.424241,71.65314,81.081687,85.864257,-17.256918,340.221367,-37.69887,344.369574
18,-8.147049,0.140667,-0.007668,-0.024762,-16.613903,-22.630634,-29.423904,-38.855782,-3.244743,10.028687,14.727688,17.217579,12.841187,26.950951,35.356636,39.701843,26.529007,39.091301,47.604904,52.418289,36.865311,47.237663,55.557289,61.787338,18.919894,36.485848,51.177074,60.042704,50.43329,73.631994,86.11836,95.785695,44.796342,66.885576,80.814493,90.672329,35.292213,56.482731,69.534916,81.469109,24.885601,42.143421,52.158412,62.624427,25.257626,52.400379,75.604534,94.025974,60.906544,87.31596,93.156223,92.325039,49.499073,76.546383,83.62215,83.837528,34.363003,59.401417,68.359509,71.409817,18.281994,39.890041,49.865627,55.968647,-16.766348,-17.024836,-11.204551,-12.03003,6.447114,31.022851,44.799862,51.940001,22.575395,50.055748,63.033647,68.339613,36.820844,63.589216,74.76604,79.830809,48.361811,71.331359,80.86871,85.719328,-25.382509,340.450461,-37.68508,344.433239
19,12.41581,-1.105703,0.264759,0.417865,-19.273109,-29.166126,-36.495323,-44.979801,-18.092937,-24.265137,-38.511028,-51.598778,-6.935234,-12.47406,-28.231316,-42.529793,4.172287,1.466389,-18.60117,-36.194916,15.086517,12.824135,-0.721378,-13.257866,10.294535,30.389477,49.091207,55.691956,48.951651,78.730973,91.398514,101.606104,55.615509,88.66155,102.599051,113.713507,59.125217,94.599346,108.568586,120.166302,61.285246,89.627388,101.52836,110.653466,25.035324,52.099113,75.176468,93.618507,60.829582,87.157288,92.902222,92.063255,49.565048,76.283112,83.334618,83.518524,34.514923,59.368515,68.236771,71.182251,18.416862,39.952469,49.866829,55.909996,-17.389163,-17.660494,-11.777347,-12.803577,6.075067,30.679148,44.375266,51.525223,22.291343,49.594782,62.366002,67.588975,36.699381,63.3403,74.328168,79.275982,48.387005,71.24639,80.731192,85.541055,-12.954855,339.422363,-37.408476,344.928709
20,-10.46402,-0.799606,0.532551,0.16827,-18.452168,-24.112873,-29.215679,-38.749065,-0.220871,11.361408,8.707123,4.024544,15.412102,25.069771,22.468987,17.054329,29.268608,38.509598,31.84227,22.384186,40.200577,48.643112,50.851135,49.24633,16.569797,37.101685,55.68751,65.047081,49.430032,79.477473,92.115066,100.226538,43.337551,73.954146,88.345141,98.347041,34.274381,66.818392,85.819858,102.288878,24.837312,45.811087,60.008309,75.223117,24.895077,51.923275,74.967442,93.26643,60.020084,86.815395,92.603016,91.650181,48.340359,75.745296,82.755032,82.650547,33.231754,58.850498,67.8689,70.82159,17.427235,39.482174,49.623356,55.767345,-17.392004,-17.71292,-11.770123,-12.682485,5.606258,30.960977,44.729467,51.757405,22.081268,50.42409,62.769541,67.379765,36.710558,63.904822,74.512308,78.866762,48.39176,71.575705,80.805045,85.141777,-23.360281,338.670629,-36.817331,345.14485
21,17.555695,4.788436,0.010643,0.478627,-24.223881,-38.753757,-49.32272,-56.834164,-29.464874,-47.999496,-63.323021,-76.744308,-18.386364,-39.837513,-58.148117,-73.292885,-6.685696,-24.094391,-43.403664,-60.337772,5.979538,-5.725651,-18.720531,-31.371346,3.585599,18.046002,35.341613,42.428091,39.417449,68.331277,83.637043,95.187149,52.87132,85.473685,100.911535,112.224087,63.030992,97.503901,111.38774,121.250639,71.146169,100.018069,113.510534,123.605059,24.547806,51.546307,74.698391,93.296413,59.785023,86.513958,92.494183,91.856289,48.289661,75.715885,82.693691,82.712345,33.194675,58.797626,67.779865,70.819988,17.18811,39.404354,49.549885,55.777645,-17.562249,-18.187534,-12.336127,-12.761402,5.246006,30.566639,44.588429,51.855773,21.643519,49.605217,62.472213,67.712291,36.312145,63.179749,74.103273,78.868985,48.18749,71.183961,80.425033,84.843152,-5.809336,343.500128,-36.811438,345.664542
22,-11.369991,-3.813211,0.205765,-0.083363,-24.157448,-35.635128,-41.573753,-50.436974,-18.851223,-30.842972,-45.521793,-58.830757,-2.154408,-5.280476,-16.430511,-26.210632,13.947659,17.406979,5.080261,-5.786648,27.503414,35.133877,33.543377,29.373379,11.817732,27.70883,44.332967,49.249473,45.638556,74.638958,89.103807,102.717797,47.314215,78.261546,95.871714,109.723381,44.18489,76.243975,95.748892,111.704211,38.879541,65.003424,81.488622,95.502755,24.609833,51.80151,74.869823,93.340816,59.594822,86.208858,92.237263,91.639881,47.832813,75.135784,82.109356,82.144489,32.65337,58.225536,67.255154,70.230503,16.777439,39.127865,49.345493,55.619259,-17.697051,-18.160117,-12.156371,-12.587513,4.878159,30.465369,44.611215,51.983041,21.297347,49.896247,62.751633,67.845178,36.032168,63.534381,74.555039,79.208118,47.898745,71.348711,80.637825,84.950227,-17.161875,339.704979,-36.588221,345.599241
23,-8.235397,-1.083658,0.359745,0.113621,-17.505913,-23.275852,-29.475231,-38.974571,1.241283,18.523464,24.068012,27.639256,17.761402,34.095211,41.847324,45.285015,31.141834,45.142536,52.535763,56.242161,40.410976,52.124691,60.094471,64.963017,20.889238,40.500428,56.907451,65.484953,52.102404,75.083252,86.403646,95.302251,43.24968,64.141697,77.532891,87.413574,30.146922,50.093663,63.836958,77.304168,17.258376,30.752631,39.029595,47.975501,24.55719,51.606216,74.530678,92.759285,59.498062,86.019402,92.016563,91.385422,47.688332,74.789772,81.870003,81.996918,32.48188,57.93354,67.07531,70.199547,16.605949,38.80188,49.105568,55.533943,-17.811227,-18.317333,-12.307228,-12.530394,5.048467,30.458329,44.457765,51.660518,21.487908,50.12176,62.928795,67.803434,36.14054,63.543953,74.545283,79.060164,47.836006,71.139871,80.483511,84.832469,-25.386944,338.665349,-36.218147,345.75689
24,13.382721,-1.44249,0.2211,0.05928,-19.831581,-29.32251,-35.167923,-43.486805,-15.276432,-15.433102,-30.006981,-44.005337,-1.94315,-0.892467,-16.902637,-30.619068,9.971981,12.133656,-10.058727,-28.377228,20.307255,19.653912,3.292866,-11.09951,14.024383,35.753983,55.364678,63.112688,49.800534,80.273374,92.338046,102.506919,55.261987,87.565789,98.289983,107.230146,58.267442,93.722861,104.801317,113.78909,60.356396,88.997658,99.870115,107.862285,24.405327,51.425743,74.366684,92.754936,58.906631,85.586357,91.56601,90.949287,47.117043,74.17408,81.313591,81.405029,32.057076,57.250557,66.437645,69.657211,16.419067,38.108482,48.32325,54.858055,-17.826047,-18.373218,-12.330816,-12.489083,5.540185,30.641913,44.395335,51.461311,22.119306,50.291326,62.846173,67.678513,36.758353,63.789596,74.537255,78.906035,48.163839,71.263001,80.436889,84.656357,-11.999617,337.243654,-35.992441,345.836965
25,-13.889923,1.084522,0.452213,-0.161416,-16.816578,-20.098171,-25.751781,-36.846542,0.460911,9.054794,4.714165,-2.158756,18.045044,31.783504,31.43652,25.267696,33.237019,48.435802,49.194775,43.292713,44.683285,58.589115,67.431278,70.024967,20.582524,43.33119,63.298186,72.785087,52.071282,81.057296,94.354691,105.280686,41.166159,70.035403,84.727679,94.473252,27.288619,56.098212,74.855455,92.142668,12.892004,31.727115,44.685871,58.639303,24.555416,51.123791,73.83276,91.992588,59.193478,86.132526,91.50301,90.158329,47.467518,74.569759,81.618176,81.758366,32.388439,57.678165,66.924076,70.121098,16.642456,37.94466,47.903652,54.238873,-17.690382,-18.191918,-12.224976,-12.189531,5.524871,30.404915,43.534287,49.810723,22.148885,49.92317,62.334015,66.865137,36.807506,63.57137,74.370158,78.709792,48.239607,71.394653,80.785779,84.865691,-25.916605,338.384292,-35.567293,345.731665
26,9.455109,-3.634753,0.512123,-0.258858,-23.299541,-33.253212,-38.742657,-48.644142,-14.64323,-16.527615,-31.661282,-46.431198,2.800369,7.49548,-7.1945,-20.775433,18.570499,27.151508,7.302361,-10.320225,31.079235,37.1208,22.548237,7.692547,17.026071,40.649617,60.898071,68.022587,54.852459,87.535408,100.707635,111.032057,57.24646,90.906116,101.195464,108.470094,56.433146,92.485815,101.873113,107.718777,54.986642,83.192255,94.167835,100.83515,24.526062,50.924778,73.384609,91.239223,58.526287,85.659771,91.003933,89.501667,46.706028,74.052029,81.087742,80.979481,31.602802,57.185726,66.52914,69.693089,15.92474,37.54446,47.677059,54.0172,-17.3707,-17.749724,-11.706458,-11.52979,6.208448,31.115106,44.293385,50.460584,22.716309,50.790517,63.178761,67.360128,37.253344,64.233026,74.915723,78.998228,48.60412,71.956458,81.255823,85.179506,-16.466103,334.766243,-35.059776,345.48951
27,-14.521923,0.195193,-0.467663,0.131775,-14.260139,-13.092041,-13.453903,-17.178841,11.263332,33.855171,38.147278,39.674606,27.729378,48.207207,52.882347,49.858704,40.2388,56.220474,59.788399,55.633507,48.60775,60.405693,68.706436,70.904503,27.759404,56.875464,82.669537,101.168602,58.54785,82.498797,92.009102,99.870176,45.049581,70.63395,84.011683,92.094317,29.586475,56.643776,73.614951,88.524897,14.013577,33.126194,44.39515,57.535699,24.853878,51.663666,74.221687,91.91494,59.095001,85.895462,91.231155,89.830742,47.510147,74.438438,81.216545,81.128769,32.253342,57.424164,66.428833,69.490585,16.006794,37.258873,47.46151,54.133186,-17.545268,-18.008828,-11.765368,-11.219,6.037091,30.411769,43.573128,50.002458,22.403482,49.878093,62.624551,67.342715,36.833071,63.390812,74.616666,79.362617,48.295862,71.202239,80.851358,85.319865,-31.018639,334.979127,-35.558052,345.638977
28,15.717773,1.268786,0.123367,0.166788,-23.894577,-34.942818,-41.394367,-51.762886,-16.825275,-19.496269,-34.647217,-49.276199,1.477375,5.528183,-8.856983,-21.826286,17.965965,26.045952,5.419464,-12.446594,30.726357,37.788277,22.851448,7.63607,17.947881,41.564573,61.327669,68.380677,54.933969,87.22962,100.197639,110.048558,56.294887,89.567429,99.788295,106.856741,54.68635,90.065014,99.399947,105.089877,52.575783,79.817718,90.175176,96.036278,24.410992,51.001282,73.628426,91.523209,59.283371,85.73616,91.044159,89.72477,47.668419,74.053001,81.088486,81.236458,32.469864,57.02179,66.140327,69.350395,16.307373,37.192268,47.384377,54.066238,-17.713229,-18.140604,-11.934811,-11.614079,6.467862,30.624746,43.609623,49.974732,22.87754,49.907547,62.651474,67.491224,37.237968,63.318131,74.576096,79.514277,48.627832,71.157531,80.944107,85.74514,-15.312109,336.283126,-35.445929,345.840978
29,-12.11998,1.061551,-0.000687,0.104049,-17.813244,-20.217304,-23.912086,-31.54089,5.452824,27.724113,31.179085,31.964378,22.62886,40.812607,44.903755,42.284317,36.002998,50.896797,54.120598,49.513092,45.850754,58.738747,67.917938,70.87944,25.006756,51.933517,75.484939,90.732844,54.909207,79.659266,90.214944,99.654729,42.117795,67.483382,81.935201,91.385052,26.797765,52.253878,71.176859,89.092198,11.493419,29.893745,41.423967,54.288986,24.604053,51.397705,73.829613,91.424332,59.291611,85.564728,90.440941,88.751678,47.435074,73.615608,80.558052,80.865211,31.995277,56.292114,65.358009,68.804512,15.687046,36.404915,46.640053,53.674622,-17.694766,-18.164316,-12.027189,-11.759872,6.56975,30.896201,43.628704,49.618494,22.798437,49.831039,62.444178,67.252682,36.941196,63.055754,74.541207,79.664639,48.121911,70.64877,80.622264,85.669743,-27.437267,337.398724,-35.451794,345.999075
30,10.523357,-0.762556,-0.07782,0.181423,-24.187202,-36.110229,-43.129921,-53.822136,-17.360001,-18.174591,-32.911491,-47.880192,1.755581,11.504345,-1.743221,-14.475117,20.234013,35.155048,19.531689,4.242496,34.863682,47.924709,35.816517,21.665897,20.146751,44.158769,63.231125,70.16619,53.329323,88.990742,103.101761,112.518884,51.99008,89.158456,99.639168,105.265433,47.409496,85.02828,90.686408,92.817168,42.703806,70.794254,80.106895,84.447949,24.96191,51.535034,73.783379,91.124382,59.379845,85.461617,90.603905,89.128418,47.607765,73.937073,80.8778,81.103249,32.236862,56.638184,65.618362,68.887825,15.984478,36.849632,47.066231,53.924561,-17.728543,-18.19834,-12.138031,-12.055656,6.67312,30.61289,43.418567,49.472701,22.982145,49.50407,61.978889,66.6705,37.097301,62.921817,74.114388,78.986681,48.22244,70.592145,80.376683,85.170738,-16.911163,336.640815,-35.526867,346.185144
31,-11.427956,-1.296141,-0.205765,-0.196552,-14.680595,-13.09948,-10.865135,-11.525459,8.149796,29.676418,33.223171,35.026188,24.501743,44.314098,47.935238,45.737858,36.901989,51.582699,52.695408,47.426205,45.595036,55.473118,61.141834,61.080608,23.907166,50.064332,73.391476,88.958693,56.673046,80.757806,90.559943,98.939412,45.266695,70.541448,84.595594,93.532793,30.85594,57.496117,75.813636,92.909546,15.926111,34.955735,46.493429,60.425433,24.835854,51.632423,73.952637,91.274986,59.481583,85.29911,90.792389,89.760704,47.812958,73.841515,81.152916,81.799393,32.356453,56.608887,65.809822,69.373398,15.966911,36.806259,47.219925,54.366188,-17.779179,-18.087992,-11.922337,-11.733628,6.978538,30.855755,43.59258,49.708279,23.098421,49.694632,62.226508,67.002223,37.055743,63.047047,74.294576,79.22337,48.130185,70.686808,80.618003,85.63436,-28.348131,335.348302,-35.741644,345.992221
32,12.551651,3.612708,-0.400486,-0.600091,-23.803425,-35.333519,-42.547245,-51.951942,-18.965492,-24.647141,-40.463161,-55.617828,-1.872654,-0.906372,-16.322021,-30.014191,14.039669,20.881748,0.119762,-18.126011,27.34766,32.775364,18.340244,3.591614,13.919778,34.756775,53.976529,60.22283,48.437826,79.70138,93.813078,105.743876,52.459074,86.5805,100.312248,110.961477,53.041937,89.057926,101.778758,110.629383,52.328966,81.74995,94.26435,102.229721,25.244637,52.069759,74.33527,91.752605,59.589901,85.132427,91.174564,90.895672,47.777996,73.500881,80.986691,82.010937,32.262211,56.206799,65.679989,69.652233,15.844173,36.518841,47.049694,54.485607,-17.156055,-17.336243,-11.103712,-10.99003,7.498044,31.180253,44.111345,50.657321,23.421499,49.822949,62.622575,67.878399,37.25847,62.966463,74.382879,79.665071,48.284376,70.484884,80.576878,86.050805,-15.794706,338.953476,-36.140356,345.384596
33,-13.179932,0.095343,-0.874615,0.190253,-15.300236,-16.575737,-17.235661,-21.011868,7.1838,26.308079,31.104183,33.523006,22.987804,38.942471,44.292469,43.387127,35.206776,47.244816,49.833355,46.060009,43.857822,54.727306,63.68494,67.305393,25.727815,51.877447,73.378015,86.769579,53.821042,78.038689,88.545954,97.280982,40.684321,64.029002,78.984273,90.95212,25.365031,49.910944,68.732778,87.957225,10.681586,26.351371,38.032943,52.036949,25.283203,52.124977,74.615936,92.585449,59.54464,85.059586,91.906128,92.611198,48.224373,73.94268,81.664467,83.081131,33.0233,57.023849,66.547279,70.618973,16.728058,37.292519,47.934837,55.604782,-17.316112,-17.656234,-11.235426,-10.88987,6.600378,29.94401,43.267587,50.415445,22.69445,48.738303,61.71472,67.48437,36.791451,62.176058,73.477494,78.87164,47.940797,70.081407,80.281464,86.015792,-28.962851,339.04269,-37.003183,345.568721
34,13.450127,-1.147261,0.152321,-0.478133,-23.440762,-33.410282,-39.36161,-48.882465,-18.193932,-23.676281,-37.829189,-51.481133,-1.5588,-1.109562,-15.196781,-27.962093,13.979588,19.088917,-1.763306,-19.532375,26.897106,32.584934,18.650951,5.019836,16.472725,38.975193,58.399711,64.585312,51.18257,82.226293,95.405375,106.555338,54.099104,87.838973,100.253893,110.242455,54.420453,89.902116,102.716685,112.048346,53.922436,81.165359,92.870273,100.311507,24.837513,51.491089,74.101753,92.231255,59.491081,84.905434,91.7276,92.519531,48.169899,73.787498,81.832008,83.433151,33.063698,57.314987,66.886482,70.90107,16.894569,37.682991,47.952232,55.234795,-17.406083,-17.535264,-10.663802,-10.141332,6.890111,30.11018,43.06943,50.135839,23.13862,49.402491,62.26399,68.020858,37.295458,62.937872,73.855283,78.963772,48.15822,70.37997,80.328394,85.676165,-15.456104,337.939751,-36.794243,345.134909
35,-12.810459,1.467252,0.608654,0.121587,-15.478249,-16.070766,-16.2747,-19.536552,5.974331,27.220459,31.281853,32.757339,22.212753,39.651947,43.107376,40.206985,34.954605,48.429337,49.286957,43.25592,44.428024,55.326004,62.353935,63.360214,26.11956,52.966663,76.059897,90.440703,53.474684,77.444897,87.644274,96.085741,40.129431,65.110375,79.946035,91.19165,24.403454,50.013017,69.586169,88.817532,9.142519,26.904469,39.517794,53.907183,24.913216,51.332874,73.833103,92.168598,58.508091,84.925404,91.350689,91.585636,47.039509,73.671627,81.505337,82.762356,32.034702,56.97607,66.509686,70.409603,16.160603,37.071934,47.334766,54.581738,-16.921836,-17.397623,-10.949521,-10.598285,6.726658,30.181996,42.691765,49.144251,23.066064,49.174508,61.571212,66.865199,37.400063,63.068536,73.713072,78.597098,48.303272,70.588687,80.036314,84.874706,-28.155842,339.375787,-36.074867,345.22528
36,11.893673,-5.074772,-0.004635,-0.098183,-25.700912,-35.560284,-41.285763,-53.202324,-19.098415,-18.756695,-31.875916,-45.75943,-0.237637,16.187496,8.894978,-1.390743,17.711735,36.064854,23.632221,9.723186,31.851597,44.680424,34.817905,22.175159,23.230505,50.776438,71.336237,77.350419,56.100064,89.841539,103.267499,113.411918,52.510019,87.194484,96.994521,103.720191,47.805378,82.007079,90.399701,95.026536,42.501635,68.904506,80.801649,87.779137,24.364128,50.879402,73.532867,92.260551,58.633232,85.117035,91.514626,91.744766,47.19944,73.682556,81.271935,82.60025,32.049294,56.769905,66.294479,70.406113,15.876102,36.881218,47.369499,54.848671,-17.100974,-17.654628,-11.273155,-10.732654,5.743962,29.748199,42.877819,49.656964,22.027298,48.487226,61.418812,66.9753,36.437436,62.420713,73.574443,78.691452,47.705713,70.289197,79.933068,84.875633,-16.060209,334.226174,-35.877542,345.052256
37,-18.754063,0.046622,-0.07473,0.527472,30.052986,48.367767,65.126152,77.714882,42.889824,63.243256,69.070358,74.350891,30.363007,46.213875,51.895752,51.767006,14.910851,20.408878,17.934265,10.567303,-1.855659,-8.170395,-14.783306,-21.848087,4.153024,18.707658,32.127566,40.215882,44.507412,66.791469,77.08378,83.564486,51.072407,75.098319,89.931077,97.308893,50.480715,79.131486,99.904757,117.080448,44.4343,71.631651,86.65213,101.873236,24.512959,50.787735,73.52726,92.278976,59.311867,84.440689,90.974922,91.47171,47.889519,73.569374,80.995903,82.155762,32.638092,56.973495,66.250305,69.976616,16.461239,37.618332,47.978096,55.045166,-17.867667,-18.653997,-12.571458,-12.391085,5.226123,29.654647,43.203799,50.272986,21.535888,48.826298,61.763071,67.197786,35.964119,62.451279,73.345102,78.030105,47.327986,69.995944,79.574174,84.344702,-34.788351,334.291166,-35.926352,345.598099
38,17.811871,3.704654,0.046291,-1.216421,-24.009819,-34.845142,-41.015453,-52.833881,-16.821384,-8.461933,-20.761986,-35.617561,1.745453,23.587704,14.209957,1.442757,19.217434,40.295391,24.91396,8.386974,32.703152,45.410557,32.821255,18.702564,20.39647,47.730351,67.625037,72.496157,51.663544,84.655245,95.716535,103.71698,47.992173,81.210437,87.121804,90.677022,43.284384,77.8874,83.456732,86.220309,39.193233,66.684455,77.148495,83.389918,24.288712,50.795689,73.594723,92.12431,59.373608,84.27206,90.797024,91.165638,47.691364,73.186741,80.630436,81.53841,32.382832,56.546574,65.8568,69.444866,16.340046,37.535076,47.883053,54.860058,-17.316112,-17.593433,-11.514352,-11.504349,6.232901,31.039092,44.87705,52.328966,22.595834,50.412419,63.158074,68.301513,36.957251,63.766316,74.687556,79.225346,48.125616,70.935292,80.619177,85.446392,-16.911421,337.995403,-35.815001,344.38126
39,-9.951496,-0.272752,0.359058,-0.249966,-16.734123,-18.662453,-21.048546,-25.923214,7.225971,27.739906,31.056862,33.230553,24.000549,42.669868,47.242012,46.613159,36.892891,52.088242,56.119652,53.849144,45.675545,56.540909,63.451309,64.596176,24.027765,49.309803,71.916074,88.045837,54.984419,77.166279,87.172254,95.993609,42.90184,65.603699,78.688735,87.411969,27.795528,50.9875,66.925652,82.35461,12.714966,29.892201,40.538651,53.081642,24.471073,50.715179,73.495445,92.0224,58.924141,84.35154,90.695457,90.780945,47.600441,73.326416,80.879288,81.825943,32.436562,56.526718,65.788078,69.428558,16.337814,37.172699,47.488403,54.582825,-17.32025,-17.510688,-11.149778,-10.788661,7.201951,31.23058,44.349949,51.069628,23.513692,50.083783,62.449303,67.443615,37.650214,63.634479,74.205285,78.693614,48.505504,70.953138,80.408237,85.06428,-26.828384,337.683039,-35.42141,344.091682
40,14.708748,3.887682,-0.246563,0.965097,-22.873878,-34.466057,-41.27861,-50.717468,-21.594543,-22.353058,-36.764717,-51.291504,-6.089401,-0.397282,-13.80146,-26.224766,8.232994,14.940376,-5.447445,-23.30761,20.377007,23.457527,9.362755,-4.131088,10.935257,32.179869,50.047474,54.10849,44.179271,73.382584,85.858884,96.055792,48.241707,80.54946,91.176706,99.514926,50.440083,85.551059,98.097754,107.580395,51.356644,79.951531,92.186079,100.799705,24.542313,50.614986,73.354626,91.781673,59.346371,84.589977,90.905857,90.98196,48.248806,73.775654,81.280804,81.984043,33.251324,57.161808,66.38483,69.760265,17.354393,37.89854,48.140202,54.718151,-16.54911,-16.890652,-11.512562,-11.085002,8.083808,31.494316,44.144814,50.375924,24.409444,49.984859,61.850818,66.491547,38.690585,63.699502,73.484287,77.450084,49.641588,71.264298,79.933624,83.967469,-11.757231,341.331438,-35.305567,344.817496
41,-9.784985,1.470895,-0.21904,0.525434,-20.080433,-24.943027,-29.491425,-37.793083,0.050411,14.059181,13.71294,11.662731,16.60944,29.636707,29.794636,25.688267,30.228252,40.798016,38.8801,32.879734,40.676136,50.320072,56.693516,59.41206,21.047196,44.096834,62.837219,74.039361,52.563124,77.767728,89.954974,98.679381,41.632251,64.595562,78.750486,89.693276,26.68223,50.575625,67.84351,84.397561,11.939504,27.150298,38.85126,50.946807,24.341984,50.420208,73.146801,91.837521,58.866405,84.108639,90.881596,91.271267,47.73119,73.524456,81.390438,81.785488,32.964306,57.417812,66.938267,70.072575,17.558727,38.626499,49.000683,55.330639,-16.389177,-16.661558,-11.57073,-11.606731,9.634546,32.387412,44.697542,50.793851,26.097638,50.899815,62.278069,66.652777,40.382546,64.753026,73.580309,76.845671,51.08698,72.470531,80.407434,83.487854,-21.163845,342.545807,-35.146236,345.086404
42,7.484722,-2.677189,-1.023674,1.049387,-25.043507,-37.797546,-45.934639,-57.568588,-22.707825,-20.381184,-34.814186,-50.463352,-5.295238,10.985069,1.096916,-10.519409,10.556145,27.253647,9.792595,-7.244167,23.253937,31.308403,18.477974,4.92857,15.182697,40.483694,61.407759,68.489605,50.150041,78.63705,90.323069,101.285743,50.759394,79.336621,87.870281,95.622118,50.355794,81.110772,91.774265,99.972558,49.001422,76.268243,88.984999,97.868907,24.803467,51.11578,74.227352,93.105984,59.730892,85.715389,92.496128,93.014431,48.454456,74.805164,83.272991,84.354572,33.618565,58.221989,68.173428,71.691685,18.341446,39.411335,49.990597,56.778202,-16.058195,-16.769868,-11.845088,-11.621922,10.286816,32.801387,44.497162,50.054081,26.835618,50.978917,61.795305,65.832176,40.944352,65.022381,73.358872,76.422804,51.443527,72.323935,79.8213,82.565179,-13.456736,339.549352,-35.947523,345.816525
43,-10.96756,0.881302,-0.345898,0.878832,-16.917915,-19.526367,-20.657845,-22.807388,2.964134,18.322563,20.856056,21.274681,17.716713,31.963692,35.598564,35.290833,29.981461,41.417313,44.12178,42.275505,39.395828,47.520905,53.810692,57.075348,19.115272,39.147291,55.437297,64.39228,54.9026,76.459916,85.93422,93.191437,48.688286,69.895415,81.978303,89.911873,37.695786,59.231921,71.907429,83.96574,25.270924,40.187106,48.992159,58.725815,24.977245,51.142273,74.67556,93.76442,59.680252,86.102257,93.141518,93.905754,48.430481,75.35614,83.905907,84.803581,33.615875,58.858223,68.895836,72.225266,18.282738,39.463692,50.176849,56.874046,-15.823481,-16.862494,-12.47982,-12.483278,10.22451,32.2092,43.863911,49.501971,26.946151,50.623605,61.305439,65.253142,41.151339,64.930373,72.954592,75.823887,51.587159,72.378522,79.587945,82.104151,-24.019117,340.288597,-35.888243,346.5533
44,10.19537,-1.08162,0.812244,0.583233,-26.942883,-38.076382,-43.783207,-56.532383,-23.306408,-23.910713,-38.16124,-52.808533,-3.249893,14.346485,7.13974,-3.071537,17.019024,39.71529,30.645161,18.943462,33.931332,52.219791,47.641811,39.816456,28.430384,62.42837,88.531319,101.581589,57.210151,86.804283,99.402293,109.429758,48.703106,80.974365,88.594181,94.133254,39.721261,71.821719,73.448101,73.121071,31.560142,54.137512,58.190624,58.377728,25.004139,50.63879,73.604565,92.374363,59.988041,86.405811,92.985821,92.928143,48.711605,75.741978,83.980923,84.57201,33.942776,59.226665,68.856182,71.953869,18.714409,40.201206,50.615902,56.85236,-15.656014,-16.740537,-12.787955,-12.986853,10.598408,33.104025,44.302957,49.064099,27.247122,50.944337,60.822242,63.845912,41.479666,64.965756,72.55235,74.894605,52.0832,72.709381,79.733182,82.003991,-13.526201,339.089574,-34.778452,347.01913
45,-15.248108,2.774755,0.044861,0.85938,31.459064,52.921543,72.213993,85.295277,47.548428,77.74641,79.877529,75.633259,29.210987,55.093746,52.546062,41.895161,9.996929,22.445412,10.198231,-6.723804,-7.59367,-14.489651,-25.363083,-36.661148,-8.775969,-3.204167,4.911319,11.783275,36.436448,57.667413,59.938717,58.475911,51.226228,72.293863,77.636138,78.545845,58.15802,86.340229,99.347644,108.111263,57.906572,84.337786,98.178586,111.745769,24.855366,49.923763,72.801075,91.256618,59.498348,86.408215,92.918758,92.372303,48.331661,76.294613,83.91695,83.722858,33.488102,59.87772,68.948765,71.518307,18.10318,40.081272,50.457401,56.579418,-16.042263,-16.79321,-12.918804,-12.976973,10.149112,32.92921,44.397311,48.984749,26.854081,51.133293,60.760182,63.075576,41.055935,64.97823,72.233841,73.937597,51.543378,72.770699,79.676742,81.396553,-28.093672,341.823265,-34.052954,347.837446
46,25.491085,0.563102,0.968857,1.038518,-28.122711,-43.004265,-52.959366,-62.903481,-31.739616,-46.254272,-60.680637,-73.313999,-18.462868,-30.369072,-45.184593,-57.750549,-5.446358,-12.161064,-30.723152,-46.845131,7.192154,2.511978,-10.539837,-22.948265,5.026978,22.963187,41.049513,47.646124,45.470225,73.410187,87.731836,99.040066,55.566726,86.455826,100.503118,111.24065,62.636716,95.305215,108.569821,118.180408,67.40465,95.107244,107.474925,115.875389,24.632492,49.744549,72.357731,90.696316,59.238796,86.646481,92.784634,91.47234,48.005962,76.612988,84.273205,83.93446,33.278217,59.961605,69.213581,71.871815,18.012257,40.024509,50.357838,56.422405,-16.662793,-17.688097,-13.352724,-13.175006,9.109668,32.766868,43.835691,47.708307,26.056389,50.641636,60.225918,62.532234,40.553719,64.622732,71.896931,73.658361,51.396535,72.914639,79.755721,81.468368,-2.060022,342.293186,-32.541533,348.782783
47,-14.633732,-2.8575,0.345612,0.753602,-21.554832,-31.136799,-36.537552,-44.722309,-12.352524,-23.224525,-37.637501,-51.211567,3.711834,1.344566,-9.465008,-18.713665,18.663998,22.575932,9.343586,-2.338314,31.090908,37.154217,32.989597,27.15929,8.735522,26.733544,45.241007,52.01299,50.380864,77.507388,92.336626,105.807911,53.188779,81.193764,96.441299,109.003865,50.691407,81.145537,96.807294,108.950636,45.479672,69.503176,82.846576,94.569521,24.421291,49.42915,72.285633,90.999584,59.476833,86.688709,92.628765,90.510578,48.332348,76.593075,83.692303,82.934361,33.537998,60.197926,69.049473,71.533985,18.110275,39.771137,50.081005,56.147289,-17.064356,-18.182409,-13.984986,-13.714025,9.25614,32.437183,43.118337,46.423033,26.08535,50.746859,59.434895,60.389001,40.379891,64.526834,71.707975,73.054257,50.858751,72.442496,79.633825,81.369321,-15.787868,339.240616,-31.290035,349.341316
48,-8.774414,3.295805,-0.497131,0.617195,-14.896088,-17.843399,-21.15303,-24.878883,11.382694,30.405636,35.651264,38.974972,26.715488,41.681499,45.092525,43.829899,37.643566,47.693539,47.736683,44.173794,43.744984,49.369411,51.515522,51.238918,18.723342,39.260047,56.287106,68.530669,55.276252,74.669463,84.044657,90.394761,49.765645,69.033317,79.989631,86.662689,38.684472,58.306345,70.379538,82.364676,25.486618,41.021787,48.923493,58.605834,24.20208,49.423656,72.524242,91.481152,60.028782,86.883717,92.954121,91.180172,49.230595,77.115841,84.235554,83.572369,34.632053,60.805035,69.658527,72.302113,19.165421,40.297337,50.568066,56.774311,-17.12728,-18.360497,-14.482942,-14.537529,9.036679,31.523524,42.367946,45.935884,26.093748,50.053402,58.806399,60.018066,40.462081,64.029434,71.203968,72.733155,50.848933,72.182218,79.552068,81.462502,-23.989735,342.554745,-31.214619,349.976836
49,14.913368,-1.080817,-0.038738,-0.305973,-25.463219,-39.333172,-48.23885,-58.553925,-24.535332,-33.221226,-46.965866,-60.460167,-4.618034,2.792645,-7.106953,-18.594303,15.092411,28.628368,16.808567,3.346596,30.848866,41.96085,32.485714,19.986935,13.307584,34.267959,50.042225,54.288307,51.411726,83.597955,98.180191,108.983549,51.840459,84.893725,95.940565,103.824117,48.532736,81.104658,86.53289,89.900634,44.181741,68.981694,77.610264,82.664103,23.91037,49.210854,72.738419,92.30896,59.805107,86.655006,93.158226,92.079506,49.3293,77.394791,84.636726,84.155731,35.036659,61.545753,70.255623,72.565842,19.755306,41.191406,51.313019,57.288895,-17.570153,-18.898528,-14.449843,-14.21476,8.93936,30.834265,41.928283,46.372892,25.922452,49.053786,57.707613,59.739325,40.474987,63.271572,70.309081,72.114663,51.349358,72.459848,79.421157,81.144549,-8.506937,341.35231,-30.683928,349.549245
50,-12.703114,-3.641051,-0.16777,-0.180743,-8.129654,-2.16774,5.692062,10.207672,14.262829,34.940643,37.029648,35.930672,23.625298,39.504776,35.937309,27.581406,30.559731,43.153152,35.683823,24.789963,34.173431,40.523529,40.423622,36.870232,14.818246,34.589493,51.524914,62.097079,53.845309,77.101256,86.236118,92.217448,52.725404,77.873692,89.517967,95.372647,46.405373,75.804806,90.0476,101.887686,37.476757,59.2121,71.21286,84.120054,23.785286,49.382401,72.775726,91.684227,59.706345,87.06459,93.828049,93.02124,49.09893,77.62516,84.978447,84.285049,34.734764,61.822014,70.832634,73.091583,19.430809,41.568718,51.95961,57.800102,-17.821169,-18.817203,-14.351413,-14.710739,8.302034,30.591772,41.57822,46.007638,25.535463,48.952145,57.397502,58.917921,40.310916,63.151344,69.992363,71.538655,51.228821,72.108797,78.920114,80.45665,-20.623827,337.701008,-30.265474,349.358251
51,7.387047,-2.772532,-1.001873,-0.437996,-22.016315,-32.67952,-41.851902,-53.994541,-9.732456,-8.215656,-22.625599,-38.080444,9.153728,33.307228,25.863991,15.255432,28.036766,55.980148,48.868675,38.545532,43.7994,66.932602,60.67646,49.973717,25.780982,54.568592,74.375839,83.273086,63.353761,96.209797,110.501004,121.3424,56.355093,88.579731,88.718855,86.724069,45.523392,75.747378,69.396224,63.295654,34.284755,55.574259,52.403808,48.290242,23.659859,49.755421,73.272114,92.401142,59.192791,86.823635,94.235973,94.183559,48.816433,77.62888,85.766201,85.76231,34.779339,62.21323,71.541309,73.986683,19.632912,41.902828,52.365589,58.102169,-17.898233,-19.034564,-14.81695,-15.191034,7.283091,30.105796,41.685727,46.70795,24.47669,48.216512,57.423993,59.595693,39.460613,62.431457,69.713004,71.575026,50.846709,72.113119,78.595677,79.884964,-12.817154,334.97286,-30.847721,348.964638
52,-24.057255,-2.93864,-0.819168,-1.364252,33.156567,59.555111,82.879314,102.376156,63.401127,96.358852,96.982327,91.449909,47.464886,78.18655,78.943348,72.459469,28.31234,43.646336,36.232624,24.214325,8.423424,2.286243,-7.033939,-17.796936,-9.417679,-3.209663,7.586532,16.352497,36.886423,60.730233,60.955128,55.436247,54.594342,78.18726,75.58763,71.237869,65.684345,94.978062,106.338902,114.094198,68.041914,97.483893,112.2725,125.206556,23.652821,50.260677,73.773251,92.763577,59.482327,86.792507,94.056873,94.048061,48.671894,77.271938,85.792637,86.523457,34.059277,61.499577,71.291256,74.569416,18.485355,40.607929,51.226559,57.456837,-17.854699,-18.642943,-14.023395,-15.010784,7.769746,31.80492,43.173727,47.802044,24.72999,49.311347,58.600215,60.732395,39.467097,63.147392,70.630059,72.619102,50.601807,72.075945,79.184097,81.193147,-36.744747,332.067827,-31.537228,347.633994
53,23.373642,-2.101675,-1.494541,-1.649107,-23.538551,-33.464756,-40.065136,-50.425014,-11.637154,-10.097809,-24.824352,-40.24538,6.439819,32.204418,25.168362,14.630985,24.438572,52.918224,47.317371,38.147106,39.039288,61.738529,56.769047,47.590542,25.47223,52.007308,69.773149,76.50203,61.877865,95.386602,110.321125,122.006711,55.931671,88.742011,93.350012,95.887954,46.810517,79.114937,76.862776,73.739748,37.279588,60.253335,64.001894,64.944514,23.726692,50.888214,73.957558,93.404961,59.455605,86.974983,95.243111,96.685867,48.179283,76.728973,86.14563,88.340721,33.181572,60.583076,71.372223,75.965309,17.010326,39.022064,50.46833,58.020859,-17.983943,-18.957932,-13.474434,-13.711247,6.973104,31.335061,43.332796,48.66692,23.715987,48.887678,59.146212,62.391814,38.201337,62.640729,71.233423,74.215535,49.137705,71.286343,79.209909,82.09495,-13.310394,330.0317,-32.971058,346.050436
54,-20.198135,0.682466,-1.442356,-1.733828,31.517086,55.845737,77.354336,94.346981,54.656925,86.921024,92.703609,92.268734,37.968235,69.431934,74.408512,71.06638,18.625889,33.949642,28.118362,16.807709,-0.150948,-5.305481,-13.861485,-22.806644,-10.116632,-4.13277,5.583781,13.842837,34.386767,56.994334,59.968542,58.604414,51.599509,75.746205,78.265066,77.31695,61.498779,91.291068,106.430417,117.681589,62.927313,92.570166,108.830346,124.192676,23.330383,51.465626,74.712238,94.090519,58.717518,87.109165,95.921459,97.480831,47.346096,76.705227,86.816082,89.275875,32.326355,60.020313,71.70496,76.932163,16.428909,38.243694,50.095539,58.228054,-18.254348,-18.763171,-12.707741,-14.158999,5.533084,30.315933,42.785193,48.262084,22.207115,48.880638,59.670473,62.920891,36.553774,62.352108,71.365445,74.431909,47.465689,70.240291,78.222767,81.201421,-33.564892,331.077505,-34.469776,344.679947
55,21.94685,6.83892,-2.284756,-2.721402,-19.55864,-27.793407,-33.694897,-44.674416,-10.018673,-3.279991,-16.908531,-31.603317,1.961002,16.937943,4.262123,-9.357033,12.519379,25.857353,6.345463,-12.593536,22.080688,25.468597,11.528549,-2.782059,9.820971,29.829463,48.687421,53.687167,42.839595,69.764195,82.3359,93.638016,49.148758,78.352813,86.592911,94.436943,53.510622,85.244468,96.969265,106.559845,56.323168,84.425102,97.601898,108.059763,24.057598,53.144531,76.65184,95.677643,59.509621,87.413063,97.123604,100.064278,48.025475,77.934723,88.677406,91.837006,32.965965,61.686401,74.06971,79.429893,16.975994,40.011406,52.041893,59.639053,-18.585083,-18.994612,-11.907332,-12.917075,4.274981,28.317195,41.193515,48.178721,21.547559,48.037004,59.490717,64.091555,36.395878,62.247688,71.315119,74.781169,47.569183,70.165388,77.338501,79.548363,-11.628714,338.275117,-36.765203,342.317237
56,-16.907444,1.279222,-2.23114,-3.179158,-10.933685,-9.680958,-10.139523,-14.020615,7.036457,19.608593,18.790512,16.407166,20.252953,37.641048,43.383465,44.042645,31.455059,48.217793,55.073833,56.405468,39.731083,54.582539,65.85474,72.577915,28.695787,56.479829,79.877122,94.393903,50.414148,76.923291,88.488834,98.75484,34.219608,59.059514,72.076254,82.612542,17.188227,42.055365,58.607563,74.266541,1.744696,17.294129,27.530989,38.697069,24.700985,53.745461,77.340546,96.846771,59.256248,86.958275,97.405701,101.604767,47.911606,77.922821,89.266319,93.401527,33.212814,62.145424,74.90181,80.945778,17.698345,41.461143,53.583183,61.415863,-18.231006,-18.19939,-10.233278,-11.57814,4.642581,28.740371,42.441676,50.903149,21.925966,48.385894,61.113889,67.846413,36.838937,62.318392,71.869637,76.360065,48.180882,70.142293,77.646821,80.856545,-28.408012,339.762268,-38.868198,339.346008
57,12.726231,-9.672338,-2.095871,-3.598999,-18.935795,-23.55732,-26.909809,-34.78735,-7.230606,2.174664,-5.610809,-15.454388,1.418781,16.97834,9.995384,-0.043888,8.700371,20.362129,5.88026,-9.706593,15.945053,16.032257,5.700817,-6.19091,6.079884,24.75222,44.021375,50.2544,40.824865,64.737588,79.497233,92.266972,51.364363,79.682608,90.754457,101.356509,60.034553,91.371344,106.289564,119.422456,66.813761,95.784584,110.54213,123.393502,25.510139,54.203568,77.928658,97.713089,58.880196,86.606026,98.069344,103.508949,47.80014,78.011856,89.909706,94.927139,33.687286,62.498703,75.216179,81.568794,18.842239,42.225609,54.23275,62.491379,-17.01545,-17.15093,-9.221251,-8.553791,4.613682,26.975606,40.456832,49.668141,21.560836,46.862696,59.828554,67.355867,36.468929,61.287099,71.239474,76.382296,48.11975,70.113394,78.064562,81.840847,-15.551605,330.276169,-40.833893,335.933248
58,-15.843601,-1.400314,-1.204891,-2.977234,-8.897266,-7.219734,-5.364761,-6.651535,11.437454,27.711868,28.301182,26.793594,22.873592,41.303158,47.356853,49.081707,31.95116,48.531818,53.827229,53.432407,39.143085,53.228245,65.206432,72.999516,31.330862,62.120173,86.921609,103.508264,54.68246,81.366418,91.917958,100.210421,38.023928,65.339099,77.659788,88.123766,21.525947,50.163503,68.031911,85.035443,6.963717,25.371886,37.627922,52.508351,26.653862,55.778675,79.402485,99.264393,59.611759,87.48991,99.114246,104.978771,48.311749,78.361988,90.280209,95.441265,34.384518,63.371716,76.207409,82.84647,19.701233,43.965511,55.979061,64.104824,-16.577022,-16.45278,-8.126539,-7.548864,4.352601,25.991922,39.761399,49.542603,21.397321,46.926238,60.379985,68.569942,36.464853,61.455924,71.594971,77.069763,48.497724,70.134945,77.599458,81.080205,-31.328802,329.027638,-41.97238,333.107796
59,23.296394,5.589153,-1.468163,-2.547884,-21.018162,-30.682812,-38.807487,-47.061539,-17.349873,-20.727825,-36.447945,-51.473465,-9.039059,-11.563396,-28.005066,-42.663689,-1.448765,-3.707256,-22.882118,-39.929924,7.885838,2.198925,-10.293274,-22.453251,-0.6611,12.209291,29.111058,34.267094,28.824537,52.562815,69.149161,84.442206,43.057636,72.573962,88.909663,103.561616,54.594898,85.37118,101.929429,116.510307,63.826029,90.65436,105.446115,118.322373,26.318264,54.953213,78.47414,98.70821,59.164524,87.18298,99.490986,105.918789,48.410168,79.34515,92.09547,97.822208,35.102291,65.075169,78.374119,85.202007,21.094208,46.15099,58.168087,65.718212,-17.075718,-16.836126,-7.730472,-6.25155,3.501742,26.047806,39.738428,49.371924,20.449143,46.488983,59.885364,67.864135,35.731197,60.719612,70.704407,75.967024,48.195023,69.972294,77.289224,80.48981,-8.286352,334.731446,-43.694487,330.674568
60,-15.086575,-3.18274,-1.80582,-3.98389,-18.639393,-26.877937,-31.153622,-38.232479,-9.709396,-12.082558,-22.864494,-33.387566,4.064026,12.709694,7.229233,2.136326,16.441784,27.438927,22.699585,17.804832,26.712914,34.056702,34.107742,33.049278,17.022489,34.774004,48.755347,49.890196,44.110789,70.746768,86.161832,100.830642,41.428104,68.191227,84.632645,98.829991,35.973567,64.656448,83.44821,99.80188,30.797092,55.201163,70.310625,84.582997,27.685204,56.283646,79.577637,99.280128,59.906158,88.155899,100.646553,107.334824,48.336754,79.259834,92.815475,99.807472,34.399338,64.210396,78.066788,85.956917,20.085468,44.859238,57.098579,65.692863,-15.680035,-14.837018,-5.283798,-2.256113,4.143453,28.532025,42.170715,51.463596,20.21937,47.312672,61.220285,69.652303,34.906952,60.658171,71.521859,77.694492,47.017999,69.162314,77.671212,82.407592,-23.317451,331.552334,-45.444832,326.694306
61,6.620121,-1.608938,-1.955795,-2.288038,-20.614043,-25.889111,-26.487608,-28.84203,-16.50404,-19.373188,-29.272871,-38.772612,-3.386021,4.48411,-1.40502,-7.509756,9.33692,18.943405,11.902656,4.646959,20.999393,24.97364,20.983057,17.052068,19.289038,41.762699,61.168105,70.050099,42.028627,67.962905,83.804386,98.031311,39.944087,67.761259,85.838445,101.291732,37.403089,65.886979,84.61415,101.448208,34.74955,60.530872,76.526483,90.829823,28.316517,57.73819,81.901131,101.716461,60.013618,88.782463,101.589203,108.434029,48.065758,80.103722,94.225388,101.726189,34.343834,65.640907,79.892693,87.979889,20.801868,47.026863,59.625664,68.270073,-14.54531,-12.768688,-2.4271,-0.482765,2.224682,27.2654,41.795952,51.685774,18.501658,47.012935,61.498409,70.523972,33.640266,60.872074,72.058038,78.05672,46.344302,69.414935,77.535176,81.444841,-16.580744,329.967371,-47.28404,324.430243
62,6.620121,-1.608938,-2.806549,-2.006147,-22.588692,-24.900284,-21.821594,-19.45158,-23.298683,-26.663818,-35.681248,-44.157658,-10.836067,-3.741474,-10.039272,-17.155838,2.232056,10.447884,1.105728,-8.510914,15.285873,15.890579,7.858372,1.054859,21.555587,48.751395,73.580865,90.210004,39.946465,65.179042,81.446941,95.231979,38.460071,67.331291,87.044245,103.753474,38.832611,67.117511,85.780091,103.094536,38.702009,65.860581,82.742341,97.076649,28.919678,57.170448,80.605087,100.743027,59.748116,89.109879,102.234192,109.660835,47.795334,80.403442,96.156349,105.592232,33.913937,65.77446,81.686783,91.732635,20.103493,46.22509,59.682541,69.609489,-13.818013,-12.113331,-1.881535,0.779352,2.883312,28.214504,41.666214,50.513381,18.394768,46.017642,60.279023,69.113778,33.024861,59.757541,71.154506,77.260819,45.437126,68.725986,77.593036,82.138422,-9.903059,328.324146,-50.033026,322.389808
63,-21.360168,-3.181196,-3.874798,-0.955526,0.396938,8.984413,18.931618,23.192883,11.240387,21.800308,18.514023,12.151737,12.087193,41.378517,49.641037,54.631119,13.26067,39.152756,45.056877,47.223129,15.493641,27.193394,29.158344,29.141922,29.255863,55.926237,76.00957,90.891111,51.87578,78.023745,94.26997,106.149143,39.091407,60.881831,74.22486,84.321052,24.976189,50.132195,65.908314,79.162546,13.286527,34.506809,47.501319,59.39766,28.179245,56.73254,81.030979,101.733227,58.369732,89.911251,104.20023,112.539082,47.15332,82.404842,99.58128,109.938984,34.254341,68.695164,85.443134,95.640049,21.463966,49.941101,64.120388,74.01598,-14.597736,-12.91479,-2.495149,-0.071075,2.335771,27.337957,40.678825,49.605588,18.545069,45.1716,58.412679,66.479691,33.878808,59.619035,69.99613,75.298823,47.019975,69.236229,77.226918,80.745333,-30.971918,325.147489,-53.616514,321.438821
64,43.875275,-5.601133,-3.815804,-1.432486,-18.768997,-28.177757,-25.458527,-18.856544,-38.977833,-54.798431,-65.798779,-77.056103,-31.352978,-46.003075,-58.772106,-71.117821,-21.331844,-32.58173,-43.651829,-54.022636,-8.157806,-16.831055,-25.811176,-33.815346,16.169716,40.214894,66.607514,86.687328,44.311972,66.825678,81.935881,96.094386,47.543124,78.26309,96.02399,110.002616,50.98114,79.867798,95.875727,107.89137,52.59579,79.00712,94.448737,106.097582,28.374481,56.176586,80.684223,101.373882,58.355999,90.315113,106.019154,116.309338,47.659206,83.938007,102.716846,115.209446,34.972343,69.496021,87.55125,99.714947,22.139511,50.92432,66.353817,78.715038,-14.146155,-13.256455,-3.33761,0.86148,1.731482,24.283844,36.806889,45.512524,18.078915,42.059811,55.412041,63.771688,33.285633,56.561031,67.523026,73.626313,46.391294,66.629374,74.888121,79.372992,13.183165,319.56976,-57.15251,320.029738
65,-6.022224,10.457679,-4.14608,-2.385851,-19.739399,-26.222935,-20.189323,-14.925556,-34.534836,-47.85593,-57.730465,-68.255825,-26.579533,-37.113762,-47.994633,-59.609699,-15.710907,-23.893833,-33.990211,-43.820457,-1.618881,-8.069916,-14.59671,-21.001797,12.875825,33.403391,56.534416,73.623472,33.277174,52.159276,66.693594,79.611472,37.294841,64.438284,81.539196,94.316468,41.103791,68.024871,83.960615,95.881779,42.763148,68.139233,82.129406,92.826183,27.620029,55.624924,80.350513,101.351109,59.140549,90.247822,106.233044,116.849384,48.774548,84.378948,103.901081,117.588902,36.307526,70.247784,89.087048,102.168674,23.408375,52.719212,68.520641,81.399937,-15.208756,-13.84259,-3.031883,0.644119,1.79811,24.002632,35.921697,44.365633,18.61744,41.95712,54.937921,63.306152,33.872324,55.80959,66.453941,72.519993,47.036956,65.841747,73.530168,77.622738,7.286167,330.040761,-61.173363,317.65721
66,18.494682,22.711802,-2.497158,-7.198678,-25.454407,-46.562691,-58.532867,-65.263481,-40.730724,-60.186996,-72.813377,-83.975143,-31.027451,-51.332188,-66.891174,-80.770111,-20.938683,-37.476425,-53.06488,-66.918812,-8.912544,-21.374016,-31.314926,-40.744972,-1.589394,4.923113,18.645413,31.320365,9.701237,22.180933,33.605871,44.167167,20.52417,37.238215,49.330119,60.181643,29.789448,47.354353,57.856061,66.577565,35.531434,51.724739,61.743064,71.010566,28.977699,57.416382,81.499672,100.975456,59.074459,90.633545,108.040581,119.740791,46.80479,82.015457,102.759819,116.799088,33.092308,66.842194,86.615639,100.037041,20.183029,49.241352,65.41729,78.585205,-14.455586,-10.421432,1.824601,5.519561,3.475498,28.290148,41.151895,50.367835,19.959771,46.701157,60.381158,68.823922,34.757207,60.118472,71.434914,77.544932,47.321255,68.616008,77.747844,83.112103,26.338348,352.774376,-63.113022,310.480346
67,37.420692,-27.273613,-2.884769,-8.759172,-21.978607,-44.608955,-64.291019,-77.583389,-49.929085,-80.978451,-99.212837,-115.119324,-41.472702,-75.837078,-93.89637,-108.497658,-33.208694,-65.698242,-80.869789,-92.642269,-27.893715,-53.186188,-63.527584,-72.547131,35.714277,58.819984,73.640269,91.679725,57.871992,61.855758,68.071802,76.062243,41.223525,30.895275,24.981561,20.459888,21.457033,5.803427,-5.465344,-10.895798,1.113175,-11.874357,-19.875667,-23.521041,29.208527,57.484417,80.754261,98.539753,56.446266,87.307377,104.329777,116.112499,44.187069,78.294926,98.463764,111.91412,31.073227,62.35136,81.483364,93.999081,19.106655,44.855118,60.342064,71.004581,-15.462241,-10.701532,2.35195,10.538881,4.486847,26.908977,39.252329,48.714097,22.471098,48.407321,61.675632,70.503409,37.69239,65.075919,76.37433,82.292057,48.825557,70.371943,78.435188,82.37789,64.34947,325.65233,-65.407362,301.87274
68,9.329681,-3.103637,-18.542061,-23.646085,-14.340591,-37.399521,-60.432129,-75.849438,-47.700577,-79.419651,-98.257484,-113.885536,-44.179001,-79.599495,-99.729996,-116.524715,-39.307709,-73.921509,-91.939087,-106.905613,-36.022797,-65.044212,-78.505726,-91.228638,34.208431,57.352486,71.426825,86.652192,49.396625,59.471575,67.206246,75.589482,33.714366,31.480792,29.781544,28.379872,15.777169,2.535657,-7.973337,-14.613297,-2.582402,-14.865115,-24.752653,-32.938287,43.15979,76.033516,97.17104,103.761349,88.394451,129.401951,125.697041,112.999477,76.546555,119.619427,114.829617,98.867855,62.236061,101.851673,100.340824,88.444004,46.05566,81.445541,86.648312,80.417862,-11.657799,-1.453605,11.632543,22.725572,28.203945,66.4017,77.994537,78.943209,45.557478,88.237634,97.731698,95.889251,59.045682,95.280762,104.782051,105.197817,68.761677,95.292865,101.60067,101.406588,74.404335,322.529565,-83.224239,278.207527
69,6.754532,-7.496377,2.073441,-18.132391,-29.906044,-56.384354,-74.12487,-84.838257,-48.874741,-79.379654,-96.316338,-110.466099,-39.863548,-74.213905,-94.299431,-110.619049,-30.006523,-62.009354,-81.408291,-97.487354,-20.056458,-45.217781,-58.72776,-70.668411,-11.964142,-9.623184,-1.961008,4.348896,14.571492,35.968318,46.565492,53.405708,30.810677,54.323875,66.577936,75.411764,42.818106,64.238213,76.367476,84.338466,50.715984,69.842433,81.150724,89.296221,36.197147,64.019623,81.757622,91.565151,105.8325,114.153728,100.101299,85.945644,98.978291,103.338146,85.996227,69.746246,83.954029,87.190189,71.064491,55.89695,64.159985,68.644409,60.081882,50.656242,-13.325801,-7.98192,0.935766,10.120646,34.493533,77.19524,97.871871,104.195978,50.176903,99.397168,120.029772,126.108976,62.361618,105.146379,125.326413,132.853109,69.806679,103.796947,117.181966,121.683633,82.009048,315.055758,-80.300617,260.097706
70,8.884621,-4.213601,-14.586296,-27.590455,-25.828056,-51.756706,-72.400589,-89.676647,-40.938606,-71.34613,-89.521294,-103.187084,-30.72361,-66.430092,-88.486748,-104.051571,-22.02713,-55.045853,-75.630913,-89.851627,-15.098991,-39.517822,-53.404083,-64.368782,-14.478557,-10.867146,3.42369,15.637119,7.251104,30.926274,44.167106,54.804046,25.761099,52.539659,64.034868,72.556672,39.708973,64.290145,75.112645,83.085982,48.573553,71.605531,80.678642,87.320208,31.363564,59.32806,81.251278,91.583176,100.012836,109.470463,102.741108,94.570427,91.968155,101.316204,92.873325,83.344116,77.108459,85.092773,77.258377,67.214813,58.894272,65.641994,60.48254,53.286037,-22.21082,-27.401066,-26.697297,-20.3178,19.277861,43.719724,43.378738,36.270895,40.643133,63.009565,59.860726,52.484824,54.956879,71.821781,69.091795,62.007541,64.229753,75.353719,71.304065,64.367888,91.886187,310.958742,-93.894396,232.623836
71,7.034912,0.447073,-0.111408,-16.817725,-23.597031,-45.508461,-62.770042,-80.155907,-26.029129,-48.983803,-65.814056,-78.446732,-18.181686,-42.748146,-62.164421,-75.29995,-13.223305,-36.238632,-54.021835,-66.463623,-9.725647,-26.158218,-37.559166,-47.171631,-15.285759,-14.655843,-3.212195,10.066614,5.745382,26.603621,39.482102,49.682899,24.05055,49.820603,62.780903,71.60411,38.161014,61.795058,72.617682,79.692303,47.473717,68.547897,78.237895,84.102703,18.22649,37.034454,51.649704,64.245758,73.135014,93.963432,88.761349,80.168839,67.494507,91.439381,84.823322,74.944553,56.004868,76.475143,68.971481,58.294945,41.616554,55.575943,52.521286,45.954494,-25.604006,-33.732892,-35.590344,-39.55966,-3.630183,15.829656,20.456923,21.072884,14.974228,37.173007,38.493169,36.389827,29.885594,52.344342,49.398971,43.927144,42.817118,62.39521,59.900308,54.698144,100.665894,312.267063,-92.261009,216.66736
72,3.205833,-0.622629,-32.041569,-37.006343,-17.73365,-31.532593,-44.916916,-60.089493,-14.454117,-21.43261,-28.684387,-34.267845,-12.537003,-18.956566,-27.604637,-33.829536,-12.4506,-19.590797,-26.140366,-31.416206,-12.429657,-18.540344,-22.617302,-27.021103,-17.006002,-18.831653,-10.561605,0.833137,5.084035,25.428449,41.928406,56.534169,21.601097,45.980901,63.305411,77.989597,34.134393,57.540022,73.529241,86.475092,43.053005,64.122122,76.972444,87.830266,21.919556,44.084759,63.258934,76.394176,69.725189,89.574738,82.664738,72.314472,66.601639,89.480038,81.035271,69.476223,58.268108,79.533234,72.326374,60.524426,45.836334,66.89415,67.973843,61.621513,-27.356297,-42.85318,-50.302133,-55.837316,-21.011936,-6.959642,-8.569537,-12.254308,-2.468534,10.745621,8.067321,4.538594,14.711356,26.281778,23.928717,20.327989,31.101027,42.458966,42.834347,41.179621,106.569586,312.440335,-121.604719,180.456919
73,-2.836761,-4.990174,-1.292725,-8.558731,-13.968658,-22.086296,-29.5158,-35.911674,-5.36293,-4.772644,-5.903549,-8.009491,-2.30278,-1.885872,-3.499031,-5.634842,-2.016678,-3.540459,-4.594116,-5.90126,-2.930031,-5.57888,-6.790581,-8.570709,-9.165799,-11.071725,-7.629387,-1.6023,15.027704,38.008428,54.859375,70.813767,27.043099,50.931246,69.359113,85.763912,35.482404,58.049648,74.498476,89.584472,40.708774,60.930181,74.302295,87.355776,12.753696,26.386528,38.155861,48.421555,32.603645,53.440533,56.039886,51.069374,33.483238,61.345425,60.129776,51.650391,32.263641,59.087105,56.502686,47.977066,30.216064,53.564358,53.337078,45.459709,-22.575024,-37.4331,-46.23278,-55.462491,-29.971797,-32.609713,-30.851494,-30.466418,-12.277834,-13.901623,-13.029707,-12.137723,5.20556,7.363428,6.889617,5.890989,22.432813,29.533123,26.940161,23.100026,105.529203,307.619774,-121.101065,172.067801
74,25.759392,-46.726104,0.00658,-10.061736,-28.130608,-47.314682,-57.749062,-55.683746,-30.170059,-27.748833,-29.090424,-30.421028,-21.058388,-20.507812,-22.337379,-25.555687,-15.234833,-17.541275,-20.699043,-24.652748,-12.471657,-15.975266,-18.369141,-20.629463,-8.850378,-4.249108,11.368868,23.514866,27.152397,56.901276,78.053324,97.586523,39.50038,71.640111,93.583861,114.223936,47.099139,77.101379,98.81727,118.782969,50.326709,76.673881,95.607669,114.020715,14.361649,22.872734,29.618053,33.771343,10.735531,28.129234,37.220535,39.118195,7.786217,31.470966,39.685364,37.051392,6.572685,30.709476,38.169022,36.392269,7.082634,25.095291,30.8321,30.582447,-10.929885,-18.276825,-23.244399,-25.990193,-16.321437,-25.995997,-27.455283,-27.799727,-6.632921,-16.770053,-18.863207,-19.115766,3.905528,0.066937,-2.555232,-3.757821,16.571835,21.705393,20.109886,18.32851,132.810946,261.126761,-119.572134,162.239158
75,7.310944,-25.097776,-35.020294,-5.062114,-26.685791,-49.231682,-64.636002,-63.332405,-41.380234,-43.353653,-44.286461,-45.140762,-33.523064,-33.962517,-34.874611,-37.388191,-25.983696,-27.574081,-30.495071,-34.898643,-19.750099,-23.827858,-26.7659,-29.49543,-6.350968,-3.245108,4.360444,14.506716,40.315053,70.285924,90.537775,107.145178,48.917627,78.366275,98.846416,118.236293,51.145767,77.286569,96.768577,113.850037,48.386635,71.197793,88.486488,104.352206,8.970451,24.800777,40.214539,49.733734,16.413002,32.107658,33.535423,31.528988,18.022728,34.742374,37.932587,36.593971,19.225845,37.522488,41.548576,41.098881,20.6567,37.964001,43.358517,44.435806,-24.981932,-45.608978,-61.155725,-74.281053,-29.010652,-34.740411,-37.663676,-38.540346,-10.32331,-14.271261,-17.457274,-17.642648,8.573057,6.899497,4.682472,4.19767,26.192487,31.284426,32.217598,32.746923,140.488501,236.953775,-154.225817,158.101834
76,-10.48811,-25.133838,22.518196,-8.778377,-19.544907,-35.432396,-44.025364,-42.182121,-24.104919,-27.566528,-28.898048,-28.259182,-15.697975,-18.176193,-18.934708,-19.53907,-8.881588,-12.323799,-14.915886,-17.044029,-3.520603,-8.059444,-10.775585,-11.67738,1.679611,8.785262,19.752382,34.573777,18.877564,32.693941,43.701137,52.949681,20.847278,37.711131,50.57087,61.211238,21.431252,37.63774,50.088229,59.432579,20.301559,34.93545,45.412858,53.140737,7.876167,12.235451,17.466717,20.893707,-0.458794,-2.738914,-4.671535,-3.841381,-10.424938,-13.002319,-14.748173,-13.334141,-17.742462,-19.604759,-20.524864,-18.74897,-20.626488,-22.531185,-21.635971,-20.677071,-15.369122,-27.147087,-37.087791,-48.200241,-5.671281,5.558402,8.842782,12.662725,11.164598,25.509404,29.664157,35.505437,23.970769,40.184822,45.461827,50.597979,33.803164,51.50571,62.374709,71.492527,130.167732,212.992254,-131.540279,150.495773
77,-10.48811,-25.133838,-9.998074,16.924059,-12.404022,-21.63311,-23.414726,-21.031837,-6.829605,-11.779404,-13.509636,-11.377602,2.127113,-2.38987,-2.994804,-1.689949,8.22052,2.926483,0.6633,0.810585,12.708893,7.708969,5.214729,6.140671,9.710191,20.815632,35.144321,54.64084,-2.559925,-4.898043,-3.135501,-1.245815,-7.223069,-2.944013,2.295325,4.186184,-8.283262,-2.011087,3.407882,5.015121,-7.783516,-1.326893,2.339229,1.929268,9.824066,12.417583,13.469868,15.550518,-1.900921,-4.969196,-6.525021,-5.743504,-13.6199,-14.624348,-13.09782,-12.104645,-21.644382,-21.898327,-20.849018,-19.746723,-26.028671,-25.894089,-25.524101,-26.616154,1.116941,7.297293,19.864675,28.28984,16.453459,34.325634,41.468613,43.82118,20.288901,37.299472,38.617967,38.815074,22.309498,36.418726,36.846903,34.740041,23.315844,33.967481,35.684575,34.599929,119.208355,190.043269,-142.009621,169.604685
78,-3.101006,-25.429993,-0.196838,17.197737,-9.499741,-12.393951,-11.699867,-9.376488,-0.64579,-4.285927,-4.816017,-5.551186,8.625641,1.277275,-1.188583,-3.64666,17.695427,11.057739,6.71402,2.834358,25.844421,21.456413,17.258148,11.793938,-25.024848,-41.186846,-53.239631,-70.908739,-13.438186,-4.887916,-2.399374,-0.994737,2.184668,8.508836,12.86292,15.844909,11.801924,16.680886,21.711136,25.818341,19.420752,22.314129,25.563559,29.768947,8.92622,8.834553,6.336708,2.27354,-2.967854,-6.303921,-10.50333,-14.340191,-14.120522,-16.848221,-20.137882,-22.822838,-21.954288,-24.122658,-24.017715,-23.312874,-25.967731,-26.487179,-25.298595,-25.233994,6.164729,14.230938,27.290656,38.489773,15.753827,36.931007,52.700395,63.1858,18.014942,45.407239,61.324519,71.386502,21.727376,48.333097,58.59157,62.913419,25.386274,46.128299,55.110143,59.650157,115.19949,165.965069,-143.114319,188.154215
79,12.376556,-4.240339,1.978226,36.40193,-17.326241,-20.888329,-15.948143,-10.93174,-16.940804,-9.982224,-7.021065,-5.39772,-5.496941,8.115463,6.560669,4.443626,5.053024,19.80732,15.781631,12.315216,15.126343,26.588974,23.582039,19.392815,-22.749593,-51.115663,-70.196232,-85.04699,-68.538573,-91.568266,-98.985725,-99.701135,-63.72519,-88.39519,-84.895177,-77.860106,-54.292784,-75.073743,-67.903964,-60.056197,-41.682454,-56.893186,-52.762948,-47.178642,15.819912,21.641922,21.382713,13.595295,-2.289734,3.61702,4.077988,4.140987,-17.084484,-10.904503,-5.64949,-3.384819,-26.420574,-20.351028,-14.248466,-11.076679,-30.706444,-28.777027,-25.842304,-23.184357,-5.256689,-6.773711,0.03211,10.349493,-11.855585,-0.793555,8.071149,17.342356,-5.74674,17.350137,35.573177,49.173829,0.958675,24.841758,41.871164,54.466025,7.211707,27.821216,38.870402,45.76428,126.413841,163.962889,-142.298298,226.794304
80,-5.444412,-26.32772,-22.507725,-4.501605,-7.777405,-1.520691,7.64637,14.107475,10.930481,29.846077,36.748581,40.493317,14.247208,35.798378,41.688538,45.746613,13.901024,32.793045,39.315834,44.044304,11.785583,22.166862,24.219475,24.870071,-37.939299,-69.394279,-88.946745,-105.043163,-62.606427,-78.998537,-85.591536,-89.920456,-44.919257,-56.036245,-65.799417,-70.469416,-25.084191,-33.784052,-45.148474,-50.699404,-4.929659,-7.239742,-12.288826,-15.853863,18.948097,32.526054,38.590965,42.450829,22.035484,22.868786,23.764229,25.111771,8.427429,14.140892,18.155823,21.13615,-2.33923,6.321373,13.385925,17.660007,-11.327419,-1.125412,5.700073,9.258213,-5.902969,-4.22731,-3.590848,-4.245156,27.922301,55.967362,76.987264,97.123641,35.199155,64.829905,83.9495,104.002143,37.841764,61.401707,72.358515,82.990392,36.929525,49.377297,53.116469,57.277027,119.868078,138.529361,-165.907373,223.186891
81,6.631279,-7.053626,9.832106,0.100592,-6.579666,1.088562,8.787689,15.937386,12.292213,31.620369,44.923782,56.853218,14.089279,32.677345,46.783791,58.800087,12.28157,29.284973,42.640114,51.999092,8.068199,20.85228,29.440727,34.564247,-37.760933,-64.952078,-83.287041,-102.800851,-58.725105,-66.085476,-69.939134,-73.326206,-43.306274,-48.803635,-55.368507,-62.908572,-26.155252,-29.393659,-35.811349,-41.83683,-7.671439,-5.390749,-8.863345,-12.269128,14.241343,26.676865,35.036287,42.464132,20.125322,21.560097,19.640465,18.536339,12.351637,17.852898,17.197723,16.201172,6.678457,14.178829,15.709248,15.864916,1.391544,10.689011,16.705971,20.515709,-12.886663,-17.965881,-21.4675,-28.847508,5.569764,26.389131,35.466102,44.432138,17.705665,41.058096,48.88953,57.777977,26.017918,47.236595,52.989603,58.911715,31.016398,45.769467,53.652555,62.192143,126.028519,132.454649,-156.546106,224.266397
82,1.57814,3.135686,9.832106,0.100591,-5.204315,5.028419,14.344826,21.987305,16.830482,38.903961,51.561584,62.37442,19.809723,41.655121,54.411163,63.386192,17.91893,37.563286,50.373116,57.777557,12.499695,29.721107,38.314476,41.292686,-33.418366,-60.609542,-78.523429,-95.355604,-50.04204,-56.694103,-61.635464,-66.200147,-32.758748,-35.162599,-41.645558,-47.135232,-13.395332,-16.183733,-22.746413,-27.256632,5.913096,9.22156,6.469961,2.586601,9.534588,20.827675,31.481609,42.477436,18.21516,20.251408,15.516701,11.960907,16.275845,21.564903,16.239624,11.266193,15.696144,22.036285,18.03257,14.069824,14.110508,22.503433,27.711868,31.773205,-19.870356,-31.704452,-39.344151,-53.44986,-16.782774,-3.1891,-6.05506,-8.259365,0.212174,17.286287,13.829561,11.553811,14.194073,33.071483,33.620691,34.833037,25.103271,42.161638,54.188642,67.10726,127.871618,136.924082,-146.449041,225.700735
83,15.006866,-1.011039,-9.575615,-35.942815,-13.531837,-13.890839,-4.398994,2.045059,10.011406,20.089188,22.27375,22.946091,21.374016,29.8843,30.488319,31.335068,27.818298,35.461578,34.026947,32.394333,31.989441,39.263535,38.00457,34.401627,-19.256001,-40.624793,-53.110788,-65.571774,-29.772714,-27.565878,-23.03877,-17.230835,-20.786177,-16.135877,-6.737402,4.387367,-13.34976,-9.909027,-0.784415,9.37044,-6.812985,-6.36974,-0.786638,5.050813,7.848759,25.380478,40.708237,49.23048,26.936703,37.176476,30.473385,24.034367,24.584312,35.276928,28.043003,23.105335,20.247002,30.872269,25.259399,21.383572,14.692211,26.36158,28.265934,29.134369,-16.810191,-27.456394,-32.828063,-42.122179,-17.122895,-0.184016,1.615206,0.571191,-3.438448,14.43737,15.841759,16.177064,10.003814,25.762272,27.728467,28.680164,21.958447,35.97579,43.06764,49.548531,143.156404,136.362925,-155.746737,190.207803
84,2.611084,88.221146,18.98941,-33.793777,-19.780083,-23.604584,-15.374908,-3.2341,-18.900604,-8.457069,-4.425201,-2.378654,-1.498604,16.476402,12.444878,5.010567,14.494743,31.048622,24.113388,15.894928,28.159904,42.346916,33.772774,23.842506,-19.950385,-46.589451,-63.015987,-71.99073,-75.419977,-101.575661,-105.613335,-100.641254,-70.639384,-83.56004,-68.394942,-59.09922,-58.481963,-63.535184,-45.771814,-37.229015,-43.088079,-47.132237,-34.476614,-27.79139,13.791504,22.684479,30.444489,37.5214,6.134605,7.820835,9.200878,10.58733,-6.770668,-2.586193,1.188469,4.136982,-15.655003,-9.669514,-5.581627,-3.597679,-20.749912,-14.38385,-10.190506,-8.818359,-1.5776,1.575809,11.384368,17.035827,9.749834,27.739582,32.503317,32.812872,15.035546,31.057987,32.28682,30.407694,18.628123,33.024244,33.390177,30.019407,21.725462,32.87913,34.01472,32.993616,146.558561,224.519944,-135.966253,156.349897
85,-14.906731,-43.988462,-4.801655,2.671261,6.405144,6.211739,7.136192,6.826286,7.436256,8.139153,6.264496,6.232224,7.424469,9.676552,7.081261,7.074623,7.447701,10.065422,8.947449,9.755974,7.005844,11.471214,11.698608,11.286392,2.023932,12.74547,25.703177,35.98073,18.924464,29.853978,41.463796,50.77971,22.834067,35.00001,50.603845,62.320183,26.181681,37.683868,50.007768,56.721397,28.076677,37.133981,46.068277,52.274688,12.810116,18.068619,23.179665,26.275291,9.463806,10.713787,12.708035,12.841072,0.59412,4.608135,11.148491,15.299606,-7.822151,0.480881,5.806332,7.697411,-15.78186,-4.010181,3.174362,4.653625,-23.751925,-40.620162,-52.803704,-66.238216,-22.117948,-25.803274,-28.881779,-29.704789,-6.826446,-12.695699,-14.532589,-13.534394,6.745183,7.406344,10.440698,14.498317,18.985596,24.285573,30.893175,37.344364,131.968145,180.123111,-140.451593,158.612787
86,8.055153,43.698605,-16.310863,-21.101289,-6.008034,-15.832787,-25.487366,-35.895653,-20.388794,-18.251038,-15.632629,-14.207954,-17.541275,-16.066132,-13.697891,-13.42598,-14.514313,-13.44429,-12.034492,-11.522827,-11.325188,-10.62973,-7.828445,-5.039635,-17.658271,-21.361629,-17.497905,-11.888807,12.416094,32.308865,48.878168,63.09373,28.963969,51.472426,69.276243,87.174168,40.906066,62.51729,78.992177,94.70636,47.972537,67.248545,81.571491,95.992683,15.606937,22.161713,26.149406,29.207382,8.167362,17.389927,26.133842,31.396065,1.559544,14.295444,27.631588,35.99247,-2.437878,13.267708,26.145744,33.425331,-3.400726,15.904198,29.305229,36.693649,-20.278804,-29.741685,-38.961577,-52.608109,-9.209827,-10.801012,-10.241923,-8.674574,7.092344,8.57528,11.415058,15.997679,21.624809,27.683142,30.105981,34.222511,35.702297,41.29707,44.989127,50.527336,141.789351,223.622062,-154.996405,137.311844
87,-2.590828,-2.766789,-0.315514,15.361341,-12.658539,-25.418816,-35.309601,-41.348991,-22.150383,-24.966202,-25.746918,-25.370979,-14.458694,-19.972229,-22.915993,-24.064064,-8.222237,-17.612343,-26.071701,-30.918159,-4.228134,-16.697845,-23.921585,-26.863289,-7.775674,-6.666019,-2.822426,3.774803,26.996477,52.869468,72.97145,91.884798,37.199868,63.528947,82.295515,99.798793,41.896481,59.831147,71.570271,83.117784,42.357263,56.922086,66.049723,75.138889,12.341137,18.238335,21.508598,23.596973,10.78228,16.005421,17.953606,18.018551,4.299889,12.228584,16.838837,18.852482,0.092354,9.677639,18.228436,21.395073,-0.965366,10.271416,20.213928,24.976387,-29.210909,-50.381235,-65.207663,-80.542174,-36.124362,-37.805362,-35.361096,-34.253448,-17.325807,-14.764585,-11.767159,-9.848264,1.404081,6.295331,7.742452,9.470043,19.682759,25.661001,26.636781,29.920174,140.750427,220.318214,-153.760014,152.136126
88,-8.434296,11.374364,6.086369,-14.361973,-14.583778,-30.563164,-45.131721,-50.411797,-32.034073,-39.228287,-39.368477,-35.809593,-29.062843,-36.677971,-38.508911,-38.237686,-25.368576,-33.367538,-37.823181,-39.544945,-22.499428,-31.866875,-36.111259,-37.370682,-17.140865,-25.21646,-26.329758,-22.995792,5.167336,18.779659,31.06762,42.297056,17.046016,36.36877,51.102047,64.776059,24.765497,44.008222,59.173506,72.051677,28.22105,45.560257,58.99974,71.697107,10.167217,12.587757,13.169289,14.671841,8.004398,-0.667591,-3.974819,-3.253212,-0.104713,-7.254467,-9.966545,-8.405972,-5.967178,-10.7024,-9.736805,-6.599808,-9.520855,-10.436211,-8.474979,-7.868614,-24.658545,-38.010435,-49.009141,-62.704579,-11.904553,-8.304381,-5.239399,-2.843359,7.602093,15.313979,20.50972,23.852949,23.65541,35.268007,41.570748,45.105218,36.779966,49.978313,57.543295,62.992213,132.614193,231.018789,-147.375584,137.100364
89,-19.545822,-11.30014,-10.05724,7.719049,-8.564758,-20.430679,-30.159073,-35.973473,-19.050636,-22.374229,-23.825226,-23.105278,-18.780899,-24.644966,-26.837311,-26.624794,-18.348885,-27.365112,-31.720963,-32.955322,-18.445473,-27.249641,-32.869034,-36.002769,-7.252895,-11.592343,-15.093715,-14.4349,3.521749,11.939936,20.253579,28.722401,8.66488,25.240049,36.759094,47.713802,10.295584,24.235616,32.445519,39.077451,8.303887,18.619663,25.309518,32.107435,18.29052,21.19503,21.295738,21.063023,10.300827,8.736191,10.910854,11.747818,0.555325,-2.211456,-2.846088,-4.494438,-6.818562,-7.829533,-6.482563,-6.253796,-11.57135,-11.549892,-9.141312,-7.996159,-18.822143,-26.510316,-35.61841,-48.645122,1.010854,10.165291,20.43846,31.126962,16.958886,32.74507,46.080133,59.720985,27.404709,46.237844,58.89779,70.850447,34.1297,51.190104,63.453859,74.719789,113.033609,218.912018,-157.467585,144.012783
90,-11.88343,-20.634919,-1.579571,9.562113,-4.934979,-11.576557,-19.001312,-25.137978,-4.738713,-4.58725,-6.715393,-9.041805,-6.114693,-9.801064,-13.370877,-15.74112,-8.121758,-13.413964,-17.656231,-21.060333,-10.910053,-18.569756,-23.740082,-28.044205,-14.574857,-22.430467,-28.195455,-32.545833,0.036124,11.990571,19.80771,26.912033,10.318988,26.560087,37.811629,48.043518,16.364476,30.536412,40.223848,48.628233,19.264924,30.947639,39.482102,48.086682,19.173145,24.86475,24.931011,20.433712,6.561012,5.045471,6.055012,4.204044,-6.689186,-7.129784,-6.824341,-9.829559,-15.746784,-13.960876,-10.532856,-10.748234,-20.552216,-18.7813,-15.068722,-14.259224,-6.499725,-9.821774,-14.780332,-22.443496,6.04129,26.155005,42.985573,57.947513,15.389623,43.931713,67.088797,86.434522,22.261085,50.640401,67.154067,79.614374,27.702779,46.335533,58.945091,69.824525,100.931797,197.884691,-159.265537,153.182487
91,-11.883431,-20.634919,-9.528751,50.711847,-1.305199,-2.722435,-7.843552,-14.302483,9.573212,13.19973,10.39444,5.021667,6.551514,5.042839,0.095558,-4.857445,2.10537,0.537186,-3.591499,-9.165344,-3.374634,-9.88987,-14.61113,-20.08564,-21.89682,-33.26859,-41.297194,-50.656765,-3.449502,12.041207,19.361842,25.101666,11.973096,27.880126,38.864166,48.373235,22.433369,36.837208,48.002177,58.179015,30.225962,43.275615,53.654686,64.065929,5.630722,15.190601,24.386387,29.098434,27.7775,33.028507,26.354256,21.165104,27.043934,28.514156,20.978737,16.026077,22.976189,22.309227,15.952663,11.614838,17.302322,17.065659,13.080654,9.672432,-20.171945,-33.75154,-38.735848,-40.334258,-27.264042,-38.273461,-35.438376,-29.620808,-18.075457,-25.314952,-21.689215,-15.721161,-10.886721,-15.079883,-12.264373,-7.650567,-5.12621,-6.996383,-4.149381,-0.542601,88.349047,177.009316,-169.493608,203.653878
92,10.608673,10.239824,11.307335,-12.199905,-6.402626,-11.398315,-17.032127,-22.179794,-2.185364,3.368912,3.054886,-0.170975,-3.662796,-2.378426,-5.002213,-6.450462,-8.386688,-8.171425,-12.026825,-13.535385,-13.997612,-19.650307,-21.524277,-19.761772,-24.950563,-43.8113,-56.839649,-69.41583,-24.857937,-21.167547,-19.218519,-18.338699,-8.227316,-1.904383,1.94063,5.609901,4.990915,12.082456,18.947805,24.652555,14.696413,22.240461,28.351034,34.523791,8.64521,14.334641,16.335354,15.585651,13.95298,14.371204,11.109238,9.242764,7.616215,2.787209,-0.838223,-1.791115,1.432171,-4.274597,-6.228333,-6.834354,-2.677174,-7.6054,-9.027843,-10.61903,-6.651631,-10.44817,-10.191844,-10.864182,-7.691323,-8.773746,-2.975197,1.840718,-2.662554,1.477008,11.177442,18.572548,2.133538,6.876464,15.145647,20.931661,7.047019,10.626011,16.539786,20.566407,97.579794,187.244277,-159.564199,191.449109
93,-14.407082,-13.17056,12.356014,14.644542,-7.646942,-4.667473,-1.066704,-0.946426,7.012138,17.933807,22.953529,24.869041,9.09565,17.128487,21.503563,21.157494,8.270531,13.738747,16.828995,16.839981,6.428261,8.771439,10.519524,10.66967,-20.012629,-32.580444,-41.031358,-50.832445,-7.911216,-3.337672,-8.18477,-12.002551,8.199837,14.039697,13.307584,12.426282,21.647718,29.554982,27.780646,25.501253,31.501602,40.337283,38.953951,38.369915,12.681026,17.91378,19.519672,15.127373,-7.696953,-3.601513,-0.744381,3.655701,-21.286125,-13.612576,-5.314808,0.71291,-28.918762,-22.286568,-12.93457,-6.800251,-31.390343,-28.172665,-22.466011,-17.950344,-9.041866,-11.644584,-8.062566,-3.211392,-9.982016,3.98074,13.0252,22.218848,-1.098108,21.830129,35.526247,46.871712,7.432156,29.833415,41.423782,49.898779,15.017391,35.022919,43.198859,47.70312,82.55908,173.746424,-147.821817,205.766359
94,11.247139,12.681126,1.176109,17.129009,0.970802,0.816422,-4.010239,-9.431992,7.015343,14.425621,16.612473,16.457748,6.203842,12.519264,12.874832,12.359276,3.685455,8.950081,7.114449,5.885353,0.753021,3.441925,3.276901,4.33033,-23.949218,-37.858931,-48.75053,-57.926024,-15.705476,-14.274287,-10.194499,-7.108337,3.236771,8.127466,12.348168,16.523916,18.736495,26.072012,28.81373,32.905745,30.212933,39.124258,43.047941,48.317907,11.778316,16.064014,17.677231,15.307503,-6.975403,-3.632641,-0.963821,1.423416,-18.015175,-9.586086,0.621872,7.31678,-22.685051,-13.796654,-4.228191,2.271252,-21.397247,-16.179142,-9.374199,-2.628708,-13.344635,-20.800318,-20.671691,-16.085612,-14.634168,-7.237642,-5.454784,-1.89475,-4.735701,12.738184,23.776873,32.888578,4.341363,23.558338,34.101542,42.779018,11.414378,27.811706,35.480613,41.226736,93.785477,185.594815,-146.666451,222.062633
95,8.50502,-3.400286,-17.319603,5.144365,-2.340317,-4.133377,-7.421494,-12.347832,2.350616,7.051506,7.68013,8.75061,3.912506,6.38855,3.481407,2.430153,4.306984,6.977921,3.566895,2.025261,3.616676,5.096855,1.864128,0.292854,-17.404045,-25.752454,-31.789668,-37.494418,-2.482243,4.606889,11.058264,18.426755,15.478852,26.660987,36.698826,48.099557,28.719376,43.932084,55.147873,64.589017,37.402163,53.529827,65.104324,73.407408,15.014362,24.459457,32.266388,37.127209,11.606827,18.433628,24.175816,28.322239,7.404099,19.774761,33.547554,43.419743,7.516422,21.184158,34.894123,45.500851,10.497494,22.790852,33.708172,42.553024,-21.157729,-29.536148,-30.034412,-24.473047,-8.995121,0.790097,5.840601,11.907394,7.008425,28.119409,41.962986,54.771504,20.122607,43.005642,57.082451,69.294583,30.072389,49.326847,60.795257,70.652351,102.589931,181.397563,-163.686619,226.410031
96,6.475983,11.691514,-5.28471,-4.27072,-6.103249,-6.966705,-7.830276,-9.639473,-5.786247,-3.263855,-2.723122,-2.579155,1.242485,3.057747,2.390327,0.850639,7.707024,9.630432,7.556877,5.706024,12.009888,13.493271,11.805038,10.343742,-13.538963,-19.661578,-25.709969,-31.966521,5.523821,17.942879,30.064732,40.299183,20.37813,36.019448,50.931987,63.398901,28.385491,45.099228,58.740697,69.407216,30.90676,46.292987,58.510306,68.486147,13.403206,26.286507,38.259602,50.436802,16.293697,26.877193,41.438942,54.555874,15.19249,30.734653,47.446232,61.030884,17.160473,33.274956,49.00423,61.690693,20.289574,36.106739,48.31358,57.969131,-20.456182,-25.911708,-24.138545,-22.27924,-2.193004,14.248043,25.304269,34.299452,15.455634,38.134337,53.793192,66.733114,28.497568,50.205925,65.08586,77.039011,37.943529,56.371704,68.728517,78.899798,109.785719,192.494853,-168.251524,221.545087
97,-6.511917,8.165504,3.253555,-3.719783,0.370216,2.399483,0.117531,-1.934052,21.471405,29.850082,30.638008,28.63163,22.542686,26.619415,25.412178,23.310356,18.088188,17.599297,14.337616,10.721283,9.243965,6.541214,3.624687,-0.490036,-15.885479,-22.913046,-25.147979,-20.225915,-4.10492,5.328567,16.369417,25.465623,12.502235,25.949437,42.125452,54.176786,23.792372,36.832762,51.389063,62.715509,30.186442,43.45358,55.92599,67.052241,14.676933,29.077549,42.52224,59.060898,21.615715,34.274197,49.560986,63.521404,17.882996,34.383888,52.840061,68.763542,17.29454,32.947369,50.687084,65.885696,17.861595,33.650894,46.718044,57.887535,-19.605632,-25.729729,-22.391502,-19.286197,-4.604605,14.152515,29.267287,42.552641,14.1146,37.03765,53.570644,67.212174,28.879186,50.788355,64.867202,76.390879,40.058666,58.270468,69.370598,78.29378,103.685074,200.243233,-164.586697,217.40818
98,21.650276,16.08308,-2.241554,0.552049,2.60067,-1.660995,-8.296394,-17.070236,1.642914,4.0028,3.280792,1.711922,-3.30265,-5.666885,-7.133675,-8.428001,-9.518967,-14.48719,-15.630684,-16.713638,-15.518646,-21.102562,-21.25946,-21.592484,12.043306,22.17624,31.051627,45.013951,9.518888,8.229107,14.117503,20.766108,3.525763,5.384451,15.914748,23.259034,-0.466154,2.146568,14.671095,22.649434,-3.501434,-1.420321,8.589482,16.779192,17.501221,36.816616,52.324734,69.496822,21.658516,42.262974,59.85775,74.183006,18.389626,43.621902,67.484322,86.668396,18.194847,40.968704,62.31657,79.391785,18.971844,40.378418,56.459312,70.37281,-21.068808,-26.680501,-22.608864,-17.327783,-7.604193,6.010229,16.75122,26.093933,12.119815,28.719931,40.437381,50.132875,27.762306,45.126275,56.772464,65.357748,39.562439,55.482622,66.204284,74.154958,125.507498,216.004686,-166.656103,217.638601
99,6.613541,6.76871,-1.997623,3.345884,4.317741,-3.40004,-12.544441,-20.900688,-2.044144,1.29055,0.810699,-0.921707,-8.987961,-9.937363,-8.747063,-7.841492,-17.022171,-21.451836,-22.806931,-23.425827,-24.095306,-30.606079,-33.662682,-35.004845,-5.763289,-2.109085,3.913556,13.926385,2.54387,2.344354,3.460617,6.585805,8.659446,16.044857,20.516142,24.732954,14.244338,27.969787,37.215553,43.569917,18.078359,31.599106,41.462685,49.914464,17.921906,40.089169,57.654133,75.496674,25.212135,49.887714,69.283848,85.251045,22.620449,52.750511,78.42453,98.961353,23.082504,50.190411,73.47187,91.911678,24.320469,48.658848,66.472149,82.299385,-22.063854,-29.223629,-25.995812,-20.991435,-12.062943,1.410565,11.979024,20.811124,8.398674,23.52808,33.90252,42.46971,25.070853,41.342024,51.870964,58.776265,37.924201,52.84909,62.879457,70.07832,132.377815,222.172965,-168.39695,220.384056
100,0.504284,-0.684874,-3.343735,-0.773177,-1.935482,-9.886837,-21.106453,-30.436935,0.161648,2.551232,-0.05785,-5.26308,-4.185333,-4.999695,-9.285106,-14.1679,-11.723957,-17.057991,-23.035526,-27.774353,-20.224628,-28.915901,-34.870662,-38.851032,-9.691974,-10.278325,-7.758414,0.455317,-2.447385,0.330458,3.215684,5.832543,7.400386,16.213343,21.710951,24.458505,16.117939,28.667753,36.772309,40.648166,22.499164,34.98519,43.163569,49.123503,20.449734,45.725613,66.772785,85.112514,27.841015,58.987713,81.667442,98.882389,25.147419,62.164879,90.018539,109.329929,26.116734,60.416565,86.823406,105.602531,28.429928,57.029114,76.888962,92.597008,-22.499565,-30.414054,-25.907571,-19.238773,-11.297238,0.842461,8.957083,17.465548,11.023128,24.116129,30.619621,37.075627,28.921732,42.468228,48.168903,51.405304,41.804967,55.542828,61.620366,64.404259,133.108234,221.106489,-171.514549,219.229277
101,0.504284,-0.684873,-1.952076,0.580022,-8.188705,-16.373634,-29.668465,-39.973183,2.367439,3.811913,-0.926399,-9.604454,0.617294,-0.062027,-9.823151,-20.494308,-6.425743,-12.664146,-23.264122,-32.122879,-16.353951,-27.225723,-36.078644,-42.69722,-13.620659,-18.447565,-19.430385,-13.015752,-7.43864,-1.68344,2.970751,5.07928,6.141325,16.381829,22.90576,24.184055,17.991538,29.365717,36.329064,37.726414,26.919969,38.371274,44.864453,48.332541,19.725838,47.547569,71.066265,92.055531,28.794765,59.843388,83.183155,102.383995,23.918552,59.592075,87.685661,108.481693,23.941898,57.431145,83.047199,101.869926,26.66954,55.479126,74.719048,90.263271,-24.248584,-31.298011,-27.003887,-21.323591,-16.019848,-2.1202,6.761732,14.528452,7.186883,19.875173,25.262464,30.248192,26.386754,38.070796,41.412543,43.171813,40.298875,49.800534,53.105107,53.856919,134.662285,220.041727,-172.416859,219.42941
102,-1.260567,2.110876,-7.284565,-2.953893,-6.988907,-14.496689,-27.905273,-40.445137,4.989052,0.809784,-8.899841,-20.447502,4.176979,0.47905,-15.473442,-30.890579,-1.70002,-9.03019,-25.594025,-37.939796,-10.62767,-21.572227,-32.330933,-40.882072,-17.699212,-29.539915,-33.233763,-29.747211,-14.038462,-8.188228,-5.595267,-4.441275,3.669086,12.949926,16.763076,17.309196,18.40786,27.422061,31.348523,32.022714,30.492106,39.913861,43.64655,45.347156,19.505138,48.172703,72.725773,93.946323,27.294559,59.842358,82.972412,101.522713,23.031635,60.770245,87.298737,107.060165,23.485565,59.358215,83.765545,101.287308,26.554871,56.720123,75.323181,89.554882,-24.38357,-31.32092,-25.680267,-21.100733,-16.576528,-3.237945,4.007416,10.025056,6.522202,17.951339,21.269065,23.922295,25.12297,35.439364,36.048841,35.197797,38.102598,45.820226,47.19936,46.500654,133.693285,221.761321,-179.409857,216.084236
103,-6.089745,-5.937796,-2.047691,-2.412095,-5.250549,-12.268753,-25.709038,-39.792252,15.4636,6.82972,-4.952431,-13.939133,15.911064,6.274109,-9.955444,-21.901016,9.209061,-3.475685,-20.860291,-30.482483,-1.333008,-15.509949,-28.668137,-36.515007,-19.005604,-28.780076,-30.925286,-29.942281,-17.402872,-14.884566,-12.046641,-10.166711,-0.00494,5.510298,8.64691,8.908176,14.920752,20.755919,23.557103,23.161159,27.332832,33.345716,34.358732,33.755863,16.063557,43.557701,69.278812,89.861813,16.655331,48.329716,72.418957,91.232471,13.624134,50.290546,76.431427,95.69006,15.842686,50.706997,74.607697,91.028595,21.164417,49.553261,68.479557,82.037201,-24.646318,-32.090269,-28.672754,-22.990049,-18.548404,-8.634004,-3.71651,-0.466648,3.512981,14.98417,16.147794,15.58568,20.738135,31.891556,31.808193,29.849099,32.017897,40.401874,40.487646,38.466863,127.63381,215.789223,-181.427279,213.637839
104,11.801949,-10.917905,10.968933,-10.6856,-9.330482,-24.125404,-41.40358,-52.21756,-9.985199,-20.859947,-21.883507,-20.836029,-10.391693,-23.047943,-24.645081,-21.802483,-13.876305,-28.30101,-29.769516,-25.75264,-17.854271,-32.350273,-38.046684,-38.054123,-24.253154,-36.051867,-39.294689,-36.813064,-19.011408,-16.747947,-15.422104,-15.951366,-2.584687,-0.260957,-1.528631,-4.208352,12.133277,14.753779,13.411016,10.392224,24.76278,27.70494,25.377505,22.348647,2.554493,11.202164,14.744797,14.907589,34.799252,31.551075,31.406078,30.156898,38.178177,30.315571,23.582897,16.722164,34.066658,28.299694,22.299557,18.084126,25.774212,22.673779,17.890377,13.925228,-19.221545,-25.504773,-14.106264,-0.870372,-19.174985,-11.849101,-9.956081,-10.296943,2.521208,12.582573,9.738534,3.753808,21.517549,29.229558,22.378905,14.438728,35.465176,42.487556,32.934644,21.952951,139.459791,204.99329,-170.434313,203.074211
105,-8.670273,8.131603,-26.530094,-8.523842,-19.822769,-33.745079,-37.020607,-28.920937,-18.616676,-27.46273,-39.187889,-45.689392,-2.538414,-17.325439,-25.324173,-24.039803,12.260513,-5.051537,-14.319763,-13.12603,24.310913,7.105865,-2.180214,-2.456474,-3.808642,-14.249834,-18.956327,-21.449808,-50.477689,-69.568323,-67.03106,-58.222981,-52.657046,-65.686074,-52.596469,-43.535275,-47.940118,-58.320918,-46.320157,-39.459687,-39.474013,-47.381215,-39.16347,-34.917264,5.065613,22.204227,40.153713,51.603985,48.291206,60.006123,52.276382,43.073215,54.092789,52.523403,37.975674,28.179588,51.852207,47.513981,34.057446,24.862919,45.006466,43.681412,33.389912,26.114159,-23.289662,-37.281626,-35.175319,-26.429547,-35.974493,-28.73154,-24.145461,-22.279549,-18.634422,-9.175185,-6.896965,-7.229985,-0.434352,7.057084,6.587596,5.308374,15.961987,18.902233,16.156378,13.916135,130.831289,213.621783,-196.922636,195.04726
106,6.145649,-31.659158,-27.039185,-13.102079,-18.291493,-29.489937,-35.233269,-33.708458,-10.563069,-17.133351,-25.348492,-28.965741,0.788555,-11.20411,-17.568055,-15.97641,10.412063,-4.032155,-10.99268,-9.420262,17.733593,3.116683,-3.216935,-2.331505,-15.441709,-31.914681,-41.228728,-42.336206,-61.65862,-76.787208,-70.426638,-61.249261,-60.741318,-71.489208,-60.837278,-52.088618,-53.99598,-61.706585,-51.48402,-43.952091,-43.613837,-50.0528,-42.998047,-37.530326,12.512798,35.469875,64.274769,78.733807,7.862263,48.983517,59.319763,56.628628,4.876442,49.728127,57.545929,51.836643,8.080044,51.872005,55.864964,48.691463,13.864689,47.185307,49.493694,42.873974,-28.551044,-45.134055,-46.985147,-40.395205,-53.145677,-51.224993,-40.827335,-35.703903,-35.181494,-33.05197,-24.803041,-19.915187,-15.237964,-15.348003,-10.402783,-8.404293,4.5381,-0.309864,-0.085277,0.556742,136.985894,183.265358,-223.952866,183.247914
107,6.145648,-31.659158,-22.825413,-29.27303,-16.760216,-25.234795,-33.44593,-38.495979,-2.50946,-6.80397,-11.509094,-12.242088,4.115524,-5.082779,-9.811935,-7.913017,8.563614,-3.012772,-7.665596,-5.714493,11.156273,-0.872498,-4.253654,-2.206535,-27.074777,-49.579529,-63.501129,-63.222604,-72.839551,-84.006094,-73.822216,-64.275541,-68.825589,-77.292342,-69.078086,-60.641961,-60.051843,-65.092252,-56.647883,-48.444495,-47.753662,-52.724385,-46.832624,-40.143387,6.342373,28.145771,58.274345,76.513824,9.588261,50.360241,53.824081,46.713753,9.621849,53.57111,52.013512,41.789989,14.366798,58.199272,53.494949,42.853718,20.494595,54.087124,49.14608,38.362083,-28.097055,-46.795697,-48.561234,-41.829235,-69.020319,-59.663063,-45.228534,-39.741145,-54.483654,-43.475378,-30.778011,-27.862527,-35.137775,-24.330959,-13.762561,-12.661551,-13.828264,-8.810178,-2.28458,-0.46955,142.996702,153.30412,-246.913118,155.672804
108,0.81562,-29.402273,-13.998985,-35.941395,-19.873238,-26.044693,-28.545914,-28.323784,1.02562,12.349205,8.020821,3.965149,13.161507,16.373062,8.936119,5.554161,21.528854,21.519356,13.19458,10.080757,26.475792,25.230789,17.397652,13.680496,-25.598139,-50.66822,-67.056748,-72.914238,-78.210972,-94.230542,-86.839913,-79.258259,-71.714891,-84.157599,-75.869952,-68.512082,-60.026649,-68.482442,-59.460058,-51.44328,-43.562507,-50.231645,-44.711312,-38.980966,0.796452,16.064014,39.500198,56.669369,4.27906,37.457142,38.341026,30.303497,5.431137,39.525375,36.760769,27.775497,8.879642,41.273346,38.260918,29.783478,11.793423,34.801311,31.638336,23.118782,-21.723332,-42.529516,-51.703805,-50.760475,-68.88206,-59.223307,-42.601918,-36.092807,-57.685506,-45.325729,-29.721616,-24.92225,-41.443295,-28.1078,-15.0759,-11.844563,-22.376373,-13.610594,-4.776703,-0.715132,143.701773,124.63592,-261.022654,120.465482
109,9.02607,-34.406249,-10.565872,-36.3575,-19.979782,-26.386642,-29.279251,-26.992607,9.464378,3.471107,-9.487267,-14.226265,18.855858,7.338753,-8.146477,-10.653763,23.355331,8.357162,-7.119141,-8.248329,23.889771,7.049904,-4.788666,-4.844513,-27.535435,-53.6813,-70.470064,-73.953775,-73.05858,-97.780759,-88.449561,-77.314449,-66.634839,-90.153378,-78.825543,-68.12679,-56.790434,-77.192183,-65.256353,-51.973037,-43.285155,-60.861299,-53.35075,-42.876522,5.320587,11.064205,21.682777,29.82193,-16.313667,17.948284,22.222137,16.688919,-17.3283,23.450546,24.850559,17.266159,-12.223835,25.221748,26.741238,19.461422,-4.660778,22.541485,26.017914,21.011982,-13.358281,-27.372074,-36.729516,-40.727947,-50.307598,-49.911407,-38.179384,-31.97813,-51.860744,-47.270496,-35.150434,-29.133752,-48.401208,-42.794487,-32.266535,-27.875988,-41.500013,-40.557022,-31.766604,-26.538536,153.65098,89.976911,-270.665388,83.855222
110,6.699371,-7.006912,-13.695431,-25.750354,-23.091431,-26.347504,-28.275604,-28.697319,19.321518,8.427086,-8.593941,-19.633942,26.458626,9.026985,-9.748535,-20.571442,26.515274,7.367821,-10.913887,-20.72319,18.544121,2.840309,-12.422905,-23.400307,-41.151092,-68.615638,-86.288667,-98.859199,-77.513532,-99.349373,-102.170256,-99.616351,-71.772627,-95.341031,-98.510309,-96.045109,-62.750089,-85.891921,-87.051069,-80.572493,-52.283364,-71.734836,-75.576607,-72.145538,13.698235,19.394073,25.35759,29.607582,-16.426048,15.031471,24.320869,22.336521,-25.805969,11.831474,21.611023,20.40493,-27.8508,7.081833,17.304668,16.541977,-26.033249,-0.990887,11.075821,13.563194,-23.457376,-46.542675,-59.679056,-62.817058,-70.257488,-75.298916,-61.545524,-51.14376,-64.48787,-68.05621,-54.660168,-44.701339,-54.452748,-55.642771,-43.848381,-35.304285,-41.297008,-46.440818,-38.728778,-31.050855,160.916204,83.70787,-283.794966,58.842739
111,-0.576324,-33.687042,-6.334476,-21.550122,-20.424385,-22.963142,-27.5457,-27.885361,19.812584,17.8339,-4.623528,-14.299393,28.145027,22.003899,-4.265671,-12.286606,29.939804,19.067688,-5.080147,-12.165985,24.002838,10.750809,-6.566963,-12.057953,-32.625027,-59.293672,-76.138752,-86.622891,-83.270955,-111.35177,-103.745169,-91.478295,-74.635068,-106.107061,-96.977262,-83.539631,-62.474034,-93.940871,-84.866648,-71.343431,-48.510167,-73.687755,-69.144715,-58.374146,16.604118,21.863136,27.786484,30.086918,-23.114433,2.392845,17.610626,18.392372,-32.021828,-0.72979,16.326141,15.538502,-33.844414,-2.885685,13.142223,12.05286,-30.41193,-6.315594,8.313503,9.14257,-32.569606,-59.261932,-75.63138,-79.459164,-76.61633,-96.500456,-82.067347,-70.1757,-69.534206,-90.918065,-77.008476,-63.75693,-58.560633,-77.87715,-65.162647,-52.384665,-45.022719,-62.190075,-54.142329,-43.312109,159.853077,51.298645,-290.616245,38.570434
