YashyHoby/handMotion-similar-search/project/data/handData/tgt/d4_feature_d2/2.csv
,vel_0x_L,vel_0y_L,vel_0x_R,vel_0y_R,posFromWrist_1x_L,posFromWrist_2x_L,posFromWrist_3x_L,posFromWrist_4x_L,posFromWrist_5x_L,posFromWrist_6x_L,posFromWrist_7x_L,posFromWrist_8x_L,posFromWrist_9x_L,posFromWrist_10x_L,posFromWrist_11x_L,posFromWrist_12x_L,posFromWrist_13x_L,posFromWrist_14x_L,posFromWrist_15x_L,posFromWrist_16x_L,posFromWrist_17x_L,posFromWrist_18x_L,posFromWrist_19x_L,posFromWrist_20x_L,posFromWrist_1y_L,posFromWrist_2y_L,posFromWrist_3y_L,posFromWrist_4y_L,posFromWrist_5y_L,posFromWrist_6y_L,posFromWrist_7y_L,posFromWrist_8y_L,posFromWrist_9y_L,posFromWrist_10y_L,posFromWrist_11y_L,posFromWrist_12y_L,posFromWrist_13y_L,posFromWrist_14y_L,posFromWrist_15y_L,posFromWrist_16y_L,posFromWrist_17y_L,posFromWrist_18y_L,posFromWrist_19y_L,posFromWrist_20y_L,posFromWrist_1x_R,posFromWrist_2x_R,posFromWrist_3x_R,posFromWrist_4x_R,posFromWrist_5x_R,posFromWrist_6x_R,posFromWrist_7x_R,posFromWrist_8x_R,posFromWrist_9x_R,posFromWrist_10x_R,posFromWrist_11x_R,posFromWrist_12x_R,posFromWrist_13x_R,posFromWrist_14x_R,posFromWrist_15x_R,posFromWrist_16x_R,posFromWrist_17x_R,posFromWrist_18x_R,posFromWrist_19x_R,posFromWrist_20x_R,posFromWrist_1y_R,posFromWrist_2y_R,posFromWrist_3y_R,posFromWrist_4y_R,posFromWrist_5y_R,posFromWrist_6y_R,posFromWrist_7y_R,posFromWrist_8y_R,posFromWrist_9y_R,posFromWrist_10y_R,posFromWrist_11y_R,posFromWrist_12y_R,posFromWrist_13y_R,posFromWrist_14y_R,posFromWrist_15y_R,posFromWrist_16y_R,posFromWrist_17y_R,posFromWrist_18y_R,posFromWrist_19y_R,posFromWrist_20y_R,posFromBody_0x_L,posFromBody_0y_L,posFromBody_0x_R,posFromBody_0y_R
2,-21.692619,-1.14016,-1.767998,-1.590999,-19.257374,-23.910198,-30.123024,-39.973068,-5.105267,3.725338,-9.507866,-27.224178,10.284691,30.893211,17.446747,-0.98608,25.938835,46.428337,28.457794,6.557293,40.015297,54.354172,44.929962,31.383133,15.890295,41.695175,61.242021,72.927669,63.805651,104.557403,125.43849,141.613084,61.037009,91.823048,97.835994,103.303376,52.321124,82.374062,88.484327,93.242937,42.278222,60.461743,62.046629,63.588845,42.477951,73.800201,100.327263,123.304825,82.713547,115.477867,111.561012,100.273819,70.573196,105.070267,100.459442,90.495987,55.62149,89.986954,89.924812,82.339897,39.494247,67.986717,77.35817,78.942833,-12.409486,-8.376011,5.165051,14.687088,20.587958,46.717027,41.275951,33.947536,40.472455,64.008007,55.186528,47.062212,55.956124,79.058558,73.427662,66.759976,67.967505,90.62756,91.374246,87.295199,-16.451054,357.837293,-51.68684,359.772365
3,-14.367142,5.289479,1.088963,1.417975,35.35984,59.419556,78.476601,92.970657,57.036438,90.008354,82.682076,70.471802,41.239128,73.669624,66.121788,52.118225,23.878098,46.217995,36.058617,20.213299,6.867886,4.903851,-4.474411,-15.062885,-11.438276,-2.933145,12.43326,26.041816,34.476675,53.577127,44.569039,35.446651,50.553951,67.08114,59.013881,54.592242,61.113209,88.487291,94.297881,100.939261,65.559116,94.956326,108.202036,122.456748,41.920967,73.516445,100.816784,121.824703,80.388966,113.215542,108.559628,96.39925,68.352757,102.872944,98.237057,87.650471,54.116993,88.575726,87.129536,78.662395,39.490013,68.605099,75.829296,74.846134,-10.682327,-7.250672,5.677024,15.45903,20.008924,47.334902,42.461992,34.725838,39.053492,63.803366,56.815998,48.903424,54.573656,78.075121,74.412457,68.583404,67.46356,89.453808,88.744666,83.838905,-29.736986,364.415224,-49.516668,362.478793
4,31.110878,-13.899894,0.650997,0.754714,-36.435127,-55.157661,-66.007404,-73.331966,-38.360367,-56.658726,-69.613609,-80.446243,-20.365105,-39.274006,-55.022106,-66.002655,-2.969856,-14.515686,-32.350388,-45.808239,14.462814,7.907753,-4.901733,-16.629925,6.950009,26.727431,51.749686,66.096529,64.422105,97.260233,117.150597,132.03294,79.225655,113.479844,132.513358,145.152062,86.593405,120.261768,138.516795,152.250334,88.013974,117.81182,134.521049,148.771563,41.021519,72.790489,100.084648,121.019325,80.324478,112.12326,108.540344,97.107239,68.232994,101.99398,98.050117,87.827911,53.802795,87.601433,87.026367,79.316483,38.832493,67.493134,75.091667,74.523811,-11.964142,-8.205456,5.044638,14.694746,20.457664,46.847321,41.704314,33.999406,39.49544,63.279352,55.894435,47.861695,54.648003,77.318494,73.225676,67.505303,66.944116,88.334273,87.357814,82.573577,2.214918,351.367702,-48.024645,364.085879
5,-12.259541,1.817562,1.03735,0.239221,-30.809841,-42.573338,-50.061665,-62.597466,-25.771008,-38.802681,-54.48698,-70.416183,-2.242699,-4.19426,-18.924236,-31.553993,21.444111,29.565983,17.726955,6.457043,42.53088,49.845715,41.279354,29.593678,11.085125,32.362835,54.268115,66.927381,59.290893,96.803466,118.191277,133.952575,68.050251,101.661494,114.312795,122.137437,67.157957,98.99684,103.879692,105.570789,61.303401,89.567429,97.145192,101.696074,40.090942,71.781406,99.054852,120.485516,79.277859,111.121273,107.673626,96.302547,67.223682,100.941296,97.341099,87.354755,52.887783,86.572781,86.562824,79.341831,38.040905,66.513119,74.438152,74.419727,-12.29389,-8.513653,4.974304,14.400011,20.52948,46.451747,40.922616,33.133913,39.58047,62.951334,55.156641,47.131311,54.587549,77.2418,72.732291,67.033592,66.692606,88.164768,87.298472,82.818603,-9.570951,353.841825,-46.513624,364.981661
6,-12.593479,4.068796,0.775394,-0.177779,15.514011,31.438751,41.907005,50.307999,34.019737,65.686226,59.200745,47.582016,28.924484,55.491829,45.596352,32.050667,24.517136,43.540306,31.433601,17.083969,21.910629,26.92646,20.009651,13.26273,3.381144,20.197819,34.389298,46.477868,56.927458,80.88847,72.609037,64.788224,65.044796,90.35839,85.725071,82.875969,64.739935,92.813401,93.395707,96.722573,59.205986,79.868662,79.693661,83.359907,39.60268,71.04538,98.152542,119.108047,78.317299,110.137711,107.333336,96.261635,66.302605,99.73114,96.722603,86.849442,51.803398,85.10273,85.823822,78.983231,36.676083,64.813271,73.214951,73.524284,-12.671864,-8.696125,4.99814,14.7623,21.006873,46.611619,40.933731,33.09149,40.005807,63.0468,55.090013,46.953778,54.813988,77.152632,72.633243,66.894283,66.514456,87.715534,87.245737,82.96668,-21.939554,358.320181,-45.513353,365.213441
7,24.885178,-2.231475,0.881023,-0.208161,-34.597492,-54.049816,-66.441765,-75.482197,-42.731609,-61.077862,-74.645977,-85.691299,-25.170135,-43.576584,-59.041157,-69.668884,-7.284393,-18.067131,-35.380783,-48.729515,11.095619,5.84301,-6.219406,-17.64616,5.105154,24.57722,49.698337,63.245636,59.034999,92.017006,112.182035,126.774646,74.786665,110.385963,129.957262,142.702547,83.407702,117.916981,135.990215,149.32639,86.121262,116.685431,133.337973,147.405582,39.348278,70.495777,97.370853,118.214321,77.582531,109.607677,106.222744,94.641781,65.494823,99.047756,96.231709,86.386814,50.796833,84.474621,85.397129,78.509388,35.269089,64.06683,72.879925,73.419399,-12.607643,-8.612206,5.459601,15.351399,21.38003,46.283354,40.017787,32.009685,40.376433,63.033833,55.071858,46.982924,55.206659,77.492445,72.89383,67.026244,66.998456,88.477966,88.166682,83.936532,3.098288,356.297253,-44.479666,365.213827
8,-15.372276,1.249334,0.21246,0.349199,-25.230618,-38.034668,-47.287674,-59.930248,-24.326363,-35.041466,-52.667141,-70.690784,-3.20034,-1.770401,-15.896015,-28.833904,18.537254,27.558289,15.842171,3.395519,38.717766,43.379173,35.223541,23.441048,10.735618,31.234655,53.234413,64.752161,55.293542,92.655505,112.665973,128.896081,64.698438,96.978652,111.263251,120.197362,65.246288,98.119552,107.821715,112.535865,60.338365,92.174963,106.264123,116.337653,38.810463,69.819031,96.741142,118.490524,77.584076,109.005547,105.949173,94.856186,65.633926,98.806686,96.486397,87.286034,50.722733,84.299698,85.880814,79.577522,34.689102,63.466759,73.27343,75.174408,-12.89009,-9.059094,4.737121,14.165359,20.179047,45.533025,40.681974,33.164356,39.182921,62.45943,55.698686,47.883925,54.258482,76.973062,73.381349,67.722541,66.225711,87.620315,88.218923,84.538846,-12.262573,357.767437,-44.255791,365.783876
9,-8.626957,4.846111,0.540447,-0.081943,0.242615,8.813381,12.035751,14.934998,22.236843,49.93372,48.041553,41.685963,24.475079,44.030857,35.892391,22.81065,25.635853,37.576733,22.914333,5.942745,27.350292,31.033688,26.3027,21.709957,13.499072,35.889895,53.239908,67.067678,58.036186,83.713181,82.384003,80.627451,59.440391,87.554489,89.459119,91.532142,53.479624,84.359584,92.089995,101.468462,43.56047,61.3302,63.359442,70.943937,38.601322,69.683704,96.610508,118.319492,76.505871,108.31461,105.284786,94.108601,64.488201,98.041363,96.726665,87.911625,49.553776,83.159809,85.624866,79.933949,33.519573,62.059879,72.606983,75.06815,-12.685325,-8.998394,4.575335,13.804428,20.504039,45.511042,40.000558,32.339864,39.459131,62.671913,56.034115,48.314263,54.277562,77.089029,73.599699,68.061489,65.922702,87.533803,88.761339,85.669249,-20.834455,362.799262,-43.660269,365.887648
10,-14.039211,5.585819,0.540733,0.198713,32.603416,59.842415,81.797791,99.757919,66.603699,96.451721,92.89238,82.892075,53.486824,86.479454,83.342171,74.712067,38.838501,68.853836,69.233551,63.519516,23.001709,40.90107,46.625061,46.998596,-13.545323,-6.551657,10.030366,22.783741,26.867913,47.013367,42.335959,35.374279,45.5011,62.479005,53.888535,46.669294,58.048598,77.609462,70.766404,65.526882,63.890681,85.146099,85.993253,85.474179,38.206844,68.844738,95.622768,117.492771,76.363964,107.669735,104.596195,93.400784,64.40855,97.52718,96.627445,88.018513,49.399738,82.693348,85.477924,80.014286,33.077316,61.543751,72.584438,75.534153,-13.393109,-9.855366,4.001674,13.567739,19.97243,44.86081,39.883541,32.405752,38.983838,62.500741,56.776663,49.342346,53.874579,76.975532,74.243138,68.861404,65.499897,87.075367,89.072993,86.63873,-34.966993,368.577171,-43.212862,366.27845
11,32.065773,-15.68337,0.793877,0.269541,-31.831341,-50.381413,-61.727314,-70.569077,-32.120018,-48.498058,-62.014561,-73.878708,-10.866737,-25.613422,-41.695004,-53.150253,9.687538,4.541931,-11.66399,-24.185486,29.332123,28.463516,16.031914,4.049606,10.89197,33.906225,58.101889,70.350948,67.271887,102.657713,122.441866,137.632468,76.903407,112.96114,132.369542,144.262547,78.598271,113.318428,128.532124,138.327283,74.719234,105.129953,120.633999,131.925186,37.687397,68.255024,94.83736,116.531696,76.127872,107.165966,103.996868,92.87241,64.107685,96.83939,96.251278,87.967472,49.154034,81.942272,84.870815,79.627018,33.112621,60.729733,71.503315,74.397182,-13.512287,-9.947621,3.703851,13.211995,20.375907,44.788624,39.202681,31.502899,39.346622,62.336176,55.930374,48.13846,53.935527,76.378467,73.148612,67.461831,65.055171,86.462618,88.524958,86.20129,-2.999697,353.048255,-42.517462,366.702444
12,-10.584583,0.810351,0.099621,0.061627,-25.746231,-35.169182,-44.374008,-57.448425,-11.368961,-13.021889,-24.44006,-37.819347,12.249012,20.499287,10.580235,-0.626793,33.813229,47.055073,38.099613,27.766285,52.109127,65.043468,60.894871,53.815441,17.569351,41.1309,61.520886,73.874056,66.572069,104.915802,126.318681,143.204207,65.732758,98.056937,105.520586,110.096045,57.18613,87.598023,89.942501,91.142929,44.563173,65.76283,65.345768,63.53222,37.957649,68.603783,94.943275,116.159821,75.478477,106.724052,103.610115,92.416763,63.184319,96.318169,96.450462,88.324013,48.12767,81.247101,84.904747,79.823227,32.122021,59.895287,71.070328,74.020729,-13.099918,-9.322027,4.477831,13.936203,20.999092,45.291457,39.523722,31.753482,39.872982,63.004007,56.86651,49.183709,54.343203,76.614477,73.501948,67.86432,65.283956,86.724934,88.912627,86.620637,-13.599157,354.006729,-42.432718,366.912195
13,-17.460594,10.232908,-0.832443,0.617813,34.901562,61.274357,80.830822,97.318439,61.99728,95.740414,87.647953,73.643703,46.771717,80.03809,74.121609,61.323795,28.243618,52.206516,45.498791,33.351116,8.657913,7.54509,-3.352604,-15.477219,-11.479278,-3.978579,10.525728,24.295885,36.31338,55.818976,47.263457,36.556553,54.732539,73.621249,63.891546,55.968659,66.172112,91.523744,92.10957,93.128205,69.380602,95.369004,106.779121,119.187249,37.844353,68.25531,94.617004,116.413078,75.941849,106.999855,105.487747,95.347137,64.50119,96.938438,96.600151,88.613205,49.637833,82.109528,85.439072,80.486412,33.201714,60.43293,70.930252,73.845749,-14.210622,-10.488616,3.109071,12.118951,19.176282,43.621047,40.598488,34.267156,38.028435,61.357371,56.661005,49.615221,52.81099,75.505131,73.820518,68.827688,63.963423,85.561186,87.984889,85.485356,-31.137943,364.564182,-43.343353,367.854553
14,26.199703,-14.847763,1.153393,-0.023836,-30.48357,-48.691578,-59.773521,-70.573483,-30.182991,-44.478951,-57.995682,-69.410191,-7.150898,-14.232216,-27.535973,-37.490101,15.017624,18.031769,6.428719,-3.275928,35.010338,38.261147,26.702385,14.975166,14.635959,40.29764,65.328848,78.090559,71.176674,109.465017,129.743297,144.622985,77.548946,115.231085,131.443965,140.561413,76.378652,111.906567,119.464323,122.942786,70.414427,101.03201,113.717521,122.216724,37.220707,67.28548,93.727627,115.47266,75.181904,106.304226,103.547688,92.95126,63.39426,95.668201,94.970341,86.836224,48.407192,80.635357,83.683491,78.789768,31.993561,59.03738,70.011578,73.417568,-13.215329,-9.875064,3.510634,12.467161,19.600631,43.832604,39.717371,32.774463,38.418698,61.467719,56.307792,48.897681,53.009765,75.719343,73.52813,68.070875,64.053764,85.770087,88.635553,86.693379,-4.946966,349.899478,-42.198687,368.013776
15,-9.922771,3.714905,0.629826,0.403477,-24.772282,-32.866573,-42.606411,-56.6609,-2.220554,10.28841,4.855385,-7.028446,18.869419,38.054523,31.122494,17.807522,37.424755,58.515987,52.258244,41.308994,52.196217,68.174,66.296711,58.602047,17.547676,40.777255,60.138726,74.887256,66.675069,99.057047,109.037766,115.649938,66.545455,96.749866,95.300708,92.310938,60.172627,88.830252,84.456224,80.663822,49.12906,69.894921,68.464102,67.469365,37.272835,67.063522,93.608551,115.861702,74.616966,105.979042,103.12088,92.191544,62.774734,95.323448,94.496269,86.258469,47.781143,80.307312,83.492203,78.552132,31.462269,58.578644,69.554901,72.963753,-13.873403,-10.693751,2.676325,11.332868,18.989425,43.105863,38.379857,31.226875,37.886348,60.603151,54.896055,47.501937,52.513168,75.067074,72.642073,67.285595,63.485599,85.237984,88.015579,86.085447,-14.909163,353.875371,-41.608286,368.678241
16,-21.640835,12.555217,-0.022831,-0.095034,35.891876,62.316742,83.457413,102.300568,66.666756,99.583168,91.600342,76.54129,53.318024,87.258568,80.463181,67.991066,37.793541,66.991997,63.699188,54.477081,20.878258,32.125969,30.142365,24.577274,-12.258136,-5.043959,10.282864,22.414412,33.468847,54.223284,45.678324,35.458013,51.792664,67.962627,56.314276,47.697006,64.716346,84.197119,76.691418,71.511238,71.2065,92.966913,95.871961,99.081377,37.119198,66.811352,92.914867,114.699497,73.791447,105.417995,102.57906,91.466732,61.979771,94.877987,94.169025,85.593624,47.214375,80.006733,83.094578,77.784176,31.336727,58.610516,69.357777,72.231503,-13.749161,-10.212283,3.467594,11.84836,19.645338,43.662481,37.624897,29.996498,38.379301,61.026512,53.996969,46.155654,52.865392,75.321424,71.620536,66.001866,63.924088,85.70562,87.73727,85.532286,-36.523819,366.649061,-41.604939,368.80168
17,33.438835,-11.128227,-0.457993,0.501105,-28.580875,-44.741592,-56.09808,-68.302345,-32.795849,-43.642902,-58.479309,-71.267395,-13.69709,-14.514885,-25.951881,-34.964962,6.104965,11.262131,-1.769943,-13.62545,25.534973,27.156143,15.475388,2.98336,13.933486,36.979358,60.948521,72.443237,65.2474,100.968901,119.071096,132.874845,74.304579,105.85058,118.18541,127.08772,76.043471,109.101554,119.693294,128.465928,72.837945,104.39395,119.820993,133.142286,36.932316,66.848087,93.554249,116.18597,74.086704,106.038265,102.847881,91.371059,62.483425,95.601597,93.756351,84.77869,47.753048,80.86504,83.325634,77.631855,31.710663,59.238911,69.727879,72.48888,-13.757992,-10.653984,2.517009,10.469165,18.886425,42.175161,36.53352,29.254813,37.817743,59.583899,52.598816,45.125719,52.613636,74.669957,70.923065,65.404678,64.00245,85.47208,86.942357,84.197922,-3.056889,355.579991,-42.034836,369.361942
18,-8.352757,3.167179,0.499992,0.427189,-25.58979,-30.355911,-36.276169,-45.455818,-9.262905,-11.796913,-22.16177,-35.416832,10.951252,24.172955,14.170132,1.109962,30.108891,46.868877,34.353962,19.029408,46.977596,61.827564,58.282986,50.984745,21.629873,49.294551,69.032021,81.956752,66.465859,107.018713,130.421872,148.886851,60.956981,91.70776,96.249194,99.18135,49.027604,77.043581,79.557872,80.710876,33.500031,50.756369,48.225157,44.161363,36.434269,66.170597,92.866917,115.550938,73.521824,105.803089,102.814808,91.391087,62.072811,95.325108,93.781414,84.9333,47.637348,80.674267,83.394985,77.863369,31.959686,59.321537,70.072002,73.161106,-14.022901,-11.17244,1.918524,9.989858,18.353704,41.658372,36.349257,29.208068,37.293729,59.057291,52.358792,45.006973,52.020214,73.901782,70.336992,64.901227,63.303929,84.627581,86.498001,84.201503,-11.365671,358.788079,-41.49087,369.830041
19,-17.376537,8.984067,0.601959,-0.424905,33.751373,60.388412,80.91877,97.172127,58.47393,93.270721,87.266235,74.290237,44.40834,81.199722,75.224762,60.740891,28.228111,56.874962,51.871147,39.162483,11.554127,17.470264,11.221046,2.397251,-13.385822,-6.467923,8.73651,23.417856,33.429203,51.95797,42.41432,31.559339,51.63378,69.174355,58.168765,50.276074,63.239276,88.248502,86.078778,85.011236,67.786762,94.504004,104.159236,114.549546,36.333561,65.953732,92.319889,114.85033,72.637424,105.11919,102.965298,92.093868,61.062183,94.512806,94.389324,86.196156,46.592503,79.666271,83.485279,78.686886,30.92165,57.954197,68.82288,71.883717,-13.728352,-10.570991,2.635384,10.473611,18.765827,42.30743,36.586316,29.1725,37.58198,60.027761,53.144195,45.451576,52.090116,74.389486,70.672729,65.149093,62.971279,84.805546,86.937232,84.917499,-28.714628,367.829003,-40.86133,369.461993
20,23.424225,-10.966873,-0.063629,0.568474,-26.234379,-43.461056,-56.173782,-69.48246,-28.796482,-36.287556,-52.050304,-66.684666,-7.744846,-0.289307,-9.719868,-18.082466,13.335686,26.49456,17.783203,9.05777,31.973763,38.477325,27.902641,15.759659,14.591314,37.627243,60.099453,71.876492,62.591144,100.469155,119.515699,134.367785,69.834282,101.061589,109.129095,115.274002,69.666877,100.962047,105.310079,109.388014,64.860657,94.14579,108.046672,119.700704,36.172428,65.872478,92.564106,115.18095,73.381863,105.121479,102.750378,91.977139,61.978168,94.665585,93.682652,85.271473,47.49258,79.995861,83.18018,78.100262,31.699734,58.606281,69.45734,72.713985,-14.670478,-11.729676,1.478243,9.273245,18.230018,41.651394,36.280467,29.031956,37.092978,58.98776,52.278887,44.837653,51.752032,73.569997,69.899984,64.397158,62.723351,83.981857,86.368572,84.671671,-5.264654,356.879297,-40.89921,370.047634
21,-10.551567,3.298028,0.172176,-0.643625,-19.266186,-21.397877,-25.629559,-33.325653,2.250881,16.478004,8.849773,-4.708614,18.957024,36.930428,26.320839,10.968018,33.577766,51.539383,38.619576,22.502518,45.74707,58.924026,56.713486,50.409737,19.35931,44.657651,62.560577,74.252771,67.387484,99.726854,107.565327,113.249823,62.493702,92.286423,93.636719,94.046618,51.128477,79.08085,83.095862,87.055669,35.120238,52.857735,53.120668,54.780705,36.259003,65.55645,91.700134,114.072762,72.49958,104.494629,101.873817,90.838394,60.756111,93.877487,93.604202,85.308037,46.254616,79.288788,82.842979,77.645645,30.713997,58.190575,68.874664,71.370163,-13.536308,-10.216791,3.027252,10.886845,19.703198,43.178729,37.011468,29.520711,38.32459,60.359546,53.146974,45.412364,52.734728,74.547073,70.355208,64.693375,63.621017,85.190992,86.704186,84.210889,-15.800714,360.2105,-40.711527,369.437185
22,-16.556168,8.747316,-0.217495,0.232182,31.291008,57.559433,78.785477,97.098541,61.68869,94.716568,89.963951,77.834702,49.182014,84.790077,79.630623,68.150482,34.151917,65.488701,63.283768,54.896851,18.371372,32.708931,31.747169,27.075691,-12.934303,-6.654718,9.110285,20.687006,29.231534,49.104916,42.788281,33.881648,48.308706,65.925234,54.395567,45.843938,61.308526,81.971881,74.031272,68.711906,67.958366,90.875735,93.862417,97.261901,36.271191,65.955334,92.331905,114.354229,72.904072,104.278965,102.447224,91.972904,61.233501,93.78336,94.137096,86.522884,46.342106,78.748455,83.02454,78.596249,30.057678,57.014751,68.683262,72.666149,-14.742911,-11.574621,1.78928,10.13034,19.066428,42.465141,37.608347,30.478954,37.98484,60.306317,54.508571,47.200656,52.53651,74.465069,71.601023,66.305555,63.20624,84.230588,86.979469,85.43046,-32.322206,369.00027,-40.894346,369.71182
23,27.503815,-8.279619,0.264301,-0.428733,-24.216042,-40.357418,-52.70319,-63.377953,-32.973461,-42.408886,-57.065792,-71.070442,-16.795235,-22.558365,-36.194859,-47.87138,0.228653,-2.468777,-18.262081,-32.520618,18.134193,14.979973,3.522034,-8.316135,9.998874,30.551325,53.912803,64.334728,56.916713,92.448888,110.62117,125.379766,69.359236,102.30833,116.312767,127.423457,75.640056,109.925428,124.122898,135.626567,77.594641,111.153088,125.723283,137.585969,35.807076,65.66082,91.971016,113.938522,73.142052,103.812561,101.125374,90.254402,61.120377,93.045616,93.232613,85.578117,45.979843,78.066444,82.09053,77.553635,29.583149,56.45977,67.938881,71.792107,-14.628549,-11.234932,2.381652,10.830405,19.753154,43.480009,38.573383,31.215389,38.451549,61.111542,55.39438,47.950368,52.821241,74.86762,72.13609,66.737375,63.477015,84.525137,87.450686,86.088534,-4.818935,360.738281,-40.630589,369.300716
24,-9.510155,3.341315,0.24971,0.025688,-21.472778,-30.264931,-37.921886,-47.884254,-13.650856,-17.17289,-32.733135,-49.951801,5.670776,13.782463,0.359001,-13.247509,24.747276,39.887695,27.557945,13.694344,42.141953,52.946892,46.997681,37.371254,11.055176,32.30516,51.23265,61.491307,56.441976,93.634743,112.077862,126.936123,58.974607,91.370047,101.834333,109.327252,54.532221,87.140576,94.79528,99.932235,45.890621,70.413501,76.295413,80.40515,36.08963,65.968323,92.411728,114.125748,73.252716,104.202919,100.876694,89.681168,61.49437,93.68866,92.533722,84.108467,46.596909,78.983803,81.980667,76.622772,30.402489,57.842789,69.050331,72.49054,-14.565255,-11.432842,2.091363,10.7484,19.005295,42.521704,37.435508,30.133707,37.917161,60.193808,54.031857,46.464221,52.615427,74.683851,71.503828,65.811798,63.722658,84.916944,87.674532,86.18715,-14.325743,364.081402,-40.377531,369.328211
25,-13.038197,3.155817,0.908203,-0.514875,27.123241,49.809666,66.527081,80.866299,47.103138,78.291264,75.969028,69.724102,32.951488,66.455326,65.351887,58.820858,18.979568,48.272266,48.368397,43.096218,7.562027,20.839806,21.570683,18.601398,-5.923038,3.796045,17.128762,30.595785,39.084862,60.831628,54.277933,44.793502,52.567693,73.282857,67.898221,61.774989,59.379937,82.621063,76.964972,71.760648,60.071851,79.035217,78.335152,78.65434,35.79895,65.08152,90.92205,112.831192,72.913284,103.299294,100.598946,89.821243,60.778313,92.697945,92.653885,84.875679,45.664673,77.734566,81.356506,76.61602,29.437466,56.192551,67.339439,70.866051,-14.357465,-10.90043,2.729121,10.745251,20.359296,43.8473,38.588326,31.293256,38.983035,61.54713,55.230495,47.565169,53.244478,75.716132,72.523883,66.949982,63.749396,85.442378,88.013665,86.541782,-27.322941,367.234547,-39.428329,368.810665
26,25.462132,-5.29448,-0.198727,-0.283064,-25.937634,-42.697849,-55.920696,-68.5536,-38.329182,-52.545376,-67.376804,-80.298042,-21.613312,-32.601814,-46.483612,-57.617054,-3.551559,-8.243179,-21.355877,-32.766438,15.405235,10.17334,-1.153679,-12.568703,7.662423,26.830986,50.758653,61.972405,55.651694,90.098421,109.227895,124.12123,69.486751,103.034514,117.807868,126.948349,77.038147,111.957325,122.783469,129.929474,80.217058,114.162247,130.548831,143.25404,36.158237,65.397778,90.952778,113.031178,73.799458,103.293056,100.722485,90.232601,61.360073,92.512264,92.457104,85.074406,45.633945,77.116528,80.709515,76.313725,28.627567,54.753742,65.885639,69.794941,-14.887222,-10.980705,2.658046,10.281938,20.830328,44.44949,39.533849,32.033273,39.541753,62.510621,56.547075,48.870882,53.646905,76.513453,73.798905,68.346035,63.656709,85.45411,88.487291,87.145825,-1.837091,361.894094,-39.603338,368.481628
27,-9.364586,3.107342,-0.814133,-0.099418,-22.285767,-34.789639,-46.556797,-60.783978,-21.054611,-31.683083,-48.229122,-64.828949,2.131519,8.888855,-4.931545,-18.660221,25.305748,41.375999,32.928085,22.732086,44.976654,57.015381,51.168823,41.964684,15.889431,36.253173,53.11968,61.604928,57.145375,94.146098,115.539035,132.118711,57.869028,92.039051,102.917127,109.620258,51.11378,82.570675,85.112198,84.19928,41.039756,64.256552,65.155885,61.849954,36.368122,65.964603,91.660595,113.810635,74.170017,103.835163,101.692142,91.384678,61.919804,93.107929,93.276157,86.118221,46.31773,77.845516,81.728954,77.712765,29.455318,55.547619,66.714306,70.753384,-14.936931,-10.873321,2.796367,10.410255,21.129694,44.308391,39.203299,31.712542,39.806724,62.337164,56.203496,48.646481,53.820733,76.328882,73.648975,68.458791,63.714013,85.242986,88.198299,87.036218,-11.189775,364.973062,-40.405569,368.353835
28,-12.778015,-0.753849,-0.344639,-0.245458,35.311661,57.314301,73.257866,85.543327,51.836128,83.064995,76.986809,66.104164,31.717987,57.829971,50.138397,36.510773,10.375214,23.130913,7.912731,-11.076393,-7.892876,-16.930332,-30.505886,-44.542465,-6.12385,5.373521,19.215061,33.363192,44.600223,65.872808,57.854825,49.404837,58.691852,80.699576,80.50747,81.160913,64.501022,95.454651,108.775574,121.543459,62.682658,89.596699,101.980311,115.660992,36.372185,66.119843,91.859665,114.348793,74.315758,104.250755,102.152596,91.870651,61.757927,93.27301,94.113235,87.478752,45.978127,77.559814,82.127495,78.701591,29.101639,54.946289,66.338768,70.675163,-14.567231,-10.562778,3.263695,11.075677,20.954447,44.631654,39.755533,32.257859,39.562624,62.828636,57.389968,50.166282,53.452145,76.602745,74.69299,69.948273,63.332087,85.23749,88.322294,87.18695,-23.916435,364.202294,-40.698853,368.091458
29,18.85952,-2.352814,-0.42738,0.074533,-23.773441,-39.420776,-51.739311,-65.013542,-35.025616,-44.953766,-59.874973,-73.694172,-17.94508,-21.826401,-34.877071,-46.098919,0.508118,1.796494,-10.106163,-21.344433,19.493637,16.878891,5.747223,-5.862122,9.958242,30.468456,54.072489,64.073462,55.782111,90.733647,108.823677,123.07913,68.051239,100.274209,112.155483,120.200326,74.11902,107.751258,116.525806,123.002683,76.027045,109.477182,124.95943,137.888176,36.313992,66.055126,91.988583,114.764843,74.649639,104.605808,102.822933,92.698002,62.607708,93.998737,94.082394,86.889553,47.124882,78.711262,82.501774,78.450222,30.341835,56.639843,67.254467,70.704861,-14.647074,-10.751549,2.894612,10.789835,20.553748,44.530692,40.5975,33.708006,39.259986,62.512659,57.33606,50.326277,53.391629,76.373157,74.219364,69.365967,63.666836,85.263363,87.411043,85.215013,-5.036831,361.824038,-41.106148,368.14055
30,-9.756145,2.366214,-0.405407,0.030443,-19.316597,-27.915745,-35.848103,-45.996323,-10.799904,-10.647926,-24.878368,-42.555656,8.333702,22.789249,10.411205,-4.83078,27.561321,47.82114,40.290699,29.607182,44.576054,56.531811,51.577663,43.004551,14.238533,36.294299,54.561738,65.7674,58.781699,94.923783,110.377626,121.863882,58.590705,88.552005,95.667876,100.36597,52.041456,81.262492,83.824826,83.785676,42.378628,62.916075,66.698967,68.448911,36.395416,66.28521,91.95694,114.2593,74.547043,105.051842,103.42289,93.225288,62.399139,94.449348,94.83284,87.569847,47.083168,79.207993,83.057671,78.828278,30.49387,57.302399,68.050117,71.277924,-14.382721,-10.393706,3.481426,11.804765,20.511696,45.02698,40.999001,33.970939,39.203916,62.793932,57.369838,50.120463,53.407314,76.27028,73.548446,68.345726,63.752978,85.447997,87.308475,84.906322,-14.76594,364.171696,-41.484518,368.152436
31,-14.556026,2.847126,-0.957756,0.093799,16.817379,40.939636,61.437149,76.820984,42.701225,76.256218,78.085098,74.62841,36.166878,72.762566,74.214478,69.71283,30.29892,63.617592,65.69252,61.913681,25.268898,47.644844,50.943031,49.023743,-3.257211,7.190897,20.069131,31.43133,39.898917,62.278378,58.215448,52.086534,51.669595,72.089222,65.599192,59.109717,57.509332,79.32248,73.180043,68.386297,57.803326,77.475216,75.376628,74.729731,36.131172,65.598221,91.517944,114.965515,74.860725,105.61203,104.92115,95.672836,63.20858,95.531044,96.643753,90.218353,48.003502,80.10601,84.76902,81.448631,31.237278,58.257294,69.687538,73.909149,-14.282129,-10.416121,3.073503,10.988239,19.826946,43.85576,41.60329,35.851425,38.493354,62.137834,58.634918,52.442217,52.732999,75.626347,74.927888,70.864155,63.138191,84.464437,87.297484,85.559271,-29.301081,366.987175,-42.421389,368.214588
32,22.165203,-4.82388,-0.133839,-0.053538,-22.358551,-38.18922,-50.298843,-63.998737,-30.985565,-39.507351,-54.598675,-68.683949,-12.169418,-8.014297,-19.051895,-29.792404,8.155231,18.263683,8.034496,-3.170013,27.656307,30.672741,19.922504,7.865353,12.054854,33.871953,55.611989,63.813679,58.605834,93.536251,111.556936,125.713094,66.33007,98.32302,109.541711,118.31663,67.916191,101.362375,109.416296,116.095962,66.22602,97.981231,111.398114,122.545916,36.184902,66.048946,92.056103,115.40205,74.162693,105.787754,106.890163,98.799076,62.667332,96.381054,98.328037,91.929417,47.818508,81.006489,86.257496,83.16267,31.357441,59.222546,70.673618,74.495831,-13.939476,-9.85833,3.995437,12.436656,20.08426,44.046878,41.878018,36.373895,38.783828,61.999204,57.87156,51.516393,53.084421,75.634992,74.145078,69.95908,63.682706,85.107197,86.943469,84.619615,-7.130384,362.151176,-42.549734,368.148932
33,-11.583767,2.165649,-0.082912,0.226192,-19.503651,-21.239147,-24.373569,-30.098362,-1.128559,-1.615276,-10.937119,-21.55735,16.271667,31.865273,25.536804,15.246391,32.923965,53.271217,45.976067,33.754921,47.844086,63.792343,67.15313,65.125008,19.308057,45.129918,64.95779,78.442351,61.53163,99.546357,121.380006,138.106464,54.936254,83.823961,92.39498,99.050872,42.512318,70.100488,77.599026,83.084377,27.295967,42.471872,46.795882,50.066678,36.575489,66.50219,91.968269,114.437599,74.200058,106.183548,107.922363,100.340309,62.26078,96.52977,100.807457,96.122818,47.062111,80.862007,88.50769,87.285004,30.336227,58.847008,72.386856,78.671722,-13.758918,-9.688948,4.419786,13.796771,19.051855,43.704719,41.255327,35.083682,37.968229,62.185258,59.174,52.991178,52.48927,75.66914,75.650553,71.982394,63.122136,84.827035,88.10345,87.03523,-18.742876,364.321395,-42.661371,368.379693
34,-14.891853,5.927546,1.292152,0.534697,29.09317,56.485062,79.189568,98.793755,52.556877,88.093414,94.268074,95.932274,40.928535,81.871948,90.38681,92.280579,30.005608,66.059303,76.690636,80.77961,20.196133,42.511711,52.939453,58.321037,-11.42432,-4.526923,10.20123,22.884023,27.209146,49.547543,52.047508,51.759628,44.305921,65.432157,64.899992,61.840938,55.306077,76.931072,77.652872,77.612981,60.327868,81.791693,86.621934,89.120973,36.178665,66.459732,90.955811,111.077728,70.963898,104.63665,108.720474,101.859856,58.289452,95.024071,103.110123,100.180092,43.146629,78.516655,90.112381,91.844101,27.236137,55.740738,70.113029,76.701736,-12.082024,-6.868931,6.79625,17.516863,20.012938,45.626824,45.146529,39.454129,38.116986,64.273781,64.382462,59.14862,51.999404,77.269279,79.68125,76.923785,61.810063,84.468821,87.881396,86.21821,-33.603659,370.228532,-41.338148,368.893982
35,21.006718,-6.801808,-2.88168,-0.646527,-25.281258,-36.158924,-44.691124,-56.760578,-17.92448,-22.950726,-34.692249,-44.507332,-2.077847,7.668858,5.792027,3.244801,12.834377,29.0201,27.235508,22.663479,26.534214,34.285755,30.013561,21.903019,13.669936,32.060567,53.965599,64.282117,55.451376,85.726244,105.662674,121.662885,64.61242,93.63888,107.535008,117.86968,67.707042,96.054618,107.983069,118.378627,66.973694,97.035956,113.441558,127.531335,37.28651,68.695507,93.423786,112.217503,70.386829,105.022602,110.992069,105.994091,56.67326,93.384647,105.478306,107.611599,40.749836,76.010914,90.445461,95.834484,24.676437,51.433697,66.451435,74.972706,-12.322974,-5.674863,9.509872,23.242917,17.822898,44.9903,49.914649,46.987,36.150791,65.259009,71.35149,69.638842,50.47102,78.355098,85.265031,84.853526,60.155028,84.349581,90.6572,90.494797,-12.59119,363.40366,-44.214077,368.224391
36,-27.055378,2.06549,-1.870308,-1.748957,34.602242,59.383736,81.019135,97.925034,43.140106,71.258812,85.895004,99.471703,25.412865,49.536896,63.459778,75.05825,8.247585,17.51564,13.364811,10.107365,-5.789509,-14.12962,-22.030792,-26.467724,-3.031019,5.871723,22.294863,36.603421,38.243697,57.699461,67.267997,74.965679,51.834593,74.888677,86.886473,96.217145,56.653842,87.483599,112.882223,133.354275,55.343436,77.65843,90.833559,101.469882,38.372612,70.754757,95.045986,109.946079,64.324093,99.047298,106.74448,102.30566,47.294025,85.561924,100.084705,102.364483,30.502224,67.147236,83.201809,87.795582,15.94202,43.858509,59.681683,66.19978,-9.663322,-1.582663,13.827214,28.629344,23.024259,57.985551,58.219276,49.592003,39.083503,74.459264,76.64702,71.203597,51.689911,83.763569,88.447956,85.325114,60.223016,87.700467,93.785167,92.111793,-39.621391,365.534713,-46.059208,366.540998
37,27.302513,2.030477,-7.321529,-4.502408,-22.542229,-33.045273,-41.133785,-51.158924,-19.362659,-37.02919,-48.907242,-58.710251,-7.800922,-26.921024,-41.508179,-53.330784,4.589939,-9.0168,-23.285522,-35.973473,19.07135,13.239899,5.137768,-3.433456,8.68396,27.676473,49.21267,59.746241,55.961002,84.831604,101.760974,116.605217,69.004356,104.358629,123.823902,138.965721,76.916931,112.048407,131.218946,146.126298,81.206361,109.562212,127.159536,141.635994,37.522831,70.24189,91.846504,102.765656,60.527802,97.472878,106.007767,102.229156,42.441273,81.788177,93.88298,92.197037,25.733757,63.7603,77.281494,76.924667,12.535973,43.087578,57.510223,60.031471,-10.843064,3.758562,24.651258,40.485361,24.451311,58.468872,53.45023,43.722256,40.708218,76.484246,68.583713,58.530066,52.178542,86.562098,83.553803,77.371228,58.169073,86.618044,86.768159,81.727103,-12.328262,367.766188,-53.390121,362.239588
38,15.839081,11.357259,11.133099,3.229608,-26.114616,-43.998127,-54.452133,-64.928398,-29.798241,-53.278885,-65.407906,-74.247437,-14.015064,-41.31031,-57.52779,-68.761597,2.233658,-18.415604,-33.962002,-45.152836,18.875084,7.367821,-2.277031,-11.352196,4.743481,16.199788,34.950671,46.292308,37.908269,66.426338,85.613179,103.329126,51.374367,85.283247,106.428255,123.412274,61.107528,95.024498,114.749,129.727242,67.17111,96.641371,113.80533,127.432905,30.50663,55.763454,71.464977,77.361088,49.384975,72.699108,78.158054,73.701153,31.90115,57.711353,66.036129,61.586323,14.651241,37.150555,45.461826,43.414707,-0.003319,16.655903,24.491615,24.421177,-17.912066,-10.67467,5.420698,19.023511,7.635438,29.246292,31.763794,30.970116,30.109748,58.323449,55.818297,50.660161,46.140834,76.041557,80.923421,83.570352,55.941365,79.500444,81.853629,82.394933,3.307314,379.323225,-42.460527,365.668974
39,36.855125,13.098312,16.484814,-15.120515,-33.649063,-60.194836,-80.212669,-96.5839,-58.328648,-84.597988,-96.292477,-104.948044,-42.300797,-69.055138,-83.983326,-95.744076,-24.353371,-47.270966,-61.688919,-73.133011,-6.228561,-22.113304,-32.76329,-42.908707,0.055267,9.507402,23.072115,32.990281,32.054577,62.941454,79.115122,90.92001,44.804308,78.718499,97.101844,110.221954,54.230941,86.626751,104.373819,115.884775,60.023315,88.033116,103.014384,115.082576,40.872574,60.591431,66.424255,58.468437,60.164795,33.20961,20.918655,13.084087,40.308723,9.043121,-4.131603,-14.712639,23.360367,-4.885941,-20.259991,-31.725311,9.689999,-9.768562,-21.310101,-28.678894,-1.161216,15.355104,24.307432,28.99929,68.605325,113.182145,135.564878,148.56544,75.797457,118.954944,139.774775,155.708357,78.095808,111.587934,132.09784,148.100397,75.136481,103.225138,116.311903,128.552193,40.143213,392.583092,-25.99494,350.710014
40,8.873863,-0.372787,36.951828,-4.551005,-32.551918,-59.088879,-79.195518,-96.985874,-56.12709,-83.784885,-99.068642,-109.96542,-39.820061,-68.338623,-86.317291,-99.122658,-22.360153,-47.289963,-63.998165,-75.61821,-6.072006,-24.00959,-35.212326,-45.635948,-9.213408,-0.93274,17.758369,33.284522,29.673605,61.042258,78.80742,92.156624,45.269165,78.8801,97.210277,110.096477,55.601615,87.648905,105.228321,117.022403,60.913015,89.340496,103.676472,114.162865,22.748337,22.283821,12.562408,-2.472725,19.869003,-1.629868,-15.398598,-25.748749,8.675652,-19.082966,-37.41766,-51.503792,-1.46244,-27.784824,-44.293156,-57.686234,-10.313759,-27.446938,-36.482849,-44.746342,29.653227,59.172085,79.567567,90.01796,87.580856,120.068304,138.911566,154.095374,87.100747,123.254255,143.674313,158.486446,82.024801,117.828308,136.541832,151.076335,73.90067,102.468387,117.195613,129.002477,49.090548,392.343052,11.030359,346.291756
41,4.33239,-0.986463,-116.584969,-78.363311,-33.080521,-59.15966,-78.938713,-96.865826,-56.444893,-83.496151,-98.989735,-110.117912,-41.046867,-68.605556,-86.898365,-100.55706,-23.945847,-47.936211,-65.129299,-77.343349,-7.182541,-24.448586,-36.523933,-47.937698,-9.753169,-0.860801,17.550332,31.018405,32.405011,60.452604,77.20123,90.960889,47.784321,79.056521,96.524168,109.123043,57.78443,88.037007,104.209069,115.002979,62.87569,90.349374,104.166276,114.177006,35.771542,67.908611,95.351086,106.269722,73.885803,115.893288,107.130775,94.055443,64.45055,102.337189,92.577782,78.911934,54.294548,89.287376,81.04002,67.175446,43.212204,74.832344,70.409489,58.120537,-22.253675,-22.272509,-7.449446,8.476232,5.318995,25.689962,13.68772,3.843346,27.339748,39.99815,25.297106,18.520554,45.5999,54.408659,40.166976,34.562694,60.348245,64.487993,52.051522,47.432591,53.726692,391.330268,-105.250854,267.902125
42,5.634956,0.336046,0.820656,-35.417258,-33.531647,-60.404549,-81.417503,-100.433006,-57.120667,-86.04063,-102.222919,-114.164772,-41.800575,-71.960106,-91.144352,-105.616894,-25.073433,-51.261978,-69.55925,-83.075523,-9.119568,-28.440514,-41.269112,-52.854538,-11.804703,-3.273142,15.498983,29.216158,30.573864,58.766509,74.74097,87.556897,46.815272,78.111307,94.938294,107.304617,57.206199,87.695095,103.174132,113.731106,62.509078,89.760152,102.694208,112.260211,21.716251,51.342831,77.945251,90.468922,69.853134,105.191689,95.122089,83.594055,67.971096,86.568718,69.763756,60.696487,61.607323,73.261871,56.27655,46.869507,53.178177,63.200397,49.373875,41.047668,-28.481822,-37.952297,-28.230436,-15.045056,-28.978851,-10.183631,-8.463141,-12.559787,-6.094025,16.46865,10.714129,1.698692,16.436972,35.206627,28.41155,20.881396,36.951632,51.918697,44.549341,36.115531,60.157957,391.518576,-103.63389,232.337129
43,2.801628,-2.293781,0.822372,-39.723546,-33.385048,-60.421829,-82.321987,-101.390877,-56.955986,-86.130867,-102.596569,-115.09449,-41.872559,-72.210789,-91.897316,-107.080708,-25.495491,-52.194328,-71.131611,-85.088768,-10.044022,-29.196739,-42.182693,-53.91552,-10.369191,-1.690109,16.099938,29.529603,31.56539,60.092846,75.778871,88.267768,47.945613,79.363111,95.775136,107.72594,58.431513,88.949986,104.248775,114.429935,63.728339,91.224748,104.426369,113.980392,9.722271,35.727711,67.376003,86.560078,42.010117,82.226028,80.087471,71.229515,50.463181,73.50563,58.381577,49.051323,55.821934,73.165398,55.942497,46.408424,58.875275,67.354202,52.212353,44.876575,-31.788248,-51.699483,-53.182234,-48.390525,-50.829419,-45.609719,-39.417326,-36.124547,-30.067572,-11.341266,-10.596494,-15.738698,-6.556103,11.556898,10.243961,5.871661,16.868545,31.129309,27.483565,21.765229,64.601755,389.331454,-101.169348,192.720242
44,1.348,-0.410949,-7.470188,-35.346059,-33.376122,-60.192947,-82.104206,-101.41674,-58.042145,-87.407684,-103.74424,-115.870857,-43.064117,-74.328518,-93.738785,-108.454227,-26.721382,-54.449387,-73.187943,-86.966343,-11.365929,-32.180214,-45.484772,-56.901512,-10.731542,-2.862934,14.699192,27.997699,31.7922,60.890414,76.566497,88.750162,48.567378,79.75288,95.476449,106.425847,59.510972,89.941328,103.889819,112.677521,64.991629,92.599374,104.845592,113.217775,5.994759,28.649368,58.337803,77.201214,32.446575,72.300739,87.21508,95.429878,43.468494,78.97974,66.577663,54.338665,54.283619,83.234367,66.861649,53.607731,63.585377,80.927353,66.597176,56.281471,-35.913422,-62.226662,-72.535152,-73.608251,-64.755743,-77.699617,-83.224612,-88.378795,-46.326765,-46.210242,-40.812638,-39.97135,-24.603896,-23.770883,-19.111753,-17.455606,-2.752092,-2.008062,0.157402,-0.017105,66.287184,389.212986,-108.302107,157.666663
45,1.841469,-0.233602,-3.095741,-39.778998,-34.429321,-61.5271,-83.706322,-102.922955,-58.753052,-89.042759,-105.827122,-118.309422,-43.502312,-75.684299,-95.289974,-110.281162,-27.124786,-55.525589,-74.397984,-88.119164,-12.199745,-33.406448,-46.934166,-58.603592,-10.766123,-2.812731,14.832202,28.738889,32.604835,61.59406,76.760517,88.155135,49.645726,80.897918,96.478658,107.195875,60.461063,91.141817,104.633603,112.946197,65.630129,93.546872,105.575729,113.339238,7.985516,31.807537,62.882195,82.316723,31.178398,64.916496,62.856445,57.619972,43.996582,76.451683,63.859005,53.147335,55.712986,87.533226,71.218815,59.669495,65.974903,87.392864,74.449139,66.191998,-43.723676,-79.56661,-100.126379,-106.893606,-60.535257,-87.604507,-87.787628,-84.769175,-39.584515,-70.732658,-67.454545,-58.991404,-21.391886,-52.243967,-48.721322,-38.359047,-5.774652,-34.147082,-33.242779,-24.726779,68.057442,389.609315,-111.469059,118.517597
46,-0.941963,-0.414716,6.852207,-37.540175,-34.368324,-61.393204,-83.553371,-103.045979,-58.0196,-88.352337,-104.96006,-117.477951,-43.078194,-75.395794,-94.924564,-110.021839,-27.154083,-55.511284,-74.370518,-88.295116,-12.517891,-33.419609,-46.765938,-58.570518,-9.135788,-0.965653,16.132851,29.081665,34.729481,63.738961,78.72912,89.578544,51.404501,82.153613,97.562625,108.105335,62.038231,92.020526,105.17219,113.124593,67.13264,94.740323,106.535516,113.963596,-4.98373,12.459984,39.544659,56.671543,22.593613,53.832722,64.453354,72.090111,42.230129,67.350025,55.14719,44.998398,57.952881,79.801941,64.747868,53.824711,70.408459,83.329926,70.545044,62.270164,-43.305039,-77.00579,-97.002827,-104.213608,-68.982157,-103.918595,-121.112009,-130.176229,-53.156545,-90.182988,-87.274451,-75.816878,-38.268645,-73.878255,-70.580289,-58.117079,-24.347416,-56.249994,-55.497812,-44.282116,66.498814,390.373461,-105.233517,82.156283
47,-0.977097,1.768223,15.548801,-51.842528,-34.030724,-61.447792,-83.919697,-102.821617,-58.1987,-89.035664,-105.602303,-117.736588,-43.089981,-76.13308,-95.727024,-110.143204,-27.383881,-56.77906,-76.091652,-90.097389,-13.077621,-34.537811,-48.128471,-59.583664,-10.077976,-1.838804,15.311756,28.955756,34.376393,63.294975,78.077653,88.546448,51.202886,82.317683,97.183354,106.885394,61.872925,92.108088,104.504112,111.666296,66.88817,94.694133,105.959631,112.708828,-11.612034,2.54591,23.537235,36.097183,34.191742,63.937111,59.845219,54.038486,51.842079,52.309113,36.470547,30.58136,62.19738,59.988556,44.706631,36.31834,68.36832,70.16201,56.576271,47.970543,-42.809924,-77.591677,-94.519256,-100.766144,-88.847759,-122.763123,-130.059057,-127.816622,-69.589349,-94.315449,-87.071292,-77.356532,-48.686279,-72.738157,-67.857559,-56.082064,-27.501935,-50.890583,-48.455023,-40.052583,65.197763,394.488277,-90.008669,32.660349
48,0.797195,-0.524076,3.037892,-22.279811,-34.992142,-62.533607,-85.543041,-104.489021,-58.255119,-89.845448,-106.750088,-118.905315,-43.082771,-76.555996,-96.192913,-110.55994,-27.443619,-57.390289,-76.391945,-90.058651,-13.736572,-35.927353,-49.513321,-60.679779,-9.207048,-0.895875,16.540836,31.018529,34.713797,63.829672,78.598641,88.965424,52.346009,83.10074,97.71095,107.066137,63.366606,93.513651,105.78673,112.673877,68.650465,96.261914,106.627153,112.081691,-9.092417,5.155963,25.1971,36.910543,34.643383,62.033658,60.074114,55.037784,50.370268,57.390418,46.001987,40.367918,59.807052,64.465613,51.974172,43.737015,65.793957,71.437096,60.072097,52.201037,-42.250836,-76.232296,-93.167817,-98.485361,-86.564282,-121.38532,-128.993071,-127.151728,-68.799545,-96.78721,-93.012507,-84.79866,-49.229342,-75.421104,-72.952778,-63.103147,-29.056602,-54.144197,-54.258265,-47.655679,65.920458,398.112069,-87.045278,14.528405
49,1.741905,1.316766,3.037891,-22.279811,-35.065041,-62.865028,-86.654606,-105.763435,-59.073372,-91.042271,-108.201256,-120.218925,-43.871727,-77.510319,-97.198448,-111.143303,-28.278236,-58.620987,-77.596893,-90.823059,-14.940262,-37.408104,-51.081505,-62.152519,-10.252112,-2.250494,14.677764,29.472854,33.260501,63.561984,79.14538,89.838266,50.774153,83.493103,98.589102,107.692595,61.900342,93.679821,105.655943,111.671236,67.362598,96.12557,106.334765,111.070343,-6.5728,7.766018,26.856966,37.723904,35.095024,60.130205,60.303011,56.037083,48.898458,62.471723,55.533428,50.154476,57.416725,68.942671,59.241714,51.155691,63.219595,72.712183,63.567924,56.431532,-41.691748,-74.872915,-91.816379,-96.204579,-84.280806,-120.007518,-127.927086,-126.486834,-68.009742,-99.258971,-98.953723,-92.240789,-49.772407,-78.104051,-78.047997,-70.124231,-30.611269,-57.397811,-60.061507,-55.258776,66.77762,401.882827,-84.89213,-5.297414
50,0.606079,-1.870235,3.037891,-22.279811,-35.328598,-62.977524,-86.434708,-104.662399,-57.801476,-89.169273,-106.482697,-118.906345,-42.664719,-76.2113,-96.235943,-110.848331,-27.603378,-58.039055,-76.708202,-89.826908,-15.130806,-37.316666,-50.797005,-61.964493,-8.877363,-0.695371,16.337677,31.387364,34.137295,64.851518,80.795104,91.360167,52.017127,85.228907,100.588272,109.619764,63.416129,95.339363,107.575269,113.56475,69.127116,97.438198,107.803807,112.762242,-4.053182,10.376072,28.516832,38.537264,35.546665,58.226753,60.531907,57.036381,47.426648,67.553029,65.064869,59.941035,55.026398,73.419729,66.509257,58.574367,60.645233,73.98727,67.063752,60.662027,-41.132659,-73.513533,-90.46494,-93.923797,-81.99733,-118.629716,-126.8611,-125.821941,-67.219939,-101.730732,-104.894938,-99.682918,-50.315471,-80.786999,-83.143217,-77.145314,-32.165936,-60.651424,-65.864749,-62.861873,67.358093,400.657822,-81.879845,-26.931995
51,0.660324,0.68333,3.037892,-22.279811,-35.55748,-63.168526,-86.656837,-105.420227,-58.838654,-89.886417,-106.894455,-119.088249,-43.813248,-76.991959,-96.427689,-110.652351,-28.593407,-58.327446,-76.603088,-89.550076,-15.518188,-37.358551,-50.702362,-61.90464,-9.338268,-1.925934,15.251673,30.837415,33.755122,64.411052,80.278067,91.126441,51.660333,84.676549,99.828557,109.169109,63.048529,94.546488,106.616471,112.761995,68.734569,97.174153,107.425216,112.152951,-1.533566,12.986126,30.176697,39.350624,35.998306,56.323299,60.760803,58.035679,45.954838,72.634335,74.59631,69.727592,52.63607,77.896786,73.776798,65.993042,58.070869,75.262356,70.559578,64.892521,-40.573571,-72.154152,-89.113502,-91.643015,-79.713854,-117.251914,-125.795114,-125.157047,-66.430136,-104.202493,-110.836154,-107.125047,-50.858535,-83.469946,-88.238436,-84.166398,-33.720603,-63.905038,-71.667991,-70.46497,68.021679,401.866896,-78.838692,-48.686063
52,0.428581,-0.977262,-3.027649,9.999831,-35.610466,-63.070679,-86.23867,-105.153008,-58.45356,-89.769859,-106.735382,-118.843231,-43.215981,-76.453629,-95.975246,-110.201969,-27.882156,-57.745972,-76.022587,-89.099751,-14.845047,-36.836929,-50.153618,-61.296272,-9.2357,-1.331215,16.22208,31.674009,34.195526,65.082958,80.907922,91.519298,52.072764,85.507895,100.75438,109.691765,63.356849,95.450576,107.894642,114.091852,68.914201,97.595106,107.858271,112.549018,-14.163036,-5.203571,12.011375,25.401421,12.630901,36.688614,45.271225,49.029064,32.791843,51.005001,45.634232,38.204498,48.217392,61.372776,53.18327,43.988686,59.956455,72.681427,64.92033,57.222919,-37.791499,-66.64654,-84.891101,-93.882424,-84.858836,-116.134926,-125.813593,-127.139019,-73.396663,-95.251338,-91.313514,-84.382401,-58.279792,-78.346329,-73.192424,-64.51328,-41.724939,-61.419306,-60.259881,-54.568283,68.438845,401.035426,-81.877756,-38.540439
53,1.344795,-0.141779,-2.018852,-0.144743,-35.544662,-62.971115,-86.164398,-105.049324,-58.734055,-90.081024,-107.129002,-119.346714,-43.687935,-76.820469,-96.32103,-110.456715,-28.49556,-58.146286,-76.435375,-89.421844,-15.417595,-37.372169,-50.738869,-61.794891,-9.187597,-1.447862,15.983909,31.22706,33.952785,64.674109,80.729278,91.797483,52.058808,85.2943,100.627175,109.836693,63.577977,95.560986,107.854875,113.897585,69.351579,98.30011,108.2565,112.425641,-9.874878,-3.601456,11.472645,24.715347,12.624264,34.122448,46.413231,53.658714,32.720547,50.946522,47.494583,40.007744,49.189682,61.475773,55.568619,46.914024,61.717129,71.801262,65.253468,57.676735,-34.576217,-62.474281,-78.599475,-85.616143,-84.540606,-114.178997,-123.90603,-128.45066,-77.004894,-92.445646,-83.539384,-76.819489,-63.90405,-72.720681,-64.189584,-57.581055,-48.548699,-57.855103,-51.315457,-44.173497,69.769707,401.109619,-83.910542,-38.46921
54,1.018295,-0.303997,1.254101,-1.400685,-35.634842,-63.401413,-86.820316,-105.697289,-58.555984,-89.161263,-106.118202,-118.681068,-43.375854,-76.134281,-95.715008,-110.444355,-28.224564,-57.671356,-76.047993,-89.351921,-15.363464,-37.158394,-50.621452,-61.993675,-8.809067,-0.851662,16.533179,31.70402,35.222311,65.43438,81.143005,91.667499,53.317035,86.009741,101.117843,110.342429,64.558388,96.284392,108.197652,114.115317,69.848361,98.357723,108.46676,112.96571,-9.033508,-2.470322,12.306519,24.682388,12.298107,33.802414,44.926987,50.936337,32.683811,51.027889,48.263741,41.088753,49.150143,61.003532,55.75098,47.090092,61.749115,71.220646,65.180969,57.757759,-33.992151,-60.916318,-76.872903,-84.407287,-82.763892,-111.666821,-122.946753,-129.933287,-75.160162,-91.037644,-82.355259,-75.455298,-62.126163,-71.303232,-63.351816,-57.204872,-46.991106,-57.023634,-51.331605,-44.487436,70.744143,400.768433,-82.7003,-39.907084
55,0.879936,-0.015932,1.909161,0.386434,-35.530701,-62.895699,-86.176014,-105.659752,-57.867393,-88.434334,-105.612488,-118.626251,-42.760162,-75.541191,-95.148125,-109.959869,-27.934227,-57.214165,-75.735741,-89.343739,-15.3685,-37.271118,-50.802612,-62.339745,-8.437021,-0.406256,17.096651,31.931756,35.630543,65.988343,81.728091,92.300502,53.59275,86.406796,101.363487,110.442711,64.804649,96.878492,108.634783,114.475137,70.083754,99.275705,109.146323,113.332631,-10.796528,-5.444756,8.878212,21.998863,10.222206,32.962074,44.577141,51.024055,30.559444,48.81609,45.663586,38.291245,47.12328,59.53743,54.667397,46.2327,60.105114,70.147419,64.703178,57.752838,-33.554278,-59.647409,-75.562188,-83.082184,-81.387352,-109.727518,-121.336379,-128.70626,-73.824686,-90.194319,-81.74078,-74.652512,-61.011723,-72.384636,-64.698191,-58.117265,-46.136234,-58.072681,-52.763319,-45.398656,71.709824,400.680084,-80.705395,-39.593067
56,0.715599,1.352458,-0.480022,1.946095,-35.311661,-62.729645,-86.296978,-105.853043,-57.835808,-89.062843,-106.191788,-118.731937,-42.698135,-76.399956,-96.068916,-110.52063,-27.747688,-58.031387,-76.817894,-90.28141,-15.06546,-37.74765,-51.537209,-62.961388,-9.426386,-1.463114,15.883317,30.857175,34.799692,65.440925,81.288119,91.953032,52.653094,86.029933,100.955131,109.700471,63.848012,96.240487,107.880625,113.543879,69.129957,98.396132,108.463055,113.054877,-11.558075,-5.89222,9.078312,22.135048,11.208572,32.910976,43.800774,49.604301,31.192474,49.666386,45.652313,38.270645,47.610283,61.298332,55.807743,47.269707,60.73082,71.365471,65.51199,58.751106,-33.415958,-59.419766,-75.702207,-83.46584,-79.898735,-107.370597,-117.654033,-123.479011,-71.243828,-89.875162,-81.886326,-74.956942,-57.956528,-70.599184,-63.268206,-56.414188,-42.568171,-55.284526,-49.694756,-42.110663,72.607584,402.104002,-81.003256,-37.575512
57,0.131035,-0.936383,-0.537415,3.133833,-35.132217,-62.478333,-85.877838,-105.413246,-57.624664,-89.363079,-106.527958,-118.975754,-42.433434,-76.53019,-96.333961,-110.718212,-27.289696,-58.188515,-77.111607,-90.549431,-14.515457,-37.161255,-51.111374,-62.638321,-8.838892,-0.192538,17.169332,31.949663,35.258991,66.052687,81.868079,92.633213,53.038293,86.574448,101.350581,109.768644,64.18696,96.703986,108.643119,114.374669,69.548254,98.838697,109.064874,113.646323,-11.516476,-6.793442,6.782169,20.345249,11.19215,30.15564,42.264919,50.088444,30.682812,50.206833,46.167126,38.613968,47.063084,61.651039,56.140537,47.793503,60.487804,71.912498,66.184731,59.68174,-31.755335,-55.934727,-70.336066,-75.353935,-77.75794,-105.614725,-117.756044,-124.984594,-70.415446,-88.023576,-78.765306,-71.777506,-57.969311,-69.895322,-60.49657,-52.768969,-42.550912,-55.141543,-48.306699,-40.390605,72.750063,401.267284,-81.529226,-34.342013
58,1.423302,-0.555692,0.31105,4.048481,-35.307541,-62.876587,-86.634007,-106.142178,-57.493172,-89.49131,-106.708317,-119.309692,-42.286949,-76.744652,-96.454525,-110.97868,-27.369232,-58.494873,-77.328644,-90.776024,-14.917488,-37.831879,-51.620064,-62.980728,-8.640673,-0.063541,17.588432,32.784776,35.931144,66.546566,82.411174,93.447578,53.953743,86.868318,101.672794,110.684711,65.159158,97.422205,109.232959,115.302592,70.508843,99.666709,109.607105,114.198186,-12.753239,-8.032093,5.34153,18.792629,9.800663,27.941322,39.479485,47.163506,29.820786,48.050423,43.665848,36.529198,46.283512,60.271168,54.492302,46.68829,59.326172,69.448757,64.038563,58.302441,-31.107573,-54.998962,-69.354327,-74.155638,-76.041433,-103.937645,-117.300866,-126.181394,-68.070474,-89.205355,-81.371111,-73.647215,-55.573179,-71.220393,-63.554944,-55.653609,-40.586662,-55.923674,-50.916827,-43.254064,74.144955,400.78225,-81.246586,-30.222875
59,1.410599,0.371676,-0.129318,2.802048,-35.851021,-63.552361,-87.070656,-106.665287,-59.417152,-90.202961,-107.21529,-119.821129,-44.321251,-77.150574,-96.346264,-110.642624,-29.266434,-58.843689,-77.147369,-90.210056,-16.380157,-38.044739,-51.283722,-62.264442,-8.86069,-0.581504,17.120425,32.282374,36.174318,66.599363,82.44563,93.526803,53.910209,86.684117,101.715279,111.085904,64.788841,96.540471,108.65973,114.960742,69.907394,98.632575,108.88376,113.829783,-12.408257,-7.138481,6.914062,21.106339,10.461559,28.91573,41.118736,49.920044,30.474014,47.794418,42.935886,36.144447,46.421127,60.0424,53.658485,45.863457,58.695488,69.144115,63.858261,58.219128,-31.13746,-55.332506,-69.738723,-75.136944,-73.467645,-101.061867,-114.431572,-123.162972,-64.7454,-87.498296,-82.074881,-75.179861,-52.186416,-70.094251,-64.18134,-56.416473,-37.691155,-54.732076,-51.746166,-44.451096,75.541649,401.17736,-81.389809,-27.397392
60,0.117874,-0.988624,1.210499,2.67086,-35.744362,-63.631554,-87.162094,-106.626606,-58.139191,-88.74258,-106.207352,-119.346371,-43.041344,-75.723495,-95.570183,-110.649376,-28.176842,-57.447052,-76.143494,-89.867935,-15.638695,-36.504822,-49.971542,-61.611328,-8.055959,0.510367,18.339131,33.791925,36.792501,67.658691,83.604006,94.102811,54.396864,87.953582,102.997835,111.687291,65.172064,97.623882,109.993354,115.928309,70.104934,98.997087,109.650948,114.614569,-12.621746,-7.367077,6.708241,20.420265,10.322685,29.43718,42.324257,51.551685,30.165195,49.695225,43.548317,34.980526,46.088276,60.472755,53.504505,45.274773,58.19561,67.361755,61.557369,56.035767,-30.001314,-52.395996,-65.727818,-69.708465,-72.533547,-99.073997,-112.585914,-121.677952,-64.043359,-83.043066,-75.65821,-67.957625,-51.203195,-66.222408,-59.212841,-51.661815,-36.054831,-50.331835,-45.816768,-38.897449,75.481052,400.239942,-80.35778,-24.675326
61,0.633202,0.575637,-0.761719,3.191879,-36.087799,-64.019966,-88.241272,-107.613373,-58.725014,-89.45612,-106.712952,-119.68626,-43.245049,-76.408997,-95.918083,-110.515766,-28.055992,-57.756042,-76.180687,-89.406052,-15.286789,-36.70681,-50.136909,-61.32637,-7.490757,0.766261,18.125907,33.985018,37.124162,68.486888,84.005013,94.421505,54.338695,87.260495,102.078186,111.283999,64.928582,96.678112,109.014239,115.663276,69.814398,98.204088,108.685603,114.133904,-10.848827,-3.668575,11.910839,26.331654,12.579861,35.890446,49.121304,57.513199,31.098633,54.183311,49.068489,40.351639,45.950203,63.68803,57.631245,48.827648,57.610073,69.659214,64.532719,58.348904,-29.766879,-52.410878,-64.745183,-68.562162,-70.411926,-94.865954,-104.348934,-109.3995,-60.035788,-77.604305,-70.795952,-63.699872,-45.398502,-59.450024,-53.102915,-45.986458,-28.750066,-41.580659,-37.811012,-31.627264,75.884085,400.851055,-81.349669,-21.447971
62,1.059837,0.171604,-1.692066,6.466225,-36.373444,-64.115639,-87.835236,-107.231884,-59.097061,-89.135399,-106.035576,-118.912354,-43.768959,-76.365395,-95.807362,-110.694523,-28.443146,-57.785454,-76.161575,-89.80442,-15.272484,-36.495667,-49.887772,-61.405334,-7.317115,1.063713,18.832147,34.461485,37.492874,68.772607,84.121969,94.363336,54.549696,87.387269,102.553232,112.318627,64.989406,96.629515,109.480763,116.751689,69.71708,98.064841,109.217521,115.342607,-7.932644,3.111191,20.848618,34.98888,18.16761,45.153008,61.600571,73.035507,34.826317,62.61549,57.080498,46.779499,48.095112,70.139465,64.142876,54.116478,58.408642,74.881554,69.643936,61.622372,-31.011273,-53.886065,-65.888276,-70.218153,-68.317043,-88.137845,-96.4304,-100.80764,-56.256107,-69.555695,-62.387306,-55.595656,-39.706132,-50.971137,-44.253927,-37.232658,-21.565189,-32.316461,-28.741451,-23.353543,77.087774,400.909841,-82.897882,-15.094564
63,0.342979,0.453433,-3.080463,7.181696,-36.10405,-63.449249,-86.83651,-106.129475,-58.202591,-87.383194,-104.137516,-117.185211,-43.148918,-75.067177,-94.594803,-109.900875,-28.253288,-56.7976,-75.00824,-88.696804,-15.499191,-36.10405,-49.288902,-60.82798,-6.887764,1.363017,18.971703,34.403995,37.469532,68.650959,84.403921,94.900812,54.525058,87.812914,103.12961,112.811704,65.069497,97.333037,110.273577,117.411925,69.942654,98.77775,109.958279,115.910649,-3.200455,10.801735,29.392433,43.019199,23.763714,53.774185,72.860069,85.757618,35.856686,71.012878,66.799793,55.502529,45.287476,75.342293,69.351082,58.435478,52.341099,77.07613,71.773853,61.987667,-29.219091,-49.513919,-58.870249,-61.903213,-61.601532,-78.728811,-84.736138,-87.537785,-48.103046,-55.871371,-47.87213,-41.881414,-29.210044,-36.695429,-29.386157,-24.123848,-8.811568,-16.442776,-13.927126,-11.026864,78.003273,401.211261,-85.405827,-8.064882
64,0.977669,0.377542,-0.371475,10.426032,-35.99659,-63.668289,-87.36248,-106.509647,-57.90699,-88.014565,-104.913826,-117.568989,-42.452202,-75.280609,-94.825401,-109.684467,-27.343483,-56.80069,-75.340347,-89.034748,-14.65313,-35.99453,-49.396019,-60.78392,-7.497673,1.338625,19.131636,35.197056,37.581054,69.077839,84.906631,95.313428,54.507521,87.965561,103.17864,112.423788,64.902462,97.465615,110.042816,116.733782,69.533125,98.779294,109.693555,115.378237,-0.249767,15.021114,34.720402,48.674583,25.746288,56.67635,76.217995,90.478649,34.860821,71.671543,66.460476,54.677696,41.252632,74.209385,66.882534,55.498295,45.260754,71.504059,66.162987,56.584682,-30.136918,-49.591632,-56.300691,-56.107165,-55.509637,-71.479035,-79.464629,-85.361516,-40.290785,-47.773947,-41.652783,-37.536933,-20.739586,-28.113573,-22.493576,-18.713154,-0.078423,-6.542055,-5.469697,-3.620581,79.427662,401.237304,-85.330582,2.009652
65,1.376953,-1.094217,-2.861195,9.962194,-36.13163,-63.818321,-87.299309,-106.548958,-57.170563,-87.097893,-104.029827,-116.959934,-42.027626,-74.723854,-94.354649,-109.592457,-27.30835,-56.381378,-75.01236,-88.99601,-14.971046,-36.021309,-49.450264,-61.151161,-6.320587,2.195721,20.215788,36.192781,38.560662,69.34491,85.132267,95.806752,55.373262,88.002735,103.39631,113.251491,65.815689,97.678901,110.582391,117.724011,70.732195,99.327637,110.324027,116.295909,4.966164,21.415615,40.289841,53.827343,23.129883,54.730911,75.201988,90.692024,28.148575,69.299812,67.142429,57.583466,32.870522,70.199604,64.570999,53.984528,37.146378,66.043282,61.989841,53.039188,-29.148294,-46.444399,-50.69221,-49.762064,-50.739974,-68.463392,-76.763635,-83.135691,-34.704967,-39.858687,-32.274717,-28.913642,-15.318456,-18.806582,-12.829235,-10.89938,3.961752,2.069565,3.407851,3.495135,81.742544,399.452902,-87.253847,11.281661
66,0.76767,1.239948,-8.778934,5.335977,-35.867157,-63.469734,-87.120953,-106.250668,-56.390762,-86.349049,-103.463058,-116.355515,-40.964012,-73.85685,-93.81609,-108.801727,-26.382751,-55.880127,-74.914742,-88.886089,-14.448738,-36.295853,-49.943047,-61.373405,-7.106361,1.574697,19.691218,36.039208,37.915062,69.638286,85.561247,95.711163,54.670419,88.775295,104.104526,113.196409,65.063939,98.147155,110.230846,116.32592,69.787969,99.463303,110.087214,115.150316,8.685093,26.354256,45.808811,58.420372,20.243511,50.753803,72.277966,88.50729,21.418304,66.463509,66.853809,58.574581,25.189819,68.857498,64.106827,53.009949,30.465202,65.15419,63.0019,54.572811,-27.664154,-44.86788,-50.405256,-50.332946,-48.396021,-69.5012,-80.101893,-87.341079,-31.618619,-39.475865,-29.098554,-22.611828,-12.04837,-17.104247,-9.960928,-7.687432,6.997958,3.595325,5.512583,5.940884,82.817287,400.177358,-95.725708,16.102145
67,0.784378,-0.396499,-8.814354,4.771578,-35.201912,-62.827034,-86.40667,-105.806465,-56.470871,-85.229301,-102.065735,-115.126648,-41.436768,-72.906075,-92.662411,-107.908459,-26.999245,-55.031319,-73.53138,-87.309265,-14.897919,-35.148239,-48.43586,-59.862328,-6.201038,3.224421,21.370212,36.798059,40.303506,70.805925,86.520046,96.662181,56.722446,89.853889,104.673556,113.191469,66.643453,99.28824,111.250468,116.998197,70.833033,99.85196,110.412886,115.334517,6.622124,22.059517,40.91938,54.585629,14.718132,40.604897,58.301525,71.855392,18.292637,59.784908,58.769875,50.167809,24.39291,66.826229,59.850941,47.275028,32.767982,65.48933,60.085888,50.31435,-29.277538,-48.825804,-56.042852,-57.203451,-53.214961,-78.811155,-92.532406,-101.675017,-37.151487,-49.187105,-38.765982,-30.788014,-18.827917,-26.51643,-19.628943,-15.821845,-1.125895,-5.873915,-3.604773,-2.156448,84.286394,398.650795,-103.855333,19.74366
68,1.511879,-0.366118,-6.590252,2.418949,-35.950928,-63.757439,-87.22332,-106.470509,-56.511269,-85.46505,-102.637253,-115.845795,-41.049843,-72.929306,-92.544537,-107.505169,-26.45359,-55.08934,-73.647079,-87.194824,-14.618912,-35.29644,-48.506241,-59.724541,-6.18171,3.539966,22.179389,38.302484,39.536566,71.286343,87.455503,98.100224,56.122047,89.671231,105.182132,114.47384,66.305493,98.722421,111.519639,118.121499,70.880704,99.62194,110.487851,116.093245,3.433571,14.853115,34.373016,49.612026,8.922043,31.760216,43.212204,49.55904,17.22559,51.039276,48.470821,39.320698,26.318493,60.448837,52.086353,39.404526,36.761341,63.051395,55.24601,44.635162,-32.335788,-57.571484,-70.34326,-74.875987,-61.185612,-85.252434,-102.29493,-116.410518,-47.115873,-62.484624,-55.641722,-49.414378,-31.13357,-42.805633,-36.539602,-31.601854,-16.256722,-26.336335,-22.337872,-18.202231,85.834436,397.461096,-110.409422,21.339028
69,-0.182991,1.15288,-13.930721,-6.71298,-35.680046,-63.516426,-87.605782,-106.54232,-56.412163,-86.259727,-103.562794,-116.719608,-40.451202,-73.124084,-92.821026,-107.421341,-25.526276,-54.566231,-73.652344,-87.498035,-13.513756,-35.00267,-48.889046,-60.312309,-6.841452,2.730233,20.823042,37.073095,39.22769,71.698589,87.891214,98.483818,55.427232,90.240817,105.720163,114.787162,65.251413,98.88995,111.317962,117.632806,69.404808,99.073534,109.540167,114.622226,5.3092,17.949772,35.952358,50.877514,8.405628,24.90984,34.394875,38.933258,14.806767,48.892994,52.407818,45.527115,23.318996,60.461254,57.849369,46.756439,35.03603,65.208607,61.034088,50.815201,-29.008337,-53.388665,-66.950816,-72.126704,-64.827682,-92.028769,-112.007868,-129.054533,-54.877746,-76.376645,-69.41512,-63.321929,-40.782226,-58.174538,-48.413218,-41.178324,-25.315322,-41.237851,-36.448644,-31.338674,86.026154,398.634123,-123.965435,14.646194
70,-0.405693,-0.403107,-7.640476,-21.075817,-36.628075,-64.7826,-88.600903,-106.987896,-57.389717,-87.327976,-104.30666,-117.181549,-41.132011,-73.664818,-92.851467,-107.061138,-25.762711,-54.816055,-73.236122,-86.511269,-13.411789,-34.668159,-48.143578,-59.058838,-6.783839,3.098821,21.615361,38.259382,39.549472,72.268977,88.210278,98.654002,55.925372,90.643306,106.044724,115.084552,65.59666,98.90298,111.575893,118.127365,69.457172,98.743972,109.256548,114.514225,4.086285,13.134384,27.02837,37.917709,14.535141,26.103859,36.68026,43.413448,24.283791,57.418957,56.937904,47.89278,35.474682,66.309528,59.984894,48.479748,46.835518,71.153927,66.126423,56.484489,-30.851216,-54.453675,-62.404256,-60.282666,-78.192694,-115.842631,-132.398472,-136.759378,-69.113562,-85.075333,-72.592271,-61.870455,-53.728663,-66.631195,-52.898614,-42.472366,-36.538275,-46.624926,-40.229066,-36.122447,85.732698,398.249387,-131.493673,-6.411252
71,-1.942635,-1.414023,-7.955589,-1.714932,-36.75499,-64.413986,-87.949276,-105.91198,-56.697121,-86.28479,-102.942696,-115.547276,-40.520554,-72.336617,-91.064186,-105.165482,-25.46196,-53.747063,-71.656609,-84.631348,-13.633003,-34.019279,-46.943893,-57.577515,-5.871414,4.139871,22.812393,39.526439,39.730524,72.702712,88.886569,99.603538,55.994347,91.474837,107.047488,116.323388,65.794076,99.958665,112.766256,119.54781,69.956486,100.037952,110.799443,116.398909,3.780327,13.60651,27.584038,38.892345,11.425266,23.744144,34.772701,41.862545,19.182301,58.148232,58.269539,46.651154,30.181789,67.734261,64.975719,53.760109,42.532082,72.651844,70.141411,60.510235,-33.388046,-56.899855,-67.010405,-65.217945,-81.474296,-115.026321,-134.782007,-150.633754,-73.20357,-90.943815,-75.311667,-66.574231,-60.491599,-73.864237,-59.246186,-52.484207,-45.041028,-57.477839,-46.415994,-39.154856,83.36257,396.816993,-139.876757,-8.144555
72,-1.48201,-0.516233,-2.348328,-8.522699,-37.225456,-64.864426,-88.107891,-105.80492,-56.207085,-86.076965,-102.740707,-115.116062,-39.905663,-72.492485,-91.638966,-105.875874,-24.739265,-53.700943,-71.954155,-85.245266,-12.830772,-33.615189,-46.781044,-57.722054,-6.003993,4.186987,23.047724,39.691745,38.491872,72.110896,88.490069,99.112931,54.970773,90.823062,106.571949,115.779305,65.033126,99.516964,112.640717,119.567261,69.496075,99.730003,110.765049,116.705562,2.97884,14.096775,28.638954,41.625538,15.820885,29.970646,40.626869,48.464012,23.256855,65.636387,67.360039,57.229557,33.547096,73.626709,71.263676,60.051842,44.756298,74.992104,71.885319,61.788654,-33.601579,-57.377402,-66.566666,-67.760302,-81.352926,-112.912079,-133.019619,-149.382506,-72.728585,-89.90721,-75.475676,-67.20143,-59.937142,-75.044658,-61.314578,-53.885108,-44.086429,-57.543079,-48.126882,-41.116296,81.491203,396.296113,-142.614441,-16.671901
73,-2.029724,0.744339,3.121777,-6.554467,-37.403641,-65.387535,-87.745171,-105.114212,-57.859268,-86.329708,-102.383022,-114.67083,-41.367073,-72.657166,-91.263542,-105.375137,-25.553513,-54.060745,-72.152596,-85.565929,-12.550163,-33.058548,-46.196823,-57.413979,-6.866275,2.819709,21.848407,38.401655,38.846628,71.423799,87.923942,98.652335,55.584078,90.39686,106.2732,115.637341,65.792223,99.013266,111.991288,118.598459,70.289938,99.31257,110.186509,115.846675,1.479836,12.23505,25.920639,39.625282,16.959629,33.505497,44.644146,53.08382,24.637585,66.614513,68.0793,58.890724,35.535965,74.443016,72.786484,62.821083,47.38781,77.004261,75.397224,66.589394,-31.759318,-55.046077,-64.871648,-66.13253,-79.219974,-109.85565,-129.672623,-146.117916,-71.930184,-85.779689,-71.804089,-63.710741,-60.417437,-72.732044,-58.869508,-50.792863,-45.721827,-56.945026,-47.167095,-39.803883,79.205704,396.753097,-139.74844,-23.513723
74,-0.0737,-0.391621,3.117886,-5.281266,-37.594872,-65.647888,-88.454075,-106.564808,-59.194679,-88.060627,-104.076061,-116.053562,-42.883301,-74.001846,-92.304955,-106.101151,-27.115631,-55.647583,-73.310509,-86.082573,-14.171562,-34.578552,-47.042313,-57.377815,-7.081784,2.754007,22.003092,38.709357,38.146441,70.839702,87.438892,98.658633,54.922731,89.409965,105.593822,115.603132,65.199049,98.110845,111.561876,118.831134,69.933762,98.947563,110.08567,116.281954,2.405834,13.009472,26.544914,39.447613,20.22068,38.525219,51.271706,61.299591,27.749577,69.59856,69.172153,58.711052,38.193398,76.195049,73.434391,62.778797,49.12571,77.995491,75.949745,66.911201,-31.937498,-54.002619,-62.832372,-62.907182,-77.562037,-106.309478,-123.872021,-138.770481,-70.392567,-79.051889,-64.48858,-57.227009,-58.648287,-65.325668,-50.906885,-43.709412,-43.678629,-50.462004,-39.412787,-32.103885,78.919802,396.262505,-136.842756,-28.893959
75,-1.586952,0.876424,1.333923,-1.949275,-37.278786,-65.204887,-88.346901,-106.531391,-57.890167,-88.039455,-104.681053,-116.601849,-41.392479,-74.352837,-93.485298,-107.344036,-25.696678,-55.652275,-74.110451,-87.188244,-13.233604,-35.105209,-48.318901,-59.12693,-8.214904,1.554814,20.987607,38.02473,35.493025,69.326755,86.646449,98.110845,52.478155,89.002351,105.601356,115.238619,63.438421,97.966535,111.374216,118.229809,68.724689,98.760213,110.090364,116.268924,4.182816,17.060509,32.1805,45.849895,21.281776,44.360962,60.984821,73.793507,28.70985,71.096134,69.46106,58.036251,38.317966,76.483555,72.801762,61.663513,48.079548,77.863941,75.049667,65.808334,-33.116283,-55.96023,-65.644022,-67.47378,-77.11765,-102.866893,-116.034304,-126.867148,-68.286755,-73.899157,-59.64531,-54.191359,-55.235527,-60.3015,-46.757844,-40.787351,-39.482133,-45.691785,-36.032539,-29.608612,76.74099,397.609236,-136.100693,-30.372928
76,0.101624,-0.699076,-1.694126,1.097922,-37.204742,-65.273209,-88.913727,-107.391415,-57.898865,-88.628654,-105.449696,-117.484703,-41.582222,-74.979973,-94.345093,-108.400726,-26.086121,-56.757431,-75.274773,-88.319836,-13.902512,-36.021538,-49.203873,-59.903183,-7.544233,2.265684,21.428196,38.521389,35.703409,69.322062,86.366102,97.561761,52.691071,88.871378,105.502555,115.206694,63.503197,97.602763,111.131537,118.091303,68.706966,98.263122,109.630446,116.029148,5.648003,19.1292,34.375534,47.870693,24.188004,48.952789,66.020622,79.253368,31.449738,73.237667,70.550709,59.71653,40.694275,78.246002,73.235893,62.218723,50.68325,80.514221,76.534023,67.161884,-32.468614,-54.582208,-63.053284,-63.406959,-76.847431,-99.658249,-111.043111,-121.076842,-68.171467,-71.81718,-58.001791,-52.788544,-55.10474,-58.650078,-45.638031,-39.893298,-39.116107,-44.702698,-35.312344,-29.03137,76.560888,397.351119,-138.076544,-28.834046
77,-1.32225,-0.113744,-2.332478,1.572196,-36.960526,-64.814072,-88.122311,-106.438522,-57.411346,-87.913284,-104.750805,-116.937561,-41.214066,-74.766426,-94.094868,-108.087845,-25.774956,-56.486664,-74.951935,-88.012447,-13.370819,-35.39669,-48.552704,-59.414291,-7.183487,2.454332,21.532492,38.46569,35.802827,69.195844,86.393766,97.714346,52.877742,88.573,104.736788,114.194728,64.006587,97.699032,110.934059,117.832321,69.555849,98.617137,109.82391,116.119365,3.890419,16.753407,31.650124,43.439484,23.829517,49.572487,67.209492,80.656643,31.99791,73.061943,70.052433,58.503399,41.687164,78.746395,73.851414,62.780914,51.419277,81.874008,77.489433,67.634525,-32.43144,-53.975942,-62.797081,-63.797006,-76.695895,-98.304989,-109.171919,-118.55795,-68.020641,-71.78649,-57.96647,-52.838685,-54.177311,-57.999877,-44.695442,-38.83857,-36.949378,-42.709827,-33.13947,-26.832098,74.519978,397.522013,-141.127682,-26.977211
78,-0.152321,0.338578,-4.445801,1.592389,-37.028503,-64.574661,-87.715645,-105.810814,-57.19986,-87.455978,-104.111938,-116.266651,-41.02375,-74.27227,-93.47271,-107.567196,-25.474548,-55.804367,-74.139977,-87.314587,-12.907219,-34.822083,-48.065071,-59.270782,-6.750555,2.31774,21.040959,38.250058,36.186359,69.212641,85.972814,96.865278,53.275477,88.637097,104.530418,113.862079,64.169546,97.737255,110.76511,117.521717,69.482058,98.555634,109.595187,115.648765,2.269249,13.877335,30.738544,46.116428,22.020378,51.759682,68.592682,77.523308,33.363647,69.197445,68.571739,59.153595,45.184422,76.443615,73.847237,64.247417,55.930424,82.241764,79.136238,70.217113,-35.088931,-58.472144,-69.718809,-73.541406,-78.679504,-96.502834,-100.409134,-101.646427,-70.210002,-76.245241,-64.997959,-59.57019,-56.455098,-59.711506,-48.688193,-42.675247,-39.960297,-44.326792,-37.556601,-31.894489,73.455305,399.160576,-146.485834,-24.084837
79,1.108818,-0.76836,-4.358768,3.236246,-36.665039,-64.153976,-87.300167,-105.77631,-56.611748,-87.328892,-104.309864,-116.813793,-40.872574,-74.476662,-93.915596,-108.20303,-25.810776,-56.287537,-74.815292,-88.222904,-13.561821,-35.050163,-48.279419,-59.557686,-6.379929,3.087644,21.97197,39.151675,37.08211,69.628344,86.108727,96.922026,53.960474,88.496183,104.297249,113.717459,64.529675,97.668095,110.929428,118.118843,69.494408,98.580395,109.862257,116.250893,-3.448963,6.182499,22.964172,37.725735,14.614391,40.66721,43.198643,38.17091,30.089779,57.051373,57.031689,49.634628,44.601917,69.174843,68.818188,62.030926,57.526703,80.840664,80.8461,75.116901,-35.305736,-58.529387,-70.62583,-71.829561,-83.858603,-94.149927,-82.143362,-72.040717,-78.595307,-89.266519,-76.95784,-67.894238,-66.671704,-76.133781,-63.837854,-55.240313,-51.633255,-60.40027,-55.249329,-49.71254,73.442659,399.754105,-151.966066,-19.486701
80,0.057793,0.500302,-7.825184,-1.45413,-37.242737,-64.205475,-87.178173,-105.415535,-56.219673,-86.308765,-103.108692,-115.530167,-40.146103,-73.272743,-92.585564,-106.897545,-24.986458,-54.967461,-73.272629,-86.64608,-12.837982,-34.558296,-47.847977,-59.075546,-6.007698,3.134574,21.762204,38.957594,36.608299,69.63279,86.179122,96.918074,53.405523,88.606839,104.318552,113.627612,64.073154,97.98191,110.911829,117.875732,69.228696,99.014254,109.920735,115.766338,21.106968,33.07354,43.936272,51.085453,36.250763,59.252815,58.506947,53.606014,32.85696,53.514404,51.682949,45.245876,29.349575,48.918972,48.898201,44.055576,25.405369,45.131149,48.765221,47.321777,-22.513984,-43.477045,-59.618232,-69.546834,-72.014504,-84.100202,-75.721443,-66.892029,-78.070212,-85.828441,-75.579108,-66.36079,-77.955418,-85.954783,-76.395881,-66.910678,-73.884028,-83.139365,-79.393431,-74.424005,73.716087,402.294085,-159.575615,-18.901153
81,0.893326,0.5828,-11.918507,-7.901891,-36.449203,-63.771629,-86.845036,-104.981632,-56.813965,-86.839199,-103.450813,-115.627556,-40.909195,-73.843689,-92.831383,-106.757355,-25.651932,-55.559921,-73.6623,-86.620045,-13.231888,-34.620209,-47.571144,-58.254547,-6.853802,2.501633,21.083258,38.156506,37.028388,69.564186,85.809114,96.524662,53.671359,88.072143,103.739519,113.455637,64.024927,96.860893,109.85213,117.095207,68.875113,97.82772,108.661335,114.574123,29.458466,43.933125,50.461864,49.236717,53.764515,70.510826,75.451298,79.525223,40.47678,44.501839,38.526821,35.52372,23.958549,27.230015,23.089256,20.338039,7.09013,12.648697,11.845379,10.357075,-13.824034,-29.77364,-46.147812,-58.498543,-56.223688,-75.068,-81.703606,-83.4475,-68.069116,-86.27255,-79.842665,-70.718671,-74.237148,-91.557027,-84.57392,-74.494092,-75.439058,-91.441832,-86.112339,-78.065735,74.850769,403.365732,-171.252766,-26.314197
82,0.882568,-0.605586,-7.480145,-4.515993,-36.464767,-63.999367,-87.608643,-105.707245,-55.998802,-86.421432,-103.389301,-115.783939,-40.325203,-73.737602,-93.146553,-107.432041,-25.400391,-55.839386,-74.323425,-87.563038,-13.379173,-35.085068,-48.424759,-59.507561,-6.471505,2.607226,21.003044,38.384735,37.130708,69.570052,85.835234,96.549733,53.876555,88.130805,103.78682,113.327691,64.320773,97.263197,110.122041,117.04593,69.331387,98.417745,109.419631,115.47537,-1.824989,2.461452,10.08213,14.822617,10.274162,17.712936,11.788101,9.987888,17.639179,23.033066,20.054283,19.009323,23.768864,30.458107,26.863232,24.555988,29.188099,44.890766,51.695366,56.963253,-26.849789,-47.838816,-64.099706,-71.775437,-71.25519,-89.684816,-81.725868,-70.697306,-74.803585,-92.589062,-83.063227,-72.969319,-73.513464,-91.37298,-85.575851,-77.787241,-69.569064,-85.571992,-89.240028,-91.380915,74.459438,402.737592,-180.006809,-30.852744
83,-0.185394,0.598917,-16.795807,-12.445363,-36.443024,-63.918571,-87.34663,-105.397911,-55.827484,-86.404667,-103.368073,-115.586014,-39.87545,-73.456993,-92.691536,-106.481323,-24.906578,-55.626183,-73.946686,-86.755886,-12.961464,-35.250206,-48.525696,-59.17717,-6.962668,2.254878,20.536829,37.775753,36.922609,69.727145,86.142072,96.803219,53.659811,88.318156,103.841592,113.021656,64.040364,97.13241,109.601794,116.068977,68.785883,98.012292,108.7137,114.256602,25.492573,36.677628,40.118179,39.322128,43.719692,51.125965,47.832985,46.6432,30.409069,33.397923,29.41412,27.478352,15.478992,18.087215,14.638081,12.831516,0.700035,7.862377,7.439461,5.093079,-16.272746,-32.650592,-49.513302,-61.011476,-57.331553,-79.665503,-77.17937,-70.341778,-67.224123,-86.40096,-78.682498,-70.896266,-73.595623,-90.418226,-83.650967,-74.83551,-77.12645,-93.016004,-87.098184,-80.08025,74.172134,402.276594,-196.904526,-44.358023
84,0.478706,-0.494065,-9.515018,-11.620903,-36.430321,-64.212227,-87.79295,-105.993176,-57.246094,-87.787685,-104.400787,-116.472301,-41.233864,-74.446106,-93.303967,-107.0228,-25.87532,-56.233521,-74.301338,-87.008228,-13.358803,-35.319099,-48.284569,-58.691483,-7.11692,2.008432,20.3023,37.590563,36.990288,69.61445,85.897972,96.799143,53.784362,87.929376,103.586748,113.330716,64.193382,96.791177,109.634337,116.760026,69.102972,97.963447,108.632128,114.470505,27.455807,37.683964,37.587948,33.846531,35.31332,48.05397,56.184196,62.895756,19.400711,24.82132,23.184471,21.849346,3.272724,8.654423,6.718884,4.546452,-11.867981,-4.418335,-4.509258,-5.781498,-12.27981,-29.74011,-47.025007,-59.211513,-51.85179,-79.607118,-96.145762,-107.503407,-61.762515,-87.371522,-80.64329,-71.684232,-66.71357,-89.058513,-83.252924,-74.918595,-67.955217,-87.124181,-82.149877,-74.996771,74.506617,401.183689,-206.563768,-56.577765
85,-1.08181,-0.797136,-12.610359,-9.659401,-36.566277,-63.947067,-86.987686,-105.049438,-56.207199,-86.637783,-103.358803,-115.360107,-40.059929,-73.325615,-92.714539,-106.855087,-24.654808,-54.828644,-73.259583,-86.413822,-12.261658,-33.886299,-47.08168,-58.128319,-6.967484,2.328423,21.071834,38.167189,37.008504,69.666444,86.332819,97.171189,54.22174,88.601714,104.341585,113.581855,65.154897,98.256576,110.599496,116.764842,70.571335,99.930506,110.416776,115.620236,23.420162,31.180515,30.571175,26.455994,32.387238,45.224476,51.831951,57.454662,18.123093,19.211769,16.025791,15.605679,2.605648,3.529186,0.433216,-0.780659,-12.449512,-8.350868,-9.163857,-10.556374,-12.709254,-32.013019,-50.141396,-62.499043,-50.981109,-80.429433,-94.897894,-103.049381,-58.226285,-86.533199,-79.652844,-70.23143,-61.847792,-87.435141,-81.436382,-72.576649,-62.38076,-83.664244,-78.989028,-72.346844,73.38129,399.782943,-219.217644,-66.840776
86,0.008926,0.502463,-11.794052,-5.297784,-36.853981,-64.493179,-87.56218,-105.721436,-56.715775,-87.183266,-103.743095,-115.278854,-40.30632,-73.454247,-92.595749,-106.288948,-24.69635,-54.702301,-73.196068,-86.112843,-12.1558,-34.121933,-47.574348,-58.581963,-7.322055,2.16392,20.897327,37.862512,36.897415,69.756106,86.750128,98.035942,53.911321,88.598874,104.606803,114.225233,64.676394,97.85983,110.334092,116.613986,69.895415,99.58384,110.14279,115.177424,18.945179,23.749352,24.319553,22.131329,19.119072,27.713127,25.293503,25.7127,6.70681,13.379917,11.285934,10.394268,-4.746437,2.282524,0.283012,-1.320877,-14.193249,-6.352329,-4.378681,-3.857632,-17.796345,-37.933185,-55.755126,-68.569448,-55.70446,-84.541594,-81.973024,-75.248882,-60.656905,-86.562252,-78.701811,-69.116711,-62.059442,-86.526823,-80.698279,-72.23699,-61.149611,-83.248648,-83.112936,-80.352662,73.480167,399.452285,-230.921745,-72.971681
87,0.072784,-1.626012,-14.79372,-3.284782,-36.246071,-63.870163,-86.827354,-104.796181,-55.867882,-85.480957,-102.118378,-114.406815,-39.877052,-72.26532,-91.616821,-106.098804,-24.557419,-53.872719,-72.362709,-85.726547,-12.135658,-32.9702,-46.11145,-57.3349,-5.879504,3.68582,22.522043,39.773934,38.813654,70.871998,87.394802,98.27893,55.898881,89.54631,105.199484,114.711888,66.581394,99.085329,111.724588,118.178865,71.654622,100.786429,111.680375,117.121759,-15.510979,-19.251537,-14.356213,-4.908257,-18.90873,-8.092346,-5.330372,-3.848534,-4.416561,7.938652,7.953358,6.472549,10.82056,22.786961,20.291405,16.453972,26.819115,35.709801,40.614567,44.991646,-22.413053,-45.446327,-65.512556,-75.50527,-60.310701,-88.30278,-78.214029,-68.278449,-60.194055,-85.58993,-75.813111,-68.004494,-58.07441,-83.972996,-75.487146,-66.528937,-55.67235,-84.053951,-97.769721,-107.8284,74.244003,397.490567,-245.024414,-76.59217
88,0.140533,-0.185189,-13.786526,2.519787,-36.177635,-63.430939,-86.12114,-104.045906,-55.567017,-85.079155,-101.384296,-113.283806,-39.405327,-71.587601,-90.376167,-104.273243,-24.009476,-53.086624,-71.328621,-84.488068,-11.421776,-32.30484,-45.391159,-56.517563,-6.017578,3.489701,22.334939,39.383734,38.996867,71.329506,87.968958,99.154427,55.825089,89.589288,105.471556,115.384041,66.15476,98.538776,111.465545,118.357694,70.963265,100.124465,111.203662,116.974299,-14.54092,-18.284283,-13.402634,-5.713692,-20.619221,-8.113518,-4.050179,-4.320545,-6.444454,9.788418,10.17683,6.810608,9.139595,24.197216,22.686768,17.808437,25.732956,35.85434,42.966728,49.547768,-21.974008,-45.354628,-64.137714,-75.251676,-61.762299,-90.233407,-80.947519,-71.409998,-61.097216,-86.431218,-75.892507,-68.066429,-58.192261,-83.884369,-72.905284,-62.035359,-55.90061,-85.514919,-103.027938,-117.307844,77.097044,396.470774,-256.098433,-74.906986
89,1.098404,-0.735077,-11.501369,3.629751,-36.154175,-63.713722,-86.413937,-104.416924,-55.30529,-85.305519,-101.812592,-113.660603,-38.892746,-71.488495,-90.664959,-104.613762,-23.388176,-52.806473,-71.40152,-84.646168,-10.882874,-32.08168,-45.552521,-57.008514,-5.73933,4.200881,22.97949,39.968016,38.895473,71.366557,88.284502,99.716727,55.552585,89.672837,105.781729,115.625609,65.908376,98.729276,111.690687,118.43587,70.7204,100.260933,111.524208,117.285336,-17.161961,-21.544189,-14.695301,-4.241982,-27.442932,-13.128033,-6.044655,-5.779324,-11.49971,6.678886,10.864906,7.759781,6.112118,23.284378,25.491314,20.744648,24.689941,35.43972,43.992691,50.62294,-20.092812,-44.961247,-66.209564,-79.312862,-58.750361,-91.570334,-81.992815,-71.746167,-57.98268,-88.634411,-77.224077,-68.574419,-55.30441,-84.23542,-72.4751,-61.073689,-53.793439,-84.975915,-102.089085,-116.209042,79.968023,394.348196,-265.827227,-72.664736
90,0.454102,-0.278618,-9.957161,2.780806,-36.036186,-63.351746,-85.872173,-103.977184,-55.432091,-84.685936,-100.798302,-112.408962,-38.965416,-71.012077,-89.820271,-103.444748,-23.339882,-52.309113,-70.641174,-83.723087,-10.633163,-31.539917,-44.830971,-56.079025,-5.963237,4.017544,23.169743,40.096827,38.616732,71.762068,88.802094,100.260254,55.028694,89.785902,106.068559,116.098123,65.187749,98.417004,111.738667,118.899739,69.920794,99.581431,110.99933,117.235071,-19.795189,-24.742813,-17.239151,-6.558037,-31.713696,-9.970093,-2.288418,-3.063526,-13.520794,8.104877,11.892757,8.333645,6.7939,25.170822,28.985825,25.753384,26.948376,39.727879,49.891148,57.463245,-19.22633,-43.820871,-65.764652,-76.799389,-60.876551,-92.737957,-83.428512,-73.57892,-58.515184,-88.914248,-78.516297,-69.258274,-53.957232,-82.946905,-72.587856,-62.345933,-50.184004,-81.304807,-98.512223,-112.914688,81.534462,393.364574,-274.67205,-70.588934
91,-0.31414,-1.385679,-0.703869,2.697165,-35.666542,-62.379913,-84.574585,-102.219315,-54.332657,-83.417358,-99.55267,-111.320343,-37.812195,-69.325218,-88.178616,-101.880569,-22.182198,-50.551987,-68.610992,-81.473579,-9.529495,-29.925957,-42.885132,-53.771782,-4.539705,5.674431,24.739685,41.507392,39.823211,72.807626,89.739465,101.176136,55.822311,90.78632,106.941092,116.971027,65.804327,99.588039,112.936563,120.396137,70.445117,100.40617,111.842284,118.335464,-19.440193,-23.066311,-14.999657,-5.409737,-36.568909,-9.467926,5.7e-05,-2.065544,-19.515266,7.19141,13.305874,9.11705,0.394363,24.249516,29.885101,26.311913,21.167622,36.503792,47.820282,56.365585,-18.820476,-41.761896,-63.712624,-75.294778,-60.643134,-93.365295,-82.702867,-72.196482,-57.79891,-89.006318,-76.32036,-65.587675,-53.155681,-81.476581,-69.889549,-60.090561,-48.842168,-80.6976,-97.427392,-111.947692,82.304277,391.424052,-274.291964,-68.446611
92,0.687675,0.628619,-0.43396,2.452201,-35.846214,-62.817535,-85.126648,-102.352982,-54.063492,-83.335419,-99.248428,-110.767193,-37.262993,-69.475937,-88.210716,-101.840973,-21.501961,-51.006317,-69.409561,-82.605572,-8.86631,-30.120964,-43.317719,-54.235611,-5.235879,5.240263,24.385114,41.210496,39.283574,72.474977,89.522722,100.952846,55.329542,90.350301,106.711628,116.814675,65.158108,98.534021,111.814003,119.163105,69.655823,99.274408,110.797591,117.413654,-19.419079,-24.5327,-17.722492,-7.537479,-36.43507,-7.05122,1.581802,-2.422657,-19.040737,9.713688,15.212574,10.465565,0.900364,26.219788,30.69952,25.936432,21.567535,37.288857,48.762989,57.610016,-17.813913,-41.646485,-64.368166,-75.694242,-62.330434,-94.205765,-83.201085,-73.145833,-58.620314,-89.104872,-76.11998,-65.20967,-52.731486,-80.207024,-68.297005,-58.76481,-47.142549,-79.015426,-95.50541,-110.315969,84.07671,391.369079,-273.641167,-66.678002
93,2.218437,-0.03211,-0.39505,2.751814,-35.704193,-62.95578,-85.268269,-102.961178,-55.387344,-84.589691,-100.76437,-112.395458,-38.897552,-71.036224,-89.794521,-103.36544,-23.250046,-52.582855,-70.939293,-84.010162,-10.527992,-31.495972,-44.779587,-55.574455,-5.846591,4.768305,24.030729,40.971769,39.552621,72.409212,89.123876,100.409504,55.641999,89.827336,105.979762,116.019823,65.200655,97.722744,111.406882,119.100798,69.313726,98.103559,109.583887,116.113931,-18.99004,-23.286209,-15.84938,-5.053711,-34.247246,-4.915466,3.036289,-1.193161,-16.682739,11.714745,16.567383,11.719093,3.039036,28.012848,32.062569,27.235165,23.324318,39.171295,50.570984,59.381332,-19.115643,-43.017622,-65.293867,-76.578662,-63.019723,-94.632645,-83.600795,-73.718167,-58.937989,-89.290262,-76.280562,-65.535311,-52.824328,-80.259419,-68.658461,-59.438199,-46.994997,-78.970317,-95.204701,-109.784653,87.236738,391.266372,-273.094625,-63.996784
94,-1.086617,-0.604722,2.066917,2.593733,-35.662651,-62.387581,-84.687653,-101.848526,-54.388046,-83.293533,-99.249229,-110.496826,-37.785759,-69.579506,-88.095131,-101.334515,-22.13459,-51.197891,-69.146461,-81.644669,-9.707108,-31.251984,-44.622459,-55.358276,-5.233903,5.424094,24.929382,42.293413,40.086144,73.802425,90.700425,101.79895,55.956433,91.261119,107.476777,117.293179,65.502058,99.139792,112.388837,119.583625,69.658417,99.073658,110.369043,116.533031,-18.441353,-22.760754,-14.600258,-2.625217,-33.103237,-5.537281,3.30265,0.265846,-16.231499,10.502872,16.875629,12.953224,3.028679,26.945572,32.043571,28.171349,23.028603,39.175758,50.687542,59.357529,-19.317937,-43.58341,-65.544265,-76.65869,-62.032611,-94.437252,-84.320188,-73.811811,-57.810797,-90.616754,-78.232523,-67.310388,-51.907952,-81.409952,-70.369843,-61.04266,-46.109341,-78.078147,-93.9786,-108.109781,87.305231,390.766348,-269.872599,-61.298353
95,-0.48912,0.181114,2.894325,2.351641,-35.347595,-62.460709,-84.800148,-101.856766,-54.182281,-83.078156,-98.991394,-110.523319,-37.294579,-69.481544,-87.881641,-100.947075,-21.815414,-51.479988,-69.379349,-81.922646,-10.003395,-32.49115,-46.332092,-57.441673,-5.560007,5.59292,24.997864,42.217336,39.976908,73.430811,90.203705,101.056649,56.100373,91.630757,107.56119,116.576627,65.661745,99.58384,112.643558,119.223126,69.754377,99.219759,110.107901,115.893358,-17.436275,-20.385475,-9.820061,2.948399,-32.226048,-2.168484,6.947308,3.281536,-15.759373,12.84874,19.636173,15.848465,3.173618,29.298134,33.750801,29.067936,23.225155,40.272617,51.656914,60.212002,-18.547601,-44.628134,-67.576162,-78.144282,-62.127151,-94.522869,-83.64084,-72.88713,-57.030674,-90.457932,-77.715641,-66.806443,-50.734509,-80.867815,-69.118595,-59.597546,-44.655582,-75.685535,-91.180442,-105.018833,87.937059,391.050817,-265.857325,-58.843357
96,-0.413017,-1.772731,2.583733,4.203536,-36.474838,-63.380814,-85.635166,-102.309265,-53.192024,-82.246971,-98.179893,-109.889145,-36.339684,-68.335648,-86.66914,-99.925117,-21.16024,-50.584831,-68.613052,-81.460762,-10.106163,-32.841568,-47.12986,-58.679123,-4.178156,7.060789,27.064032,44.494012,39.644814,73.285883,90.056369,101.293523,55.870167,92.006076,107.740205,116.586322,65.793273,100.832309,114.089135,120.77794,70.393741,100.595373,110.997724,116.218968,-13.648396,-13.381977,-0.192089,12.906704,-29.835262,5.716667,13.8727,7.667141,-14.498806,21.088428,26.500969,20.456085,4.37582,35.238304,38.095722,31.393261,24.816113,43.068237,55.235367,64.370441,-19.280609,-46.294747,-68.835068,-76.373805,-63.752484,-93.930466,-81.604435,-71.803317,-55.718539,-88.06146,-75.185326,-65.315449,-47.039611,-76.029361,-63.511348,-54.814729,-39.631692,-69.619792,-84.093718,-97.977171,88.505402,389.163554,-262.292233,-54.754353
97,-0.590401,-1.375182,3.95834,8.761859,-37.762756,-65.148697,-86.533871,-102.871056,-55.292816,-82.002869,-96.704578,-108.288231,-39.415398,-68.907967,-86.231976,-99.71117,-24.63501,-51.537781,-68.921127,-82.250347,-12.867279,-34.333649,-48.409424,-60.586853,-3.923374,7.315571,27.289483,44.042185,38.668664,71.339695,88.115985,100.285695,54.844369,89.194765,104.901168,115.057937,65.319956,98.770895,112.985161,121.387046,71.02273,99.623607,110.516874,117.321275,-10.645466,-6.268959,12.987442,30.110035,-24.413223,15.341606,22.993412,16.751347,-12.044964,30.055218,36.469116,31.451797,6.525879,42.518864,44.705429,37.908554,27.695675,45.326729,58.199387,68.880043,-27.036924,-57.615172,-77.370734,-76.40008,-66.223859,-94.519318,-81.484979,-71.897919,-53.156175,-84.295858,-73.036905,-63.413381,-40.468132,-70.060443,-59.790114,-52.51042,-29.771603,-60.521795,-75.878443,-90.086812,88.532324,387.791136,-257.71657,-45.989731
98,-2.933235,-4.28764,6.948795,4.967728,-37.085609,-64.707069,-83.814754,-98.419304,-59.07589,-81.800766,-93.589897,-103.304214,-44.621773,-68.411522,-82.922688,-94.23214,-29.743309,-51.487541,-65.77343,-77.148628,-15.777626,-33.66703,-45.011787,-55.414581,-1.789033,9.957316,29.864784,46.149541,38.11254,70.180331,86.14059,98.365875,51.884363,84.8145,101.784933,114.710282,61.642966,93.3891,109.520345,120.858709,67.657765,94.702284,107.189638,116.564771,-2.829266,12.404709,37.29435,54.734573,-17.530231,18.111134,34.009438,35.919971,-11.521511,28.785896,45.015221,45.457478,1.34943,38.062077,51.097755,49.982185,15.714397,38.824081,50.038891,52.121201,-29.225266,-52.402418,-65.024388,-67.879634,-56.591103,-86.249579,-76.241813,-63.909762,-46.027553,-79.423997,-70.681961,-58.72069,-34.55164,-64.129779,-59.731822,-52.37108,-22.618157,-47.104573,-50.205833,-48.942666,85.735903,383.522778,-250.63096,-41.002721
99,-3.424873,-8.910831,20.225258,27.617007,-37.018776,-64.493065,-81.079559,-94.748211,-62.455101,-83.181095,-94.023457,-102.854233,-50.02121,-69.683304,-82.859287,-93.743248,-35.729485,-55.252991,-68.705406,-79.441223,-20.09079,-37.157593,-47.930603,-57.740364,-3.614684,8.287646,27.066255,41.875671,36.846039,65.352746,80.087259,91.574873,49.415644,78.72208,94.850485,107.216932,58.901865,86.422048,100.948586,111.514452,65.422894,89.753051,100.824282,108.9917,13.245106,31.115713,47.3174,53.673734,3.858089,27.85778,39.424782,41.456308,-2.908259,24.472046,37.146377,37.885322,-4.429465,20.979395,32.214947,32.226963,-4.102307,12.335672,22.904749,25.499439,-24.222695,-46.453785,-59.760196,-63.202488,-67.752706,-85.179877,-71.070324,-59.135513,-61.176179,-78.367262,-64.897429,-52.291391,-50.346701,-64.784225,-55.165888,-45.766055,-37.034593,-49.525065,-44.974847,-39.273802,83.463135,374.624435,-229.253597,-13.373225
100,-3.6549,-9.991402,20.225258,27.617007,-35.51239,-62.439308,-78.830395,-92.675743,-59.903297,-83.303089,-96.142845,-105.287189,-49.976463,-72.387028,-86.03817,-95.135937,-38.461533,-59.069023,-73.211632,-83.146706,-24.83654,-40.981979,-51.260147,-59.202347,0.270096,10.676029,22.355255,34.31316,37.091373,61.049236,73.731597,82.760063,46.247354,70.260792,84.42541,94.765826,51.172011,74.798089,87.95562,97.365518,52.048002,73.376656,84.410467,91.654593,29.319477,49.826717,57.34045,52.612896,25.24641,37.604427,44.840126,46.992645,5.704994,20.158195,29.277534,30.313168,-10.208359,3.896713,13.332138,14.471741,-23.91901,-14.152737,-4.229393,-1.122322,-19.220124,-40.505152,-54.496004,-58.525342,-78.91431,-84.110174,-65.898836,-54.361265,-76.324806,-77.310528,-59.112898,-45.862093,-66.141762,-65.438671,-50.599955,-39.161031,-51.45103,-51.945558,-39.743862,-29.604938,81.000051,365.703184,-207.836523,15.313932
101,-11.368732,-31.479033,-0.007182,37.333065,-31.35458,-61.489134,-80.459833,-91.189242,-73.498192,-97.872133,-98.58902,-97.031708,-67.24082,-89.08267,-90.374966,-90.203333,-57.101069,-77.187252,-79.838391,-80.032597,-44.090824,-62.029867,-65.168867,-65.307799,16.225045,33.37159,47.196828,58.126034,40.694726,66.630208,77.192832,80.918419,38.061071,65.152675,76.472699,79.904385,34.347123,59.588654,69.529359,71.872787,28.862143,51.833698,61.028766,63.091292,28.84286,46.961518,57.290726,59.463816,27.222748,38.93818,44.899378,46.645375,11.191493,22.590495,31.575337,33.864699,-1.702651,10.168534,18.298073,19.713936,-11.47602,-2.218694,5.655785,7.776318,-27.152274,-52.319118,-68.563119,-75.267068,-67.642096,-74.02766,-63.017083,-56.987788,-57.886288,-60.916643,-49.801831,-41.654158,-43.900823,-43.950655,-34.773541,-28.030072,-27.089181,-26.062781,-17.998517,-10.783938,70.676022,334.580343,-206.799002,53.003189
102,-11.368733,-31.479032,-0.007181,37.333064,-27.19677,-60.53896,-82.089272,-89.70274,-87.093086,-112.441177,-101.035194,-88.776226,-84.505177,-105.778313,-94.711761,-85.270729,-75.740604,-95.305481,-86.465149,-76.918488,-63.345108,-83.077755,-79.077587,-71.41325,32.179992,56.067151,72.038401,81.938906,44.298078,72.211179,80.654066,79.076775,29.874788,60.044557,68.519986,65.042944,17.522235,44.379218,51.103097,46.380055,5.676283,30.290738,37.647065,34.52799,28.366241,44.096317,57.241001,66.314735,29.199085,40.271931,44.95863,46.298103,16.67799,25.022793,33.873138,37.416229,6.803055,16.440353,23.264008,24.956131,0.966969,9.715347,15.540962,16.674957,-35.084423,-64.133083,-82.630233,-92.008793,-56.369882,-63.945145,-60.13533,-59.614311,-39.447769,-44.522757,-40.490764,-37.446222,-21.659883,-22.462639,-18.947126,-16.899112,-2.72733,-0.180002,3.74683,8.037063,60.232372,302.67724,-205.8811,89.912181
103,-5.728225,-31.453684,9.724846,3.547067,-29.642258,-63.796807,-85.845709,-97.784644,-86.129122,-117.177315,-111.932002,-101.985827,-84.933787,-114.226113,-107.404089,-98.391323,-78.700047,-106.684456,-101.866694,-93.308144,-69.143172,-94.020625,-94.428006,-89.395781,20.323543,37.091682,51.645482,63.975372,18.215538,45.15255,58.703184,61.303586,10.436592,40.268123,55.068338,56.721767,6.186403,32.252642,44.530013,45.120378,3.10126,24.30419,34.959286,36.58644,30.497074,46.628609,57.381706,64.579582,25.615768,31.477947,39.286823,44.085159,12.475948,15.39957,26.818142,31.209354,1.184521,5.530415,16.950645,21.71917,-5.714893,1.510162,13.417225,19.952202,-28.423931,-51.634212,-70.195151,-86.709435,-46.545238,-50.899877,-46.604858,-47.358707,-36.149185,-42.075804,-40.030631,-38.495979,-22.429046,-25.343851,-23.24798,-22.313203,-5.9143,-1.399357,2.242065,7.326563,55.275422,271.223957,-195.384979,93.45965
104,-5.728226,-31.453684,9.115505,1.549287,-32.087746,-67.054653,-89.602146,-105.866547,-85.165157,-121.913452,-122.828808,-115.195427,-85.362396,-122.673912,-120.096416,-111.511917,-81.659489,-118.063431,-117.268238,-109.6978,-74.941235,-104.963493,-109.778423,-107.378311,8.467093,18.116212,31.252563,46.011837,-7.867002,18.09392,36.752301,43.530397,-9.001605,20.491689,41.61669,48.40059,-5.149429,20.126065,37.956928,43.8607,0.526237,18.317642,32.271506,38.64489,25.272961,38.771152,47.647934,58.559418,27.712669,34.610081,41.096306,45.795078,18.472309,23.68578,29.960175,31.60675,7.770138,12.71925,20.236588,22.627945,-1.727142,1.802845,8.276539,11.753254,-29.12628,-52.672638,-71.174111,-91.297089,-37.782484,-55.430844,-69.124121,-83.211243,-26.526217,-43.654485,-57.627244,-69.450874,-12.163812,-27.147581,-41.067389,-52.812225,4.167535,-2.504504,-11.267443,-18.640103,50.696526,239.528196,-185.120144,94.76686
105,-6.271076,-26.674696,13.355999,4.940156,-31.699763,-64.539299,-86.250372,-102.388316,-79.153805,-119.688464,-123.862524,-117.718878,-79.799595,-122.584019,-123.968983,-116.301155,-77.328959,-118.577671,-121.328945,-113.99354,-72.68466,-106.333809,-113.754788,-111.847,-0.023774,3.449286,13.028534,25.483407,-21.494546,-0.477948,20.977727,31.94355,-20.166573,4.265348,28.184185,38.689566,-12.671833,8.208452,29.196583,39.269712,-2.432873,13.463257,27.946292,36.309212,22.953529,33.865585,38.685379,46.295929,29.605865,23.502903,24.591637,26.346245,20.478401,11.821518,13.393993,14.215622,10.394726,2.034702,4.286213,6.413898,-0.011101,-4.09956,-2.513466,-1.762676,-31.602317,-61.117192,-82.111314,-102.71369,-60.300111,-78.21653,-93.295239,-106.819228,-47.428083,-65.973708,-81.646302,-95.533908,-30.223616,-46.393239,-62.44214,-76.771848,-10.047008,-19.00372,-29.734645,-40.036096,45.484286,213.155305,-170.705309,100.008821
106,-6.271077,-26.674696,14.777412,-3.130931,-31.311779,-62.023945,-82.898598,-98.910084,-73.142452,-117.463474,-124.89624,-120.242329,-74.236794,-122.494125,-127.841549,-121.090393,-72.998428,-119.091911,-125.389652,-118.28928,-70.428085,-107.704124,-117.731152,-116.315689,-8.514641,-11.217642,-5.195494,4.954977,-35.122091,-19.049817,5.203151,20.356703,-31.331542,-11.960993,14.751679,28.978542,-20.194237,-3.709162,20.436237,34.678723,-5.391984,8.608872,23.621076,33.973533,21.967506,27.724686,29.280968,35.669174,17.685413,8.123074,5.231667,2.98336,9.809303,0.009041,-2.646217,-5.262165,2.767467,-6.389179,-7.444496,-8.692989,-3.912735,-9.829788,-10.450745,-11.796341,-32.066063,-63.079651,-85.92681,-107.976554,-68.53706,-89.236354,-104.473577,-119.28219,-57.503064,-79.477288,-94.629481,-110.138282,-42.627791,-63.116208,-79.069612,-95.685351,-23.453239,-36.485015,-48.074332,-59.736268,39.751482,187.197825,-155.389624,97.595106
107,-5.056801,-14.241868,11.958618,-2.685464,-35.21656,-65.250034,-85.178375,-102.631989,-76.196423,-115.84259,-127.158852,-126.349239,-73.671741,-117.959175,-127.560596,-126.070004,-69.533501,-112.084751,-123.670979,-122.850437,-65.198994,-100.78331,-114.353428,-118.022118,-11.351702,-16.20374,-11.8307,-5.299976,-36.232795,-25.681194,-4.25096,10.929823,-30.485808,-16.87188,8.197058,25.012128,-18.867159,-7.735968,14.328998,32.197035,-3.544782,3.883051,16.444073,30.092334,18.950214,21.355476,21.160526,26.491814,11.122227,-1.285858,-6.432495,-10.108967,4.81081,-7.413197,-13.126602,-17.787781,-0.585194,-12.910252,-17.650909,-21.648731,-6.471348,-15.246506,-18.982887,-22.56134,-28.654291,-60.232494,-85.480385,-108.215312,-64.841391,-86.908271,-103.225755,-119.78984,-54.252337,-78.461216,-95.185481,-112.026424,-38.488816,-59.60406,-75.93371,-92.686041,-18.06286,-29.920761,-41.932019,-54.680823,35.879517,173.383779,-142.24617,95.337465
108,-5.439491,-15.676948,11.801949,3.547654,-36.280575,-66.48016,-86.049385,-103.340321,-77.091751,-115.762939,-127.543259,-130.036697,-74.428425,-119.043159,-127.886295,-127.512817,-70.93008,-112.60294,-123.942833,-125.028992,-67.84544,-102.585754,-115.501842,-120.109692,-8.008473,-13.189332,-10.099836,-5.533948,-41.634907,-25.92202,-5.149058,8.494201,-36.867157,-15.944697,8.409974,25.113646,-24.765003,-6.9003,14.57248,32.792618,-8.77813,2.316011,15.09001,29.786114,17.462997,14.737015,9.89645,11.581879,-0.539532,-14.432487,-18.228092,-19.402885,-6.707497,-21.139755,-24.952412,-27.278595,-10.235538,-22.919655,-26.357746,-27.992821,-12.322769,-21.82972,-25.473003,-28.305817,-30.664699,-62.276248,-83.998993,-104.002637,-65.367041,-84.167016,-99.109751,-114.685181,-54.987816,-74.182808,-89.867536,-106.114038,-40.926691,-58.549981,-73.911723,-89.38755,-22.621214,-34.181107,-45.334682,-57.045741,31.933308,158.373458,-128.950939,99.551745
