YashyHoby/handMotion-similar-search/project/data/handData/tgt/d4_feature_d2/20.csv
,vel_0x_L,vel_0y_L,vel_0x_R,vel_0y_R,posFromWrist_1x_L,posFromWrist_2x_L,posFromWrist_3x_L,posFromWrist_4x_L,posFromWrist_5x_L,posFromWrist_6x_L,posFromWrist_7x_L,posFromWrist_8x_L,posFromWrist_9x_L,posFromWrist_10x_L,posFromWrist_11x_L,posFromWrist_12x_L,posFromWrist_13x_L,posFromWrist_14x_L,posFromWrist_15x_L,posFromWrist_16x_L,posFromWrist_17x_L,posFromWrist_18x_L,posFromWrist_19x_L,posFromWrist_20x_L,posFromWrist_1y_L,posFromWrist_2y_L,posFromWrist_3y_L,posFromWrist_4y_L,posFromWrist_5y_L,posFromWrist_6y_L,posFromWrist_7y_L,posFromWrist_8y_L,posFromWrist_9y_L,posFromWrist_10y_L,posFromWrist_11y_L,posFromWrist_12y_L,posFromWrist_13y_L,posFromWrist_14y_L,posFromWrist_15y_L,posFromWrist_16y_L,posFromWrist_17y_L,posFromWrist_18y_L,posFromWrist_19y_L,posFromWrist_20y_L,posFromWrist_1x_R,posFromWrist_2x_R,posFromWrist_3x_R,posFromWrist_4x_R,posFromWrist_5x_R,posFromWrist_6x_R,posFromWrist_7x_R,posFromWrist_8x_R,posFromWrist_9x_R,posFromWrist_10x_R,posFromWrist_11x_R,posFromWrist_12x_R,posFromWrist_13x_R,posFromWrist_14x_R,posFromWrist_15x_R,posFromWrist_16x_R,posFromWrist_17x_R,posFromWrist_18x_R,posFromWrist_19x_R,posFromWrist_20x_R,posFromWrist_1y_R,posFromWrist_2y_R,posFromWrist_3y_R,posFromWrist_4y_R,posFromWrist_5y_R,posFromWrist_6y_R,posFromWrist_7y_R,posFromWrist_8y_R,posFromWrist_9y_R,posFromWrist_10y_R,posFromWrist_11y_R,posFromWrist_12y_R,posFromWrist_13y_R,posFromWrist_14y_R,posFromWrist_15y_R,posFromWrist_16y_R,posFromWrist_17y_R,posFromWrist_18y_R,posFromWrist_19y_R,posFromWrist_20y_R,posFromBody_0x_L,posFromBody_0y_L,posFromBody_0x_R,posFromBody_0y_R
2,-26.411762,8.732064,-2.286129,-7.319956,32.094727,54.748421,75.795479,92.485657,48.934479,76.001587,88.255119,97.66983,34.245758,59.485588,73.688049,82.109642,17.338657,30.627308,33.56884,32.50042,0.904026,-3.249321,-8.458786,-13.16803,-0.38063,7.946352,14.310349,16.929431,48.382004,66.675254,75.508342,81.523758,61.307723,83.185771,92.49551,96.524354,65.849898,88.403742,101.682366,110.080113,63.611384,82.560177,91.610688,97.839885,24.163857,45.144024,59.301395,69.827213,39.581623,68.606243,79.850979,84.634037,27.096691,56.58926,68.784885,71.85236,13.971004,41.456394,53.837414,58.255634,2.0858,22.05883,33.057804,38.379421,-7.124392,3.146183,18.194512,28.820832,7.19874,29.26846,39.081403,43.246407,21.898796,48.380892,56.610122,56.687866,34.146496,61.260669,67.755578,66.714528,43.175888,66.304752,72.652447,72.961508,-58.462944,338.784604,-41.607685,369.178528
3,11.191292,-1.859551,-28.161907,-17.281285,17.408695,29.405136,39.022322,42.157488,30.957756,59.171734,69.965744,77.220268,22.559166,51.484623,63.744678,70.157661,12.551679,33.660593,39.573612,39.946003,1.211614,8.737621,8.885822,6.634025,17.372706,38.447906,54.987692,66.501118,57.110486,74.597986,81.345485,87.342932,58.760704,80.678827,88.907347,95.328927,55.992,77.547248,87.555229,96.044089,49.414285,67.578662,76.190591,82.840493,37.084866,67.778549,90.521736,107.63443,71.4077,109.662437,113.674049,106.330948,58.755512,100.589447,106.013603,99.021263,44.94833,83.774643,90.976753,86.748734,31.261826,62.148514,74.352493,76.655045,-16.125132,-15.315214,-14.130903,-17.809251,21.091965,55.665218,54.331532,46.949394,38.447783,73.293169,68.303427,58.89285,50.831148,81.681531,78.253951,70.942393,58.364019,85.651341,86.726848,81.661277,-47.503195,337.924298,-70.001135,352.896488
4,11.191292,-1.859552,-3.922577,-2.917707,2.722664,4.061852,2.249165,-8.170681,12.981033,42.341881,51.676369,56.770706,10.872574,43.483658,53.801308,58.205681,7.764702,36.693878,45.578384,47.391586,1.519203,20.724564,26.230431,26.436081,35.126043,68.94946,95.665035,116.072805,65.838969,82.520719,87.182628,93.162106,56.213685,78.171884,85.319186,94.133501,46.134103,66.690754,73.428094,82.008067,35.217186,52.597148,60.770495,67.841102,36.166191,67.769051,93.871651,113.477783,69.448586,105.016365,118.409958,122.060738,57.167931,97.500229,109.515152,108.688431,44.122238,81.194229,94.83181,96.21151,31.663284,60.216408,74.285431,79.313736,-12.524898,-13.431332,-13.227062,-16.783144,19.343811,50.07131,58.171852,58.431266,38.780123,72.161964,72.700551,65.288402,53.050767,82.034249,83.172,76.634546,61.72213,86.46904,88.792955,83.979943,-36.29159,336.710454,-73.903399,350.624489
5,-0.496517,0.074702,1.383476,-1.225993,4.666565,7.040792,5.868924,-4.077265,14.8837,43.959074,53.350797,58.503685,11.269033,43.209343,53.371711,57.755642,6.642373,34.222534,42.638755,44.21171,-1.007781,16.009992,20.583437,20.253382,34.405917,67.629746,94.236555,114.774511,65.337447,82.074395,86.95764,92.822301,56.834331,78.450248,86.008135,94.810394,47.581147,68.213496,75.497953,84.126376,37.38116,55.102293,63.429059,70.286565,34.896183,65.133362,90.995293,110.012627,69.758263,103.994179,116.637154,121.655159,58.481026,96.374702,107.630081,108.030739,45.14019,79.660606,92.149544,94.416504,31.332493,57.06459,70.942955,77.447777,-12.158903,-13.420341,-12.094991,-14.894138,19.75865,46.104401,56.199482,59.771682,38.451488,67.698335,72.077489,68.554072,52.653835,79.772702,83.208742,79.345019,62.109244,85.744523,90.595944,88.60863,-36.781869,337.119581,-72.513685,349.732922
6,-0.496516,0.074703,1.435261,0.405885,6.610465,10.019732,9.488683,0.016151,16.786366,45.576267,55.025225,60.236664,11.665492,42.935028,52.942114,57.305603,5.520044,31.751189,39.699125,41.031833,-3.534765,11.295419,14.936443,14.070683,33.685791,66.310031,92.808075,113.476216,64.835925,81.62807,86.732652,92.482496,57.454976,78.72861,86.697084,95.487286,49.028191,69.736237,77.567811,86.244685,39.545133,57.607438,66.087622,72.732028,33.469276,63.346195,89.604092,108.923664,68.485508,101.120167,113.946705,120.04446,57.305145,92.944965,104.874973,107.357998,43.68021,76.060238,89.243603,93.701763,29.326286,53.261604,67.118855,75.128918,-12.280057,-14.452005,-14.468924,-18.810349,20.034551,45.04532,55.412041,59.570005,38.236287,65.708552,71.566628,69.533434,51.881585,77.915064,83.218251,81.498008,60.942902,84.243247,90.647814,90.888455,-37.275782,337.51287,-71.075821,350.457393
7,-0.496516,0.074702,1.40007,0.461584,8.554366,12.998671,13.108442,4.109566,18.689032,47.19346,56.699653,61.969643,12.061951,42.660713,52.512517,56.855564,4.397714,29.279845,36.759496,37.851956,-6.06175,6.580846,9.289448,7.887983,32.965666,64.990317,91.379595,112.177921,64.334405,81.181746,86.507665,92.142691,58.075622,79.006974,87.386034,96.164179,50.475235,71.25898,79.63767,88.362995,41.709108,60.112583,68.746186,75.177491,32.558327,62.272854,87.85635,106.802387,67.312031,99.045925,111.691532,118.325787,55.618858,88.242359,100.492916,104.368229,41.882401,71.57095,85.024967,90.740833,27.885132,49.241753,62.093182,70.580578,-11.963278,-14.844182,-15.624089,-20.878247,19.891413,44.305303,55.056482,59.898579,38.58246,65.388438,71.720448,70.181875,52.575783,78.360717,84.895331,84.295673,61.609065,84.987833,92.625186,94.366053,-37.762885,337.84501,-69.666338,351.176415
8,-0.496516,0.074703,2.589169,0.490731,10.498266,15.977611,16.728201,8.202982,20.591697,48.810653,58.37408,63.702621,12.45841,42.386398,52.08292,56.405525,3.275385,26.8085,33.819866,34.672079,-8.588734,1.866274,3.642454,1.705284,32.24554,63.670603,89.951115,110.879626,63.832883,80.735422,86.282677,91.802886,58.696267,79.285337,88.074983,96.841071,51.922278,72.781722,81.707528,90.481304,43.873081,62.617727,71.404749,77.622954,30.991688,59.819183,84.364128,101.937103,64.92794,95.654526,107.883224,114.536705,52.380867,83.982468,96.466599,101.070442,37.995586,67.143059,80.434341,86.485176,23.590164,44.565525,56.821461,64.815674,-11.793464,-14.317945,-14.94255,-20.649955,20.196151,44.021004,54.838009,59.791071,38.52355,65.019417,73.106622,73.187021,52.107468,77.944519,85.15493,85.131464,60.841569,83.575663,91.381038,93.615971,-38.256912,338.029721,-67.07468,351.777153
9,-0.496516,0.074702,1.770229,0.921378,12.442166,18.956551,20.347959,12.296397,22.494363,50.427846,60.048508,65.4356,12.854869,42.112083,51.653323,55.955486,2.153055,24.337155,30.880236,31.492202,-11.115718,-2.848299,-2.00454,-4.477416,31.525415,62.350889,88.522635,109.581332,63.331362,80.289098,86.05769,91.463082,59.316914,79.5637,88.763933,97.517965,53.369322,74.304464,83.777386,92.599614,46.037055,65.122873,74.063313,80.068417,29.851971,57.453632,82.088299,99.79311,62.508945,92.810383,105.785351,113.22607,50.169868,81.869717,94.831753,99.548321,36.049232,65.113506,78.705769,85.119495,21.780567,42.729721,54.616699,62.507114,-12.691871,-15.197579,-15.261676,-20.803343,20.482488,42.581417,52.787895,57.470553,38.415055,63.312265,71.974551,73.431367,51.73573,75.972952,83.454138,84.856305,60.734679,82.402529,90.336962,93.765222,-38.787217,338.171685,-65.33824,352.765793
10,-0.496517,0.074703,0.808353,1.433227,14.386068,21.935492,23.967719,16.389814,24.39703,52.04504,61.722937,67.168579,13.251329,41.837769,51.223727,55.505448,1.030727,21.865812,27.940607,28.312326,-13.642702,-7.562871,-7.651534,-10.660114,30.805289,61.031174,87.094155,108.283037,62.82984,79.842773,85.832702,91.123277,59.937559,79.842063,89.452882,98.194857,54.816366,75.827206,85.847244,94.717923,48.201029,67.628017,76.721877,82.51388,28.899479,55.990562,80.45826,98.035469,61.756897,91.586952,104.740791,112.553329,49.591827,80.541229,93.571129,98.495178,35.438576,63.74382,77.406693,83.995171,21.099586,41.523399,53.15752,61.186981,-13.58225,-16.61364,-16.789875,-22.378349,18.864998,39.893236,50.388954,55.494354,37.004243,61.149766,69.930613,71.882049,50.628669,74.453336,82.168433,84.062441,59.679241,80.756942,88.850074,92.695952,-39.261303,338.271103,-64.507456,354.223736
11,-0.496516,0.074703,0.902481,0.271393,16.329968,24.914432,27.587478,20.483229,26.299696,53.662233,63.397365,68.901558,13.647788,41.563454,50.794129,55.055409,-0.091603,19.394467,25.000978,25.132449,-16.169686,-12.277443,-13.298528,-16.842813,30.085163,59.711459,85.665675,106.984742,62.328318,79.396449,85.607714,90.783472,60.558204,80.120426,90.141831,98.871749,56.263409,77.349947,87.917102,96.836231,50.365002,70.133161,79.38044,84.959343,28.407726,54.894104,79.108429,96.388893,61.0532,90.372047,103.643875,111.766319,48.69936,79.094009,92.122078,97.551727,34.400082,62.452812,76.311378,83.733101,19.829292,40.615654,52.472649,61.233673,-13.987395,-17.258005,-17.388175,-21.872799,19.781312,40.562425,50.828431,55.874552,37.336584,61.190768,70.029104,71.948678,50.43397,73.998606,82.12564,84.569165,59.166219,79.675816,88.109131,92.558063,-39.741511,338.371973,-63.588667,354.521295
12,-0.496516,0.074702,0.398197,0.075274,18.273869,27.893372,31.207237,24.576645,28.202362,55.279427,65.071793,70.634537,14.044247,41.289139,50.364532,54.60537,-1.213932,16.923122,22.061348,21.952572,-18.696671,-16.992016,-18.945522,-23.025513,29.365038,58.391745,84.237195,105.686448,61.826797,78.950125,85.382727,90.443667,61.17885,80.398789,90.830781,99.548642,57.710453,78.87269,89.986961,98.954541,52.528976,72.638306,82.039004,87.404806,28.257179,54.699039,78.953075,96.10033,59.52467,89.726315,103.29134,111.45052,47.374077,78.673267,92.130718,97.41148,33.483524,62.299175,76.509418,83.719654,19.539413,40.448799,52.39809,61.092281,-14.381671,-17.569165,-17.571759,-21.41776,18.877965,39.542185,49.992084,55.247414,36.819795,60.778461,69.487121,71.246946,50.258228,74.048748,82.057344,84.405033,59.082424,79.991237,88.217133,92.281792,-40.227785,338.471931,-63.180227,354.621825
13,-1.73727,0.678946,-0.226879,-0.223845,19.862823,31.268978,36.243496,30.818996,31.240826,60.050755,71.82169,78.665028,15.679779,44.541836,56.109295,61.671581,-0.74913,17.080135,24.02338,25.243435,-19.050579,-18.223286,-20.370998,-24.745216,26.781215,54.338078,79.480252,100.987365,58.865556,76.618614,83.272283,88.166682,60.332129,78.841321,89.139807,98.689014,58.086513,79.724722,90.201544,98.689508,53.724526,74.718307,83.578997,88.468271,27.903557,54.564743,79.16153,96.371269,60.151405,90.13298,103.475189,111.669273,48.2761,79.327812,92.545052,97.810707,34.332275,63.040466,77.121735,84.278412,20.038376,41.084175,52.944717,61.488876,-14.286328,-17.679019,-17.959675,-22.24361,19.038517,39.635737,50.296328,55.834229,36.760514,60.772224,69.961797,72.146897,50.137506,73.96841,82.082353,84.575217,58.928171,80.159507,88.456292,92.554296,-41.960392,339.15997,-63.402443,354.407073
14,0.895786,1.471327,-0.04509,-0.287139,18.481865,28.766556,31.785164,24.423866,29.683971,58.383408,69.86412,76.234703,14.056778,42.041473,51.539726,54.892502,-2.004375,13.755054,16.855431,15.090523,-19.432983,-20.498714,-24.545002,-30.378284,27.529939,56.284574,83.049488,106.419672,58.262872,76.535807,84.108878,88.953506,59.044571,78.557207,89.844009,98.632822,55.774331,78.105256,89.911193,98.883652,49.827642,71.185072,80.850864,85.987449,27.99551,54.805756,79.33857,96.340485,60.214806,90.400658,103.809357,112.0467,48.137398,79.504051,92.578812,97.633209,34.169369,63.240967,77.087173,83.95031,19.965305,41.360893,53.2687,61.73687,-14.084096,-17.267638,-17.314816,-21.568863,19.192893,39.864769,50.624593,56.236779,37.076923,61.004282,70.075541,72.21544,50.528448,74.085489,81.98491,84.327165,59.420939,80.489563,88.729537,92.73047,-41.081915,340.632161,-63.464842,354.120798
15,2.77422,3.549228,0.127258,0.043905,20.245514,32.283039,38.024197,33.35844,29.614964,58.310795,68.637257,73.346615,12.961006,39.493618,47.374821,48.14558,-4.472008,8.426628,8.169079,2.562504,-22.208061,-24.981022,-30.129204,-38.23637,20.66317,46.122556,71.320676,93.772261,50.606686,67.81881,76.05014,82.851454,54.567048,75.04015,86.269525,96.425677,55.05253,78.966489,91.784392,103.262003,52.441414,74.769992,84.234169,91.183684,27.715874,54.277382,78.741875,95.724564,59.815636,89.869308,103.364639,111.690216,47.943707,79.114838,92.312508,97.511559,34.134521,62.968025,76.934738,84.002724,19.957066,41.15221,53.008118,61.516457,-14.232605,-17.480492,-17.35341,-21.408189,19.163191,39.599181,50.494979,56.330517,37.029623,60.793713,69.869233,72.076933,50.515357,74.030716,82.048328,84.60072,59.424891,80.474866,88.635059,92.625371,-38.317337,344.176372,-63.347225,354.159685
16,0.412731,-0.882105,0.184708,0.370317,16.964378,25.668125,28.77491,21.7733,24.612408,49.21566,58.957214,64.450035,9.663792,33.09803,40.437584,41.296577,-5.922718,3.951817,1.534595,-5.051193,-21.842194,-25.702,-31.423473,-39.517136,25.08876,53.514945,80.384896,103.968798,55.659969,72.790645,80.961274,87.139711,56.675825,77.107492,89.142956,100.180657,55.00949,79.10975,92.194538,104.187889,51.035357,72.762363,82.367578,89.375385,27.677193,53.98819,78.320847,95.530815,59.497719,89.964409,103.33889,111.219521,47.609482,79.275627,92.527084,97.3946,33.651981,62.938042,76.986809,83.902473,19.305954,40.710869,52.734718,61.328316,-14.409644,-17.830246,-17.787206,-21.799748,18.546427,39.452585,50.398525,56.117354,36.649549,60.68849,69.5393,71.425158,50.323684,73.962914,81.671404,83.909239,59.328623,80.545694,88.496924,92.196947,-37.927866,343.281439,-63.185778,354.517174
17,-26.208057,10.144296,-0.556183,0.08219,30.904713,52.765217,70.764713,87.885761,53.831577,77.028408,89.939747,100.43684,41.311054,66.783543,81.68684,91.570415,26.07502,46.934166,58.437023,65.285282,9.85096,12.38903,10.902901,9.859886,-3.374166,2.178369,7.47322,5.51777,35.970788,56.31829,62.513894,65.116859,47.878429,68.826206,76.758109,78.982482,52.031947,71.626588,80.71032,86.765936,49.528276,66.28283,74.530833,82.028568,27.75547,54.358063,79.023399,96.247787,60.260696,90.448837,103.686562,111.586647,48.52684,79.850578,92.82692,97.592239,34.504108,63.576508,77.405205,84.254951,19.842625,41.17939,53.07209,61.383018,-14.688447,-18.129427,-18.094476,-21.932697,18.371612,39.185576,49.94398,55.59192,36.327397,60.235613,69.318542,71.720387,49.984056,73.424142,81.323625,83.869842,59.053586,80.097077,88.146737,91.970014,-64.176435,353.392127,-63.782473,354.565756
18,21.067085,-14.140659,-0.331764,-0.258178,15.019627,22.687111,24.208031,16.265373,29.301567,55.928936,65.585346,71.039028,16.282711,42.787685,51.225758,53.582439,1.596851,18.508244,20.627575,17.472038,-15.288105,-12.229156,-15.178757,-21.142502,30.465369,62.020014,89.318204,112.526417,62.339017,78.656996,85.044335,90.291576,60.304032,80.043972,90.025061,99.12349,55.266433,77.205984,87.50972,96.913752,48.334394,68.432856,77.790699,84.047374,28.143597,54.860916,79.388924,96.513405,60.145226,90.758514,104.199028,112.301216,48.294468,80.142403,93.271294,98.100128,34.352818,63.951988,77.762032,84.509811,19.900646,41.62096,53.633823,62.02858,-14.263913,-17.595348,-17.508588,-21.334273,18.156412,39.258442,50.057416,55.769576,36.117569,60.039061,69.088522,71.325801,49.768918,73.187082,81.076685,83.572514,58.986711,80.097324,88.258073,92.15014,-43.137302,339.219868,-64.142189,354.275977
19,-0.288906,-0.137765,0.427494,-0.068913,14.467335,21.61623,21.855183,12.595081,29.081326,54.884148,64.422913,70.079269,16.021099,41.735229,49.259148,51.090317,1.052055,16.931648,17.124367,12.814579,-16.561718,-14.519691,-18.45726,-24.976215,31.826842,63.42039,89.660548,112.447253,63.71179,80.228358,87.071662,92.609316,61.069675,80.161606,91.152685,101.203306,55.747099,77.046298,88.727623,99.096629,48.760534,68.434091,78.242465,84.694766,28.206367,54.737949,79.073124,96.206532,59.74268,90.435276,103.873158,111.84557,47.669106,79.521961,92.802486,97.549381,33.649349,63.26849,77.259464,83.982525,19.317055,41.304302,53.430004,61.955395,-14.254465,-17.479504,-17.324016,-20.948642,18.080829,39.297098,50.308616,56.073141,36.165673,60.608523,69.67651,71.439916,49.855307,73.902893,81.636391,83.718615,59.043089,80.391503,88.453945,92.193489,-43.462572,339.061895,-63.751059,354.186855
20,-0.326958,-0.414284,-0.135155,-0.199577,23.445683,38.352127,46.992531,45.461884,34.375877,62.153435,73.523598,79.740829,16.924896,42.274017,51.629677,54.59507,-1.461754,10.676422,11.708336,8.561211,-20.488129,-23.716106,-28.458767,-34.683208,22.070771,46.220801,68.968726,89.784049,54.119605,72.196112,80.863955,87.949321,58.861728,79.741456,92.252769,103.748781,59.6404,84.05429,96.883494,108.116388,57.802029,79.873787,89.248426,96.283774,28.071098,54.710484,79.286785,96.731243,59.666004,90.336857,103.951206,112.179165,47.580929,79.433613,92.878361,97.850933,33.630066,63.20509,77.368641,84.301701,19.379711,41.281013,53.473377,62.112637,-14.341533,-17.579354,-17.465178,-21.166497,18.486097,39.6027,50.654913,56.617038,36.598049,60.956363,69.943086,71.888656,50.203641,74.250918,81.979415,84.20422,59.174432,80.636281,88.655313,92.356818,-43.807383,338.637885,-63.904066,353.977552
21,0.847149,-0.403415,-0.119591,0.061565,18.735008,28.894558,31.961975,24.287853,30.879192,59.482899,70.811634,77.201328,15.713539,44.336071,54.960537,58.596897,-0.931892,16.931076,21.713676,20.995502,-19.439793,-19.637604,-23.226814,-28.775826,27.360064,54.765946,79.242266,100.768213,57.928802,75.848957,83.466365,89.931015,59.179866,78.906776,89.496169,100.119833,57.115673,80.367358,91.376469,101.166873,53.068242,74.345397,83.884415,90.620829,28.161449,54.627628,79.223042,96.716251,60.000744,90.377369,103.870068,112.04813,48.015747,79.697857,93.024616,98.13921,34.127827,63.490849,77.58585,84.64159,19.89893,41.613121,53.759594,62.52737,-14.275892,-17.477837,-17.345567,-21.362987,18.908161,39.755903,50.538575,56.199914,36.959165,61.064241,69.985879,71.994867,50.506341,74.333911,82.07062,84.393115,59.416679,80.585831,88.582386,92.410665,-42.97039,338.221749,-64.033813,354.026397
22,0.238152,0.09454,0.045261,0.023589,17.333736,27.358418,29.313984,20.649147,30.268707,60.572262,73.420544,80.81068,15.085545,45.403004,56.950779,61.165867,-1.518459,16.520176,21.391411,20.734348,-19.89378,-20.860863,-25.061417,-31.010056,28.406672,57.41473,84.0751,107.237124,58.559459,76.731124,83.34873,88.346438,59.578403,78.733072,88.837848,98.509135,57.10394,80.250218,90.934336,99.830471,52.449812,73.976561,83.258327,89.356304,27.936573,54.402351,78.99147,96.337166,59.766998,90.040741,103.658295,112.010078,47.848148,79.343948,92.735481,97.948036,33.998966,63.268776,77.44091,84.619217,19.720173,41.539936,53.700371,62.44812,-14.32344,-17.594236,-17.380765,-21.078627,18.803618,39.75473,50.657136,56.455808,36.786388,60.992673,69.955251,71.925521,50.287992,74.238507,82.063889,84.421088,59.23433,80.541618,88.568678,92.404305,-42.72151,338.307505,-63.977823,354.041201
23,-0.204105,-0.081078,-0.010586,0.090526,20.856113,32.673111,37.556648,31.604061,31.6325,60.062828,71.415138,77.526855,15.386639,42.837753,52.503777,55.141525,-2.221127,12.846107,14.717159,11.725388,-21.037331,-23.300514,-28.089924,-34.730759,24.674785,50.319978,74.555904,96.105871,55.793411,74.321252,82.249943,88.462343,59.206666,79.98358,90.955208,101.741337,59.098047,83.868483,95.469965,105.799883,56.662055,79.13093,88.240536,94.783733,28.160133,54.618244,79.122906,96.494236,59.908733,90.051098,103.550205,111.739941,47.910519,79.361172,92.744236,97.958622,34.008293,63.252697,77.436619,84.597416,19.759312,41.531811,53.694935,62.462368,-14.439469,-17.605413,-17.407256,-21.203548,18.849375,39.821359,50.631448,56.238879,36.832206,61.012062,69.895291,71.832711,50.353324,74.207631,82.012636,84.369897,59.250632,80.39811,88.417821,92.223005,-42.938747,338.220854,-64.001541,354.126155
24,-0.360031,-1.823181,0.211544,-0.031431,23.737965,37.49897,44.765854,42.273102,34.073639,60.045662,69.732399,74.876862,16.64629,40.701828,48.81752,50.365791,-1.870937,10.127621,10.449772,6.286297,-21.551056,-24.109554,-28.52108,-34.954948,25.366143,50.110274,71.663947,90.837944,60.176394,78.867256,86.817189,92.891021,63.35617,84.255535,95.365607,105.306065,62.455725,86.763219,98.867226,109.580984,58.81807,81.029261,90.274286,97.097089,28.034134,54.334717,78.743706,96.082878,59.580688,89.856033,103.504486,111.769638,47.56216,79.187508,92.667389,97.843552,33.637905,62.966995,77.164764,84.257126,19.383774,41.139507,53.366261,62.154922,-14.421006,-17.536067,-17.335996,-21.099745,18.989425,39.956098,50.684923,56.261109,36.95651,61.115803,69.889363,71.700873,50.457435,74.357438,82.041474,84.246766,59.352643,80.520005,88.531813,92.324832,-43.308878,336.402181,-63.800097,354.099231
25,-0.107346,-0.136468,0.018253,-0.011115,16.709461,25.533829,27.432461,20.221081,31.532593,59.466248,69.292831,74.981689,17.680149,45.314827,55.117722,58.205452,1.752148,19.836159,24.800148,24.281731,-16.810627,-14.301395,-15.952377,-20.122833,30.103696,58.322585,81.374322,100.83126,61.665876,79.193421,86.672631,93.064972,61.142232,79.618388,90.549754,101.259561,57.423314,78.752276,89.113996,98.541493,52.004962,72.409398,82.190848,89.204769,28.062344,54.460087,79.037876,96.488056,59.563351,89.715786,103.249569,111.350384,47.651882,79.115467,92.544079,97.674351,33.764076,62.882023,77.145939,84.325161,19.423885,40.983753,53.2061,61.985264,-14.457809,-17.634559,-17.464375,-21.083628,18.864751,39.789989,50.364439,55.740924,36.847706,60.95766,69.694973,71.53884,50.385063,74.288401,82.114401,84.475305,59.239331,80.541618,88.604122,92.372194,-43.418198,336.28396,-63.783817,354.106364
26,-0.577984,-0.368712,-0.749187,-0.013029,16.143665,24.907665,27.102928,19.774189,32.199898,59.024448,68.340511,73.537273,18.809853,44.697704,53.460445,56.205654,2.707844,19.319057,23.481216,22.830734,-16.427021,-14.575024,-16.596851,-20.796261,28.11453,54.840047,75.963875,93.365944,61.434929,78.782164,86.519861,93.439982,61.581772,81.060569,92.381333,103.776693,58.735263,80.418673,91.010412,100.826814,54.31134,74.564919,84.038173,90.984848,27.972908,54.752197,79.590797,96.861649,60.139732,90.184021,103.831558,112.331772,48.460693,79.593887,92.705727,97.890472,34.64653,63.461266,77.444115,84.698639,20.225201,41.438541,53.456268,62.267075,-14.508815,-17.813882,-17.666484,-21.538235,18.767185,39.143771,50.008756,55.900116,36.667209,60.497867,69.581537,71.919346,50.165108,73.812305,81.877527,84.551937,59.067789,80.284922,88.441348,92.369169,-44.00259,335.913442,-64.539413,354.091528
27,0.523224,0.790158,-0.188885,-0.029702,16.023216,24.290257,26.249428,18.858261,30.926685,57.165012,66.74017,72.147274,17.178326,42.549305,51.371326,54.005413,1.045876,16.672611,20.556622,19.701462,-17.811871,-16.982346,-19.295998,-23.631821,27.838382,54.465284,75.39398,93.272948,60.303785,77.683068,85.824922,93.268008,60.657306,80.022174,92.180521,104.571112,58.430957,79.829512,91.039312,101.625,54.93823,74.572885,83.845512,90.950762,28.446293,55.270557,79.853153,97.032452,60.530949,90.69746,104.212704,112.563229,48.678303,79.941044,92.924366,97.932644,34.736767,63.685741,77.610683,84.684849,20.293579,41.603851,53.532314,62.128429,-14.218773,-17.271158,-17.102518,-21.228371,18.720193,39.18854,50.230379,56.192998,36.633061,60.664654,69.796058,72.031176,50.156031,73.944883,81.958173,84.458879,59.12991,80.321972,88.430789,92.292783,-43.498421,336.695696,-64.747353,354.053922
28,-0.577927,-0.077126,0.288734,0.20038,14.890709,21.70126,22.455654,14.795952,31.540031,58.788242,68.686466,74.331608,18.923149,44.978771,53.825283,56.594868,3.651752,20.697556,25.171909,24.831562,-14.508648,-11.686764,-13.019772,-16.654243,28.749757,55.950937,77.079767,94.847398,59.75785,77.017707,85.068232,92.929492,59.091933,78.605866,90.795706,103.66054,56.214241,77.46972,88.337793,99.05785,52.167613,71.590834,81.141276,88.513782,28.114986,54.675579,79.124393,96.214314,60.438023,90.580616,104.030285,112.240505,48.720818,79.91312,92.68404,97.572498,34.800968,63.638134,77.361202,84.431019,20.249748,41.522484,53.378792,62.060337,-14.248167,-17.612514,-17.485308,-21.136919,18.607375,38.843726,49.948673,56.022691,36.363274,60.19813,69.481131,71.910516,49.86494,73.496637,81.688817,84.365265,58.945894,80.077255,88.345079,92.411529,-44.087963,336.613753,-64.470234,354.249486
29,-0.903969,-0.018649,0.057678,0.152215,15.068207,22.467957,23.835354,16.391315,32.532921,59.778843,69.334202,74.735699,19.587307,45.944767,54.015026,55.906048,4.003716,20.652866,23.27425,21.544418,-14.300079,-11.802635,-14.115314,-18.571529,27.994549,55.524982,77.207899,95.297867,60.156572,77.549564,85.240145,92.619752,60.175221,79.640803,91.586976,104.295643,57.567871,79.432704,90.638922,101.496497,53.508832,73.408149,83.361759,91.204247,28.060055,54.671574,79.089832,96.143589,60.42635,90.787868,104.208469,112.335033,48.667316,80.060291,92.772961,97.564945,34.795818,63.901691,77.682323,84.739895,20.313606,41.939392,53.878498,62.512608,-14.292071,-17.744166,-17.793319,-21.435359,18.444416,38.79729,49.961703,56.08018,36.17617,60.039308,69.320642,71.662465,49.652704,73.333307,81.483621,84.122895,58.714762,79.953322,88.292777,92.436044,-44.998569,336.596957,-64.419193,354.403553
30,0.065517,-0.962998,0.153694,-0.108434,16.20203,24.283047,26.925831,20.588779,32.80117,59.617538,68.85807,74.308891,19.305897,45.035248,52.765274,54.488182,3.296928,19.211712,21.076012,18.610554,-15.314884,-13.528633,-16.346054,-21.303749,27.961883,55.455884,77.899688,96.350341,62.203351,79.422268,86.768715,93.318149,62.587995,82.141263,93.471228,105.087036,59.944212,82.304716,93.503771,104.018137,55.738577,76.393287,86.218333,93.787637,28.070984,54.646626,78.908558,95.88335,60.328503,90.671711,104.130764,112.21796,48.444958,79.731846,92.515697,97.226315,34.520016,63.531818,77.325039,84.240589,20.12455,41.660728,53.589191,62.08334,-14.322946,-17.70267,-17.77677,-21.361876,18.21279,38.69639,50.00678,56.181328,36.00191,60.313233,69.811064,72.078292,49.587557,73.632241,81.768167,84.2162,58.750515,80.159815,88.51903,92.570043,-44.945154,335.632447,-64.277601,354.293606
31,-2.926769,-0.933851,0.340862,0.823071,28.475189,47.146854,60.960903,65.444241,39.991207,65.336323,73.965168,78.974133,20.756435,42.147388,47.380543,47.320461,1.014004,10.531139,7.161999,0.775623,-18.668633,-21.079903,-26.070156,-32.216034,19.444896,40.695683,60.399189,75.47827,61.00879,78.598333,86.486516,92.000333,67.195131,89.288317,100.707574,110.774126,68.495965,92.46519,105.310326,117.453483,66.658705,88.065844,96.934191,104.461628,28.006954,54.36882,78.702049,95.973244,60.528259,90.842972,103.859825,111.677513,48.553448,79.575462,92.070465,96.772041,34.332504,62.702751,76.096458,83.107224,19.622383,40.339851,51.976719,60.56797,-14.074524,-18.274602,-19.177023,-23.289662,17.749909,38.156197,49.247559,55.06488,35.344516,59.408281,68.878694,71.292456,48.822531,72.58446,80.882048,83.427956,58.000495,79.041762,87.193249,90.979784,-47.802515,334.684886,-63.867331,355.102969
32,1.257477,-0.284855,-0.520649,-0.002532,23.73579,39.00919,50.151272,52.007618,38.239803,63.88464,72.262974,76.709576,20.627403,43.962078,48.984318,48.183117,1.793518,13.897247,10.755386,4.245129,-17.425232,-17.985363,-22.41045,-28.592548,17.320805,37.295149,56.420116,70.985433,58.987205,76.21736,84.071889,90.097865,66.706809,88.294135,98.760213,108.834237,69.968898,94.105528,105.974513,117.980893,69.891772,91.707081,101.123401,109.652306,28.209286,54.889698,79.213772,96.491375,61.180058,91.378269,104.572506,112.516537,49.283752,80.27956,92.796879,97.384357,34.98127,63.340702,76.605206,83.23019,20.123234,40.528736,52.166748,60.537128,-13.891249,-18.05088,-19.164734,-23.850788,17.538846,37.650955,48.644752,54.472879,35.31185,58.841968,67.979423,70.31575,48.957888,72.170918,79.901699,81.890124,58.303319,79.404855,87.485699,90.83288,-46.470423,334.391279,-64.313364,355.091684
33,0.675316,-0.900692,-0.698376,-0.23953,21.464882,35.352859,45.257778,46.237965,36.599522,61.710491,70.370464,75.100651,19.707699,42.77544,48.523579,48.341732,1.565781,13.676548,11.396255,5.537682,-17.327213,-17.408237,-21.275997,-27.19265,17.990427,38.110502,57.033051,71.559465,60.233328,78.530469,87.073268,93.507908,67.70556,89.437012,100.308975,110.403191,70.444129,94.903344,106.861496,118.459706,69.880101,91.801744,101.466116,110.096909,28.632832,55.86422,80.229149,97.6577,61.9701,92.331963,105.5159,113.423538,50.010681,81.159782,93.508644,97.888298,35.659275,64.276314,77.426376,83.94516,20.604515,41.159363,52.873135,61.363449,-13.536617,-17.543724,-18.496101,-23.131149,17.399784,37.60526,48.815491,54.839615,35.291842,58.972878,68.266562,70.752325,48.982279,72.231001,80.057865,82.189737,58.423362,79.641235,87.619944,90.960024,-45.760803,333.482992,-64.977436,354.844559
34,-0.28307,0.6611,0.023632,0.467574,21.215343,35.22234,45.632286,46.792259,36.205101,60.741806,69.235039,73.968201,19.868088,43.11058,49.435959,49.832153,2.178154,14.676876,13.878307,9.323959,-16.59708,-16.480293,-19.77562,-25.087509,19.033082,39.782394,59.319669,74.340395,59.733644,77.397164,85.281456,91.281497,66.558917,87.774012,98.133755,107.867657,68.723701,93.189646,104.621871,115.582075,67.84808,89.908662,99.854492,108.409764,28.517761,55.804882,80.094852,97.527523,61.736927,92.510433,105.550861,112.987461,49.911404,81.306667,93.463154,97.592525,35.727367,64.510632,77.456188,83.659344,20.800037,41.529007,53.124161,61.343822,-13.529207,-17.892491,-19.191843,-23.845971,17.001062,37.060004,48.361255,54.451884,34.856379,58.223105,67.602746,70.313589,48.648024,71.532233,79.332051,81.449287,58.308197,79.375647,87.199301,90.327762,-46.034575,334.142996,-64.944506,355.311037
35,-0.192146,0.113621,-0.202789,-0.223907,25.714989,43.976555,58.163681,62.848663,38.176804,63.241081,72.170792,77.363892,19.386749,41.299896,47.575378,48.212585,0.184307,10.509109,8.98653,3.941402,-19.600868,-21.139755,-25.291328,-31.245975,18.005185,38.478843,58.328945,73.652557,60.602287,77.113544,84.840991,90.324736,67.477269,87.611052,98.180747,108.077732,68.966133,92.610057,104.667566,116.260773,67.071815,88.946899,98.604293,106.996236,28.303356,55.350094,79.516239,96.921101,61.620312,92.754765,105.977497,113.406315,49.833183,81.766834,93.935909,97.726192,35.642166,64.995975,78.052654,84.089184,20.706768,41.85276,53.658142,61.827335,-13.643939,-17.82049,-18.860984,-23.250327,16.947092,37.217591,48.251216,54.052359,34.841497,58.448741,67.588419,69.873617,48.569601,71.659933,79.33767,81.299975,58.136099,79.325382,87.238389,90.438665,-46.193876,334.245687,-65.11445,355.0762
36,1.569328,-1.374873,0.467091,-0.265465,23.199348,34.683037,40.53978,38.728523,34.779167,58.796425,66.674881,71.033936,18.042183,39.384727,44.698105,44.706573,0.080738,11.259556,9.5648,3.799267,-18.877716,-19.87999,-24.075279,-30.384693,26.214594,51.059316,72.60317,89.993136,64.15627,82.748948,90.614901,96.164843,67.896183,89.419104,100.818539,110.731395,67.279235,91.298663,103.17722,114.114391,64.431862,85.921561,94.772433,101.694222,28.481026,55.240746,79.356422,96.796074,61.205864,92.127914,105.539818,113.103905,49.368095,81.279488,93.637161,97.598763,35.143547,64.596519,77.745781,83.920784,20.192871,41.497021,53.479729,61.985092,-13.639863,-17.966282,-19.177825,-23.333381,16.805128,37.436558,48.570157,54.269103,34.419988,58.252313,67.39866,69.516267,47.91375,71.352231,78.904368,80.703466,57.29901,78.643225,86.57803,89.804489,-44.613934,332.899744,-64.636745,354.839665
37,-3.554306,4.700812,0.742664,-0.808683,31.935539,56.927719,76.524811,86.456108,43.54351,70.092659,77.921562,81.942101,22.459774,43.557358,47.399483,46.148186,1.342163,8.070774,2.958984,-4.968624,-18.7607,-23.239174,-29.032974,-35.572758,11.661689,30.066893,48.391513,62.607322,54.301522,71.26862,80.22805,87.074132,63.334372,86.00196,98.085095,109.310024,66.617888,90.304049,102.677474,114.939438,65.449385,85.795652,94.490357,102.598248,28.257351,54.982738,79.196835,96.703091,61.225719,91.650295,104.632473,111.915035,49.51704,80.472507,92.502308,96.370068,35.301132,63.666859,76.401501,82.344532,20.227146,40.853634,52.344875,60.176296,-13.559341,-17.982646,-19.155472,-23.491709,16.836126,37.228582,48.323958,54.09651,34.593692,58.423917,67.793801,70.206884,48.261837,71.841911,79.640062,81.540369,57.780416,79.135808,87.003366,90.053219,-48.197851,337.609046,-63.923693,354.039472
38,0.886574,-1.542772,-0.256977,-1.209999,28.107147,48.013,61.991386,66.710358,40.972824,68.185158,76.622543,80.517311,21.116238,43.803062,48.645515,47.139244,1.074486,9.791164,5.726967,-2.375679,-18.84573,-22.198105,-27.631416,-35.058002,19.703383,42.446616,62.952507,80.177599,58.029703,75.971594,84.327165,90.492018,63.523699,85.226684,97.645741,107.929099,64.169176,88.003291,101.377874,113.118851,60.827737,82.781861,91.969767,99.417731,28.468494,55.637627,80.253754,97.602425,61.892967,92.172661,104.949417,112.015572,50.474453,81.661606,93.579712,97.151413,36.357536,64.914436,77.486229,83.259544,21.225758,41.887836,53.361511,61.231041,-13.845677,-17.38589,-17.711068,-21.688227,17.440539,37.428777,48.290181,53.883162,35.381936,59.094527,68.357027,70.822412,49.17068,72.639356,80.342782,82.2865,58.703523,80.213662,87.942467,90.858445,-47.325869,336.023975,-64.195261,352.787174
39,7.986603,1.903765,0.506573,-0.276889,15.270481,22.497826,23.466454,15.100079,27.485046,53.638115,62.76535,68.189163,12.815037,38.21537,44.936829,46.082954,-3.211155,9.300213,6.773071,0.613518,-20.511589,-22.588978,-28.407555,-36.20945,29.795315,60.276553,87.838603,111.96103,59.749699,75.830679,84.005013,90.561302,58.838263,77.317629,91.031346,102.819376,55.083467,76.545564,90.749702,103.067551,49.394278,69.429878,79.186752,85.769346,28.470154,55.421047,79.884281,97.25275,61.100063,91.43549,104.366856,111.416645,49.621925,80.940228,93.021183,96.649303,35.536366,64.144535,76.947498,82.884121,20.603199,41.064548,52.596874,60.695972,-13.952197,-17.318088,-17.687912,-21.787521,17.346432,37.705851,48.423253,53.745644,35.051695,59.237726,68.452246,70.673285,48.651668,72.520672,80.115417,81.905623,58.045881,79.898302,87.79229,90.880984,-39.367704,337.875299,-63.717127,352.457844
40,-0.911179,-0.002161,-0.182934,-0.492398,16.603718,24.444351,26.235008,18.491135,28.781605,55.45269,63.497314,67.259674,13.641472,40.019302,46.237335,46.100922,-2.828236,10.340996,7.567177,0.603161,-20.24786,-22.497597,-28.397141,-36.542301,28.36956,58.576132,85.902418,109.142248,59.16202,75.644687,83.1092,88.928868,58.858084,78.057584,90.076499,100.577651,56.279387,78.831873,92.023613,103.473436,52.039851,73.363874,83.609626,90.719198,28.614864,55.616798,80.182228,97.545776,61.691666,91.652298,104.697189,112.197762,50.204716,80.869102,93.06633,96.998177,36.024342,64.020996,76.819267,82.827873,20.987892,41.369019,52.850132,60.798569,-13.565084,-16.661126,-17.029467,-21.253504,18.162587,38.248576,48.926642,54.417859,35.772261,59.599769,68.625085,70.839764,49.16716,72.606505,80.194704,82.077845,58.328945,79.895832,87.681139,90.887467,-40.299625,337.848036,-63.920803,351.940344
41,-0.990715,3.37571,0.403061,0.089909,19.148254,28.654175,31.485901,25.413895,33.276329,62.089806,71.204224,75.140648,16.418095,42.084274,46.512451,45.035248,-1.406651,9.621563,4.244843,-4.37748,-19.316139,-22.937794,-29.64283,-38.358307,24.659286,52.899478,78.389369,99.939028,53.689143,69.573633,76.955586,83.222883,54.847951,74.333911,87.449266,99.635031,53.76843,76.289114,91.001212,104.478918,51.114089,71.5967,82.070744,90.817319,28.536644,55.372581,79.726295,96.881561,61.6856,91.070023,104.101295,111.826057,50.000896,80.123405,92.459679,96.827316,35.727367,63.308945,76.290436,82.832222,20.586262,40.787201,52.383156,60.841141,-13.581077,-17.048609,-17.540205,-21.914789,18.398535,38.128965,48.804685,54.478992,35.929662,59.190981,68.017894,70.23072,49.330243,72.305348,80.033721,82.135643,58.415643,79.378858,87.301744,90.810279,-41.300669,341.181014,-63.52807,351.987522
42,3.2234,-3.081037,-0.111065,-0.155364,18.424931,26.148205,27.682686,20.619278,28.64233,54.493961,60.391674,61.827564,12.84811,36.354618,38.525333,34.823399,-4.491405,6.374245,0.948257,-8.370953,-22.147064,-24.465008,-30.085888,-38.26252,26.910274,56.029854,81.88154,102.742497,60.95976,77.417974,83.551457,87.670024,61.372993,82.543505,92.309888,100.656568,59.463177,82.924875,95.104033,106.524709,55.816691,77.690602,87.85651,96.253269,28.861084,55.631504,79.812069,96.685696,61.648235,91.404018,104.535542,112.309628,49.828262,80.449619,93.060551,97.483349,35.45351,63.61639,77.021084,83.786602,20.337181,40.873432,52.82135,61.584034,-13.651287,-16.885033,-17.102332,-21.377622,18.47807,38.380289,48.969744,54.435088,36.268919,59.641882,68.180853,69.970565,49.708958,72.781876,80.315056,82.198073,58.555816,79.549845,87.312921,90.544629,-38.058929,338.040249,-63.620796,351.77243
43,-5.544548,3.794131,0.415649,0.574649,26.237984,40.980778,49.016361,48.275127,37.283077,66.734219,76.081295,78.988552,18.865757,43.690052,46.030483,41.633549,-0.084457,9.21936,1.735096,-9.078712,-18.111992,-22.505493,-29.352036,-38.478756,19.486886,44.756205,67.449728,86.41822,53.084791,70.4939,76.449604,80.585584,57.652655,80.292455,89.697722,98.274793,58.037977,82.736475,94.253791,105.731031,54.934402,75.460794,84.436834,93.004025,28.550262,55.237141,79.38303,96.47295,61.359844,90.802975,103.853588,111.568279,49.628849,79.759197,92.337399,97.098942,35.432682,63.0546,76.436405,83.318653,20.603828,40.921612,52.80138,61.527386,-13.6863,-17.471538,-18.367413,-23.104658,18.689133,38.266236,48.631907,53.943987,36.308995,59.309974,67.597991,69.587095,49.682035,72.402111,79.756832,81.672947,58.527843,79.301238,87.030537,90.256131,-43.50812,341.761021,-63.109789,352.273719
44,-2.521477,-4.196187,0.393734,0.541675,24.182396,38.021793,45.432186,44.683056,38.348408,66.480045,77.279835,83.396702,20.497341,43.869267,49.486256,49.490376,1.533451,11.308823,6.621895,-0.93544,-17.110519,-20.105553,-25.326805,-31.902809,23.813491,50.855046,75.023478,95.759822,59.030615,74.669771,79.74689,83.303591,62.804862,83.236591,93.587072,102.468881,61.81278,85.235329,98.398479,110.625616,57.998889,78.320641,88.055779,96.583572,28.497906,54.900055,78.874741,96.149597,61.601143,90.141563,103.153038,111.100731,49.873581,79.320946,91.643829,96.602554,35.800323,63.040924,76.139145,83.005943,21.127052,41.239185,52.985001,61.661911,-13.755584,-18.13554,-19.343687,-24.784516,19.013199,38.056532,48.187675,53.208724,36.909827,59.675042,67.723282,69.235365,50.333378,72.723028,79.636542,80.950776,59.051178,79.283453,86.817992,89.773613,-45.935669,337.52414,-62.622128,352.774701
45,-2.868519,-2.99366,-0.047951,1.150842,29.777699,50.119171,64.108887,70.153427,43.4618,70.579147,79.046402,83.023567,23.759022,45.823975,49.301376,46.627007,3.315754,12.337303,6.755676,-2.128487,-16.162834,-19.717197,-24.825439,-31.461582,18.359138,41.895432,63.168325,79.968451,61.048495,79.85378,84.752502,87.28643,67.819551,90.410384,98.923851,105.459021,68.65559,93.427015,104.685535,114.570479,64.819099,85.608919,94.329374,101.668781,28.553009,55.289268,79.495354,97.392654,61.778412,90.603333,103.717117,111.438789,50.113678,80.014915,92.530289,97.084465,36.035728,63.706284,76.639023,82.768135,21.445713,41.609116,53.432693,61.852226,-13.693648,-18.392484,-20.309587,-26.118757,18.617564,37.691278,47.711826,52.7937,36.771506,59.183509,66.548542,67.534017,50.434402,72.632687,78.718499,79.263446,59.284656,79.819138,86.748029,88.835748,-48.669634,334.508759,-62.535524,353.903822
46,-0.614548,0.726308,-0.208683,-0.158205,33.202744,59.025764,78.848419,91.784592,44.318161,68.636284,75.85865,79.707527,23.17709,39.034996,40.168533,37.066555,2.772446,6.351986,-1.183662,-10.65136,-15.783691,-21.050549,-27.067337,-33.744278,10.262239,29.902328,48.809749,64.397837,59.987376,80.31203,87.11038,90.261009,69.753018,94.637076,104.191347,111.815794,72.077427,96.463159,106.606838,116.984921,68.262919,87.678422,96.409004,104.8388,28.987198,55.601749,79.931316,97.883892,61.814861,91.369343,104.607182,112.42178,49.734707,80.641994,93.583202,98.424969,35.614471,64.201527,77.728901,84.313831,21.215401,41.94849,54.118938,62.657604,-13.654745,-17.89669,-19.666395,-25.926157,18.242986,38.489155,48.630487,53.239661,36.662022,60.154349,67.383779,67.390695,50.521902,73.731783,79.671493,79.681003,59.568029,80.764537,87.6988,89.599601,-49.210939,335.251462,-62.670965,353.762012
47,0.191574,0.567919,-0.139103,0.134678,32.887802,58.721008,78.512993,91.190186,43.950119,69.044495,77.11441,81.451378,22.758522,39.685364,41.472702,38.607044,2.4753,6.605701,-0.355568,-9.610004,-15.928116,-21.154976,-26.990776,-33.681107,9.89927,29.47378,48.822469,65.124331,58.720011,79.921829,87.182813,90.4935,68.71592,93.726134,103.782497,111.732677,71.207179,95.749139,105.758881,115.915959,67.647329,87.052149,95.702456,103.78824,28.554039,55.207901,79.720001,97.693634,61.838722,91.262856,104.480553,112.316322,50.064354,81.050262,93.653755,98.1847,36.095295,64.764748,78.036461,84.378777,21.729126,42.344799,54.274864,62.435646,-13.74663,-17.975607,-19.813299,-25.976237,18.315419,38.287417,48.261652,52.679276,36.740878,60.279949,67.151782,66.813761,50.620703,73.625881,79.222259,78.855708,59.649663,80.898597,87.587031,89.041377,-48.96369,335.822159,-62.754393,353.899469
48,-0.034618,3.502545,0.038338,0.41379,32.038593,56.435108,75.029697,85.405025,43.282185,71.03548,80.549526,85.567989,22.202396,43.68021,47.834415,46.141033,1.761475,9.482288,4.404888,-3.937168,-16.815033,-21.421337,-26.227341,-32.512665,10.111753,29.559366,49.590274,66.490682,54.096263,73.880725,80.32296,83.509528,64.014614,86.966934,96.061473,103.019694,67.114609,91.038385,101.599929,112.057917,64.878935,84.513899,93.886376,102.912743,28.127518,54.700012,79.154434,96.932144,61.940002,91.536827,104.704628,112.339668,50.050278,80.993156,93.637848,98.075294,35.951672,64.434586,77.829208,84.236526,21.552715,41.99295,54.035683,62.318001,-13.675925,-17.95455,-19.781003,-25.993465,18.119732,37.803849,47.808095,52.256718,36.776446,60.377886,67.177903,66.387806,50.594274,73.905734,79.49995,78.807358,59.273912,80.292517,87.045604,88.442769,-48.975134,339.557488,-62.692881,354.546042
49,1.408825,-1.416184,-0.323067,0.051129,29.098606,49.780426,64.755707,71.837082,40.167961,67.066154,78.274956,84.810104,20.241737,42.453804,49.062881,49.28112,0.45536,8.008518,3.832798,-3.811913,-17.854671,-22.363644,-27.416382,-34.345093,15.315399,38.40326,59.058279,76.045879,57.814749,76.733161,82.489103,85.811892,65.035657,87.837738,96.473842,103.539386,66.340999,91.047339,102.188472,113.0345,63.583226,83.674649,93.120115,101.900777,27.96627,54.525032,79.095154,96.979866,62.209396,91.597939,104.740562,112.300644,50.141773,80.435944,93.043671,97.547836,35.768223,63.637848,77.020798,83.43235,21.043911,41.653519,53.780365,61.993675,-13.947936,-18.262376,-20.024238,-26.027799,18.875989,38.572889,48.355142,52.656985,37.224445,60.780622,67.97578,67.720071,50.748959,74.080673,80.024211,79.815804,59.200923,79.919977,86.649598,88.218615,-47.531233,338.367249,-62.980871,354.823116
50,0.593491,-0.070642,0.615749,0.314557,29.607296,49.401054,62.960815,69.030304,40.718079,65.810165,73.368874,77.239723,20.538254,39.174843,41.600533,38.558578,0.363922,6.174316,-0.425949,-9.719696,-18.421898,-23.529625,-29.392033,-36.415615,16.128096,39.301482,60.676881,78.02393,59.687207,78.67126,84.654813,87.613028,66.676366,90.010735,99.087984,106.339026,67.073668,91.724679,102.56021,113.80428,63.012529,83.24431,92.674524,102.037245,28.058395,54.252033,78.739758,96.514263,61.655331,91.251812,104.264889,111.803341,49.801025,80.43005,92.860851,97.151814,35.613098,63.936481,77.080135,83.208675,21.064796,41.601334,53.579121,61.604862,-13.986901,-18.436574,-20.037329,-26.02045,18.398782,38.146996,47.930423,52.116854,36.89902,60.207022,67.4304,67.446023,50.611008,73.474283,79.241834,79.074614,59.410071,80.133201,86.635087,87.993287,-46.77495,338.53257,-62.20233,355.373636
51,-1.662998,0.157031,-0.007668,-0.243914,30.965595,53.965588,70.620518,79.749355,42.501011,67.949924,77.834988,82.912159,22.281017,39.592953,42.812977,40.320911,2.200356,6.064396,-0.29726,-9.406414,-16.105785,-22.04916,-28.079681,-34.594574,13.402865,33.834162,53.501236,68.548762,58.207729,78.189421,83.004595,84.425596,67.089291,90.919331,100.482185,108.206852,69.065119,92.914239,103.187038,113.642247,65.536453,84.741511,92.977966,101.281791,27.781448,54.532871,79.513607,97.094479,61.819096,91.827335,104.558544,111.724491,50.25959,81.24052,93.28783,96.875782,36.33585,65.022984,77.797909,83.163586,22.10741,42.931252,54.615841,61.694813,-14.485967,-18.592246,-19.635396,-24.508492,18.022969,37.744507,47.457168,51.684848,36.533149,59.740436,66.828025,66.655741,50.426621,73.057962,78.567828,78.012939,59.474354,80.25207,86.312812,87.028746,-48.255901,339.082025,-62.02795,355.522146
52,3.280678,3.43888,0.091209,-0.548282,24.689541,43.040142,54.535732,58.128719,38.397846,65.564632,76.016178,81.13615,19.181614,43.162708,49.902248,49.87627,-0.073528,9.862518,6.606045,-0.579472,-18.344822,-21.69342,-27.156944,-35.177479,15.396909,38.066906,59.257424,76.549207,50.380185,68.823551,76.972691,82.624027,56.4668,78.068082,90.13331,99.424709,57.809501,81.869869,95.236734,106.169768,55.62755,75.332662,85.208899,93.367179,27.250671,53.93034,79.025288,96.704693,61.612759,92.22662,104.988842,111.941242,50.33186,81.936893,93.945866,97.27747,36.458073,65.7617,78.425961,83.617458,22.075424,43.434906,55.422764,62.698345,-14.710245,-18.663815,-19.77137,-24.504231,17.507909,36.604656,46.624649,51.342627,36.15678,59.389817,66.236765,65.865336,50.293426,73.458475,78.474708,77.553392,59.523939,80.918172,86.621131,86.707644,-44.877634,342.806316,-61.839151,355.259275
53,3.543205,-3.394173,-0.342464,-0.301836,19.160843,31.090279,34.020367,29.540749,32.328243,62.446918,75.598812,82.000065,14.90839,43.678722,52.402096,52.28857,-2.636719,11.280842,9.506779,2.714539,-20.402012,-22.807045,-28.835621,-37.887383,23.948354,53.164326,79.467655,102.220026,58.014512,78.018249,84.288201,87.554304,60.064626,82.315152,91.492313,97.362492,57.467403,82.741847,93.983757,101.79858,51.247655,72.853013,81.69845,87.552142,27.347546,54.269142,79.230652,96.713905,62.202988,92.429237,105.112495,111.855354,50.753345,81.888199,93.905525,97.351227,36.620178,65.17662,77.6651,82.825928,22.077885,43.044491,55.00843,62.303696,-14.907723,-18.695863,-19.876099,-24.864853,18.166601,37.271005,47.013923,51.431671,36.624725,59.757726,66.645861,66.40806,50.551234,73.704736,78.917459,78.204983,59.48164,80.551992,86.384133,86.684549,-41.128778,339.66921,-61.975965,355.214506
54,2.186222,-5.573901,-0.396824,-0.281335,11.457253,15.550861,12.032604,2.310162,20.868645,50.972786,59.979057,63.615417,11.016312,45.626678,53.278656,53.16227,0.85865,27.405338,30.861855,27.336502,-12.133541,-1.935539,-2.532406,-7.650146,34.109013,69.750919,98.597809,121.904699,67.948486,86.563951,93.719156,99.766189,60.672559,82.702697,92.8042,100.581356,51.474279,74.014167,84.714217,93.578983,39.91843,60.566224,69.946482,75.887798,27.604809,54.55164,79.457302,96.753788,62.199612,92.968426,105.657978,112.297955,50.561314,82.593784,94.425373,97.433567,36.332016,65.73904,78.609982,83.850918,21.755733,43.073387,55.252819,62.684269,-14.825348,-18.509501,-19.478365,-23.716666,17.029776,36.896859,47.11717,51.685589,35.636225,59.694432,66.405714,65.658966,49.678515,73.423154,78.585674,77.721786,58.652332,80.304126,86.285456,86.695541,-38.608303,334.203835,-62.038536,355.041697
55,0.111923,0.297946,-0.654259,-0.907669,6.632767,10.074978,7.732029,-1.743679,13.299065,47.507629,59.297447,64.425659,8.109856,50.772171,61.49231,62.977295,4.170227,41.758461,50.472794,49.72332,-2.107258,22.549953,29.131565,27.948818,35.385147,72.776504,102.768061,126.556975,66.256278,84.939482,89.920765,95.220309,55.009614,77.923277,86.269154,93.650057,42.978904,65.574183,72.722349,79.689277,30.020272,49.952255,57.2422,62.715015,27.927933,55.189419,80.418262,98.038616,62.429066,93.010883,106.028996,113.202381,50.910015,82.334576,94.488087,97.942371,36.796532,65.726223,78.823986,84.513073,22.056084,43.073444,55.192738,62.887402,-15.10483,-18.690923,-19.89975,-24.271987,17.372058,36.75471,47.064312,52.16681,35.660184,59.483987,66.71107,66.881007,49.516482,73.268716,79.155013,79.284935,58.461894,80.079849,86.445266,87.569865,-38.167048,334.538569,-62.363462,354.170816
56,0.236206,-1.746919,-0.59166,-1.012522,8.904877,12.215366,8.518009,-2.049866,16.608696,46.339531,54.688911,56.961594,9.76181,47.091866,54.678612,53.601837,3.839092,36.07933,39.835968,35.34977,-4.109802,14.515572,16.105556,10.781994,36.502892,74.363922,104.654969,127.702075,72.366605,93.110976,96.180898,98.841414,61.576276,86.870912,91.580245,95.429148,49.642453,74.593633,79.982962,84.51359,35.820673,58.286831,65.768882,69.797726,28.451672,55.465107,79.988995,97.447987,62.688503,93.500233,106.023273,112.519855,50.788822,82.259502,94.084339,97.403584,36.48468,65.412197,78.210125,83.724003,21.816502,42.931652,54.805584,62.073841,-14.115959,-17.584171,-18.636089,-23.258046,17.44869,38.189789,48.97808,54.185431,35.526556,60.204984,68.20333,68.726233,49.402244,73.713196,79.997103,80.153085,58.58663,80.510928,86.846459,87.803405,-37.643509,332.791248,-62.667789,353.157893
57,-23.242664,12.766774,0.12291,-0.090032,32.066517,59.023647,83.253765,100.444279,60.678577,88.681698,99.60577,105.165653,45.263386,76.697216,90.218754,95.814342,28.437023,53.570538,64.672909,70.056095,11.533642,18.039322,19.205589,17.873783,-9.311345,-8.197676,-3.272957,-1.908149,33.693865,53.601148,60.826626,63.081195,52.631667,77.462928,80.946763,78.075986,62.802948,86.574633,90.627436,90.969163,64.736168,86.210553,92.359412,96.015407,27.647781,54.582539,79.461079,96.944675,62.120419,92.93787,105.416508,111.773586,50.485153,82.202168,94.222584,97.594128,36.302891,65.422611,78.004704,83.425884,21.571083,42.783337,54.582539,61.861553,-14.517151,-18.639485,-20.015964,-24.786801,16.765793,37.182455,47.909613,53.010073,34.917882,59.171036,67.362536,68.099836,48.878847,72.7418,78.994523,79.175946,58.245212,79.771282,86.133921,87.118778,-60.550718,345.528413,-62.209425,353.038251
58,19.789696,-9.784044,-0.108948,-0.329809,10.14782,14.98621,12.591019,2.552319,24.891415,57.407169,67.138538,70.686893,14.866333,52.051907,60.260754,59.436207,4.310131,32.026005,35.704136,31.678219,-9.267025,1.506271,0.028152,-6.728954,32.382534,66.72484,95.339796,118.922772,63.784162,82.989528,87.491195,91.319103,57.98234,81.224454,87.198807,92.047511,50.118425,73.989591,80.959174,86.658305,40.110845,62.441584,71.132955,75.870261,27.968445,54.817486,79.304981,96.830921,62.11401,92.925625,105.596294,112.002811,50.067444,81.747837,93.638592,97.054195,35.580254,64.904423,77.235432,82.467327,20.762157,42.483158,54.444637,61.660709,-13.884148,-17.613317,-19.140899,-24.591361,16.548061,37.952976,49.121156,54.238598,34.66594,60.034492,68.533448,68.696222,48.65809,73.704551,79.90633,79.350885,58.050451,80.143081,86.504176,87.048136,-40.306606,335.715794,-61.863956,352.679867
59,-0.798683,-1.585627,0.068665,0.148324,9.35154,13.677578,10.842876,0.603161,24.22514,58.809414,69.426441,72.98315,15.417538,53.981724,62.980442,62.654057,6.078987,35.945606,40.538349,37.051449,-6.291046,7.538853,7.419891,1.540947,33.237777,68.304168,97.527736,121.345426,65.475938,84.185078,88.309758,92.370836,58.871484,81.732166,87.590181,92.810005,50.320843,73.441123,80.604295,87.123595,39.750963,61.850015,70.212194,75.074854,27.767372,54.501629,78.956051,96.319942,61.065044,92.473698,104.967442,111.035328,49.235229,81.543903,93.606434,96.846027,35.000725,64.695454,77.317486,82.559223,20.383129,41.901169,53.882103,61.143322,-13.98548,-17.948622,-19.230931,-23.956566,16.545035,37.516957,48.423006,53.59096,34.649638,59.534128,68.037407,68.874742,48.56003,73.137188,79.533172,79.703727,57.854331,79.81037,86.236488,87.274883,-40.808401,334.09764,-61.498404,352.795665
60,1.269035,3.090052,-0.56488,-0.127268,15.136814,21.117096,19.568539,9.764099,29.726486,62.937069,71.456051,73.733768,15.229282,50.257931,56.410503,53.639431,-0.184307,22.617016,23.081646,16.438866,-17.449894,-13.666878,-17.741661,-26.430416,28.399447,59.179928,87.062956,110.781104,58.220573,75.220091,81.158566,86.300215,56.973338,78.458777,86.162202,92.560163,53.157904,76.711055,86.575498,95.242971,46.702886,68.957858,77.9029,83.767521,27.888565,54.695663,79.533749,96.908855,60.620441,92.243214,104.872227,111.263523,49.209595,81.626873,93.73621,96.941814,35.438576,65.239048,78.04121,83.279057,21.196289,42.668552,54.509697,61.55817,-14.377781,-18.676659,-19.743212,-23.663869,16.000582,36.698826,47.407397,52.514959,34.334588,58.733287,67.188771,68.296079,48.410841,72.391305,78.925425,79.487106,57.914847,79.752757,86.110456,87.168734,-38.83009,337.052428,-61.354008,352.533133
61,-2.623501,-5.51388,-0.690022,-1.873816,11.805668,15.809727,12.045193,2.02343,28.72839,60.825577,69.163284,71.553383,17.233772,51.543961,57.965355,55.71476,5.01709,28.692455,29.050369,22.660847,-8.933029,-0.126114,-3.213329,-11.323185,32.578406,66.915093,94.932366,117.312939,66.595596,89.591882,94.222051,97.99105,62.513524,87.282478,93.874582,99.721049,55.27619,80.873835,88.375152,95.083593,45.20476,68.516899,77.13738,82.737648,28.299408,55.3125,79.691505,96.785202,60.838623,92.049751,104.719276,111.351929,49.04171,80.595818,93.305283,97.639046,35.157681,64.159241,77.668762,84.203339,20.931244,41.989689,54.022121,61.838837,-13.53816,-17.064973,-17.720824,-21.569419,18.306774,39.191134,49.408172,54.34592,36.041431,59.993119,68.545366,70.054484,49.501847,72.909452,80.409966,82.142806,58.608304,80.166793,87.493665,90.076499,-40.833263,331.318594,-61.423702,350.439362
62,-0.609169,2.665518,0.159931,-0.220819,13.879337,19.291935,17.42157,6.600666,29.46516,60.432701,68.889999,71.79245,17.179699,50.353661,57.774353,56.762238,3.824615,26.724644,28.685932,23.882961,-11.723728,-4.749355,-7.255955,-14.430714,31.611703,64.575864,92.710834,116.181424,61.415478,79.233189,85.735631,91.422349,57.778317,78.586106,87.679595,96.594564,51.534609,73.929569,83.06863,92.342554,42.651689,63.781568,72.397789,78.339166,28.001919,54.754143,79.170284,96.223011,59.655933,90.537014,103.30759,110.314236,48.018951,79.287815,91.920605,96.38895,34.30481,63.194447,76.500149,82.97842,20.216675,41.199245,52.763042,60.408497,-13.273436,-17.132899,-17.786774,-21.630737,17.891564,39.009032,49.591941,54.919952,35.528964,59.323744,68.492507,70.769307,49.098679,72.011169,80.030695,82.331516,58.539823,79.738986,87.430247,90.443482,-40.735216,333.848045,-60.556555,350.082475
63,2.146053,-3.549414,-0.935841,-0.40286,16.808796,27.486076,30.434303,23.150539,30.505772,60.097103,71.371136,76.556797,13.923798,43.139362,52.328739,52.917423,-3.232841,12.774754,13.11367,8.150425,-21.161556,-21.39267,-25.489941,-32.493267,27.047174,56.706638,83.75264,106.359404,60.830701,81.057296,89.19705,95.229077,61.430977,82.808723,94.701852,104.08316,58.202727,82.626806,96.008676,106.375273,51.888068,74.292476,85.286211,92.279198,27.596169,54.75071,79.546509,96.740456,61.053886,91.579285,104.47094,111.637001,49.130058,80.2882,93.143463,97.764816,34.816875,63.67836,77.258148,84.001923,20.01749,41.571522,53.668327,61.958542,-13.637578,-17.12061,-17.781278,-22.042921,17.739411,39.283698,50.200862,55.527823,35.434486,60.059006,69.206651,70.930537,49.046129,73.295393,81.325787,83.346754,58.33969,79.924423,87.658785,90.783047,-38.006001,330.08729,-60.909233,349.468275
64,3.455887,3.500013,-0.9478,-0.085401,16.268864,24.391994,23.693218,14.299622,26.204967,55.804195,65.479259,69.418201,9.646339,39.625912,45.884342,44.090366,-6.921558,8.318081,4.262981,-4.505653,-23.493919,-26.403008,-32.457447,-41.32679,27.752302,58.719764,87.42364,111.795169,58.953057,79.754424,87.516512,92.778574,58.179941,80.910021,92.252954,100.628163,54.930511,80.1106,94.103552,104.957299,48.963445,72.258788,83.588322,91.613035,28.098507,55.292301,80.053825,97.207146,61.131477,91.838837,104.787712,111.985474,49.367123,80.934792,93.609009,98.052635,35.15173,64.23912,77.727814,84.370766,20.271091,41.696548,53.835011,62.191544,-13.469617,-16.745847,-17.336675,-21.998276,17.871001,38.632849,49.418114,55.057964,35.408118,59.36203,68.729135,70.961165,49.015995,72.948664,81.175548,83.611663,58.479925,79.934365,87.77642,91.22271,-33.862753,333.48858,-61.169672,349.28415
65,-3.713837,-0.2152,-0.492954,-0.142458,21.7939,36.594028,44.486217,42.421474,31.184464,59.751034,70.609646,75.683498,12.569504,39.184399,48.325253,49.974461,-5.752945,6.228619,4.953175,-0.633488,-23.670616,-27.170391,-32.201328,-39.459743,21.987222,47.212204,72.161346,93.758429,55.130891,75.635424,85.19198,92.339652,58.150733,79.745161,93.409045,103.879198,57.346681,82.311138,97.830313,110.093204,52.949496,75.883167,86.960944,94.621453,28.677177,55.534172,79.900417,97.115879,61.306286,91.458149,104.452686,112.040462,49.118156,80.144291,93.054028,98.221836,34.61071,63.351231,77.226849,84.587002,19.575691,41.070614,53.401794,62.323437,-13.290171,-16.680762,-17.177544,-21.95505,18.56767,39.175696,50.010794,55.803724,36.068107,60.145334,69.477735,71.65561,49.477826,73.473172,81.622683,83.995813,58.617628,79.879839,87.801058,91.390363,-37.027645,333.288818,-61.113682,349.15713
66,5.950184,-3.384602,0.136814,0.150795,-0.611286,0.365353,-2.208595,-11.97916,-0.388126,27.229042,34.543304,36.6045,0.266304,40.5439,50.78064,52.931557,3.743076,42.343941,52.485123,54.184456,5.974102,33.396606,42.033234,43.626823,37.846457,75.694396,104.922286,127.757589,70.719351,92.816489,100.316323,107.253426,56.871635,82.74901,91.26186,99.66041,43.055784,66.836238,73.044501,80.042551,28.730367,48.537429,54.893708,59.858935,28.536816,55.013695,79.151802,96.427803,60.826035,90.860939,104.177856,112.338982,48.531704,79.772415,93.048477,98.859901,34.23563,63.079605,76.998367,84.727592,19.603043,41.259956,53.528023,62.869148,-13.252379,-16.818774,-17.173407,-21.828215,19.045062,39.571578,50.366353,56.08228,36.627874,60.240244,69.274082,71.290542,50.008015,73.375606,81.482324,83.973891,59.041607,80.003216,88.074613,92.069123,-30.424318,329.964345,-60.323725,349.368054
67,-25.808258,15.099705,0.462284,0.957996,31.808567,58.415451,84.101601,105.019798,50.792885,82.531128,97.428703,104.794807,36.068916,67.712631,83.973999,91.729317,19.304981,38.396645,43.635178,42.887592,3.903637,-0.369816,-7.493019,-16.564121,-5.100522,-0.344876,6.189923,10.093784,36.564889,55.518869,62.411141,65.637971,53.950285,75.907991,82.173867,82.810637,62.224532,84.251459,96.342437,104.924324,61.872925,82.183685,91.529733,99.206668,27.817326,54.171124,78.402729,95.905895,60.120564,90.801601,104.327831,112.348881,48.051338,80.197048,93.86198,99.411335,33.701706,63.236561,77.473927,85.11652,18.898602,40.513573,53.058758,62.728329,-14.096384,-17.889403,-18.243603,-22.22138,17.639005,38.058076,48.86341,54.450958,35.506857,58.598918,67.403045,69.200537,49.162591,72.3248,80.389836,82.875969,58.423609,79.41739,87.218134,90.656336,-55.460844,345.210043,-59.089708,350.472043
68,24.742756,-18.117694,-1.118202,0.651899,-10.1548,-11.950779,-15.018024,-25.48336,-0.989571,32.399769,46.063442,54.389477,3.659019,43.53899,57.432919,64.067516,7.894535,44.956913,59.90736,66.492519,10.570621,37.581196,47.810726,52.418804,38.406533,73.983663,100.120821,120.691674,73.398824,91.190044,97.663711,105.193556,60.080002,82.303357,92.161872,102.894279,47.106796,66.631967,73.250129,82.089145,34.516937,51.20233,57.70786,64.209746,28.152637,54.428558,79.189053,96.875439,61.045361,92.163105,105.724583,114.083233,49.527454,82.056255,96.225071,102.579174,35.641308,65.424786,79.927425,87.88702,20.980167,42.915688,55.398731,64.713306,-14.36259,-18.711363,-19.462742,-23.846589,16.35367,35.859267,46.352515,52.123152,34.236096,55.817618,64.920369,67.633929,48.243991,70.282343,78.938763,82.356092,57.96505,78.156076,85.944779,89.741935,-30.227823,327.277369,-59.717646,351.308962
69,-25.163956,17.897986,-0.200901,-0.41311,27.728462,51.826859,75.101452,93.910503,50.6036,83.103848,98.701687,110.541286,37.653637,67.317295,86.001492,99.551067,22.176075,39.807072,47.602901,52.319069,6.267872,4.401054,-1.007824,-6.714993,-9.018771,-10.848806,-12.1602,-16.967963,31.372976,45.59249,54.824115,62.338708,50.763285,69.365905,78.728688,83.699349,60.389248,79.45197,94.787438,106.459872,61.591158,80.904896,91.593398,100.080251,27.730293,53.771381,78.46756,96.524506,59.910164,91.083641,105.449982,115.021477,48.60466,81.914749,97.509613,105.708275,35.300045,65.884438,81.501846,91.045876,21.342602,43.687077,56.580677,67.046127,-15.115822,-19.140219,-19.327138,-24.240618,16.245237,34.463955,44.345811,49.992146,34.590049,55.589265,64.178562,66.715577,48.811478,70.462654,78.836936,82.209311,58.445468,78.21264,86.34097,90.522152,-54.895105,345.355064,-59.421873,351.075561
70,26.999416,-5.931065,-0.306187,-0.953426,19.041424,35.77446,46.677361,48.114624,16.487675,28.546944,31.325798,32.902565,1.564636,32.219353,50.50209,62.59346,-10.160809,13.667049,30.442657,39.632034,-20.561829,-20.983257,-21.074524,-22.196846,14.281697,35.370574,57.642651,76.935024,44.388357,66.795359,85.197599,100.415124,47.590857,71.307214,86.283233,96.730477,48.595475,73.776613,85.921252,93.919907,47.479213,70.770603,83.392882,92.073384,27.174568,53.414211,78.62978,96.35313,60.793133,91.764851,106.252041,116.739521,49.882336,83.807087,100.64043,111.275082,36.878757,67.992496,85.207386,97.14941,22.433739,45.831127,59.25024,70.629902,-15.319413,-20.174848,-22.143204,-28.739506,15.803412,31.472332,40.77602,47.525587,33.590248,51.162748,60.396349,64.989221,47.517004,67.310234,77.201785,82.775131,57.319202,76.804236,85.866047,91.849168,-27.471972,339.535922,-59.304342,350.234057
71,1.327343,12.299879,-1.720734,-4.844752,17.617493,36.728497,56.515331,69.806728,13.859367,43.43462,65.337124,80.973415,0.181446,30.427723,52.207088,67.625484,-10.93214,7.034397,20.084896,28.052845,-18.475113,-21.837845,-28.018856,-37.101173,-15.261182,-15.02017,-6.192146,4.712977,5.505358,26.391941,43.177247,60.360781,23.837141,46.012517,63.817569,77.809101,38.831006,63.010614,78.364607,90.963914,50.774709,69.974949,82.459648,95.565061,26.921711,53.467426,79.028721,97.808361,59.096832,90.686932,106.326656,118.027554,48.949013,83.468571,102.55537,116.763439,36.367378,67.397976,85.968876,100.330982,22.0051,44.976139,58.949432,71.727962,-15.146388,-19.132439,-19.816139,-25.682737,15.750863,31.184761,40.547976,47.738688,33.037952,52.909544,64.337569,71.444856,46.423836,68.055376,79.447092,86.509301,56.001757,77.930131,88.988272,96.994274,-25.572853,351.965075,-60.4533,345.518579
72,-19.936066,-6.92747,-4.348583,-5.356045,24.042377,46.749859,69.613438,87.283916,33.030453,65.145092,81.296711,92.752476,21.083565,51.061306,68.721371,81.238804,10.446625,29.48679,39.771595,45.893383,2.356968,7.025986,8.183842,8.18018,-9.725381,-7.447841,-3.931402,-5.138561,12.376079,26.025205,35.308206,43.305564,30.290738,47.394923,62.327284,73.34257,43.773262,66.399848,84.483764,96.763822,51.822737,75.17384,87.445314,95.783781,28.138332,55.702801,80.52269,100.545158,56.631603,89.85569,106.027336,118.00518,46.054001,80.872536,100.427284,115.382195,34.549084,65.087128,83.518867,98.184242,22.371426,46.481152,60.469036,72.988358,-18.003888,-19.465274,-15.148117,-16.873918,9.785032,24.623656,35.211876,43.985683,28.87721,49.363156,62.054842,70.534532,43.673782,65.047143,76.376615,83.377629,53.994745,74.190897,83.996677,89.787569,-44.719963,345.161214,-64.012928,340.286143
73,112.1628,-10.096316,-0.364323,-7.129023,-24.444008,-53.397446,-79.711361,-98.488312,-45.226364,-71.415081,-85.981064,-97.78862,-37.18792,-68.952999,-84.685192,-95.89016,-29.78817,-64.187508,-80.333347,-90.434589,-25.071945,-57.116089,-73.69915,-87.737503,41.853379,67.891305,84.776461,102.719464,72.521351,69.837616,74.545344,83.624693,56.361701,43.191943,38.424626,35.226387,32.590756,17.132714,8.611465,3.456665,5.123802,-5.699131,-12.864155,-18.155671,26.024551,54.528408,76.563091,96.074696,42.220573,74.75584,93.73621,107.989025,31.351147,66.053638,87.456264,102.345257,22.811737,52.949467,70.682087,81.419163,16.151905,40.130653,53.822193,62.562733,-22.554214,-23.08286,-14.219144,-10.36104,-0.836286,16.668844,26.996107,35.962143,20.781731,41.594707,52.999761,61.921522,37.858869,60.606671,71.150862,78.541461,49.984488,69.019547,77.004184,81.322823,67.646656,335.066056,-64.173431,333.158277
74,17.021198,-21.905773,-0.386467,-4.450784,-32.359657,-62.341347,-86.334257,-102.485447,-51.957951,-81.555891,-97.930927,-108.680506,-41.230889,-75.631628,-92.644215,-101.673832,-32.848149,-66.900673,-83.137808,-91.100321,-27.102871,-56.001206,-71.976814,-82.9636,17.105543,36.297756,56.148352,74.626052,54.370249,68.546785,77.251834,85.635193,55.17214,64.752809,62.043047,56.704569,48.804191,55.320063,49.187877,42.263031,37.358536,43.19537,39.617026,34.022223,15.654373,31.97073,49.273052,66.965046,31.437607,58.397484,70.776615,74.285374,31.674042,59.706173,69.735546,68.875408,30.882111,54.779778,60.590343,56.876049,29.841156,45.869007,51.798077,50.089188,-24.629893,-31.063854,-27.591072,-23.598537,-10.639287,0.808869,7.383867,14.130285,12.899661,26.404106,33.076176,37.41476,32.253969,45.807505,50.276321,53.789611,47.70985,62.616832,69.36924,73.050923,84.756088,313.220891,-64.471664,328.768101
75,17.021198,-21.905774,-25.798473,-31.189856,-40.275307,-71.285248,-92.957153,-106.482582,-58.689537,-91.696701,-109.880791,-119.572392,-45.273857,-82.310257,-100.603237,-107.457504,-35.908127,-69.613838,-85.942268,-91.766052,-29.133797,-54.886322,-70.254478,-78.189697,-7.642293,4.704208,27.520244,46.53264,36.219148,67.255955,79.958324,87.645694,53.982581,86.313676,85.661468,78.182752,65.017626,93.507414,89.764289,81.069399,69.59327,92.089871,92.098208,86.200117,16.836805,36.90402,57.202606,71.996498,34.361887,67.602682,70.953855,66.36775,35.112819,70.578947,73.190346,66.519985,35.672722,67.426214,68.591051,60.629883,36.073065,59.430256,62.474298,57.416925,-25.215194,-32.396458,-28.016903,-20.261884,-4.142897,4.989835,1.904507,2.651131,17.180663,26.329079,21.827443,22.088833,33.338616,41.812933,36.468219,36.41922,45.396495,53.661386,51.268867,51.018932,101.79285,291.40376,-90.254574,297.666888
76,5.757866,-7.185648,-25.798474,-31.189855,-36.410065,-65.449448,-85.906792,-95.044098,-61.194763,-101.874504,-105.729446,-97.695808,-51.883163,-92.987366,-94.930344,-84.702988,-44.502869,-81.317711,-84.896736,-76.793175,-38.752899,-67.008934,-71.734772,-66.720314,-18.696543,-13.475298,2.173553,17.354398,37.871898,53.324754,42.690777,33.790752,55.408336,61.990312,48.316054,38.403013,62.817891,68.199502,55.010416,45.748781,63.447066,71.493701,60.716216,50.93279,18.019238,41.837311,65.13216,77.02795,37.286167,76.80788,71.131096,58.450127,38.551598,81.451721,76.645145,64.164562,40.463333,80.072651,76.591759,64.383717,42.304974,72.991505,73.15052,64.744663,-25.800495,-33.729063,-28.442734,-16.925232,2.353493,9.170801,-3.574855,-8.828024,21.461664,26.254052,10.57871,6.762905,34.423261,37.818361,22.660116,19.048829,43.083139,44.70594,33.168493,28.98694,107.617035,283.999253,-115.986729,266.258174
77,-0.096245,-7.896828,-2.673969,-2.464768,-33.125153,-61.940346,-83.534088,-93.782959,-52.18586,-87.466507,-102.710495,-109.624329,-45.499535,-84.056511,-89.843559,-84.914818,-40.009689,-74.374924,-80.243111,-75.290451,-35.945091,-61.047935,-69.397888,-68.81916,-12.03744,-7.86799,8.531807,23.025679,28.488676,48.913428,53.075158,55.240498,47.539357,62.234597,50.974348,41.70135,58.071508,69.262597,58.168394,50.459534,62.546251,74.057887,68.534312,62.694391,18.619308,42.283745,64.778252,78.20406,34.241867,77.783146,77.58173,65.93771,34.370956,79.399624,79.026375,68.105278,36.632881,77.186737,77.170029,66.201839,40.081272,71.464233,73.019428,64.195232,-25.455249,-32.202963,-26.224782,-15.451373,4.574347,11.446303,-3.567568,-9.83857,23.682395,29.621055,12.49921,7.744798,36.418046,41.497759,25.245112,20.149715,44.770222,47.710036,35.192548,28.623601,107.710333,275.885712,-118.471155,263.576694
78,-0.154839,-5.472569,-3.614788,-17.093564,-25.368462,-47.079735,-65.024757,-68.615913,-33.057861,-72.875977,-72.332611,-63.54435,-32.820511,-76.568413,-76.856232,-63.487129,-34.966736,-76.169472,-75.774879,-62.812271,-38.478813,-68.532372,-70.557632,-61.715813,-25.846932,-29.550598,-16.854219,-0.296155,7.994949,15.464403,1.609586,-4.574656,30.531133,35.357854,19.117063,10.45595,44.717858,49.915637,34.558062,26.925711,51.774571,56.672367,45.159373,39.088443,1.885757,23.893089,49.052811,61.728973,47.312851,62.268162,45.318546,33.756123,55.428143,67.7421,49.112492,37.170811,57.536316,67.036572,49.912491,39.130669,56.311741,62.865543,50.109787,42.428341,-26.381258,-41.08082,-36.684623,-26.445664,-22.9714,-14.478434,-17.342788,-20.326692,-4.224469,4.925398,0.780155,-2.056165,11.865156,20.614449,14.8046,11.155768,24.131938,29.253887,23.530303,18.260153,107.868261,270.068499,-121.773176,246.138485
79,7.47345,-28.659972,-2.132721,-16.767707,-9.005356,-28.40538,-48.515739,-62.333794,-23.013382,-57.395439,-55.608788,-49.749298,-32.886314,-68.520012,-62.674255,-51.741371,-42.979317,-74.427338,-67.901115,-58.000259,-51.582642,-73.461685,-67.96566,-59.090424,-21.731761,-23.958604,-10.63373,5.000734,-10.850906,-4.453501,-5.310227,-6.586669,7.00861,12.112899,8.698163,6.075932,20.338116,22.823385,16.193675,11.246911,28.308674,27.476525,21.109934,17.099739,-9.102001,4.828091,28.823891,47.239723,32.408752,45.399742,29.296417,18.138142,46.275558,56.996555,38.738708,27.205868,53.045254,61.309776,43.907948,33.221169,55.673389,59.068794,45.057335,35.881176,-20.941294,-39.928557,-42.003495,-33.539922,-34.393621,-40.774723,-34.721763,-30.086097,-21.052568,-20.5309,-15.338555,-14.302816,-8.179583,-5.341472,-3.149456,-3.448699,2.382331,5.126766,5.745505,3.962462,116.001406,241.504642,-123.246202,229.466893
80,5.412369,-16.738314,-1.9911,-7.224459,3.015976,-6.709785,-23.493004,-42.003708,-38.032036,-54.353714,-45.314369,-35.270462,-52.648659,-71.31752,-58.695374,-46.397896,-61.194305,-77.91584,-64.862022,-51.981812,-63.671722,-72.08004,-62.955666,-53.491287,-9.946633,-13.920395,-2.416911,7.270864,-33.125268,-24.969335,-10.159487,-3.026696,-21.252701,-11.678485,2.133971,5.053715,-9.142828,0.204147,10.7865,11.186643,1.208826,8.998147,14.771131,13.646656,-11.062775,-1.251898,21.207447,39.374113,27.580089,42.165756,27.140035,17.470064,42.693558,55.277166,38.063993,27.813492,51.078586,62.244787,45.437507,36.110029,55.037212,62.939901,50.175819,42.221346,-24.287363,-46.589975,-55.413862,-51.228481,-31.536275,-47.239497,-43.793485,-37.415377,-20.369176,-34.602275,-31.765431,-26.033757,-11.508887,-23.799072,-22.659715,-17.976162,-4.660427,-14.020863,-13.385667,-10.501954,122.194748,224.799473,-124.456329,222.275579
81,-6.088028,-6.177449,-1.9911,-7.224458,5.2882,0.429497,-13.13736,-27.59182,-28.881569,-42.706261,-33.400497,-23.704605,-41.047897,-58.121223,-46.560516,-35.072479,-48.594131,-63.237305,-51.837044,-39.372368,-52.149124,-62.589798,-55.483246,-45.874901,-9.004939,-11.928821,-7.81859,-3.601222,-22.033165,-32.81349,-29.969883,-23.866349,-16.600857,-23.711232,-16.734115,-10.45101,-10.525296,-15.817492,-10.73253,-5.56433,-4.65172,-6.305088,-4.065462,-1.567905,-13.023548,-7.331886,13.591003,31.508503,22.751427,38.93177,24.983654,16.801987,39.111557,53.557777,37.389278,28.421116,49.111919,63.179798,46.967068,38.99889,54.401035,66.811008,55.294304,48.561516,-27.633433,-53.251394,-68.82423,-68.917041,-28.678929,-53.704272,-52.865207,-44.744657,-19.685784,-48.673651,-48.192306,-37.764699,-14.838192,-42.256671,-42.169974,-32.503626,-11.703185,-33.168493,-32.516841,-24.966371,116.117849,218.726412,-126.4363,215.155509
82,-2.649135,-10.480187,0.732479,-3.412698,8.744831,5.742244,-11.61953,-29.514599,-19.331875,-34.120274,-29.103413,-22.756176,-35.0346,-52.350598,-42.53666,-30.917302,-46.38834,-60.848809,-49.524365,-37.012482,-53.316308,-63.654042,-55.037327,-44.731121,-9.555598,-16.328538,-13.412128,-10.853283,-31.698586,-39.739879,-32.080018,-23.879749,-27.596444,-28.536316,-14.248969,-5.056124,-21.491459,-20.855028,-9.082621,-2.097692,-15.045241,-13.192543,-5.733279,-1.367185,-14.449024,-11.46349,6.888828,28.31955,11.092472,32.39502,24.487839,18.929787,30.927258,48.358326,35.891991,27.077522,45.578613,58.35331,45.604134,37.820148,55.904903,63.384418,53.408947,45.443058,-25.470995,-49.27757,-65.608454,-68.570868,-7.622471,-39.606405,-50.02759,-48.76393,-3.082334,-42.291313,-51.991068,-46.529059,-5.389391,-42.243395,-48.587077,-42.207642,-11.687006,-37.140465,-40.293811,-33.561658,113.244982,208.505098,-125.927553,212.001684
83,-2.649136,-10.480187,0.481682,-2.284333,12.201462,11.054993,-10.1017,-31.437378,-9.782181,-25.534286,-24.806328,-21.807747,-29.021301,-46.579971,-38.512802,-26.762123,-44.182549,-58.460312,-47.211685,-34.652596,-54.48349,-64.718285,-54.591408,-43.587341,-10.106258,-20.728255,-19.005665,-18.105344,-41.364007,-46.666268,-34.190153,-23.893149,-38.592031,-33.361401,-11.763824,0.338763,-32.457622,-25.892565,-7.432712,1.368945,-25.438761,-20.079999,-7.401096,-1.166465,-10.85598,-6.92625,10.411835,31.865101,4.71096,29.579773,34.78117,35.804615,25.422935,52.66222,47.180672,37.589378,42.626095,65.293064,56.293259,45.900192,56.009789,69.629631,62.035961,51.266041,-23.682148,-46.478547,-61.13297,-62.913913,-4.055644,-25.033926,-41.086192,-45.774963,1.861096,-29.332928,-47.573382,-48.596339,1.133429,-30.417759,-43.855266,-43.242332,-4.313205,-26.62227,-36.689563,-36.812879,110.265141,198.437774,-125.776577,210.130215
84,-9.315262,-1.707152,7.75526,6.502751,13.089066,16.744766,1.598854,-17.06749,-4.914322,-10.744629,-9.145088,-7.242393,-22.104263,-33.755951,-28.440742,-20.260162,-35.920944,-46.292725,-38.246956,-29.304543,-46.539116,-55.081787,-46.773148,-38.080101,-3.218864,-12.668715,-13.049097,-11.473103,-40.504627,-47.635071,-40.01297,-33.590495,-40.21335,-34.763938,-14.712221,-5.092309,-34.374108,-26.891749,-7.717813,-0.808128,-25.927022,-19.839358,-6.344608,-1.647254,-11.871071,-5.655613,13.714085,32.478447,29.350777,44.540691,28.241158,20.401611,45.233974,58.400459,39.992638,31.929474,55.255337,67.385273,49.267788,41.345043,60.592232,70.519238,58.467407,51.30209,-25.534042,-47.521388,-63.320478,-63.128002,-15.284894,-46.382093,-52.424124,-45.239525,-11.488047,-45.533581,-51.355409,-41.30306,-12.43326,-43.694777,-49.152587,-39.999509,-15.01381,-37.285763,-41.042103,-34.500326,100.955973,196.861332,-118.015223,216.763675
85,-7.238045,2.663975,3.220711,-1.277678,15.811615,21.060562,7.951241,-9.301186,3.247375,-3.781815,-5.784531,-6.595573,-14.936829,-24.39743,-18.639107,-11.143112,-30.112267,-36.5308,-28.106003,-20.325737,-42.244949,-48.715668,-40.0383,-32.217522,-2.056289,-10.455209,-11.762774,-13.401445,-40.190811,-49.294181,-47.450807,-42.932653,-42.240987,-33.388942,-14.209449,-4.170438,-37.013876,-25.336256,-7.850824,-1.16134,-29.208562,-21.722869,-8.077757,-2.894674,-13.919449,-9.704762,7.668629,29.074345,12.623634,29.414864,27.919064,26.167374,33.11182,51.200409,40.734158,30.855103,48.101006,64.671993,51.783772,41.631546,58.792362,69.050617,58.580761,48.752918,-17.747315,-37.068155,-52.451541,-56.512186,0.148324,-23.029507,-35.842409,-36.288865,2.086485,-28.622489,-41.898025,-39.190516,-2.021832,-31.873957,-41.098728,-37.693439,-9.616515,-28.91568,-33.97909,-31.399405,93.641453,199.514871,-114.870987,215.475562
86,-7.697868,8.276469,0.09407,2.332004,18.34568,27.383194,20.608521,5.109558,11.536446,7.953186,6.266899,4.646988,-7.014885,-14.105988,-8.00766,-1.65287,-22.998047,-27.98687,-18.524437,-10.178032,-35.786705,-39.822578,-30.875816,-22.78862,-7.646183,-19.92445,-29.460751,-37.551784,-45.099722,-51.436302,-48.996852,-44.362916,-48.515755,-31.998322,-12.651918,-2.756415,-43.518665,-24.97835,-8.635425,-2.432534,-36.095339,-23.754025,-9.937247,-4.159631,-9.98148,-5.584202,10.599976,30.215092,7.694893,27.183723,32.067204,33.701477,26.701355,52.259045,51.452923,44.946327,41.711483,65.336781,61.055431,53.205299,53.575459,68.634052,65.245171,58.306274,-20.216035,-37.041108,-48.06967,-50.318558,-1.914757,-14.908896,-27.000985,-31.131902,5.460157,-16.009968,-32.882897,-36.88914,6.102114,-16.012252,-30.400531,-34.275801,2.153793,-13.230211,-23.401554,-27.447749,85.732012,207.775625,-114.988489,217.791851
87,18.587494,-5.27472,4.331646,3.370708,14.884071,15.014191,-0.546684,-19.068489,-8.666382,-13.3992,-12.58873,-10.236397,-27.69001,-35.070305,-29.738388,-20.732002,-42.607498,-50.138397,-42.98275,-32.545624,-53.819847,-58.45356,-51.510544,-42.046967,-5.543952,-7.605736,0.095034,9.756133,-26.280975,-25.481061,-11.686142,0.931567,-25.131924,-23.568033,-4.901501,8.356313,-20.652672,-19.746423,-4.516672,5.459724,-14.660351,-12.504705,-3.035836,3.859833,-11.794739,-10.263634,4.385033,25.686722,8.330269,23.852692,25.958061,24.576931,28.781948,51.090889,45.232773,35.286369,45.030899,63.710403,53.962555,42.379932,57.5033,69.011135,61.834831,51.113491,-18.190745,-34.161501,-46.223024,-51.06617,3.156002,-11.774939,-24.475393,-28.014803,8.506675,-18.688392,-35.916448,-37.111318,7.005461,-19.783165,-34.113398,-35.312035,2.22956,-17.681798,-28.045061,-29.999647,104.011145,202.465228,-110.965204,221.126882
88,-7.016258,4.437446,-1.988754,6.516336,17.682381,20.599594,8.52253,-9.019432,-5.024071,-9.935303,-7.666855,-5.560684,-20.341187,-28.726273,-23.99128,-18.386765,-32.639694,-38.975716,-30.788155,-22.952728,-42.414665,-47.036247,-39.107208,-31.347885,-8.479505,-19.656823,-27.036553,-29.612472,-28.797922,-23.978982,-12.621722,-2.948582,-25.893183,-16.063196,0.123563,10.681772,-20.175527,-12.568555,2.142554,11.672866,-13.828511,-9.736373,0.481468,7.540343,-12.539692,-10.416355,5.423183,26.570148,8.519211,26.304131,27.150764,23.898296,29.162693,54.037914,48.457375,37.704678,45.63446,67.42281,59.231701,47.366638,57.76228,72.267895,67.106323,56.79554,-20.374178,-38.571901,-53.100291,-57.430971,0.68296,-17.386075,-32.393649,-36.801764,8.409727,-19.414083,-37.918581,-40.02143,8.597325,-19.006345,-35.064292,-38.203374,4.468939,-16.97173,-29.065301,-32.147079,96.174259,206.483281,-113.774586,227.223825
89,-1.41552,4.766761,-5.213699,1.776683,17.855873,23.540955,11.893272,-5.985718,1.206551,-2.226906,-0.78289,0.76355,-16.995392,-23.220177,-17.512321,-12.309494,-31.243858,-34.483223,-25.576744,-18.323708,-42.146416,-44.087791,-35.104752,-27.656822,-5.22038,-15.212214,-19.777484,-21.071278,-39.004648,-43.889167,-39.3494,-33.711526,-38.615188,-27.1532,-9.250212,0.421076,-31.827706,-18.489864,-1.365425,6.019677,-22.957877,-14.164927,-1.168812,4.352663,-10.193081,-7.882519,6.402969,25.863419,15.763493,37.293034,33.210754,26.462517,35.429249,60.162334,51.835842,40.580692,50.785561,73.052387,63.399467,51.926708,61.996136,76.660824,70.31496,60.404778,-21.646916,-40.369023,-55.966066,-61.9553,-1.411244,-26.911941,-42.887761,-45.461456,6.310275,-27.366671,-43.576401,-42.744994,7.205903,-24.013377,-39.171806,-40.46875,3.877988,-19.412292,-31.064533,-32.63287,94.289474,210.879741,-119.45755,228.630206
90,-8.632278,2.546587,10.005226,1.224387,17.067261,29.429398,24.767189,10.865135,19.42543,17.386436,17.007523,16.032257,-0.523224,-5.056343,-1.266518,2.287102,-18.574219,-21.283836,-13.381462,-7.508812,-33.835716,-36.247215,-28.200302,-21.860275,-1.010113,-7.752085,-4.609607,-0.301774,-42.431919,-46.713754,-44.915212,-41.786689,-47.1909,-36.201056,-19.499422,-10.836209,-43.341564,-25.397883,-6.45298,0.78528,-34.346382,-20.850706,-5.774466,-0.551555,-14.03635,-12.588329,3.726254,24.428043,15.846348,28.286648,17.405434,10.82222,35.537281,47.350845,31.90218,23.961868,50.337353,60.784664,44.407711,36.849575,60.292454,66.565075,55.153484,48.670578,-22.616027,-45.77768,-62.474374,-65.153724,-7.744922,-43.276541,-52.468337,-49.447877,-5.828066,-46.700169,-52.236094,-43.884721,-9.127267,-46.994657,-50.558088,-42.512627,-15.294219,-41.824851,-43.790675,-36.503324,85.244923,213.289011,-109.864597,229.717275
91,8.396187,-8.732435,-7.242107,-10.434955,21.335793,33.703537,26.096077,8.582497,11.721153,5.998306,6.063194,6.704292,-9.53167,-17.602844,-11.854248,-5.701904,-26.49353,-32.857819,-24.832077,-16.753006,-39.982796,-43.553467,-35.666313,-28.369446,-4.558601,-13.394652,-10.623356,-1.800025,-36.611387,-34.830443,-26.13969,-20.074503,-38.312117,-27.523147,-6.364306,3.478215,-33.972792,-24.110942,-5.265087,2.615747,-27.017967,-20.423887,-6.851208,-0.977015,-14.145756,-10.951996,5.991955,26.65432,9.231319,26.113644,20.767422,16.390686,31.009483,48.833027,36.745834,29.973392,48.221283,64.235401,50.352173,42.816925,61.162834,71.466866,60.519333,52.357292,-21.0304,-42.934691,-57.904164,-65.344224,-11.705593,-37.165782,-47.520091,-47.520338,-7.415545,-40.935151,-48.0023,-41.420756,-7.664832,-39.765783,-45.30603,-39.879281,-11.408512,-33.596238,-38.926904,-35.637274,93.220224,204.43482,-117.52759,219.160564
92,-2.998581,2.679536,8.203583,-13.308881,18.845215,32.862968,31.781387,23.728638,24.8909,24.689369,19.341202,13.239212,3.455544,-3.675156,-0.661583,4.27803,-16.364822,-23.005829,-16.400528,-10.251503,-32.682953,-40.316734,-33.915367,-27.466278,0.638438,-6.814343,-8.168715,-9.530188,-44.566507,-53.834441,-58.362043,-59.050313,-50.962553,-43.893984,-20.717572,-7.494524,-47.266668,-38.930115,-19.449466,-10.274898,-40.233234,-36.927611,-21.957273,-14.385932,-15.973434,-16.400356,0.656147,18.04081,1.700306,19.803371,12.937546,6.038132,21.325493,39.1642,28.110352,19.951115,37.153244,54.402809,41.01099,33.936596,49.637547,62.8018,52.596703,46.079807,-21.220467,-49.281584,-68.194129,-68.495101,-41.05964,-58.155056,-50.731298,-43.017807,-32.506343,-53.446031,-42.848611,-31.542666,-24.156329,-46.327382,-36.281825,-25.472909,-16.451545,-34.333785,-27.740632,-19.260942,89.969673,207.212755,-109.575977,205.950082
93,0.494728,-3.482661,3.761616,-16.241964,19.774933,31.694069,30.921936,23.316994,27.596741,25.454178,21.184845,14.554482,5.036087,-2.070351,5.984802,13.162994,-15.62336,-22.06707,-11.862946,-4.029465,-31.000786,-37.143745,-28.780174,-21.155663,-3.914853,-8.58763,-6.210424,-9.027293,-54.045937,-59.5797,-65.186637,-70.723117,-61.689156,-42.449703,-23.673626,-19.656329,-58.317274,-40.180314,-24.136507,-23.000546,-50.414827,-41.23217,-28.42143,-26.881004,-17.573662,-21.626015,-9.42215,5.675411,-14.955654,2.44772,3.000069,1.526241,5.59742,22.452679,18.749943,13.603935,23.627586,37.96423,31.088848,25.069771,38.735676,49.406433,42.808285,34.559383,-20.911715,-45.83943,-64.519609,-66.025949,-14.549694,-44.102082,-59.149361,-63.363703,-3.932266,-39.619435,-54.55087,-57.96999,-0.833198,-35.477217,-46.921298,-46.384316,-2.484343,-29.557452,-37.689549,-35.642523,89.455233,203.92436,-106.82353,189.902385
94,3.225174,-9.745635,-4.912491,-18.302019,19.557266,29.125443,27.243118,22.262421,26.292686,24.172096,21.46843,18.232727,6.89106,-1.317444,1.723137,5.83374,-11.256294,-19.866028,-13.943367,-8.395615,-26.274605,-34.401283,-28.780632,-23.111572,-5.442434,-13.128879,-20.872504,-29.786608,-48.231703,-55.97681,-64.490278,-74.952094,-54.422058,-51.472179,-35.249729,-30.979873,-53.473325,-48.932632,-33.373875,-29.504223,-47.976427,-48.206509,-36.623614,-32.180239,-17.079964,-21.632366,-12.387314,0.419998,-11.13802,1.413975,4.226532,2.518787,8.359623,20.241222,16.24855,10.148792,25.048027,36.986675,30.879536,23.57872,39.091644,50.174618,43.36956,33.925438,-14.858878,-35.191313,-51.357756,-58.9835,-61.651303,-73.140059,-58.304677,-48.12611,-57.626225,-64.310646,-45.13634,-35.906444,-49.012352,-51.688368,-33.634523,-25.223006,-37.814964,-40.352412,-27.502028,-20.872751,91.640425,194.699311,-112.776003,172.120953
95,13.601189,-28.720117,-7.336235,-7.042511,20.030022,29.406853,22.654037,7.299614,12.403107,4.326668,2.614174,3.424301,-5.521889,-19.268188,-13.433189,-5.264397,-21.361427,-34.674225,-27.562637,-19.279747,-35.682678,-47.575378,-41.035538,-32.923508,-8.809499,-27.62732,-43.16045,-52.689342,-56.449911,-70.373085,-68.200582,-60.436147,-54.152024,-58.119982,-34.980188,-18.183335,-46.868933,-51.276925,-30.060965,-17.051697,-38.253701,-43.979323,-29.154716,-19.94316,8.255482,15.503254,19.275856,20.791397,23.047428,36.206131,29.220543,22.151585,17.834587,30.605621,22.8689,17.405033,11.766415,21.96579,16.92524,14.228897,5.923462,14.139061,12.561951,11.272202,-16.880093,-37.403954,-57.371443,-71.10032,-24.051724,-58.932308,-55.311666,-48.592634,-20.270869,-58.205012,-56.045909,-49.844871,-20.189421,-57.258131,-56.551923,-49.540565,-22.618744,-52.156127,-54.231991,-50.357276,105.264816,167.574223,-120.089035,166.67347
96,5.234871,-8.237258,1.071396,-28.114036,18.035545,24.910698,16.860352,3.212242,12.390976,7.60643,4.196548,1.548042,-7.259102,-18.275414,-13.84449,-7.343216,-24.968491,-35.717583,-28.665047,-21.771698,-39.181938,-49.595833,-42.461243,-34.944191,-11.683734,-28.729379,-42.644896,-54.847241,-60.912953,-67.01624,-68.502943,-70.40606,-61.4039,-61.436226,-40.483694,-31.379398,-55.271713,-54.77419,-33.852132,-26.360942,-45.774839,-48.573831,-33.039064,-26.236515,-18.676701,-24.282188,-14.188328,-1.403561,-10.462933,6.158352,2.865715,-3.241253,10.538177,25.237541,15.779514,8.578091,28.408928,41.182251,29.479465,22.843323,42.999916,55.085793,45.153751,37.28096,-15.891345,-40.616426,-59.683286,-67.12912,-59.665718,-74.42876,-57.126541,-49.20807,-53.444241,-61.723149,-41.387658,-37.624927,-43.414924,-49.327989,-29.832396,-25.135999,-32.507393,-37.449402,-23.543147,-18.745017,110.973759,163.136607,-118.543568,142.359076
97,-0.256004,-24.791308,-4.708157,-3.201327,20.61779,26.897736,16.819611,2.844543,7.250175,-2.359428,-1.904411,-0.44117,-13.027153,-22.973213,-13.100967,-3.872681,-29.386711,-36.510086,-24.616928,-14.315643,-42.486534,-49.669991,-39.621277,-30.687447,-11.479896,-32.107374,-48.704402,-61.222971,-66.654722,-75.792425,-68.825126,-60.460631,-64.585312,-54.004595,-31.895539,-22.556993,-55.294159,-45.451669,-26.150311,-19.321704,-43.67724,-40.996963,-26.166768,-19.916175,-18.799152,-21.786289,-10.65588,5.812683,-14.523182,3.600597,6.125507,5.255642,7.428989,26.112442,18.578911,11.376972,27.759075,44.042072,35.494766,29.415436,45.504398,57.492542,50.375919,44.72271,-23.207163,-50.549628,-73.910797,-83.816613,-35.733574,-75.977954,-84.732341,-84.683465,-27.088516,-71.304683,-64.639837,-54.558743,-21.246526,-63.758258,-56.702316,-44.854635,-18.365684,-50.68585,-47.261048,-36.295719,111.454582,144.223212,-122.514896,145.035663
98,-0.103798,-7.189106,-3.414516,-5.768723,19.157867,25.62664,16.434746,-0.514526,18.719559,9.379921,2.866859,-0.70816,-2.364235,-17.966423,-15.200958,-7.684135,-21.599808,-35.256386,-27.154999,-17.564735,-36.978607,-48.013802,-40.227356,-32.34272,-11.365719,-31.428582,-50.46256,-64.2501,-52.786074,-65.4044,-67.830265,-68.407817,-53.117921,-62.575367,-43.864467,-34.41369,-48.321457,-55.838242,-36.650784,-28.924263,-41.005762,-48.879249,-35.677999,-28.668771,-16.778412,-18.833427,-10.122986,2.032242,-11.672401,-1.773605,5.693893,12.490654,10.470943,26.141281,23.156891,18.129501,30.282383,44.67453,38.320713,31.769829,46.64257,58.582077,52.284336,44.727116,-26.030022,-51.39916,-73.285698,-88.714656,-35.157381,-70.808827,-87.605834,-95.125892,-28.33643,-70.777365,-78.87377,-76.132824,-24.871584,-64.406729,-69.067527,-62.935464,-23.060969,-54.425732,-57.840036,-50.299107,111.752958,141.724343,-125.527239,143.957176
99,0.542793,-1.333068,-3.075657,-6.823606,21.039963,27.549362,16.763992,-1.238708,19.660606,14.594765,6.544418,-1.018181,-0.96405,-12.940292,-10.025139,-3.28537,-20.983772,-34.255257,-24.626999,-14.476891,-37.485008,-47.570801,-38.401337,-29.779129,-20.124151,-43.290404,-60.639059,-72.736613,-50.849581,-64.128112,-75.553729,-85.903592,-47.712753,-63.665014,-56.132051,-50.647317,-42.751323,-58.997393,-47.464609,-41.061894,-36.088824,-52.163475,-45.020249,-39.558055,-14.725571,-13.680782,-2.155838,11.11805,-8.019104,0.733051,10.604954,19.667187,13.800144,30.735912,29.649467,24.734459,32.826748,48.806763,43.582363,36.13575,48.04327,61.916885,56.322556,47.345638,-27.126431,-54.526417,-75.779395,-90.896977,-37.890578,-72.068937,-89.125821,-96.938884,-28.080104,-70.304295,-80.592902,-79.0706,-21.780297,-61.780207,-69.63455,-65.433515,-17.880974,-49.460938,-56.696357,-52.609097,112.346964,143.199066,-128.551683,139.941362
100,8.190536,1.010051,0.50211,-2.450256,18.17894,17.953148,5.548325,-12.223091,12.156029,10.360336,3.724709,-2.608681,-6.287498,-17.918358,-21.178093,-21.949654,-24.968834,-41.919479,-35.15522,-27.071457,-40.971909,-54.716148,-48.847961,-41.845207,-24.93423,-50.485902,-68.725646,-75.061238,-38.610248,-62.395549,-80.350377,-91.301504,-31.19955,-64.873686,-82.5084,-90.724138,-28.362304,-66.985674,-73.197024,-70.077177,-26.684514,-59.095916,-66.408801,-64.855501,-14.476604,-9.879227,6.555119,23.322086,-8.209076,4.09893,13.679752,22.629547,12.618942,33.94289,27.946072,20.62952,31.921291,52.653809,44.581318,36.649361,48.632526,63.685455,55.991364,47.830925,-26.12379,-55.409386,-77.291848,-88.749359,-41.219357,-76.208129,-91.893351,-98.92876,-30.336495,-72.906982,-73.699734,-64.606955,-22.090284,-63.659704,-63.692246,-53.633938,-16.204543,-50.475682,-51.914251,-43.462811,120.374451,145.117019,-128.212624,138.399006
101,-1.293526,-2.678177,-1.275673,-0.877412,17.417221,17.08786,4.685326,-11.649513,10.968933,7.589149,-2.499962,-11.599731,-7.524376,-18.423958,-23.210907,-25.132027,-26.301613,-43.167686,-37.806816,-30.426979,-42.143555,-55.487251,-50.07122,-42.938118,-22.576877,-46.648855,-63.668658,-69.316412,-36.325791,-62.652925,-79.153407,-87.965623,-29.526145,-63.422119,-78.9182,-84.898048,-26.5549,-62.829871,-69.064316,-67.217855,-24.365755,-54.278303,-60.94812,-59.85276,-11.920509,-4.876499,13.308392,29.213848,-4.999008,17.200184,23.706608,27.002735,15.066776,44.739132,35.067673,24.307194,33.479977,59.602547,47.455044,37.075882,48.859406,67.243824,57.779503,49.657631,-28.215183,-56.91659,-76.531083,-85.314524,-42.503303,-76.141747,-88.467592,-92.305164,-29.775153,-69.13573,-64.940284,-54.644144,-19.288544,-58.858054,-53.284616,-41.68758,-11.936293,-44.329664,-42.777814,-33.538872,118.891125,142.97678,-129.678097,138.059533
102,-6.043167,-0.758604,0.539017,0.951512,18.237076,22.701759,12.455978,-3.411026,11.952209,7.980766,0.948601,-3.891563,-8.160095,-17.109146,-19.435501,-17.681236,-27.354469,-39.344673,-30.002403,-19.742432,-42.684631,-52.18895,-43.351135,-34.237175,-18.47807,-40.35797,-54.436168,-59.193389,-44.616433,-61.637378,-70.21133,-72.969474,-40.992517,-61.86533,-67.195255,-67.725752,-36.209855,-56.267593,-49.015501,-42.044559,-28.645738,-45.272592,-41.235011,-36.274075,-7.913761,0.847321,22.382927,37.348251,-5.066929,25.378075,29.515171,27.377472,11.576958,48.264771,36.953945,24.803524,28.572865,62.069321,48.212013,36.30558,44.492512,68.663979,58.020344,48.212299,-31.416788,-59.949276,-76.320082,-80.397338,-46.242568,-74.936379,-80.202763,-79.79027,-29.512591,-62.043973,-56.88448,-49.843698,-15.004516,-48.054634,-41.608292,-32.727132,-4.035389,-33.242439,-29.978744,-21.595107,112.732687,142.058228,-129.254351,138.851096
103,-0.232658,3.541571,2.623043,6.541468,16.657333,18.558998,4.718056,-11.112099,9.654465,7.103004,1.467247,-2.471352,-9.111328,-22.284851,-24.145203,-21.369781,-27.435837,-41.722183,-32.500076,-23.598404,-42.558517,-53.06591,-43.711853,-36.374359,-20.403139,-42.021711,-54.75443,-60.177042,-42.74027,-59.493373,-65.260336,-63.651151,-36.218377,-58.005126,-62.485365,-60.612043,-28.92661,-48.501429,-43.811084,-38.914554,-19.591985,-35.69285,-33.70143,-30.371477,-7.319126,-0.324211,18.929329,33.54063,-4.485798,26.012421,35.133362,36.00975,10.852947,47.144451,39.291344,29.54607,26.790562,61.015835,47.464142,35.942059,41.881657,66.706638,55.331211,45.270767,-29.235547,-55.980021,-70.036638,-73.135027,-46.431802,-71.298569,-76.900474,-74.985934,-28.414452,-56.017133,-51.417716,-46.549684,-12.435298,-39.390125,-34.163045,-28.445389,-0.247434,-23.027655,-21.811789,-17.779518,112.47654,145.308198,-126.654797,145.100964
104,-8.595543,1.180915,5.617847,0.949907,16.222687,24.539108,13.127861,-5.13176,7.117424,3.836632,0.695229,-1.952705,-12.933769,-20.855141,-15.612946,-10.618858,-30.994263,-32.193604,-18.226547,-11.436539,-44.268837,-41.54377,-28.104286,-22.110443,-16.87259,-36.224829,-46.127527,-48.088936,-55.448875,-57.728052,-57.558887,-55.390953,-50.044695,-50.398834,-47.05014,-44.716252,-39.126728,-33.112176,-25.14554,-24.232313,-24.183036,-20.232584,-15.292613,-15.15528,-3.691635,1.80788,20.711117,36.597519,-5.846157,29.785938,29.981918,23.373756,4.906998,43.556328,37.082634,28.363094,18.006763,54.397373,43.488064,33.573761,30.831757,58.753452,50.338497,41.699352,-28.786004,-50.889811,-61.497266,-60.95695,-36.427649,-53.941054,-53.322778,-49.930055,-15.950872,-37.30682,-35.618657,-33.084173,1.211543,-20.238204,-19.816139,-17.101344,14.075018,-3.643213,-7.586903,-7.742822,104.107218,145.293023,-120.810728,144.85478
105,4.705925,4.772566,11.886749,8.452643,9.224625,10.121841,2.222099,-9.551239,-18.115768,-20.479088,-12.602806,-6.899414,-31.308632,-34.614258,-22.290115,-14.653587,-40.341911,-38.517151,-22.473335,-14.212189,-45.207939,-42.175827,-27.579689,-20.087814,-21.765816,-41.274593,-49.93833,-46.669201,-58.764934,-60.677066,-54.492022,-50.270208,-48.515261,-48.872765,-42.428646,-39.28978,-33.281928,-29.632819,-22.792231,-20.488293,-15.152687,-13.501913,-9.928972,-9.418235,-12.626038,-13.377571,-4.502792,8.42886,10.660458,28.295746,18.781128,6.75808,22.962799,36.889973,19.774475,5.619106,29.947643,38.730984,20.637074,8.003426,32.88271,40.316563,26.782093,15.887833,-16.889417,-34.304484,-43.012188,-39.722311,-42.953185,-53.21243,-49.101705,-42.992829,-28.642311,-32.635093,-22.928792,-15.098593,-11.553564,-11.870837,-4.199831,0.592001,4.835366,8.299132,11.935367,13.181984,108.777838,148.06662,-108.959284,151.308455
106,-2.845459,5.126396,4.921532,-10.125462,10.501099,9.444466,-3.107529,-16.253242,-12.260857,-22.911758,-21.302719,-17.557526,-24.589577,-35.598335,-28.858795,-21.491776,-33.690033,-38.004341,-22.079659,-10.421104,-38.086052,-38.831291,-25.095177,-15.150948,-14.21476,-34.236096,-44.319691,-47.035598,-46.650151,-55.295919,-55.140092,-51.552856,-36.426074,-45.946166,-46.81098,-45.283522,-22.743356,-25.920353,-19.75723,-15.986688,-7.222699,-8.369836,-4.731749,-2.957598,-10.926533,-10.589561,-0.220585,10.92659,16.165581,24.263821,12.932682,1.895027,27.560349,31.45443,14.560318,0.712395,31.63662,32.007065,14.089909,1.330032,29.844074,29.807396,15.816422,2.892838,-10.842323,-14.99016,-7.828161,3.765108,-25.620462,-11.292113,-0.162465,6.432726,-14.555128,5.012528,17.525261,23.116205,0.164688,19.544499,29.170833,31.476532,14.300284,32.359686,38.784755,39.223244,105.544195,150.921835,-104.425936,138.911813
107,6.430092,-4.378969,-9.568634,17.652899,6.913948,4.218063,-7.594757,-21.113319,-18.911705,-27.668152,-31.384506,-32.061424,-31.343536,-44.41349,-39.467583,-31.961861,-39.869156,-49.852638,-34.521561,-21.347237,-44.197998,-49.300461,-35.817604,-25.070801,-15.59624,-34.338416,-41.469014,-40.106121,-43.413411,-49.98526,-51.815357,-49.512808,-31.098187,-36.229615,-34.698853,-31.268062,-15.640638,-17.943126,-13.420094,-9.895936,1.733705,-0.557915,0.339751,0.904273,-11.469841,-8.647614,3.042526,14.437122,18.014145,31.660652,30.249023,25.01976,31.562634,42.599716,30.745583,21.008034,38.429089,46.487789,30.79731,18.560429,40.865078,43.672886,32.168598,22.157364,-14.930015,-23.895186,-15.064816,-6.873068,-39.702644,-39.298394,-28.281071,-20.711953,-22.219342,-17.181311,-6.761794,-4.43757,-3.899168,2.342625,9.02686,9.49073,12.274747,21.43363,23.065384,20.008492,111.683207,145.02498,-114.28565,155.046825
108,-9.27475,12.966105,4.187508,17.183102,11.469269,12.563324,0.752106,-14.328918,-17.118874,-24.450073,-27.126274,-26.647339,-30.5159,-35.610237,-28.149261,-19.6558,-37.941055,-31.064529,-15.276833,-5.159569,-38.841476,-25.782623,-11.996498,-4.28833,-18.316469,-38.535067,-48.747689,-48.364405,-50.673098,-57.454621,-56.665142,-52.964532,-37.817373,-37.703783,-32.542097,-27.53951,-21.073872,-16.266973,-11.61482,-10.506462,-4.126224,1.226178,3.181937,1.934393,-10.83086,-8.113232,2.066345,11.811619,31.470451,22.958736,7.062435,-1.543293,42.491169,30.884285,10.943527,1.642056,43.462772,30.299492,11.861916,3.623657,38.813553,25.364857,10.929108,2.800369,-17.257079,-28.780756,-25.111855,-15.461192,-40.391562,-39.566082,-31.321908,-26.780968,-22.723164,-17.252015,-10.920622,-8.945535,-3.516871,5.488685,7.753505,6.738143,13.67784,23.610517,22.362171,17.962824,102.220716,156.345806,-110.285883,170.584649
109,9.782982,-5.987937,-1.223602,9.154375,0.62542,-4.354706,-12.801132,-24.56337,-21.834183,-35.468674,-41.652718,-46.334381,-25.639572,-41.737289,-47.902794,-50.284882,-25.409775,-30.169373,-23.916779,-18.386307,-21.154976,-23.825912,-19.256401,-14.693527,-19.304661,-33.619086,-40.461247,-37.051853,-33.900297,-43.19852,-44.702482,-43.508599,-17.272022,-13.142772,-8.2472,-3.608077,-0.193279,5.153442,7.075733,7.593942,13.451216,18.054215,19.144912,18.600089,15.927944,32.870293,42.556915,51.210651,31.505127,35.530186,28.935471,24.001522,21.775532,25.361366,20.129299,15.648708,12.146358,16.305542,12.246838,8.543758,2.950172,8.935604,6.934547,3.264141,1.431869,-3.078876,-10.39914,-13.654683,-15.806191,-18.801271,-10.931181,-3.368361,-19.796688,-22.711863,-11.189175,-0.739029,-22.051937,-22.485054,-10.092981,-0.606821,-22.975661,-20.468718,-10.254335,-4.999375,111.89867,148.971032,-111.614513,178.352187
110,5.007477,-2.025475,-4.519386,39.25307,-2.574577,-10.70652,-20.19516,-27.801704,-22.547951,-35.96489,-37.962799,-36.043167,-24.612122,-34.232597,-29.983978,-23.629761,-24.031792,-31.388168,-26.202164,-19.487,-22.466812,-30.036163,-29.06971,-26.240387,-14.606998,-25.274135,-28.412198,-27.304982,-23.540492,-28.953965,-31.614698,-32.976912,-12.978516,-16.704721,-17.863159,-18.120103,-1.438414,-2.801987,-2.742274,-2.722452,9.178643,12.239302,12.082827,11.507375,-0.886574,8.49987,20.420609,31.364136,52.114449,58.030243,43.564224,30.650539,58.989601,44.598598,19.301033,5.212498,54.811306,37.287598,13.427181,1.282539,43.513985,31.58987,15.402718,6.811695,-29.50904,-49.982389,-53.053793,-45.504496,-43.009779,-45.334744,-46.026349,-45.511844,-22.109426,-25.988834,-30.508285,-31.604046,-1.76316,-3.789005,-10.570127,-13.396011,16.297477,12.529529,5.980404,2.990634,117.855005,145.182675,-115.185041,215.842375
