YashyHoby/handMotion-similar-search/project/data/handData/tgt/d4_feature_d2/4.csv
,vel_0x_L,vel_0y_L,vel_0x_R,vel_0y_R,posFromWrist_1x_L,posFromWrist_2x_L,posFromWrist_3x_L,posFromWrist_4x_L,posFromWrist_5x_L,posFromWrist_6x_L,posFromWrist_7x_L,posFromWrist_8x_L,posFromWrist_9x_L,posFromWrist_10x_L,posFromWrist_11x_L,posFromWrist_12x_L,posFromWrist_13x_L,posFromWrist_14x_L,posFromWrist_15x_L,posFromWrist_16x_L,posFromWrist_17x_L,posFromWrist_18x_L,posFromWrist_19x_L,posFromWrist_20x_L,posFromWrist_1y_L,posFromWrist_2y_L,posFromWrist_3y_L,posFromWrist_4y_L,posFromWrist_5y_L,posFromWrist_6y_L,posFromWrist_7y_L,posFromWrist_8y_L,posFromWrist_9y_L,posFromWrist_10y_L,posFromWrist_11y_L,posFromWrist_12y_L,posFromWrist_13y_L,posFromWrist_14y_L,posFromWrist_15y_L,posFromWrist_16y_L,posFromWrist_17y_L,posFromWrist_18y_L,posFromWrist_19y_L,posFromWrist_20y_L,posFromWrist_1x_R,posFromWrist_2x_R,posFromWrist_3x_R,posFromWrist_4x_R,posFromWrist_5x_R,posFromWrist_6x_R,posFromWrist_7x_R,posFromWrist_8x_R,posFromWrist_9x_R,posFromWrist_10x_R,posFromWrist_11x_R,posFromWrist_12x_R,posFromWrist_13x_R,posFromWrist_14x_R,posFromWrist_15x_R,posFromWrist_16x_R,posFromWrist_17x_R,posFromWrist_18x_R,posFromWrist_19x_R,posFromWrist_20x_R,posFromWrist_1y_R,posFromWrist_2y_R,posFromWrist_3y_R,posFromWrist_4y_R,posFromWrist_5y_R,posFromWrist_6y_R,posFromWrist_7y_R,posFromWrist_8y_R,posFromWrist_9y_R,posFromWrist_10y_R,posFromWrist_11y_R,posFromWrist_12y_R,posFromWrist_13y_R,posFromWrist_14y_R,posFromWrist_15y_R,posFromWrist_16y_R,posFromWrist_17y_R,posFromWrist_18y_R,posFromWrist_19y_R,posFromWrist_20y_R,posFromBody_0x_L,posFromBody_0y_L,posFromBody_0x_R,posFromBody_0y_R
2,-16.542377,1.178507,-1.483212,-6.559129,-27.684746,-40.006256,-53.746548,-72.265434,-28.34919,-40.984211,-58.522053,-75.643787,-7.411022,-0.891724,-13.720894,-26.874161,15.125141,30.303326,20.561771,9.221478,36.217976,47.912579,41.928921,32.706814,12.280798,35.627579,53.681918,62.151975,55.771984,86.849114,107.167593,125.934469,53.945777,81.651767,92.189228,100.033691,46.205857,71.334323,76.166601,78.304092,35.691306,52.148223,57.526931,60.726158,35.531216,68.221722,95.139828,118.600559,77.176609,107.376194,103.275433,92.60107,65.302448,96.16293,90.394993,79.923306,50.219936,80.833912,76.457005,66.822338,34.020481,61.394291,61.472683,53.793468,-17.680995,-15.536959,-4.291098,0.009077,17.542736,41.61138,34.489952,26.658456,37.173995,57.30889,46.908639,39.502912,52.267463,70.354961,60.760306,54.116517,64.666266,80.901808,73.096618,66.206816,-7.827702,366.038226,-45.297489,369.665816
3,-3.152046,-1.579699,-1.110935,0.609971,-21.731987,-30.856705,-41.123657,-54.165401,-11.38979,-13.916073,-29.385281,-45.59309,5.83849,20.028477,9.989834,-4.303551,22.698269,39.240704,31.069622,19.130573,37.747707,46.518574,43.282986,36.571255,7.965988,25.825196,40.271766,49.654,57.032866,87.00701,102.112643,115.182982,59.5014,83.746094,84.252015,83.983833,53.13802,76.399153,75.166677,76.081509,41.514308,60.425804,62.132894,64.476075,35.03191,68.515663,96.079445,119.200516,77.678604,109.49501,106.396866,95.556679,66.344604,99.83139,94.377365,83.482933,52.214355,84.673691,80.382385,70.668983,37.164516,65.21656,65.480804,58.407784,-17.881376,-16.104384,-4.469248,1.016535,16.821553,40.257564,34.298217,27.029452,36.498507,55.456686,46.282428,39.271224,51.6394,68.3963,59.995342,54.054582,64.23494,80.032486,72.623054,66.306728,-9.399719,364.502061,-44.828396,370.31932
4,13.594723,-0.468253,-0.73288,-0.677464,31.145439,42.696877,44.315529,49.490318,3.254814,-17.739487,-33.471394,-46.821098,-19.633656,-48.078747,-64.925938,-79.193916,-39.448528,-67.652092,-83.660088,-97.001781,-55.652161,-76.641884,-88.628654,-97.60231,18.060822,38.608704,53.030389,60.216532,75.446406,106.600971,121.205191,132.080735,73.586546,106.197741,124.019589,137.505756,66.265355,94.440648,108.075509,120.332349,53.904281,76.606326,88.369656,100.561472,35.831623,69.671974,97.203484,120.392189,78.769341,110.138855,106.53614,95.728226,66.846886,99.864006,93.937912,83.035355,52.112846,84.435539,79.425087,69.626198,36.657543,64.641953,64.041939,56.595383,-17.66315,-15.445322,-3.436843,1.335908,17.589296,41.482877,35.149323,27.548156,37.453786,56.823841,47.11081,39.808885,52.623331,69.511389,60.641807,54.541113,65.147673,80.189085,72.339373,66.108015,5.017204,363.833875,-44.739075,369.441924
5,-9.333515,-2.964082,-0.663757,-0.630286,-23.149109,-38.88176,-55.972996,-73.626652,-21.988449,-28.851757,-44.950161,-60.921249,-4.388065,-0.50972,-14.319248,-29.257107,14.718876,24.644909,11.543026,-3.266258,33.209553,42.560978,36.451664,27.802677,15.243398,39.983639,56.573813,64.22858,64.487561,97.517671,113.445696,128.753067,64.30762,90.895865,95.061425,99.94934,58.695434,84.58522,87.030351,90.689804,50.193514,69.600433,70.54046,70.103328,36.418476,70.106277,97.722015,120.973206,78.847961,110.694923,108.412056,98.246956,66.98925,100.531311,95.303879,84.649086,52.31884,84.975586,80.658188,71.172295,36.868801,64.956436,65.173988,58.303757,-17.070469,-14.752359,-2.526333,2.648475,18.169873,42.571475,36.950459,29.630379,38.138783,58.042238,48.669266,41.33906,53.321419,70.621476,62.076392,55.981936,65.788518,81.433047,73.731659,67.291338,-3.40951,360.740041,-44.496031,368.681885
6,-0.489864,3.703913,-0.351448,-0.120043,-24.816227,-35.938797,-48.97831,-63.966293,-17.25317,-21.113262,-35.775948,-51.523876,1.839809,16.145897,6.706123,-7.485123,19.410896,35.105324,28.225479,17.800026,33.529015,41.080055,39.208488,34.266357,6.78495,25.119265,40.078487,50.231058,55.278598,85.817697,100.380543,112.706234,58.220511,83.413445,82.138175,80.111588,52.396398,76.995045,74.202568,73.270692,41.318559,60.902394,62.230336,64.626437,36.774559,70.614395,98.275108,121.543007,79.000053,111.189423,109.090004,98.960152,66.85009,101.273918,96.49704,85.822449,51.944962,85.496178,82.002182,72.746315,36.406345,64.90448,66.26152,60.067406,-17.187239,-14.937733,-2.570608,2.767839,18.656158,42.732705,36.450898,29.094448,38.789324,58.278186,48.39565,41.162331,53.712423,70.763008,62.020694,56.090987,65.721396,81.541357,73.87492,67.560817,-3.161659,364.232428,-44.109764,368.350316
7,-8.389091,0.141223,-0.15564,-0.258734,-21.89867,-29.409199,-40.09449,-56.910667,1.772804,31.271439,31.304512,24.707108,19.322319,47.597008,45.836678,36.820679,32.534065,56.042519,55.475349,48.989868,41.627655,59.211388,61.969643,59.860611,10.97663,32.301641,50.543762,62.030944,61.74998,83.488348,78.820325,73.291996,58.236073,78.824833,70.732689,64.126568,48.001992,68.514676,60.623035,56.583446,33.175965,47.784877,45.014815,45.926992,36.62384,70.355072,98.161354,121.294785,79.396248,111.553688,110.348854,100.900955,67.2892,101.501999,96.872406,86.656494,52.262192,85.640945,82.287254,73.37162,36.510258,64.610481,66.27903,60.686989,-16.826555,-14.689497,-2.490456,2.756044,18.986893,43.03096,37.557527,30.4566,39.242881,58.628373,48.836672,41.346223,54.256814,71.151974,62.658699,56.652915,66.276841,82.112734,74.607157,68.223584,-11.099367,364.287957,-43.81402,368.005887
8,-14.427567,5.534072,-0.161018,-0.039706,23.174801,42.868881,54.579849,63.377953,50.273438,80.514221,77.899017,69.831276,41.416512,75.265961,70.491714,59.510193,29.871368,58.756142,53.754044,44.664116,16.40522,26.347389,20.266457,12.500553,-12.563183,-7.059616,5.289849,15.31509,30.219417,46.607235,42.794394,35.820549,46.630268,62.423553,52.598507,43.997848,57.026752,76.978928,68.148496,62.50247,61.696689,83.662607,82.115142,83.426906,36.83424,70.552597,98.352013,121.623116,79.731903,111.742172,109.865799,99.949951,67.699585,101.942024,96.941643,86.442261,52.679214,86.071815,82.469444,73.365097,36.791382,64.913864,66.507912,60.780945,-16.561769,-14.446077,-2.140578,3.051767,19.134538,43.089561,37.224136,29.909615,39.17619,58.569648,48.632216,41.123243,54.105958,70.993831,62.420774,56.416782,66.241087,82.249758,74.674588,68.200798,-25.549965,369.796603,-43.99807,367.940756
9,36.642265,-7.803214,0.207939,-0.391374,25.845795,30.653,25.668983,24.954643,-2.86171,-23.213024,-38.558521,-52.120628,-23.494549,-51.301689,-67.66777,-81.127796,-41.652317,-69.913559,-86.049271,-98.599434,-56.392422,-78.342247,-91.261082,-100.276279,22.403296,44.704705,60.706707,69.434386,78.295015,109.743203,124.814379,136.043506,75.994256,109.037828,127.199982,140.985144,68.643919,96.819706,110.720032,123.866942,56.285377,78.209243,90.036114,102.767629,36.945248,70.722885,98.684235,122.123222,79.657402,111.71711,109.481163,99.330826,67.395859,101.580162,96.443024,85.809402,52.156563,85.568161,81.959267,72.857552,36.121731,64.37851,66.100388,60.50972,-16.28204,-13.96535,-1.768161,3.042752,19.856524,43.655071,37.556539,30.162544,39.919727,59.262982,49.198529,41.686715,54.79077,71.740764,63.05668,57.080228,66.794186,82.820888,75.214781,68.715241,10.97826,361.982675,-43.904171,367.538668
10,-9.017944,-1.990525,0.119247,-0.038409,-23.288841,-41.783981,-58.613033,-79.167881,-31.619053,-49.54771,-66.968479,-82.996731,-12.193336,-15.021973,-28.858166,-42.352295,8.465767,14.774895,0.874786,-13.153667,27.296906,33.725281,23.774185,12.607384,12.829327,36.333634,55.476694,62.518402,60.419938,89.967571,105.840268,121.756869,64.915862,90.875735,97.606159,103.234277,63.126088,90.488251,95.944579,100.713996,57.370455,80.234719,87.322307,91.953465,36.900787,70.470886,98.255882,121.635246,79.404602,111.75808,108.610382,97.858315,67.277756,101.853104,96.090202,84.994011,52.166862,85.979118,81.74984,72.234764,36.097584,64.60968,65.86441,59.896545,-16.350583,-14.24792,-2.11841,2.797541,19.779707,43.677116,36.953855,29.236968,39.699834,59.104777,48.821543,41.325413,54.621636,71.65561,62.727304,56.859471,66.803078,82.872079,75.150004,68.866344,1.917,359.93676,-43.828239,367.444869
11,-3.282509,4.371497,0.236034,-0.125971,-25.557117,-37.680073,-49.752617,-63.292179,-18.393631,-26.310596,-42.661171,-59.43924,-0.29686,10.236053,0.212631,-13.841858,17.398682,31.768112,24.450188,13.118935,33.611984,42.102356,40.772781,35.934105,10.846151,30.656548,46.390985,55.821755,57.896322,89.640109,106.682667,120.483946,57.758742,83.962714,85.755761,86.453479,49.619297,72.471025,71.330124,71.681422,36.38464,51.681699,51.936234,52.019041,36.668587,70.072918,97.811222,121.140919,79.721889,111.421452,108.65221,98.207302,67.403011,101.342411,96.124249,85.470943,52.067814,85.205669,81.378307,72.152309,35.829735,63.858776,65.643139,60.05064,-16.081166,-13.93256,-1.823366,3.017372,20.136377,44.127956,37.593713,29.969945,39.954678,59.691839,49.579838,41.982994,54.686474,71.938365,63.254158,57.211324,66.603253,83.061035,75.676365,69.150828,-1.283083,364.30872,-43.509779,367.319362
12,-7.667484,3.794563,-0.033016,0.242803,-22.36433,-29.995251,-39.787102,-52.551556,-0.34544,15.831814,10.686665,0.505028,16.01881,43.055706,37.647343,24.701099,29.849224,53.652363,50.88541,41.906261,40.285091,56.484661,57.424793,53.763027,10.075691,31.015194,47.880096,60.573079,57.849083,82.975696,89.412559,93.509205,55.388885,77.572103,71.785842,65.965125,45.926992,67.598608,59.650898,55.193197,32.62725,49.341296,47.340521,48.338717,36.55695,70.133858,97.86541,121.300392,79.713707,111.55426,109.160385,98.949165,67.306709,101.53656,96.269875,85.546761,51.90731,85.360336,81.668129,72.48333,35.671291,63.913651,65.814514,60.262642,-16.320634,-14.370062,-2.322989,2.707262,19.911976,44.217371,38.230606,30.884283,39.833524,59.654974,49.616827,42.157439,54.576249,71.783001,63.132448,57.140867,66.443629,82.632425,75.251213,68.792738,-8.972025,368.063933,-43.564253,367.522814
13,-9.463062,1.83337,-0.484085,1.05303,-14.389,-10.71104,-13.329105,-22.110271,19.902191,49.449921,49.272766,43.822174,32.391586,64.742317,60.297203,50.257645,40.841446,69.043922,63.212242,54.663391,44.847107,63.512077,59.693756,53.839417,6.337815,21.959311,38.263272,50.384878,48.167853,64.493551,60.786673,56.285254,50.562781,69.326755,59.633114,52.827477,46.126508,66.589236,57.09369,53.227064,38.120629,56.349227,50.021847,48.395033,36.417046,70.232277,98.34938,121.701965,78.687401,112.378349,111.005516,101.095047,66.88385,103.018799,98.527679,87.876778,52.168579,86.854935,83.716278,74.650955,36.696167,65.449104,67.259789,61.54541,-17.075965,-15.431675,-3.56763,2.051287,17.655863,42.609019,37.240747,30.042934,37.880296,58.111892,48.535947,41.076251,53.04805,70.132413,61.47976,55.421674,65.182562,81.438543,73.867881,67.348519,-18.42948,369.801003,-44.04273,368.479544
14,37.471504,-7.415854,0.254917,0.008213,-0.741005,-13.635635,-32.427006,-45.469379,-20.356579,-42.814636,-57.945614,-72.07695,-29.257965,-62.036362,-81.021252,-95.965004,-38.765659,-70.210876,-89.311867,-104.468765,-46.448421,-70.202694,-83.182583,-92.045746,20.975689,42.286867,57.071954,64.670033,76.114916,107.249721,121.091693,131.804896,77.268414,110.188855,126.451938,137.791598,72.839366,99.532031,113.866895,126.44002,62.372733,83.388559,96.122359,107.187724,36.683407,70.595341,98.612537,121.912365,78.609982,112.177563,111.08923,101.288052,66.423168,102.259541,97.68259,86.979733,51.587162,85.953884,82.57616,73.430843,36.191654,65.223026,66.546879,60.333195,-16.891455,-15.166086,-3.022621,2.694664,17.378727,43.434993,38.534851,31.372914,37.711594,58.873522,49.428426,41.957799,53.080963,70.801726,62.194336,56.062643,65.592955,81.594339,73.830707,67.378283,19.025717,362.321592,-43.804121,368.4242
15,-10.437698,-4.377734,0.071068,0.029084,-28.715801,-47.177353,-61.990643,-79.097614,-42.799072,-64.444656,-80.882721,-95.007076,-25.849972,-38.688641,-52.774429,-64.630051,-7.170067,-11.293259,-27.697392,-41.255951,12.23362,7.18998,-5.966606,-18.170414,10.651452,31.784481,54.094102,63.841775,59.129045,87.283343,104.192273,119.464817,69.012507,97.604801,110.48464,120.242872,72.269903,101.632533,113.348933,122.003253,70.467532,97.979996,110.653466,120.811594,36.911716,70.836124,98.755703,121.927357,77.579784,112.162914,111.086254,101.121197,65.45763,102.328434,97.687283,86.687679,50.912876,85.902042,82.324963,72.869396,35.922718,65.24271,66.025486,59.298763,-16.865643,-15.202951,-3.168228,2.572028,17.202553,43.776287,38.433456,30.793263,37.421491,58.925454,49.185068,41.546789,52.877681,70.775667,61.689897,55.432357,65.560042,81.301704,73.137126,66.729595,8.560266,357.870916,-43.760805,368.380342
16,-9.890385,5.177772,-0.20319,-0.523705,-26.574268,-40.424137,-55.597973,-74.762707,-27.001133,-40.274277,-55.797043,-71.520767,-7.32233,0.229397,-10.78577,-23.86488,14.169559,29.209385,20.676327,8.913059,34.224529,44.433231,38.985729,29.839497,12.062264,34.801791,52.395595,61.076777,57.804067,91.647738,113.798105,133.533907,58.299243,85.077495,92.043003,97.049788,52.30371,76.459237,78.174293,78.618525,42.327499,57.863718,61.415231,62.874084,36.745148,70.646782,98.379822,121.354637,78.045731,112.152786,111.899872,102.51091,65.975418,102.158203,98.213196,87.805252,51.317596,85.765686,82.978134,74.05941,36.110172,64.917068,66.718025,60.858307,-16.569056,-14.702835,-2.570423,3.101167,18.337094,44.184458,39.003474,31.574653,38.525341,59.364932,49.584469,41.92748,53.690625,70.948815,62.158397,55.941365,65.784443,81.562538,73.896471,67.401933,-1.360617,363.013382,-43.994493,367.821331
17,-3.616333,2.538498,-0.017853,-0.403848,-21.827717,-31.695271,-42.958775,-57.246666,-15.676575,-23.724403,-40.993366,-57.920494,1.974163,15.933323,5.530987,-8.631477,19.411526,37.790623,31.710606,21.97237,34.611111,43.145428,39.902401,33.77203,5.44015,21.372188,35.862725,44.652032,53.226632,85.090153,100.879302,114.203373,58.067494,82.372209,80.758794,77.901726,54.029326,76.986338,72.461577,69.397645,44.429915,63.497208,65.906338,68.473488,37.012196,70.784683,98.479843,121.72657,78.810768,112.110214,110.650063,100.599747,66.386147,101.994781,97.321472,86.682816,51.217461,85.64518,82.509956,73.498535,35.472908,64.421425,66.344604,60.679665,-16.477665,-14.232482,-2.028563,3.037935,19.025549,44.260843,38.981615,31.599538,39.218489,59.916178,50.246742,42.707326,54.252739,71.739961,63.172524,57.131358,66.224538,82.487744,74.9897,68.455766,-5.010424,365.541984,-44.04582,367.407588
18,28.76833,-0.831778,-0.097733,0.151659,-33.788052,-55.41441,-72.150707,-84.611492,-56.729622,-81.28973,-95.045929,-106.316299,-46.825504,-77.287102,-95.465527,-109.012127,-35.955906,-62.138672,-79.860878,-93.77758,-22.068329,-39.535217,-53.476353,-65.371914,1.443848,18.358459,39.727128,49.457881,53.03465,79.723672,96.212946,108.585074,69.670582,99.310409,115.519274,127.760553,81.169867,108.040744,123.345892,136.367202,87.850335,111.03428,124.462587,135.669484,37.05574,70.710869,98.344574,121.552162,79.102592,112.121201,110.362701,100.137062,66.71917,102.04731,97.292404,86.576042,51.450348,85.680656,82.490501,73.439026,35.493221,64.08886,66.129799,60.523567,-16.517309,-14.471641,-2.439574,2.470016,19.458049,43.975185,37.907899,30.261345,39.559105,59.669238,49.541738,41.865606,54.461702,71.774356,62.935958,56.775058,66.286288,82.831817,75.298638,68.530422,23.750982,364.674329,-44.150476,367.52337
19,-5.152817,-3.48896,0.290108,-0.421817,-32.621956,-53.075237,-70.137463,-87.591133,-57.978745,-81.659603,-98.248329,-111.681461,-47.277431,-69.4594,-87.589417,-101.627941,-33.30328,-49.208794,-67.905178,-83.030434,-16.479607,-30.31105,-43.52211,-55.630016,1.337823,20.782286,46.141822,56.985318,50.060256,79.175452,95.982247,110.336377,65.70108,93.80925,110.348233,122.161396,76.231563,106.074919,120.398792,130.514868,82.410494,110.613698,125.006917,136.824649,36.988678,70.619202,98.284607,121.753922,78.983917,111.815872,109.799538,99.413223,66.542931,101.357231,96.347466,85.57045,51.205444,85.027885,81.60553,72.545013,35.076485,63.362846,65.185661,59.549561,-16.315015,-13.982455,-1.920006,2.79186,19.840716,44.440166,38.397332,30.601899,39.703971,60.193067,50.137568,42.397895,54.494553,72.270089,63.49801,57.351992,66.31599,83.148474,75.616961,68.862639,18.592787,361.070266,-43.865747,366.98645
20,-9.611435,-0.732175,-0.123482,0.153388,-28.819427,-45.947342,-60.65506,-77.842827,-47.14016,-68.238716,-85.053692,-100.241833,-33.828049,-46.902924,-65.25713,-80.335178,-17.599297,-25.276222,-43.269825,-58.881512,0.796394,-7.532387,-20.537796,-34.339428,5.51283,25.601165,49.678824,60.353124,49.195009,79.588192,96.891645,112.410326,62.335744,91.935125,107.67265,119.367251,69.530408,100.484037,114.419623,124.422511,71.394653,101.460805,116.401935,129.078059,36.882019,70.585327,98.376617,121.841354,79.120445,112.022781,110.637474,100.656624,66.728096,101.810417,97.108154,86.46389,51.306152,85.295906,82.033424,73.122139,35.039177,63.291092,65.276299,59.805794,-16.507367,-14.27546,-2.187508,2.694294,19.729689,44.201562,38.305386,30.691807,39.612334,60.213012,50.128552,42.335712,54.376116,72.366111,63.523699,57.330441,66.142348,83.321745,75.813389,69.056597,8.917551,360.267357,-44.05303,367.069103
21,-11.909409,4.766144,0.246849,-0.36229,-26.365871,-39.045753,-52.782269,-71.642246,-29.652042,-41.939678,-61.284542,-81.282806,-10.391693,-3.225117,-18.534851,-32.936954,11.061172,25.213394,10.978088,-3.614388,30.765724,39.54895,30.168571,18.300934,10.198019,32.100705,50.332761,58.025071,52.805494,85.240886,106.46018,124.863594,53.635543,82.363317,93.224906,101.976545,48.464317,75.308332,82.667685,87.00139,39.821729,61.419677,72.114972,80.206375,36.801453,70.498238,98.156776,121.653328,78.938828,111.910515,110.053596,99.815941,66.550598,101.575928,96.561127,85.585098,51.142731,85.048141,81.42952,72.207756,34.817448,63.100662,64.794846,59.048996,-16.312977,-13.950283,-1.759269,2.913199,20.526887,44.566384,38.066968,30.207067,40.427871,60.397831,49.965716,42.183374,55.157938,72.568405,63.36253,57.188415,66.853713,83.492609,75.629682,68.958352,-3.058119,365.001838,-43.872442,366.675151
22,2.721348,3.05788,0.041656,-0.312581,-23.97892,-37.870045,-53.45644,-71.317291,-25.926361,-40.28492,-58.430214,-75.703526,-5.750427,1.363964,-8.857327,-21.703377,15.534954,28.614635,25.248928,17.985592,34.655056,44.112682,46.644573,46.236591,10.897095,29.961609,45.848508,54.185184,52.411835,82.353252,100.001149,115.248684,51.784575,77.398831,81.252612,84.700323,44.347602,67.007348,65.690212,64.722398,32.047661,45.873208,47.265803,47.847492,36.621666,70.223808,97.814827,121.335754,79.189682,111.607933,109.926796,99.93885,67.015457,101.750793,96.866913,86.046066,51.664467,85.322227,81.917267,72.784309,35.288544,63.301506,65.543861,60.052757,-16.249868,-13.767378,-1.513811,3.156434,20.795748,44.829935,38.562083,30.792028,40.514569,60.496879,50.314853,42.498239,55.156271,72.579211,63.765513,57.601834,66.87582,83.95586,76.678389,70.047938,-0.38126,367.983765,-43.875275,366.286617
23,-4.206562,-2.666074,-0.468979,0.496103,-23.508053,-33.928299,-46.498489,-62.637062,-13.978329,-19.596977,-35.143318,-51.252594,5.445671,21.060448,11.298523,-3.3605,23.339539,41.141853,34.951057,24.043808,38.047943,48.839493,47.931747,43.109894,9.441329,28.089707,42.545725,52.47303,57.408308,91.27668,108.580442,123.040413,56.607838,83.150264,80.988629,77.999601,47.760609,70.94474,65.753753,62.723166,33.907645,50.410813,49.498821,48.769611,36.682091,70.676193,98.402824,121.979485,79.178467,112.187119,110.232468,100.054092,67.212753,102.635651,97.364388,86.303558,52.189522,86.373825,82.533989,73.154297,36.155949,64.618378,66.140213,60.055847,-16.492609,-14.338816,-2.261732,2.629641,19.5403,43.921463,37.637432,29.833724,39.332295,59.421248,49.270098,41.623297,54.222419,71.655363,62.580832,56.473098,66.326426,83.188241,75.475985,68.960267,-4.62141,365.279452,-44.377842,366.744481
24,-7.325249,2.385418,0.450153,-0.225327,-17.874699,-20.074081,-25.173855,-33.25367,8.272934,33.467445,31.631012,24.692917,21.790009,52.054939,46.455345,34.084854,32.133293,56.742325,51.473351,41.847267,38.402481,50.537109,48.92395,44.818726,3.95956,20.431729,34.387446,46.368446,50.264033,72.268977,74.738438,75.869582,52.681808,72.932856,66.827593,61.394915,47.85694,70.406338,64.268964,61.47729,39.713666,60.268279,60.536893,64.95143,37.065868,71.022549,98.865223,122.283039,78.731632,111.951084,109.482365,98.802166,66.633282,102.331181,97.147579,85.975742,51.61108,86.035023,82.25893,72.798672,35.741158,64.392872,65.93565,59.895229,-16.324833,-14.169867,-2.124955,2.842124,19.779089,44.076333,37.440263,29.650387,39.768068,59.845968,49.792877,42.346457,54.708519,72.115589,63.135412,57.136051,66.85007,83.347619,75.534524,68.940877,-11.986685,367.52425,-43.967714,366.378532
25,29.865761,-3.277527,0.301723,-0.191426,-13.417511,-24.207802,-34.180183,-38.925762,-34.0028,-54.066467,-67.347393,-79.119873,-33.594761,-64.659348,-82.865067,-97.000294,-32.509174,-61.117687,-80.278873,-95.882435,-28.63306,-50.761929,-65.602741,-77.321148,4.898104,21.626847,40.092072,50.984845,58.063295,86.375488,101.939556,114.02652,70.126732,100.450198,116.087008,128.951348,78.027882,105.112292,118.596112,131.332135,81.222355,103.460222,114.529045,125.288437,36.401596,70.081444,97.863464,121.324997,79.253082,111.333504,110.006447,100.38929,67.025414,101.255951,97.004585,86.610146,51.788979,84.963112,82.59304,74.022217,35.637817,63.418007,66.794357,62.178726,-16.381952,-13.807763,-1.714871,3.015581,20.242773,44.627331,39.134324,31.904215,40.146845,60.547823,50.945572,43.215285,54.76218,72.627562,64.657189,58.299675,66.281842,83.873362,77.426372,70.577572,17.858591,364.18647,-43.686476,366.126853
26,-8.475838,-3.448143,0.134354,0.034148,-28.78006,-47.329903,-63.897285,-79.774189,-44.507275,-65.518341,-82.443695,-96.46019,-31.731491,-50.003757,-67.999306,-82.204514,-16.280308,-29.337387,-49.473782,-65.322361,1.490364,-9.600677,-24.392567,-37.725506,7.215103,27.414713,49.767683,59.110582,53.367855,81.376916,98.275534,113.122556,65.927457,94.005184,108.960146,120.240711,73.788902,103.849373,117.346469,126.708202,76.868889,104.733207,116.9701,125.856046,36.199265,70.069084,97.93602,121.579514,79.157867,111.217461,108.946495,98.765831,67.07737,101.221619,95.993042,85.134201,51.941643,85.212593,81.888084,72.751808,35.79174,63.883553,66.131172,60.529404,-16.872127,-14.485412,-2.352011,2.331572,20.041714,44.610659,38.422527,30.618571,39.957148,60.087844,50.042966,42.258956,54.675235,72.238658,63.698699,57.309261,66.371504,83.26407,76.131774,69.275194,9.357462,360.654038,-43.577414,366.076712
27,-11.587658,5.315043,0.35305,-0.060083,-24.217415,-38.556232,-51.986446,-70.685635,-34.378223,-53.229218,-70.142899,-86.935272,-15.853672,-20.282192,-36.93655,-51.426201,3.4865,6.795559,-11.488838,-28.047123,21.732616,21.76569,10.298824,-2.654686,6.275262,26.772076,46.417229,54.61509,45.570507,74.113338,91.483174,107.198653,54.50431,82.087293,95.644102,104.786559,58.073484,85.878521,98.909834,107.081636,55.853248,82.281065,96.378191,107.78343,36.295166,69.847755,97.466125,120.884171,79.256401,110.981369,109.111176,99.236069,66.918182,100.603638,96.083908,85.644608,51.676483,84.331741,81.672249,72.969131,35.588665,63.102036,65.973244,61.024475,-16.475751,-13.737182,-1.688627,2.47755,20.378377,44.679511,39.072882,31.792632,40.354759,60.791428,51.158487,43.24863,54.976577,72.832079,64.806255,58.246076,66.396575,83.650875,77.005666,70.074491,-2.243128,365.929144,-43.237295,365.976692
28,19.722576,-3.913618,-0.224533,0.077991,-28.652515,-46.349545,-61.250267,-69.841576,-43.947773,-61.697674,-74.305172,-86.078682,-36.019077,-62.833271,-80.790024,-95.101662,-28.29237,-52.66674,-72.189159,-87.866535,-18.475399,-37.055798,-52.908268,-65.931873,4.191309,21.756214,42.0072,52.192868,55.784211,83.924738,100.40969,113.268595,70.251715,99.444098,114.502677,127.352135,80.34976,106.92689,120.809556,133.838769,85.359138,108.540243,120.266399,130.495478,36.469173,69.820862,97.427216,121.151161,79.387093,110.979767,108.726997,98.568077,67.27066,100.824394,96.048088,85.466194,52.138481,84.837685,81.959038,73.027611,36.099987,63.556709,66.597176,61.595993,-16.791357,-14.235446,-2.078766,2.349294,20.605248,44.376316,37.815088,30.011935,40.291218,59.904692,49.684628,41.813489,54.672086,71.968191,63.473125,56.984392,66.009091,83.075361,76.441267,69.603274,17.438164,361.997603,-43.503113,366.036759
29,-8.315506,-0.536302,0.432644,-0.155488,-28.226566,-46.867046,-62.61446,-78.511562,-47.548485,-69.506264,-86.331425,-100.847225,-35.504322,-52.438774,-70.181293,-84.819374,-20.467701,-33.380928,-53.080788,-68.001709,-2.699547,-15.600243,-29.313297,-41.471615,4.501173,23.394329,47.396652,58.259229,47.169596,74.898989,92.094009,107.008833,62.398297,90.536787,105.642481,116.395883,72.463923,102.488703,117.204011,127.688552,77.851153,107.421634,121.191606,132.290686,36.197033,69.42667,97.028675,120.429554,78.890591,110.728855,108.522091,98.209591,66.609249,100.451488,95.948353,85.400677,51.43095,84.38158,81.963902,73.281727,35.537338,63.054714,66.526966,61.948414,-16.67187,-14.057358,-1.926489,2.358001,20.541275,44.357544,37.939083,30.296419,40.397305,60.117422,49.958615,42.127984,54.774097,72.171041,63.793548,57.349398,65.901707,83.196207,76.766754,69.988473,9.112129,361.456052,-43.080997,365.876023
30,-10.049286,1.888575,-0.405006,-0.322152,-25.787487,-39.972095,-53.68412,-70.834579,-35.927525,-54.865665,-71.940594,-88.482971,-17.667675,-22.952785,-40.928993,-56.488152,2.287216,5.199623,-12.028084,-27.915001,21.949081,21.738853,10.740395,-2.343693,7.66088,27.576561,46.97008,56.200285,48.933188,76.605647,95.28811,112.386861,56.711084,84.401698,100.201591,111.356864,58.298255,86.696035,100.572649,109.183682,54.641272,80.703342,95.56537,106.979069,36.248875,69.558163,97.164059,120.819225,78.59911,111.190853,109.75359,99.981594,66.647472,101.081486,96.48531,85.996571,51.758251,85.091457,82.327366,73.484287,35.92804,63.824558,66.511288,61.280193,-16.527251,-13.931449,-1.784649,2.908012,20.269943,44.160375,38.429319,31.069349,40.029025,59.695976,49.769288,42.080745,54.591007,71.706801,63.306028,57.107337,66.089181,82.95785,76.137332,69.535904,-1.002817,363.352809,-43.551664,365.562053
31,-1.433029,4.065585,-0.930862,-0.159872,-26.246338,-39.255238,-53.163414,-70.436268,-25.917549,-42.448654,-60.676289,-76.789513,-7.418346,-7.444553,-19.48288,-30.147972,13.061371,23.383827,18.046303,11.171722,31.989899,41.408386,43.516388,43.815651,10.906173,30.556389,46.987679,56.496749,46.718077,75.850686,94.743595,111.213295,45.994856,71.860189,83.611849,92.927824,39.222133,63.139488,69.49731,74.2926,28.723883,41.884131,49.334998,55.4381,36.690159,70.196056,97.556705,121.014805,79.25909,112.119427,109.674282,99.274807,67.160511,102.106876,96.846828,86.095104,52.209721,86.189175,82.611065,73.37328,36.4678,65.276127,67.035542,60.947971,-16.540465,-13.940279,-1.805459,2.819215,19.12614,43.933504,37.357208,29.51256,38.964695,59.131021,48.897496,41.359994,53.766392,70.882125,61.989695,55.828239,65.635563,81.86073,74.339715,67.903779,-2.456102,367.416557,-44.502783,365.400344
32,-2.527485,-2.638225,-0.790043,0.609106,-23.36586,-34.800797,-49.175205,-66.618748,-19.750099,-31.1479,-49.054527,-66.560669,-0.225048,9.831562,0.689278,-11.708794,19.813786,35.187778,30.594692,21.353931,37.356548,49.774761,54.560452,55.44199,14.956876,37.184678,54.645348,65.029791,56.775861,85.988684,103.806889,118.706769,52.118212,78.161695,81.887777,84.820366,41.044017,63.806948,64.660956,66.055959,25.915228,40.217982,43.927514,46.773714,36.168709,69.80793,97.114105,120.303154,79.030838,113.83461,112.4897,102.601204,67.153816,104.296417,100.365601,90.056992,52.556076,87.904358,85.580063,76.797638,37.350597,66.770782,68.878899,62.796822,-18.097502,-15.756853,-3.142417,2.322062,17.290177,41.834175,35.483701,28.003318,37.898698,57.795298,47.474519,39.868412,53.124373,69.828601,60.597532,54.311896,64.964583,80.439174,72.673504,66.340629,-5.072222,364.779814,-45.38146,366.010932
33,-8.814583,0.336972,-0.47699,-2.00059,-3.353977,3.432598,5.943604,3.418751,22.32542,46.55611,43.770161,36.680202,22.332973,51.246014,45.401516,33.338413,21.919956,41.199017,32.560673,19.683208,20.311604,19.992886,11.790276,2.120991,-8.269492,-0.254535,11.36152,23.623732,35.100231,58.175619,64.822742,68.700977,50.80299,71.411696,71.251701,68.469474,57.420967,85.253854,88.931461,91.755863,57.922566,86.270451,97.173474,108.282188,35.83849,69.19899,96.099472,118.974495,78.601112,113.459244,115.967216,108.663254,66.340714,103.915443,104.751091,97.349625,51.713333,87.580948,89.418869,83.260803,36.639633,66.589508,71.943626,68.355446,-18.435462,-15.243645,-2.760923,2.893501,15.803598,43.852426,42.767903,37.314168,36.558035,61.237204,55.052345,47.621918,52.042815,73.029186,66.36008,59.787675,63.571802,81.750938,76.313259,69.920362,-13.85479,365.145716,-45.826435,364.039272
34,26.294918,-6.71579,1.01572,-6.215735,-27.799473,-45.226364,-61.218109,-73.084373,-34.782028,-54.178505,-66.724377,-77.880592,-27.64492,-55.994453,-74.147987,-88.541508,-20.98629,-46.724224,-66.662865,-82.472763,-12.417183,-30.98053,-45.205021,-56.308937,8.327969,26.230711,45.993189,56.049182,61.626849,91.596053,107.439542,119.874222,72.903092,103.96182,119.71682,132.021393,79.564356,107.819863,121.690487,133.690198,81.760139,104.294408,116.043412,126.637189,35.202084,67.763615,92.876759,114.554958,76.203747,109.201641,113.921185,108.055058,62.480793,99.165745,106.190586,102.721539,46.589985,82.203655,90.609226,89.539433,30.715256,59.648037,69.950695,71.351223,-16.269875,-10.166341,3.263942,9.318569,20.907578,50.414148,54.011171,51.061848,41.2205,70.799256,70.878543,65.621669,55.779332,81.748962,80.923915,75.422818,64.972054,86.668309,85.395447,79.7183,12.323027,358.433555,-44.927816,357.827166
35,-24.639015,-10.956314,-0.735455,-7.161813,-23.847542,-34.961929,-44.782906,-59.881897,-21.331158,-38.373756,-54.234009,-68.150082,-4.340172,-7.228889,-18.702278,-29.026165,14.577141,24.647713,15.242271,5.158539,32.357826,41.939507,38.135033,30.266418,16.623952,38.567825,60.091919,69.963217,62.01668,93.80289,111.616834,127.507561,63.675913,98.726497,115.445544,126.376355,58.687345,92.984635,109.736842,122.781679,50.448666,77.153126,92.752762,106.459872,34.712448,65.456085,88.778915,109.512634,74.977112,107.92408,111.222038,104.742851,60.79937,97.569008,101.651344,96.870117,44.005737,78.219452,82.485695,78.622284,26.977787,55.034294,63.50647,62.298431,-14.703576,-7.630066,5.801328,12.179404,20.068822,54.673259,60.291312,56.905783,40.38761,76.448554,77.23865,70.918496,56.245795,87.866699,84.565954,76.767062,67.657456,94.529445,92.802595,85.462817,-12.636595,347.495364,-45.983877,350.683477
36,-3.222542,6.23815,-0.580273,-17.777141,-17.151775,-24.025326,-38.151913,-55.273933,-6.540813,-17.920761,-33.39426,-49.295483,8.734245,8.34589,2.989998,-1.41283,23.818703,27.800102,23.896065,19.476013,37.765045,46.872826,55.669212,62.44091,28.142874,55.118047,75.3594,86.716474,62.34476,92.999331,113.441126,131.502504,46.477559,71.675247,85.446947,98.662215,26.85865,50.031604,69.436486,88.555463,5.748963,18.288373,28.669234,39.664451,34.357853,62.97163,84.398289,103.261471,67.904034,102.105389,106.492825,100.832005,53.712215,89.615192,95.615673,90.997066,37.426357,69.413738,78.040638,76.872082,20.889244,46.31052,57.60767,59.831371,-9.365129,2.328299,17.229476,25.452161,24.044931,60.930243,69.766789,69.323853,42.039866,82.293848,86.887029,83.281422,57.265418,94.421258,98.690435,96.109206,68.490284,98.78553,103.058597,100.705289,-16.151047,353.860257,-46.85606,333.033078
37,56.171265,44.206008,12.60458,-10.438598,-36.609535,-65.390911,-90.94099,-108.099632,-72.88147,-107.56382,-122.024345,-132.735958,-60.396938,-96.726894,-113.338051,-124.852467,-45.40266,-76.910877,-92.416878,-104.512024,-29.152451,-52.638702,-65.568352,-78.942833,-3.569853,-1.897652,6.107919,13.471223,14.072178,40.010377,54.701479,64.684298,29.936291,59.954154,75.502537,85.428731,42.7445,71.276772,86.695355,97.058001,51.802976,76.054463,88.388737,98.554831,-6.421452,-0.15604,4.153175,6.911602,13.816166,46.698303,48.523407,40.189934,30.500736,64.425888,63.737297,52.397118,44.226837,75.606537,73.833504,63.85849,53.402252,81.614342,83.374901,77.073555,36.542474,69.693738,92.572142,100.248953,59.93143,84.805175,86.047408,82.590312,40.586632,69.97427,71.610347,67.986092,21.726327,52.13649,53.696244,49.874017,5.784655,26.252447,33.793777,36.697405,39.676323,398.129714,-34.595375,322.657929
38,-2.711449,-13.168584,-23.843565,-43.474112,-34.892006,-61.594219,-82.477455,-102.313499,-66.56765,-97.870617,-114.342442,-126.382713,-54.594841,-86.749992,-104.687004,-118.789387,-39.981422,-67.811909,-84.316063,-97.813282,-24.476051,-46.250496,-59.135399,-72.084675,-6.604948,2.821129,19.46231,27.751191,29.465691,52.936343,65.891518,76.385939,45.420392,71.211625,86.075443,97.314759,57.387004,83.779192,99.312694,110.23134,65.027012,88.884469,101.815438,110.985003,14.781189,34.374333,47.620726,54.343872,50.649262,85.230417,86.492872,78.065157,55.839787,85.139895,80.344534,69.681158,56.491442,81.531401,76.435147,66.7097,53.343115,75.459738,73.299008,66.022082,10.148897,29.83147,50.179836,61.312448,31.605992,55.920278,61.645004,60.127395,33.459122,59.135746,59.711043,54.333848,34.260796,57.816664,57.254828,51.278438,34.921248,50.817625,52.240942,50.04803,36.932373,385.08355,-58.471441,279.306237
39,1.245575,2.70615,-23.843565,-43.474111,-34.800339,-61.958656,-83.357048,-101.488438,-67.243767,-99.359436,-115.970364,-128.059387,-54.939823,-88.247108,-106.912994,-120.812244,-40.073261,-69.001408,-86.472816,-99.968376,-24.632492,-47.155552,-59.838238,-72.03598,-11.292854,-2.677992,14.200001,24.859975,25.146065,49.282325,62.977763,74.571588,41.942794,67.805843,82.676206,94.477019,54.609039,81.019011,96.637419,108.403219,62.451588,85.937369,98.024457,107.913476,35.983829,68.904705,91.088276,101.776142,87.482357,123.762531,124.462337,115.94038,81.178837,105.853901,96.951771,86.965199,68.756046,87.456264,79.036789,69.560909,53.283978,69.305134,63.223114,54.970608,-16.244681,-10.030799,7.78753,22.375941,3.280552,27.03538,37.2426,37.664479,26.331611,48.29722,47.811738,40.681604,46.795265,63.496837,60.813411,52.682858,64.05784,75.382803,70.688105,63.398654,38.270788,388.251161,-82.222166,236.293586
40,0.397224,0.039273,-14.857864,-44.985916,-34.866943,-61.839294,-83.317966,-101.947346,-66.262093,-98.663807,-115.737019,-128.168678,-54.034367,-87.802792,-106.769943,-121.035461,-39.240875,-68.744946,-85.807858,-98.529339,-24.028816,-47.479534,-60.470638,-72.389317,-11.64057,-2.892266,14.219206,25.32724,25.249126,49.107509,62.710569,74.557262,42.191216,67.859504,82.422844,94.089658,54.750138,81.131396,96.272103,107.950032,62.204092,86.268784,98.056628,107.31178,34.392185,69.952755,98.902988,116.525402,74.112797,117.790089,129.482288,127.957592,71.133041,108.749142,101.449871,90.435848,64.824829,96.914349,88.799686,76.851025,56.587486,82.771397,76.06144,66.275597,-26.510502,-29.208809,-15.220489,-2.140702,-24.42377,-10.396979,0.166973,6.865596,0.281891,16.316805,16.719418,13.819742,24.73808,36.504744,33.738943,29.769194,47.042328,53.05546,48.151119,45.354381,39.358234,388.853413,-96.389809,191.870649
41,-0.867691,0.529695,-16.013203,-42.784082,-34.710732,-61.665916,-83.183899,-100.61554,-66.454353,-98.839302,-115.470715,-127.391567,-53.898869,-88.03854,-106.6115,-120.333881,-38.986816,-69.159737,-86.237411,-99.036255,-23.949394,-47.779255,-60.578041,-72.248268,-11.977913,-3.475622,13.763673,24.979894,23.892593,48.184526,61.677485,73.11786,40.824062,66.867977,81.33789,92.731458,53.705568,80.136659,94.611511,105.500517,61.848904,85.538647,96.651498,105.460009,28.189774,69.252605,108.247776,128.139496,55.979691,113.386459,123.815804,120.740547,54.569378,108.259048,101.273746,88.3148,54.806957,101.767502,91.868877,76.778126,55.263748,90.924454,81.120586,68.02145,-36.096759,-52.23807,-45.786881,-31.964607,-51.094174,-46.310462,-38.340584,-34.54318,-25.242086,-21.490811,-17.594854,-18.28442,0.010806,1.511774,1.400993,2.436177,23.116081,20.254814,17.923181,18.542228,39.802637,392.765888,-111.090918,152.469347
42,-1.473656,-0.221313,1.892681,-52.802407,-34.024887,-60.399513,-81.494408,-98.890171,-65.625229,-97.735748,-114.15905,-126.067944,-53.093262,-87.118607,-105.680809,-119.287663,-38.006573,-67.676239,-84.53207,-97.208805,-22.673492,-45.99535,-58.669796,-70.590706,-11.637668,-3.541571,12.852175,23.609838,23.451324,48.077945,61.792279,73.29848,40.03273,66.696002,81.480595,93.016622,52.834394,79.818644,94.959907,106.455858,61.053188,85.354198,96.993842,106.171003,24.29821,56.337719,86.226711,105.663986,43.870296,92.486629,106.448708,106.172962,41.593723,90.403233,86.906719,76.016922,40.490055,85.934258,77.147827,64.933834,40.96796,76.445103,69.129639,57.770405,-38.569431,-60.470542,-66.098042,-63.867278,-59.749977,-69.274484,-62.309222,-56.569151,-37.608934,-43.367592,-35.640177,-33.249756,-14.957,-20.537909,-13.6281,-9.599472,7.332367,1.521314,3.80503,6.307743,38.837671,394.003212,-108.689547,101.125578
43,-0.386467,0.147522,-0.816765,-45.13282,-33.84407,-60.302696,-81.418762,-98.771496,-65.268917,-97.340355,-113.984699,-126.100044,-52.743874,-86.902199,-105.71846,-119.370575,-37.819519,-67.635727,-84.752026,-97.709999,-22.821007,-46.136742,-58.646164,-70.329952,-12.30167,-4.267941,12.292408,22.87933,22.469925,47.050973,60.753946,72.001536,39.289317,65.402455,79.824202,91.030049,52.355951,78.820758,93.895515,105.311993,60.836382,84.974186,96.655141,106.066707,17.823486,44.660454,71.350822,89.407368,28.564281,68.171597,88.583908,95.721474,29.877262,78.702049,80.379066,70.669899,33.156509,80.540485,73.815994,60.292683,37.64185,72.707634,66.149139,54.017601,-37.541842,-61.931588,-69.100317,-67.100993,-67.365346,-88.565992,-88.407633,-83.803707,-49.384738,-63.080794,-54.716453,-48.702612,-28.317226,-34.806145,-26.894373,-22.931232,-6.617267,-12.830254,-9.634021,-7.297756,38.437757,396.060535,-109.519758,57.902559
44,-0.036507,0.009695,132.301884,-225.181337,-33.754692,-60.157471,-80.980282,-98.912315,-65.491562,-97.091103,-113.653049,-125.680561,-53.012295,-86.64957,-105.369759,-118.847122,-37.954388,-67.420864,-84.511299,-97.40633,-22.503433,-45.668736,-58.403091,-70.304375,-12.419613,-4.617264,11.952101,22.226011,22.443434,46.406484,59.962244,71.355318,39.127408,64.527019,78.881397,90.32628,52.050904,77.871777,93.032183,104.782916,60.505585,84.119005,95.848681,105.382821,-20.704765,-32.935181,-39.082947,-42.001362,-34.765434,-37.031136,-36.216602,-37.657356,-22.138481,-18.315353,-22.93602,-26.783524,-8.996658,-4.256287,-9.926376,-12.593422,1.279564,2.798538,-1.085358,-3.815002,40.970966,79.824541,113.397376,128.6371,90.860637,131.45897,129.361926,123.457599,63.465375,97.615761,89.990357,83.693637,32.42193,59.329271,52.224299,44.208509,2.146753,24.892023,17.116473,7.161936,37.747736,397.089637,22.128611,-166.259372
45,-0.251541,-0.565696,-15.856279,12.330034,-33.637276,-59.749718,-80.48933,-97.928352,-64.896698,-96.734962,-113.644524,-126.124134,-52.661133,-86.345615,-105.342007,-119.176311,-37.79892,-67.249947,-84.848785,-98.309784,-22.436829,-45.482197,-58.316574,-70.440445,-11.875901,-3.972095,12.134697,21.97691,22.015998,45.919891,59.63898,70.90417,38.739244,64.276127,79.084988,90.596438,51.915918,77.66022,92.76857,104.046851,60.607906,84.268255,96.195718,105.540902,-18.026828,-27.404327,-30.777416,-31.881567,-28.210729,-26.577892,-26.157633,-28.074429,-16.244265,-8.949394,-13.662236,-18.054561,-3.707091,4.264228,-1.948452,-5.66946,6.335354,10.800356,6.362095,2.797547,32.578104,64.558635,93.463269,107.63741,73.252596,107.861331,107.246554,102.881799,50.587426,79.523453,73.778798,69.211824,24.937897,47.77442,42.556898,36.274806,0.015856,19.463932,13.107914,4.493121,36.951857,398.485551,5.727993,-151.967728
46,-0.483513,0.144619,-15.856278,12.330034,-33.264198,-59.577026,-80.474911,-97.752113,-65.211067,-97.226143,-113.887367,-125.866241,-52.732143,-86.798573,-105.467949,-118.913269,-37.439518,-67.124634,-84.377747,-97.546921,-21.750984,-45.15501,-57.843018,-69.715576,-12.082333,-4.266274,11.693737,21.600294,21.210587,45.552847,59.313926,70.381576,37.611558,63.379697,78.186334,89.56428,50.749391,76.815351,92.340455,103.855054,59.608722,83.49761,95.449835,104.820522,-15.348893,-21.873474,-22.471886,-21.761774,-21.656024,-16.124649,-16.098665,-18.491504,-10.35005,0.416565,-4.388453,-9.3256,1.582476,12.784741,6.029472,1.254501,11.391144,18.802172,13.809547,9.410095,24.185242,49.292729,73.529162,86.637722,55.644555,84.263693,85.131183,82.305999,37.709477,61.431145,57.56724,54.730011,17.453864,36.21957,32.889497,28.341103,-2.115041,14.035841,9.099355,1.824306,35.711517,399.369462,-10.885111,-138.898402
47,-0.150604,-0.616269,-15.856279,12.330034,-32.944336,-58.765469,-79.337254,-96.940098,-64.663639,-96.281548,-112.97699,-125.009308,-52.382526,-86.043491,-104.858265,-118.39777,-37.07531,-66.447659,-83.717365,-96.797047,-21.095123,-44.219055,-57.038956,-69.053936,-11.594196,-3.753808,11.757649,21.049419,22.057865,45.811766,59.396301,70.695885,38.288837,63.454044,78.007937,89.423427,51.093526,76.727172,92.209111,104.052655,59.66121,83.192625,95.087236,104.379253,-12.670956,-16.342621,-14.166355,-11.641979,-15.101318,-5.671406,-6.039696,-8.908577,-4.455833,9.782524,4.88533,-0.596638,6.872044,21.305256,14.007397,8.178463,16.446934,26.803989,21.257,16.022644,15.79238,34.026823,53.595056,65.638033,38.036514,60.666054,63.015812,61.730199,24.831528,43.338837,41.355681,40.248198,9.96983,24.66472,23.222097,20.4074,-4.245938,8.60775,5.090797,-0.844509,33.749371,399.594511,-28.552933,-125.72705
48,0.351677,0.488014,-15.856279,12.330034,-33.137398,-59.284573,-79.982128,-97.005215,-64.285126,-96.206703,-113.10339,-125.286427,-51.627789,-85.830173,-104.899406,-118.612061,-36.296539,-66.029892,-83.030434,-95.80759,-20.758781,-44.154282,-56.8713,-68.591995,-12.433445,-4.835798,11.141009,21.115924,21.494639,45.431507,58.974854,70.170081,37.887583,62.866304,77.076,88.176624,50.85554,76.552047,91.773586,103.3508,59.410936,82.981562,94.451639,103.339129,-9.993019,-10.811767,-5.860824,-1.522185,-8.546613,4.781838,4.019273,0.67435,1.438383,19.148484,14.159114,8.132324,12.161611,29.82577,21.985321,15.102425,21.502724,34.805807,28.704453,22.635193,7.399518,18.760918,33.660949,44.638344,20.428474,37.068416,40.90044,41.154399,11.95358,25.246529,25.144123,25.766385,2.485797,13.10987,13.554696,12.473696,-6.376835,3.179659,1.082238,-3.513324,32.542419,400.476878,-45.96784,-113.002662
49,1.308403,0.215818,-15.856279,12.330034,-33.183975,-59.315472,-80.415001,-98.519039,-62.756252,-96.028976,-113.729439,-126.767979,-49.777508,-85.441074,-105.540333,-119.823647,-34.549713,-65.804157,-83.912029,-97.256584,-19.571915,-44.149017,-57.971249,-70.386028,-12.770911,-5.485474,10.475587,20.605186,20.085124,44.081581,57.569847,68.788786,36.73285,62.799613,77.158128,88.04596,49.71501,76.432313,91.588273,102.851795,58.341913,82.654161,93.999626,102.496977,-7.315082,-5.280914,2.444706,8.59761,-1.991907,15.235081,14.078242,10.257276,7.332599,28.514443,23.432897,16.861287,17.451179,38.346285,29.963246,22.026387,26.558514,42.807624,36.151906,29.247742,-0.993344,3.495012,13.726842,23.638655,2.820433,13.470777,18.785069,20.578599,-0.924369,7.154221,8.932564,11.284572,-4.998236,1.55502,3.887295,4.539993,-8.507732,-2.248432,-2.926321,-6.182139,31.905298,400.997295,-63.769643,-100.368029
50,0.71743,0.33055,-15.856278,12.330034,-33.016663,-58.921051,-80.126209,-98.027515,-62.581272,-95.991955,-113.637714,-126.619377,-49.641209,-85.491428,-105.640125,-120.12989,-34.231453,-65.8461,-83.977547,-97.325478,-18.957939,-44.02319,-57.894573,-70.181694,-12.514091,-5.189381,10.242417,20.56721,19.924511,44.449367,58.070026,69.409377,36.467941,62.601888,77.131205,88.111045,49.422313,76.07058,91.451866,102.790353,58.178151,82.534119,94.014076,102.549835,-4.637146,0.249939,10.750236,18.717403,4.562797,25.688324,24.137211,19.840202,13.226814,37.880401,32.70668,25.590248,22.740745,46.866798,37.941169,28.950348,31.614303,50.80944,43.599357,35.86029,-9.386206,-11.770894,-6.207264,2.638966,-14.787608,-10.126862,-3.330302,0.0028,-13.802318,-10.938087,-7.278994,-3.197241,-12.482269,-9.999831,-5.780106,-3.39371,-10.638628,-7.676523,-6.93488,-8.850954,29.739447,401.389997,-82.509203,-87.975843
51,0.659294,-0.727049,-15.856279,12.330034,-32.848206,-58.368645,-79.086571,-96.952515,-62.935982,-95.507126,-112.780323,-125.577049,-50.28162,-84.937134,-104.676361,-119.188557,-34.957123,-65.208836,-82.847328,-96.180782,-19.431953,-43.661957,-57.06934,-69.282475,-12.011875,-4.31586,11.098463,20.505398,21.580163,45.041677,58.423238,69.89276,37.919816,62.863895,77.34869,88.701503,50.694742,76.336909,91.697448,103.308131,59.30491,82.996876,94.552107,103.406005,-1.959209,5.780792,19.055767,28.837198,11.117503,36.141567,34.19618,29.423129,19.12103,47.246361,41.980464,34.31921,28.030313,55.387313,45.919094,35.87431,36.670094,58.811258,51.04681,42.472839,-17.779069,-27.0368,-26.141371,-18.360723,-32.395648,-33.7245,-25.445674,-20.573,-26.680267,-29.030395,-23.490553,-17.679053,-19.966302,-21.554681,-15.447507,-11.327413,-12.769525,-13.104614,-10.943439,-11.519769,28.920536,401.142316,-99.843686,-75.166441
52,1.955566,1.210123,-15.856279,12.330034,-32.909431,-59.211731,-80.355721,-98.453293,-62.510777,-95.997734,-113.601837,-126.394787,-49.721146,-85.426025,-105.381947,-119.68626,-34.487915,-65.621681,-83.509483,-96.779995,-19.42852,-44.137688,-57.723713,-69.686165,-13.356738,-5.770391,10.683995,21.062695,20.355159,43.988709,57.56219,69.301932,37.162262,62.451526,77.117805,88.604122,50.109904,76.10374,91.556224,103.343143,58.539452,81.976821,93.389965,102.310985,0.718727,11.311646,27.361298,38.956992,17.672208,46.594811,44.255149,39.006055,25.015246,56.61232,51.254247,43.048172,33.31988,63.907827,53.897019,42.798271,41.725884,66.813075,58.494263,49.085388,-26.171931,-42.302706,-46.075478,-39.360412,-50.003689,-57.322139,-47.561045,-41.1488,-39.558216,-47.122703,-39.702111,-32.160866,-27.450336,-33.109531,-25.114908,-19.261116,-14.900422,-18.532705,-14.951997,-14.188584,29.849854,402.942588,-116.726214,-62.246258
53,1.855087,0.01871,-15.856278,12.330034,-32.820282,-58.939648,-79.976063,-98.12891,-62.637863,-96.126366,-113.838673,-126.771755,-49.878502,-85.703831,-105.777969,-120.46011,-34.828377,-66.040878,-84.000549,-97.449532,-19.964561,-45.017796,-58.680782,-70.790462,-13.315859,-5.975402,10.213889,20.352751,20.320393,44.062686,57.626534,69.277911,37.163683,61.834146,76.265402,87.851941,50.213583,75.579046,90.976758,102.897676,58.792691,81.999545,93.383049,102.356124,3.396664,16.842499,35.666828,49.076786,24.226913,57.048054,54.314117,48.588982,30.909462,65.978279,60.52803,51.777134,38.609447,72.428341,61.874943,49.722233,46.781673,74.814892,65.941715,55.697937,-34.564793,-57.568612,-66.009585,-60.360101,-67.61173,-80.919778,-69.676417,-61.7246,-52.436165,-65.215011,-55.91367,-46.64268,-34.934369,-44.664382,-34.782309,-27.19482,-17.031319,-23.960796,-18.960557,-16.857399,30.77033,403.882136,-133.517103,-48.995386
54,1.65184,0.593977,-16.615162,-3.154952,-32.789726,-59.22924,-80.696182,-99.028988,-61.971703,-95.558968,-113.639946,-126.961956,-49.285927,-85.491829,-106.223431,-121.358929,-34.447632,-66.248875,-84.728165,-98.556805,-19.921532,-45.049438,-58.922424,-71.221848,-13.518338,-6.422784,9.5786,20.160892,19.700604,43.718859,57.439492,69.035108,36.723279,61.899971,76.323941,87.527195,49.889393,75.616529,90.852084,102.501547,58.577367,82.164419,93.402623,102.013039,2.902851,14.996681,29.620514,35.057602,24.956589,63.441811,57.726574,47.241955,31.742535,73.034592,62.916183,51.915722,39.046841,77.412872,66.200809,54.587631,47.306843,79.36203,70.320396,58.428898,-32.376173,-60.245647,-80.645328,-96.785126,-67.468284,-79.491583,-67.588913,-61.080605,-51.399345,-57.045586,-47.380041,-45.117939,-32.579826,-37.727557,-28.837597,-26.709338,-13.320614,-19.333622,-14.134083,-11.761169,31.20635,404.574682,-151.348085,-52.051769
55,0.38475,1.139666,-13.118534,-7.387881,-32.727356,-59.230042,-81.126251,-98.423767,-62.626534,-96.660519,-114.040775,-126.444798,-49.908485,-86.578617,-106.527786,-120.641098,-34.975662,-67.115536,-85.152225,-98.489571,-20.418205,-46.252613,-60.062771,-72.005997,-14.372964,-7.590731,7.925912,19.059203,18.2604,42.263217,56.013552,67.669868,35.204651,60.754687,75.42924,86.763837,48.597451,74.801794,90.086565,101.306244,57.636908,81.38093,92.431598,100.60408,3.100605,15.631599,28.355141,33.626518,28.508549,68.815384,59.019299,46.942692,35.343418,77.479763,65.169296,53.82391,42.858467,81.173515,69.205685,57.821274,50.598106,82.844753,73.586311,62.559986,-35.836728,-64.226696,-85.459205,-103.763725,-67.443769,-77.30815,-66.689426,-61.446569,-50.048431,-54.012097,-46.033234,-43.718767,-31.03622,-35.849109,-29.11041,-26.719372,-12.324085,-19.457092,-14.970832,-11.370536,31.43898,406.744314,-164.61874,-58.409684
56,-0.961647,-1.688565,-8.029003,-13.162656,-32.393875,-58.649483,-80.195332,-97.92532,-62.423744,-96.035271,-113.790264,-126.444283,-49.658947,-85.956745,-106.137199,-120.344238,-34.668159,-66.542072,-84.80547,-98.234425,-20.03334,-45.341091,-59.055462,-71.076107,-14.013947,-6.658794,9.103801,19.905492,20.115444,43.578501,57.185019,68.752538,36.940517,62.317157,76.819736,88.037192,50.08613,76.06601,91.271308,102.6918,58.715256,82.359921,93.599792,102.197673,4.276085,17.361374,30.33165,34.980755,26.6922,73.635464,62.152519,48.363819,32.957439,79.24324,65.671692,53.334503,40.353928,80.833626,67.905178,55.945587,48.483753,81.592255,71.526031,59.833145,-38.870588,-69.030878,-90.846465,-108.483541,-68.549472,-76.18031,-65.673663,-62.141508,-48.114408,-53.905763,-46.531899,-45.085952,-27.576005,-35.327627,-30.364901,-28.463235,-8.808326,-18.402179,-15.36835,-12.211237,30.115986,405.330631,-173.00909,-71.297458
57,-1.399956,-1.552097,-4.348125,-13.670615,-31.943092,-58.095932,-79.746666,-97.602882,-63.219795,-96.721001,-113.839417,-125.610924,-50.901203,-86.6605,-106.18372,-119.787827,-35.951271,-67.278614,-85.056953,-98.036842,-20.717812,-45.480595,-58.844833,-70.751381,-13.14444,-5.877713,9.162773,18.836716,20.326692,43.699346,56.827793,67.674747,36.73532,62.290728,76.822453,87.966241,49.760087,75.875201,91.334232,102.822217,58.502217,81.777738,93.028725,101.831308,2.297401,15.815334,30.967598,39.677696,23.987274,74.454517,61.755638,45.439053,30.707474,81.086941,67.44215,53.273048,38.550224,82.179508,68.275909,54.371624,47.519989,82.124348,71.103172,58.089638,-38.593359,-70.672822,-93.49318,-109.224175,-70.370831,-77.289455,-66.507448,-64.479965,-49.156724,-54.737726,-47.38069,-47.487487,-28.062598,-35.886159,-30.736638,-30.030275,-9.330611,-18.339749,-14.706571,-11.961827,27.397528,403.7172,-178.675718,-85.029406
58,-0.047951,-0.64912,-2.136326,-11.848576,-32.985649,-59.494572,-80.975475,-98.492432,-64.236603,-97.40799,-114.818802,-127.121887,-51.717682,-87.067852,-106.763821,-120.561218,-36.634827,-67.506638,-85.442162,-98.579922,-21.424942,-45.871525,-59.45652,-71.660557,-13.127644,-5.827572,9.553715,19.389691,19.992993,42.838669,56.476124,68.208394,36.752116,62.174946,76.907668,88.383426,49.93867,76.100343,91.387893,102.891871,58.659125,82.421177,93.910459,102.67698,1.790371,14.005051,30.065174,42.391834,25.043793,73.563251,61.453514,45.352592,31.777897,81.354847,68.081646,53.992939,39.453793,82.734947,69.327621,55.952854,47.401257,82.4053,71.482086,58.827438,-40.185285,-72.279922,-95.193632,-108.680293,-71.669118,-76.015884,-65.900626,-63.892102,-50.903196,-54.937242,-47.833428,-47.633311,-29.493911,-36.070608,-31.111062,-30.922661,-10.694183,-18.649335,-15.513062,-13.918419,25.381622,402.837766,-182.779999,-97.108297
59,0.021057,0.141841,0.875931,-9.165212,-33.526955,-60.44775,-82.398205,-99.894447,-64.641037,-98.194771,-115.652905,-128.091202,-52.049732,-87.556,-107.22765,-121.256561,-37.188263,-68.387318,-86.392078,-99.77829,-22.336006,-47.277603,-60.979385,-73.22937,-13.501542,-6.356464,9.025996,19.520972,19.853992,42.701398,56.294516,68.040062,36.864625,61.67977,76.376059,87.965685,50.28404,75.917747,91.166641,102.747066,59.189005,82.469281,93.873717,102.71687,2.176437,13.631115,28.640785,41.151352,26.282845,72.686749,60.844231,44.382305,32.382946,80.465012,66.432953,51.648388,38.389091,81.623154,67.657528,53.946705,44.021931,79.14957,68.130455,55.298996,-40.067141,-72.335405,-95.182301,-107.85821,-72.763922,-74.390783,-66.253345,-65.977351,-52.010026,-53.155002,-45.578627,-46.073989,-30.006501,-34.240418,-28.813144,-28.982371,-10.343534,-16.788887,-14.036424,-13.241758,23.996687,402.938142,-183.310061,-106.314974
60,0.123138,-0.364142,1.558571,-4.969117,-34.062538,-60.89922,-82.639332,-100.167332,-65.021782,-98.103046,-115.721283,-128.494148,-52.249603,-87.20129,-107.288647,-121.833401,-37.344933,-68.057842,-86.221619,-99.766674,-22.52861,-47.459049,-61.324368,-73.626366,-13.443312,-6.267667,9.369452,19.814904,19.932724,43.061588,56.742145,68.658431,36.987756,61.542869,76.075396,87.830143,50.41668,75.684207,90.939523,102.702976,59.33628,82.461191,93.845065,102.694331,2.266045,14.69141,31.079006,46.813602,28.562622,75.102482,63.84985,47.596321,33.698387,80.903435,68.081417,53.856926,38.40992,80.477371,68.328552,55.561008,42.667408,77.598553,66.70681,54.144917,-37.979467,-70.044959,-93.118788,-99.430112,-69.432966,-68.441471,-61.978209,-61.508551,-48.298579,-49.084106,-43.048404,-42.137092,-25.876819,-29.94506,-24.938398,-23.612431,-5.427058,-12.689741,-10.584576,-9.985813,23.170824,402.54561,-182.700491,-111.312481
61,-0.699806,0.277568,3.378696,3.033921,-33.669777,-60.495644,-82.110271,-99.8596,-65.08049,-98.12542,-115.535831,-128.348522,-52.282505,-87.146015,-107.254829,-121.903267,-37.196503,-67.659702,-85.816097,-99.70499,-21.964874,-46.530418,-60.109692,-72.52533,-12.509213,-5.137511,10.164303,19.996204,19.212282,42.640265,56.536886,68.289287,35.795294,60.93543,75.677662,87.126559,49.281398,75.027553,90.371419,102.081644,58.577738,82.255069,93.828701,102.77331,4.831009,21.250477,38.97377,53.816586,33.674126,72.883873,57.642574,42.353325,38.663464,77.835503,63.03463,50.169525,43.90749,76.765766,63.922577,53.26355,47.526741,74.3367,63.605175,53.335819,-35.877561,-69.046285,-88.596079,-87.129106,-58.718204,-63.565735,-62.201699,-61.956442,-35.89712,-44.913174,-44.521908,-41.469292,-13.105599,-24.1098,-24.062129,-20.726958,7.177127,-5.444688,-7.306278,-5.879288,21.740913,402.801009,-180.051899,-108.300728
62,-0.203705,0.296402,14.577312,14.686131,-33.514481,-60.181446,-81.628017,-99.513874,-64.529686,-97.747135,-115.267525,-127.970467,-51.691017,-86.921997,-107.044201,-121.604691,-36.634026,-67.450161,-85.545101,-99.218102,-21.639977,-46.226463,-59.946442,-72.407284,-12.766836,-5.398777,9.971333,19.742595,19.05488,42.247532,56.191578,67.887353,35.604176,60.62217,75.462585,86.967736,48.955974,74.631733,90.085947,101.872804,58.030135,81.647259,93.224535,102.093809,1.229153,13.486919,30.928059,44.691353,24.192696,56.724243,49.624958,39.27166,32.531548,64.599552,53.575058,41.943054,38.897781,65.601711,54.316978,42.166271,43.412418,61.830254,51.589794,40.556488,-32.712651,-62.095612,-78.374904,-81.122458,-56.747147,-63.286176,-59.739186,-55.752147,-39.544933,-46.410375,-43.174653,-37.544621,-21.222906,-26.092822,-25.110373,-21.136549,-3.206051,-6.91512,-6.263869,-4.976836,21.116982,402.80561,-165.894814,-93.906399
63,0.071068,0.904211,16.195049,14.1929,-33.331833,-60.199986,-81.765404,-99.144802,-64.249763,-97.762127,-115.397301,-128.245983,-51.587276,-87.159691,-107.436447,-122.242641,-36.813469,-67.944775,-86.307449,-100.276852,-22.143173,-47.051582,-60.856133,-73.384495,-13.51488,-6.547458,8.811105,19.213208,18.301031,41.358759,55.216786,66.941522,35.226881,59.804471,74.406282,85.760948,48.878477,74.181758,89.480052,101.08598,58.221808,81.421191,92.698545,101.241591,-1.629181,8.110542,21.840878,34.510403,34.123993,39.11911,26.772995,18.104839,36.580296,35.666027,24.007702,18.866386,33.607121,30.9589,19.673767,13.385525,27.636852,25.574169,16.564007,10.257168,-32.507239,-60.388105,-73.525984,-70.881492,-45.736369,-60.368901,-60.524605,-56.922394,-29.372726,-43.596686,-44.749103,-39.546261,-12.047228,-23.786814,-25.249095,-20.633561,4.605531,-4.388293,-4.297983,-0.858856,21.035528,405.047196,-149.852285,-78.376124
64,-0.189743,0.380321,9.124432,-7.484057,-33.13591,-59.909306,-81.580353,-99.158249,-64.47979,-97.730885,-115.166473,-127.913818,-52.039375,-87.256851,-107.438221,-122.204189,-37.231064,-68.12748,-86.372166,-100.286522,-22.314148,-47.18502,-60.909576,-73.4095,-13.014085,-6.427292,8.570587,18.573659,17.898295,41.071249,55.030362,66.810302,34.534782,59.439094,74.252586,85.69364,48.140498,73.442173,88.814568,100.494164,57.73188,80.822706,92.186634,100.861456,-4.285927,3.044872,17.235947,33.033142,23.938065,11.917362,7.587147,9.32373,29.322281,9.521198,5.192127,8.432922,28.168087,11.975441,5.227318,5.153732,23.868141,12.254505,5.186291,3.606091,-23.579549,-42.947257,-50.485037,-49.047302,-31.3463,-30.073006,-22.896312,-17.323708,-15.455758,-10.463453,-2.75271,3.583284,-1.178136,3.177367,7.54908,11.054466,10.456568,15.141695,17.688467,17.829382,19.983702,404.778289,-141.589937,-86.509409
65,-1.737671,-0.162589,-25.786686,23.967157,-32.337112,-58.939762,-80.208492,-98.376617,-64.155407,-97.541656,-114.61338,-126.82291,-51.470203,-86.924629,-106.418552,-120.519676,-36.272278,-67.383556,-85.085449,-98.509541,-20.873337,-45.958786,-59.560947,-71.981335,-13.056878,-5.714074,9.947868,19.283727,18.909458,42.126872,55.932906,67.473255,35.213543,60.332808,75.000692,86.188014,48.464255,73.912156,88.96141,100.48342,57.773747,81.048465,92.40733,101.212816,3.117085,17.773705,35.346222,55.617714,21.19875,74.961891,64.892979,48.010483,20.550556,77.994289,63.583946,46.289406,22.302418,72.765198,60.841942,46.616936,25.828571,62.878704,54.663391,44.901752,-32.964068,-63.30751,-81.950191,-88.127641,-51.419012,-47.687775,-41.093479,-42.479899,-25.654116,-20.432563,-19.809409,-22.319779,-1.733859,-1.320625,-2.792601,-4.684911,18.883554,14.00734,9.597959,7.963704,17.531776,404.387655,-168.090878,-62.770297
66,0.205879,0.232552,-4.601154,-12.522953,-32.446289,-58.924885,-80.425129,-98.341656,-64.198666,-97.482147,-114.803238,-127.268429,-51.457787,-87.204838,-107.255974,-121.555481,-36.252022,-67.763844,-86.010876,-99.767876,-20.874481,-46.237392,-60.280952,-73.08609,-12.700701,-5.458736,9.80226,18.640906,18.607993,41.715244,55.40247,66.929543,35.0173,59.653738,74.280744,85.703212,48.459439,73.89678,89.495675,101.367809,57.901077,81.210313,92.516629,101.261537,1.632042,19.347153,37.676182,51.070747,43.649826,73.634205,57.49649,42.942753,48.829708,76.54438,54.697323,39.881973,50.003071,74.483986,53.662434,39.652634,47.723579,66.889343,53.544788,42.810917,-30.476607,-60.372081,-76.891737,-87.339227,-53.179331,-44.289063,-40.398478,-43.388402,-30.669207,-23.152977,-21.138,-24.118105,-8.336491,-3.159275,-4.013375,-6.559005,11.657613,12.403064,10.381819,9.03038,17.363005,405.171268,-173.066683,-74.742189
67,0.297432,0.51895,4.470749,-9.971827,-32.80426,-59.459152,-81.237946,-98.488884,-63.473797,-97.175331,-115.027599,-128.10442,-50.969582,-87.275448,-108.037949,-123.11245,-36.357765,-68.496037,-87.469254,-101.874332,-21.794586,-47.301464,-61.585693,-74.408627,-13.465048,-6.706465,8.345506,18.279357,17.57886,40.811341,54.361296,65.796299,34.714167,59.272924,73.731721,84.928491,48.498403,73.802857,88.989321,100.278532,58.039706,81.24934,92.484642,101.07079,1.885414,13.513298,27.246666,43.180447,15.641556,63.641052,55.266895,39.816914,21.82457,75.778713,63.17728,45.299263,27.752781,75.734024,62.336254,44.946156,33.184605,66.33482,59.894314,49.83942,-37.566851,-73.75531,-97.435327,-110.28003,-58.919048,-69.009698,-59.767236,-53.662991,-34.972994,-43.095335,-39.904042,-35.264765,-12.659174,-21.088229,-18.870061,-14.991672,5.742665,-3.309729,-4.299712,-2.308848,16.465845,405.39553,-169.790525,-85.008705
68,-0.966911,0.983067,-15.45845,-15.699888,-32.556725,-59.428253,-81.333675,-98.439503,-63.261108,-97.602139,-115.163212,-127.821064,-50.607204,-87.640057,-107.844772,-122.305412,-35.982399,-68.687096,-87.426624,-101.570892,-21.620522,-47.551403,-61.590843,-73.942165,-14.277807,-7.957652,7.25166,17.652529,16.809944,40.114735,53.703778,65.099816,34.00447,58.925639,73.269519,84.202244,48.028915,73.39444,87.980567,98.833263,58.051315,81.105832,91.85028,99.986452,7.199478,22.199879,37.634182,48.959885,27.661629,77.38369,65.051193,49.19632,30.133209,79.845428,65.310745,50.346394,34.991169,79.946823,65.637302,50.949612,41.738319,74.990387,64.607563,52.617016,-36.057702,-69.66947,-92.469868,-106.478181,-60.917538,-62.135765,-55.377646,-55.575062,-37.219412,-38.800532,-34.682273,-35.368567,-15.046661,-20.10686,-18.415053,-20.186364,3.811205,-4.092385,-4.635542,-4.825949,14.117117,406.056599,-186.630793,-101.03059
69,-0.126915,-0.015808,-3.476143,-10.808854,-32.624817,-59.335842,-81.071892,-98.153,-64.11747,-98.127937,-115.708752,-128.123703,-51.500874,-88.067093,-108.213444,-122.45224,-36.773186,-69.047928,-87.606239,-101.382122,-22.198105,-47.739258,-61.725941,-74.093399,-14.533268,-8.363105,6.626745,16.900038,16.951044,40.076326,53.617883,65.015465,34.125686,58.560694,72.841033,83.958515,48.133767,73.081551,88.002982,99.230566,57.915897,80.886062,91.789023,99.975646,5.106697,20.593128,36.531315,47.68507,23.399334,74.162807,63.821297,47.930946,25.732155,78.287945,65.912819,51.299686,30.463543,77.106686,64.581699,49.946537,36.901245,73.636322,65.094566,52.81786,-35.733034,-67.989874,-90.105321,-101.573963,-65.38941,-64.860749,-56.825631,-57.295598,-42.259049,-40.720877,-34.12442,-35.573887,-19.517144,-22.199119,-17.801162,-18.225418,0.180558,-4.761945,-2.394897,-1.277307,12.244921,405.81622,-191.852217,-112.064015
70,-0.570374,-0.237739,-2.680779,-2.843143,-32.17083,-58.622875,-80.299473,-97.719784,-64.153404,-98.039131,-115.451488,-127.644081,-51.592369,-88.20837,-108.325825,-122.416534,-36.74572,-69.058228,-87.499924,-101.212921,-21.900101,-47.375336,-61.383591,-73.917961,-14.098113,-7.65137,7.590669,17.547491,17.397993,40.221069,53.419232,64.438469,34.114139,58.183029,72.205806,83.061405,47.762709,72.613668,87.575237,98.866856,57.220093,80.327838,91.381656,99.693508,4.117584,18.629208,35.209064,50.346794,22.628345,73.056793,63.611526,48.260136,25.155602,77.807236,65.40699,50.61224,29.777985,76.776295,64.827976,51.162071,35.421238,72.558804,63.557796,51.907768,-35.047805,-67.955634,-89.552099,-91.89562,-62.068072,-62.274812,-57.181823,-57.417787,-38.8809,-40.343721,-36.953037,-37.24632,-16.019168,-21.823059,-18.482084,-16.813557,3.497451,-4.243118,-3.620735,-2.029983,9.692059,405.331078,-196.515484,-115.154561
71,0.628853,-0.10584,3.57708,8.528473,-32.503853,-58.652287,-80.270004,-97.984657,-64.315338,-97.978249,-115.471916,-127.786789,-51.888199,-87.952194,-108.169155,-122.480278,-37.086182,-68.968163,-87.386227,-101.012478,-22.178307,-47.573948,-61.647606,-74.23605,-14.044514,-7.847119,7.281362,17.071704,17.597262,40.111215,53.244787,64.461687,34.462781,58.170494,71.864388,82.696954,48.082761,72.517399,87.049741,98.1403,57.473023,80.381499,91.238024,99.426314,-0.292969,13.934383,31.539001,49.191399,48.652496,56.946373,36.867886,25.522385,53.328724,54.807816,34.595089,27.343597,52.481003,52.657928,33.290405,26.836739,47.663956,48.462067,33.458633,27.171135,-35.440784,-66.430862,-84.14443,-86.141254,-51.960918,-65.508079,-63.341272,-58.673883,-31.031558,-46.024574,-47.235005,-42.580089,-9.518579,-22.796554,-25.931128,-21.521099,10.767358,-0.516604,-5.675048,-3.709749,8.807116,404.569603,-194.4522,-107.281723
72,0.184135,0.378839,36.351871,38.998257,-32.490578,-58.581448,-80.147667,-97.586517,-64.323921,-98.358192,-115.764256,-127.989235,-51.896896,-88.381691,-108.310833,-122.531033,-37.080002,-69.253635,-87.67725,-101.42767,-22.214127,-47.969971,-62.162418,-74.862843,-14.369691,-8.22182,7.183117,17.564905,16.985192,39.466541,52.582761,63.467876,33.99317,57.535885,71.15747,81.761744,47.770551,72.057914,86.527518,97.40121,57.168593,79.755165,90.580074,98.769599,-18.943634,-26.348877,-22.233067,-13.447037,-11.964798,-3.387108,-2.161446,-1.660595,4.575062,11.97464,7.537823,4.219494,18.535366,23.181896,17.191086,13.266277,29.452,33.424187,26.026669,20.056114,-11.015903,-34.260734,-51.1667,-61.459043,-73.732832,-96.975981,-89.051689,-77.06385,-72.026391,-93.302557,-79.764752,-67.197848,-64.143364,-79.749082,-66.758834,-54.074095,-52.129389,-62.950315,-54.32582,-45.603081,7.713089,404.590027,-159.37849,-68.641881
73,1.967697,0.457694,-6.601353,-4.206376,-32.38884,-59.481583,-81.167908,-99.357719,-64.744949,-98.756504,-116.848469,-129.685421,-52.252235,-89.118748,-109.805546,-124.448433,-37.361641,-70.209274,-88.940678,-102.635479,-22.535477,-49.000282,-63.397408,-76.087818,-16.443826,-9.955957,6.495773,16.302171,16.49971,39.714839,52.783326,63.796574,33.85312,57.764546,71.226754,81.703823,47.646309,71.814803,86.083162,96.97118,57.05806,79.133709,89.648939,97.848159,-13.066006,-13.434906,-3.732548,6.843567,-4.059563,2.816677,5.733147,6.142445,8.86013,14.309521,12.443104,8.845768,19.595776,23.075867,16.861954,11.736088,27.733669,29.277935,22.48415,16.286259,-14.573375,-30.431869,-37.647466,-37.804004,-48.672076,-60.332159,-51.354607,-40.84762,-41.341561,-50.448388,-34.663717,-21.638301,-28.699214,-31.410428,-15.907956,-5.087092,-14.624103,-14.950361,-4.901562,2.443618,9.33629,405.25988,-166.324339,-72.636099
74,0.690536,-0.462449,-17.845345,34.21896,-32.800255,-59.672585,-81.405945,-99.585056,-64.725323,-98.510971,-116.539822,-129.516907,-52.666512,-88.851013,-109.653912,-124.714909,-38.144989,-70.164127,-88.896675,-102.846222,-23.476181,-49.350414,-63.616734,-76.48613,-15.07556,-8.944424,6.442976,15.36412,16.251597,38.929497,51.943644,62.850743,33.43439,57.292032,70.798391,81.497206,47.326627,71.477831,85.541425,96.387762,56.940611,79.023052,89.625289,97.960545,-5.249691,0.659122,16.94315,34.82626,14.359932,34.994659,22.993698,10.07658,25.324402,44.202404,26.456051,14.277821,30.556355,44.463387,27.50433,17.89547,31.829739,39.690456,26.38567,18.562374,-32.402849,-60.765153,-72.508878,-72.991395,-49.994029,-62.857257,-53.937194,-45.040596,-26.930003,-33.502192,-31.617446,-30.171004,-4.925151,-9.28189,-7.343946,-6.275231,14.398899,9.454976,7.428482,7.734671,10.330725,405.898456,-183.865786,-37.316114
75,0.627937,0.492027,-1.632843,3.044758,-32.31823,-59.305687,-81.118584,-99.667397,-64.640808,-98.71067,-116.881542,-130.050259,-52.677498,-89.218655,-110.073223,-125.494995,-38.293419,-70.84013,-89.779301,-104.163036,-23.831863,-50.119171,-64.479904,-77.416477,-15.631685,-9.491779,6.16053,15.315337,15.841389,38.323479,51.590802,62.761945,33.277297,56.766289,70.322604,80.880628,47.333173,71.015259,84.967332,95.654908,57.037991,78.760613,89.397553,97.736514,-5.054054,7.027187,23.741112,42.397842,44.027195,29.092484,14.216309,6.104107,52.37154,27.552853,10.057411,1.476746,50.262966,27.295818,9.360294,-0.225964,42.278996,27.168789,12.095146,3.970299,-28.712398,-54.994083,-70.419151,-71.669103,-44.012637,-50.398463,-44.281869,-38.654708,-23.489548,-24.770128,-19.517978,-14.818864,-2.00167,-5.194537,-4.106001,-2.060611,17.125334,16.651523,17.290702,17.578274,11.785212,407.248537,-184.672079,-33.413302
76,-0.071526,-0.439663,-11.426067,-0.566714,-32.217636,-59.157543,-81.176491,-100.017185,-64.678802,-98.743801,-116.877251,-129.930668,-52.711773,-89.086246,-109.664955,-124.794273,-38.178864,-70.519867,-89.264832,-103.48114,-23.409462,-49.441967,-63.679619,-76.41901,-15.70208,-9.42194,6.479965,16.164776,17.437761,39.515694,52.62401,64.051973,34.57208,57.715455,71.263866,81.957926,48.122775,71.624426,85.760516,96.694167,57.24751,78.780126,89.48456,97.903055,5.49757,19.387665,37.560425,56.522312,18.939514,67.685852,56.235008,39.313259,16.952477,69.285679,54.27618,39.001293,18.080292,65.026875,52.011051,39.447269,21.501961,57.254677,47.395878,36.390553,-29.865618,-57.916638,-73.033077,-74.172804,-50.740746,-40.570453,-32.6149,-36.155854,-26.053734,-11.920948,-9.884574,-16.221802,-2.219958,7.461055,7.83656,3.042381,19.296726,22.81863,20.209088,17.038915,12.428112,406.957692,-195.38372,-33.831198
77,-0.687904,-0.306776,1.934853,6.752253,-32.330589,-59.111023,-81.284065,-99.302444,-64.731731,-98.644867,-116.373367,-128.914146,-52.893448,-89.470367,-109.775677,-124.504623,-38.412323,-71.105747,-90.014248,-104.331093,-23.578835,-49.429321,-63.598995,-76.398754,-15.584137,-9.941755,5.11596,15.234259,16.841869,39.686249,52.535398,63.291517,34.04788,57.610541,71.049777,81.564946,47.669589,71.472026,85.383406,95.792241,56.877872,78.84941,89.57805,97.823953,-1.449566,13.790016,33.366508,55.84528,50.438175,46.966381,28.932323,21.652393,55.418358,44.400387,26.205711,22.094479,52.072849,40.926533,24.372883,22.060947,43.67815,40.627441,28.132553,24.892445,-31.017355,-61.004313,-78.028592,-77.863379,-49.42327,-48.556047,-41.328624,-38.670177,-23.959005,-23.617773,-23.849584,-24.937441,1.038179,-1.942915,-4.293753,-4.741135,23.037535,17.835155,13.033412,12.312199,11.879082,406.660117,-193.309994,-27.069744
78,-0.068321,-0.708648,7.440891,7.405758,-32.592888,-59.535828,-81.709671,-100.096092,-64.871979,-98.317566,-116.316261,-128.999863,-53.227901,-89.196911,-109.582901,-124.434643,-38.910027,-70.892601,-89.469624,-103.511925,-24.188004,-49.712906,-63.663197,-76.191559,-15.001213,-9.206739,6.268223,16.704783,17.966591,40.381929,53.273933,64.354427,35.006,57.853405,70.974071,81.455833,48.552188,71.804305,85.637139,96.268584,57.770783,79.262211,89.871364,98.22496,-6.880531,7.522373,27.124844,46.878777,47.567997,34.081249,15.506172,6.85215,55.342426,32.180729,14.209614,9.476566,53.792381,30.560532,14.500122,12.030258,46.24918,31.324768,18.975105,16.070938,-31.311905,-61.73587,-80.806527,-87.153358,-54.900809,-61.164277,-51.354452,-43.939185,-33.20332,-36.814947,-31.736161,-27.67144,-10.591091,-15.814775,-12.506187,-8.620543,10.287094,5.430208,5.589153,7.935422,11.861887,406.388585,-185.817976,-19.226871
79,-0.418053,-0.23848,-15.556126,-8.016377,-32.456589,-59.22718,-81.443195,-100.101986,-64.869919,-98.281975,-115.938034,-128.434868,-53.105965,-88.874302,-109.038048,-123.626976,-38.516121,-70.164871,-88.680725,-102.726345,-23.459702,-48.68597,-62.650852,-75.331192,-14.470468,-8.794802,6.656509,17.147534,18.381492,40.860989,53.715634,64.909131,35.076334,58.528337,71.698156,82.171088,48.378237,72.341781,86.139787,96.861634,57.456288,79.459133,90.023517,98.262443,13.54826,35.070248,55.340652,69.97364,31.319218,77.180786,65.677242,51.500816,27.642574,80.630722,66.377506,52.354889,27.368031,76.314583,62.134838,49.085255,30.584621,69.627571,59.320335,48.161831,-32.63886,-59.765877,-71.46934,-64.973722,-49.333547,-37.593249,-37.274926,-41.017619,-23.429156,-14.562137,-16.80661,-20.847989,1.903858,5.297166,2.918355,1.344152,24.080407,23.451448,19.862452,18.201737,11.703987,406.840799,-201.113949,-26.552554
80,2.083626,0.027108,4.568081,11.37881,-33.386879,-59.95245,-81.654854,-100.578747,-63.985977,-96.768723,-114.407845,-127.481117,-52.588577,-87.142639,-107.213058,-122.063141,-38.87455,-69.518623,-87.406311,-100.578804,-24.911385,-50.037575,-63.800068,-76.073284,-13.980479,-8.02848,8.013536,18.752859,19.629715,41.608416,54.039762,64.907711,36.927302,60.059747,72.732599,83.071347,50.253473,73.539183,86.42353,96.519969,59.111817,80.515498,90.534996,98.097198,12.444191,33.65015,54.771881,69.853249,29.569359,77.877159,66.931915,53.051891,23.955746,79.255028,66.058273,52.584858,22.958393,73.144226,59.998684,47.077503,25.658512,66.504135,55.991879,43.438454,-31.3823,-59.725431,-73.241268,-67.548282,-53.446433,-39.829911,-38.124056,-43.598354,-27.377292,-17.069389,-17.6466,-22.692041,-1.93779,3.09033,2.028563,-1.258813,20.043288,21.610174,18.102349,15.132185,14.05798,406.901484,-196.275501,-15.140167
81,1.181374,0.313692,5.640678,7.943233,-34.287758,-61.149845,-83.273392,-101.56271,-63.861637,-95.702076,-112.164173,-124.389038,-52.183342,-85.571136,-103.895073,-117.283173,-38.588219,-68.362942,-85.22295,-97.494049,-25.091972,-49.401054,-62.436733,-73.532352,-14.090394,-8.448197,7.500699,19.111259,20.172563,42.18572,54.400878,64.709245,37.489478,60.998415,73.026655,82.987552,50.552284,73.879984,85.543772,94.714387,59.009929,80.483634,89.837834,96.797599,10.460815,34.621639,57.087364,73.619385,53.966389,69.106064,50.923977,39.22514,50.142059,60.426636,45.14328,36.889114,44.119091,51.112976,36.118298,29.028111,35.903606,43.243046,31.871395,25.836067,-31.506944,-55.346956,-65.673848,-61.707835,-41.853719,-37.84232,-35.795294,-37.098536,-17.807059,-16.814761,-19.835467,-21.253751,5.903895,3.276415,-1.037283,-2.109456,26.072568,22.103282,15.412316,13.122055,15.730848,407.258139,-190.143328,-7.15397
82,1.114655,0.181855,-4.977779,23.430885,-33.95977,-60.705299,-82.783642,-101.826496,-63.193817,-94.711246,-110.816288,-122.89999,-51.092606,-84.289856,-101.978245,-115.023136,-37.230148,-66.689587,-83.017559,-94.86557,-23.779678,-47.863998,-60.576668,-71.421432,-14.222478,-8.437268,8.316669,21.140686,21.07239,42.814586,54.977133,65.061901,38.584807,62.456651,74.055355,83.155204,51.353248,75.073063,86.352764,94.929279,59.225932,81.000732,90.120219,96.598392,22.633839,51.404858,77.576122,91.030998,36.361656,95.042152,88.286934,72.273731,25.604897,89.594707,78.318558,61.612186,20.282993,78.08218,66.007061,51.965504,18.229237,61.30188,52.841835,41.591206,-35.152966,-58.143756,-62.449396,-50.572908,-52.256348,-45.344563,-34.748717,-35.800666,-28.042684,-14.886326,-12.296174,-15.193689,-4.192359,7.614073,6.547118,2.332437,19.224262,23.747757,21.496646,20.088335,17.944508,405.846293,-194.022102,14.683214
83,1.265373,-1.325287,-0.366955,13.203442,-34.044342,-60.550003,-81.589108,-99.176502,-62.306385,-93.308201,-109.094753,-120.992889,-49.889832,-82.360954,-99.739838,-112.645397,-35.668602,-64.822941,-81.147366,-93.222313,-21.806946,-45.453873,-58.158875,-69.182339,-13.499196,-6.882948,10.464719,23.208831,22.420834,44.069417,55.783408,65.179412,40.065149,63.894819,75.224352,83.887379,52.599557,76.259845,87.582462,95.791006,60.16108,81.897472,91.207767,97.639875,28.599129,60.002975,86.064377,97.1525,43.576927,93.07291,93.671494,83.032265,31.946926,85.303574,84.453449,72.975483,25.141239,73.474445,69.978046,59.303684,20.79998,53.752842,51.163616,43.073044,-28.714158,-38.338731,-34.314735,-29.354633,-43.36892,-32.6911,-19.819103,-15.82944,-24.45764,-11.525684,0.13934,2.852776,-3.36302,7.572175,13.243426,12.061276,17.973754,24.97341,24.710354,22.456834,21.854067,402.093257,-191.744871,25.458908
84,2.82486,0.27621,-0.178414,31.866795,-34.342232,-61.093483,-82.121944,-99.54586,-62.315998,-92.378769,-107.362061,-119.16338,-49.894981,-81.800537,-98.301601,-110.866985,-35.806046,-65.050678,-80.995045,-93.0863,-22.221565,-45.741692,-58.288307,-69.230289,-13.730698,-6.702266,11.459333,24.324969,22.084911,42.927343,54.279785,62.913851,40.361428,63.361542,74.168111,82.026654,53.159324,75.797643,86.146703,93.20212,60.935615,82.526215,91.331021,97.008724,31.982288,66.00523,91.833544,100.509653,51.549339,95.888987,97.415714,89.909706,37.449532,84.444952,85.902071,78.11677,27.370091,70.360909,69.82152,62.802029,19.770212,52.009449,52.190638,47.213974,-24.613946,-29.256172,-17.559625,-5.922112,-36.032832,-15.651399,-1.057198,2.884284,-18.881239,4.929535,16.688403,18.529739,0.968586,21.848607,27.738501,25.941903,21.515912,36.131184,36.258143,33.011554,26.867523,401.416997,-189.734688,56.373233
85,4.154434,0.876424,-0.178413,31.866794,-34.067001,-60.598583,-81.598148,-99.410648,-61.558571,-92.204018,-107.056618,-117.742367,-49.204788,-81.772327,-98.398132,-110.468159,-35.177193,-64.318485,-79.916439,-91.542091,-21.842537,-45.798454,-58.517132,-69.452362,-14.056926,-7.345459,10.978173,25.221771,21.681434,42.337503,53.224903,61.402695,40.066631,63.215194,73.59198,80.804922,52.833776,76.353643,86.675719,93.760282,60.566101,82.250129,90.816887,96.263767,35.365448,72.007484,97.602711,103.866806,59.521751,98.705063,101.159935,96.787148,42.952137,83.58633,87.350693,83.258057,29.598942,67.247372,69.664993,66.300373,18.740444,50.266056,53.217659,51.354904,-20.513734,-20.173613,-0.804515,17.51041,-28.696744,1.388304,17.704708,21.598009,-13.304836,21.384754,33.237468,34.206702,5.300192,36.125041,42.233577,39.822532,25.05807,47.28896,47.805934,43.566274,32.052069,400.43654,-188.88299,86.383145
86,4.667587,-0.008028,15.433044,26.085474,-34.247131,-61.53511,-83.306465,-101.304302,-61.391602,-92.430897,-107.821712,-118.96328,-48.789711,-82.002354,-99.188175,-111.521301,-34.673195,-64.213257,-80.80925,-93.238907,-21.563644,-45.178871,-58.298149,-69.784012,-14.46806,-7.263516,11.739927,26.92707,21.429863,42.279025,53.220951,61.437646,40.025444,64.096804,74.454756,81.374508,52.82229,77.328435,87.685215,94.322025,60.389186,82.826816,91.819405,97.487043,35.79134,64.577751,80.557537,89.540863,58.199158,85.454865,89.598827,88.174381,40.845451,70.88625,73.514328,69.627171,23.419418,52.505608,54.702759,50.805874,7.65461,30.758457,33.619823,31.908817,-6.493488,3.962277,24.258341,40.523214,-4.317558,30.689214,49.787999,56.795559,7.188674,48.20373,65.612406,69.147062,22.164878,61.305562,70.140502,66.74071,37.59149,65.969879,69.366276,63.899018,36.80809,398.861287,-173.361511,110.901393
87,4.711304,-0.36865,10.705433,30.398308,-34.646416,-61.986351,-83.685894,-101.593323,-61.103325,-92.715912,-108.623142,-120.472755,-48.491592,-82.0471,-99.648972,-112.621307,-34.486427,-64.184875,-81.376419,-94.491348,-21.317711,-44.920921,-58.371391,-70.199661,-13.722115,-5.953048,13.176241,27.957252,22.559957,43.031516,53.843951,62.520625,41.175977,64.602725,74.870152,82.432848,53.925153,77.993179,88.984505,96.719053,61.387875,83.718059,93.181557,99.567661,30.565968,57.900066,70.048084,76.056976,51.905479,77.234001,85.739365,89.640026,31.69693,60.006638,69.199791,72.699795,12.565498,37.646198,40.501842,38.98447,-3.355465,18.833714,23.090916,21.679058,1.838989,17.879647,41.309544,60.453777,7.913624,45.429346,68.238651,81.977747,18.280777,61.475437,83.711884,95.007146,31.347164,74.037632,77.454653,70.897501,45.267745,78.114642,79.686004,73.355229,42.443762,395.554938,-161.73171,138.362002
88,4.524994,-0.996343,3.152332,33.220116,-34.272537,-61.613846,-83.547764,-101.450729,-60.835991,-92.751617,-108.995819,-121.551933,-48.357582,-82.321301,-100.467052,-114.18663,-34.39373,-64.391098,-81.929111,-95.635643,-21.023712,-44.37973,-57.933655,-69.842834,-13.513769,-5.801698,12.929487,27.896366,23.223836,43.4148,53.829007,62.319319,41.959714,64.687756,75.101592,83.077214,54.694069,78.626429,90.216055,98.650112,62.022114,84.663582,94.348454,101.178297,33.045273,62.279263,71.451302,72.899837,52.899342,76.87254,88.114071,93.433514,31.689949,60.115414,72.561092,78.802757,11.651287,38.148365,39.936047,38.14436,-5.698528,18.287601,22.165432,20.405502,5.87586,25.494522,51.881832,70.440918,11.389987,49.120415,69.927216,84.558915,19.925932,61.898181,83.850576,98.516854,31.059778,79.519464,77.268291,67.759839,43.29908,82.345409,80.144069,70.893672,46.802444,392.032278,-158.745689,169.055801
89,3.979454,-0.125106,-6.461048,22.580335,-33.907814,-61.354752,-83.221264,-101.599903,-60.100708,-92.930374,-109.997463,-122.952118,-47.574806,-82.746449,-101.496334,-115.508251,-33.88813,-65.161057,-83.266354,-97.329082,-20.87368,-44.954109,-58.714027,-70.457039,-13.762438,-5.290528,13.940217,28.582043,24.682504,44.986781,55.394566,63.976885,43.534226,65.860519,76.134862,83.964505,56.092839,79.950667,91.198442,99.104039,63.057298,85.484615,94.81924,101.291794,35.257645,60.611916,72.789288,75.650425,65.538139,84.533501,95.068073,101.969719,45.508633,69.073448,82.833652,92.565651,26.312771,48.861122,57.387199,61.332951,9.462204,31.140175,39.61298,44.357071,-1.897158,12.21349,33.076855,51.032949,8.195515,40.343397,63.943354,84.002235,18.896182,57.364959,82.12601,99.989849,31.69908,70.078073,80.20903,81.046983,43.699902,75.069791,80.649805,78.609571,50.426273,390.295193,-165.562363,190.024157
90,4.746323,0.142643,3.515911,9.459422,-34.750443,-62.81353,-84.398804,-102.977257,-61.14109,-93.066559,-110.053596,-123.272438,-48.523407,-83.052406,-102.009144,-116.679497,-34.709244,-65.470619,-83.628273,-97.765846,-21.454811,-45.062141,-58.858566,-70.888824,-13.058977,-4.525811,14.379201,27.707039,25.97457,46.704924,56.999829,65.005523,44.417504,65.941227,76.464918,84.825615,56.503973,79.124878,90.259033,98.139498,63.142699,84.622271,93.912126,100.650887,36.849461,61.637535,73.246365,75.410843,64.950428,86.049671,96.78194,104.861012,45.364151,70.806484,85.550251,95.254097,27.081413,50.825672,60.739002,63.751888,11.569748,34.11335,42.696705,45.950947,-3.789438,9.136838,30.63475,48.953689,2.08667,33.272357,53.14753,69.621058,12.896327,49.396192,69.818906,84.442206,27.168761,65.291304,74.699412,75.827592,40.412928,71.16136,76.681909,76.468437,55.182238,389.742604,-162.03681,198.788347
91,2.572975,-0.621641,2.51049,-3.093757,-34.945221,-62.713852,-84.319954,-102.787628,-60.580559,-92.367382,-109.055958,-121.78997,-48.095284,-83.062134,-102.094746,-116.747646,-34.345207,-65.292091,-83.642406,-98.028545,-21.207504,-44.765396,-58.362579,-69.958878,-12.711631,-3.645991,15.272668,29.02152,26.814375,47.5091,57.883354,65.905844,45.071873,66.742686,77.493186,86.022029,57.113265,80.181737,91.747527,100.148053,63.61793,85.345059,94.788735,101.921525,38.672333,66.127396,82.066212,91.636448,62.170315,86.177216,97.94014,105.012131,43.997841,69.501629,85.028114,94.127769,27.538261,47.331791,58.545113,65.091419,13.998299,33.735752,43.26479,48.455887,-4.088495,7.981858,27.204329,44.381997,-3.850756,17.785292,36.877284,52.507363,4.796834,32.919577,50.00184,61.080111,17.423928,54.138809,67.20637,71.826227,31.096211,61.809878,67.268429,67.50555,58.156672,388.366712,-159.124861,194.940339
92,1.703339,-0.100838,9.479027,-7.646862,-35.253067,-63.136826,-84.722157,-102.868481,-60.312309,-92.434158,-109.259148,-122.481594,-47.810898,-83.324318,-102.323341,-117.202034,-34.61586,-66.32206,-85.059299,-99.829445,-22.265282,-46.493111,-60.538216,-72.731781,-12.500445,-3.138526,15.689977,29.222024,27.251815,47.616484,58.094911,66.144448,45.48066,67.298193,77.764702,85.882164,57.601958,80.398728,91.203568,98.671107,64.221416,85.889266,95.189927,102.19687,34.816532,58.964996,72.881241,67.491245,48.464127,72.280884,76.210899,71.259441,29.111423,56.95816,61.376266,58.071098,13.679523,39.021778,46.210442,47.028866,3.390541,26.849613,35.715809,37.625542,-5.465158,2.287482,16.411283,31.44121,-10.471511,7.724791,24.047278,33.573205,-2.832738,29.901155,37.201597,32.029568,8.728112,47.240547,51.364178,44.55706,22.197668,53.345193,54.963795,48.857976,60.967369,387.833698,-148.538475,186.861301
93,-0.882797,-0.134863,21.106567,-29.572643,-34.898872,-62.523651,-83.86631,-101.703243,-60.118332,-92.287445,-108.786392,-121.726913,-47.667046,-83.33971,-102.034035,-116.62817,-34.499588,-66.276283,-84.682388,-99.146461,-22.007446,-45.797195,-59.709663,-71.785583,-12.265917,-2.899182,15.774822,29.742148,28.519057,48.848219,59.397227,67.482147,46.808912,68.690788,78.866947,86.486454,58.885255,81.502393,92.067518,99.120094,65.191145,86.667259,96.006947,102.811781,21.226044,42.186241,56.134186,60.469093,20.320988,44.678764,52.639847,54.05983,8.128567,37.714863,44.80957,43.901997,-0.854702,25.788345,30.235405,29.911194,-6.021023,16.037579,21.559296,21.441765,-11.58623,-13.923606,-6.472678,1.996206,-23.181907,-15.587533,-9.781698,-9.109668,-7.820196,17.478763,22.617138,19.597728,8.699769,39.140375,37.980764,29.981307,24.578393,46.316514,44.56484,37.10292,61.650553,388.285989,-125.865927,157.875812
94,0.06958,1.286755,1.076775,-7.639483,-34.701004,-62.814102,-84.738121,-102.720451,-60.403175,-93.721504,-110.411396,-123.059807,-48.118973,-85.062218,-103.624821,-118.057194,-35.232811,-67.903404,-86.331997,-101.191349,-23.248672,-47.210197,-61.075745,-73.212547,-12.904231,-3.587081,15.041968,29.234498,27.917608,47.850703,57.632339,64.91932,46.370916,67.761876,76.8206,83.693791,58.476652,81.30121,91.257599,97.843898,64.750432,86.724255,95.625144,102.100848,22.82876,42.639741,52.513217,49.049406,27.815437,45.525426,52.396774,54.271688,9.15596,31.801042,40.459299,41.689996,-5.554533,19.374103,25.941181,25.953826,-15.020285,6.266384,13.69194,14.202203,-11.089602,-16.103673,-11.94398,-8.69526,-44.746741,-47.607807,-47.390322,-47.310309,-37.867112,-20.98458,-13.553134,-12.010578,-25.210918,7.236222,12.610916,7.797194,-9.263627,17.685257,19.939239,13.365136,62.515011,390.045397,-123.994274,150.708981
95,-0.788498,-0.381,1.076774,-7.639483,-34.817734,-63.023872,-85.082817,-102.456093,-61.361847,-93.660622,-110.072536,-122.934322,-49.725609,-85.599117,-104.067593,-118.844261,-37.136765,-68.825684,-86.599331,-100.967846,-25.028801,-48.458061,-61.929245,-73.795509,-12.392999,-3.162424,15.066545,28.93649,27.781078,47.362381,57.002361,64.171646,45.757982,66.743118,76.467264,83.904546,57.791408,80.109612,90.556609,97.597452,64.514546,85.964478,94.633309,100.694236,24.431477,43.093243,48.89225,37.629719,35.309887,46.372089,52.153702,54.483547,10.183353,25.887222,36.109028,39.477997,-10.254364,12.959862,21.646957,21.99646,-24.019547,-3.50481,5.824585,6.962643,-10.592974,-18.283741,-17.415283,-19.386727,-66.311575,-79.628083,-84.998948,-85.510952,-67.914029,-59.447924,-49.723408,-43.618886,-59.121604,-24.667931,-12.758932,-14.38692,-43.105647,-10.946002,-4.686362,-10.372649,62.213659,389.831246,-122.430353,143.236348
96,0.736313,-0.223228,2.18977,-7.861877,-35.337753,-63.783989,-86.380119,-104.484959,-62.166367,-94.729786,-111.247101,-123.974819,-50.338783,-86.492901,-105.168457,-120.073414,-37.700043,-69.402008,-87.626724,-102.387772,-25.677452,-49.365578,-62.92305,-74.727402,-12.677915,-3.975306,14.077056,28.410253,27.443056,46.798538,56.361824,63.539754,45.396803,65.933385,75.318089,82.857382,57.335381,79.36305,89.642517,96.771355,63.771812,84.966035,93.70273,100.182572,23.762455,42.388172,44.292412,27.510967,29.572048,39.384727,45.687218,51.23497,6.675797,22.782497,35.422497,43.027954,-14.019184,7.856083,17.432098,17.033558,-29.140091,-8.366203,2.387466,2.777309,-15.618964,-26.293017,-32.968607,-35.647463,-68.625703,-80.337409,-91.420435,-105.238418,-70.857579,-80.023038,-91.970878,-106.187521,-64.4879,-47.413078,-28.567655,-21.306794,-48.664604,-29.987482,-18.307145,-17.446838,63.202772,389.845233,-119.987783,135.611685
97,-1.9384,-0.529325,-0.053673,-8.575835,-35.721588,-64.533234,-87.580662,-104.967556,-61.668549,-95.107841,-111.305923,-123.366966,-49.267731,-86.433849,-105.026894,-119.243889,-36.262894,-68.523445,-87.021503,-101.705761,-24.12632,-48.196907,-62.098274,-74.354553,-12.177058,-3.860883,14.265827,29.751719,26.405032,46.769206,57.216326,65.02658,44.563605,66.971595,77.108419,84.713538,57.016996,80.586572,91.19764,98.447632,63.834303,85.900319,95.271191,102.217495,24.480457,42.15826,43.833447,28.064518,28.475075,36.931858,42.263088,48.589439,8.565388,21.892433,32.971687,41.172981,-11.554699,5.335121,15.988541,21.383686,-28.376141,-12.007828,-0.351791,6.263409,-16.420299,-28.615234,-39.31448,-46.239295,-69.99897,-83.088205,-98.325582,-115.119626,-74.112721,-84.482684,-98.033997,-112.351139,-70.315503,-61.088633,-40.774445,-27.099786,-57.683777,-47.166261,-32.312107,-23.750011,61.64197,389.49588,-119.663858,127.215821
98,1.028252,-0.513825,1.975765,-8.718602,-35.842781,-64.949341,-88.292599,-106.264572,-62.140617,-94.773846,-111.654797,-124.8666,-50.209808,-86.390362,-105.438938,-120.624619,-37.596016,-68.920555,-87.228584,-101.971493,-25.630531,-48.77655,-61.98864,-73.88134,-12.036823,-3.68156,14.723398,29.918692,25.898802,46.534987,57.43659,65.640811,44.359149,66.589792,77.223768,85.381986,56.726954,80.101893,91.572403,99.503502,63.503383,85.756317,95.624033,102.872173,23.889198,41.319122,41.401634,25.460587,27.328491,34.659119,39.596043,45.397911,7.217445,19.270763,29.016724,36.412239,-12.999516,3.342075,13.432961,18.724709,-30.050526,-14.392891,-2.977982,3.794746,-16.24076,-30.132812,-42.51979,-50.033827,-71.539705,-86.014588,-101.991087,-119.090548,-75.417384,-87.611114,-102.777756,-118.442446,-71.799952,-64.233149,-43.91924,-29.855552,-59.909015,-50.064208,-35.092636,-26.23139,62.893496,389.096725,-117.464819,118.611889
99,-0.433159,-0.952685,1.432457,-8.816724,-35.060577,-63.467216,-86.545773,-104.952621,-61.141777,-93.805275,-110.828876,-124.233856,-49.46022,-86.024151,-105.576954,-121.085243,-37.046471,-68.878098,-87.663574,-102.810745,-25.126991,-48.691635,-62.296028,-74.605408,-11.70689,-3.33551,14.95138,29.983901,26.694827,47.099139,58.024886,66.232813,45.195868,67.187536,77.365053,84.681551,57.67402,80.929781,92.140013,99.618543,64.477681,86.596246,96.587957,103.869874,22.983055,40.557232,41.951866,27.35836,27.503929,34.903736,39.809017,45.033073,7.348766,18.767452,28.055763,34.723778,-13.064346,1.735897,12.201519,17.487259,-30.465946,-16.067448,-4.431667,2.237778,-14.739731,-29.184819,-42.396104,-51.325028,-73.270445,-88.778259,-105.710222,-123.54831,-76.417648,-91.062808,-107.276644,-124.091343,-71.930214,-67.843171,-46.87977,-32.484638,-59.369841,-52.923283,-37.167326,-27.38532,62.480106,388.354701,-116.012592,110.005827
100,0.024605,1.455395,2.255287,-9.082004,-34.816933,-63.135109,-85.892143,-104.38591,-61.1269,-94.375534,-111.22982,-124.249249,-49.111633,-86.106205,-105.225449,-120.036736,-36.424026,-68.270531,-86.571808,-101.036568,-24.374886,-48.478661,-61.999054,-73.735428,-11.966674,-2.988905,16.311063,31.383227,26.686923,46.620758,57.404603,65.958826,45.069958,67.283681,77.891846,86.310836,57.456103,81.054702,92.073075,100.227588,64.201101,86.304043,95.592664,102.696184,23.923988,40.635395,39.242821,23.978977,27.244205,34.099216,38.752499,43.686447,6.613998,17.984505,26.458111,32.731018,-13.985195,1.00462,11.163025,16.604691,-31.739788,-17.237263,-5.077171,2.06852,-14.685915,-31.38934,-45.128436,-53.151111,-74.105064,-91.68942,-110.099811,-128.690853,-76.837921,-94.725348,-112.665788,-130.132139,-71.862752,-71.528374,-51.045422,-36.197721,-59.358973,-55.661482,-40.040542,-29.903502,62.711134,390.220552,-113.550882,101.334279
101,1.127701,-0.056378,0.947685,-10.210986,-36.010666,-64.887314,-87.778988,-105.447063,-61.250038,-94.295998,-111.556721,-125.253067,-49.237404,-85.64661,-105.206738,-120.679493,-36.629448,-68.069458,-86.863174,-101.989517,-24.796829,-48.34568,-61.941719,-74.141121,-11.252469,-2.246295,16.256352,30.784495,26.208666,46.78026,57.93084,66.702239,44.65691,67.134677,77.827996,86.173194,57.379965,81.092,92.27926,100.021712,64.488487,86.888758,96.537445,103.660849,24.643421,41.049671,37.804642,23.816128,28.803864,34.18705,38.980293,44.213104,8.96513,16.806908,23.631134,29.5784,-11.316662,1.751118,10.747604,15.894413,-29.700909,-15.717144,-3.859062,3.272152,-11.056967,-32.082303,-49.421139,-59.102369,-73.043883,-94.358859,-114.04486,-133.311266,-75.224074,-97.737132,-117.958539,-137.544134,-70.088755,-74.473127,-54.008114,-38.533955,-58.652703,-59.22411,-43.7196,-32.142602,64.071465,390.948481,-112.370567,91.9076
102,0.651054,0.892417,1.394234,-8.137377,-34.975891,-63.268661,-85.957088,-104.970646,-61.311722,-94.785862,-112.07365,-125.600452,-49.330559,-86.182251,-105.596409,-120.672913,-36.652336,-68.287354,-87.053204,-101.946201,-24.585457,-48.820381,-62.466087,-74.570732,-12.095856,-3.162424,15.389438,29.68367,26.387989,46.335533,57.1773,66.09727,44.579845,66.591212,77.227597,85.704755,56.976364,80.624487,92.014412,100.243211,63.810097,86.224509,96.011825,103.413971,23.196087,40.410347,39.622993,25.890141,28.699036,34.483624,39.091988,43.191147,8.989105,17.161045,23.51881,28.418198,-11.010075,1.272469,10.416355,14.916573,-29.408855,-16.58638,-4.930401,1.797295,-7.659367,-26.585189,-44.040548,-55.140895,-71.953463,-96.146071,-116.135883,-135.961563,-74.499155,-101.656924,-124.145653,-145.996777,-68.472222,-73.456592,-51.257967,-35.801191,-56.093271,-58.016828,-42.693432,-31.026896,65.137711,392.395849,-110.561142,84.325174
103,0.02758,-0.262378,1.773605,-0.334996,-34.778252,-63.351402,-86.054935,-104.711323,-60.842628,-94.410954,-111.608734,-124.915066,-49.032097,-85.885048,-105.283928,-120.506802,-36.590538,-68.229446,-87.236481,-102.48539,-24.670029,-48.397064,-62.086029,-74.38694,-11.258829,-2.272724,15.84565,30.097892,27.479736,47.43889,58.063233,66.676489,45.516043,67.029269,77.470214,85.937122,57.793137,80.831351,92.169159,100.250621,64.509297,86.657996,96.540038,104.027523,24.128494,40.720139,39.18457,26.097794,29.769573,36.406059,40.968647,44.227295,9.616642,18.476658,24.787846,30.624504,-11.108322,0.149117,8.995228,15.058365,-30.133438,-17.498188,-5.325794,2.747955,-5.248229,-25.760049,-43.332209,-54.803244,-70.181134,-96.400822,-115.038825,-133.167141,-72.899017,-103.305074,-124.684765,-143.978959,-67.261976,-72.170609,-47.956914,-29.786608,-55.044997,-58.018341,-41.396056,-27.896984,65.224571,392.612361,-108.728256,84.469068
104,-0.456848,1.236243,1.012287,8.914166,-34.101562,-62.706299,-85.817585,-105.095501,-60.483627,-94.711132,-111.609993,-124.441395,-48.655128,-86.479568,-105.835361,-120.793362,-36.261177,-68.57975,-87.75198,-103.03688,-24.722328,-49.329185,-63.378868,-75.777054,-12.555526,-3.322851,15.100878,29.30267,26.431832,46.735799,57.270296,65.734363,44.697789,66.935903,76.969913,85.109914,57.085292,80.96609,91.805264,99.614591,63.650596,86.607176,96.327308,103.742236,25.536289,39.643364,33.054314,20.300045,34.739285,40.954685,45.251598,48.357124,14.624977,25.947304,34.684982,41.701641,-5.99184,5.533333,10.598373,15.67091,-25.017471,-13.306046,-4.791584,2.257748,-11.591911,-27.105961,-37.268504,-46.828981,-68.913522,-95.482161,-111.90808,-128.215684,-72.713889,-98.288687,-112.834675,-126.336032,-70.515482,-59.99809,-35.162877,-16.393314,-60.099268,-46.094367,-27.816276,-14.212907,64.16748,393.946464,-108.316212,93.481093
105,0.161591,-0.826715,-2.771873,2.343366,-34.565392,-63.226662,-86.056538,-105.084686,-60.693626,-94.124966,-111.446228,-124.831181,-48.8134,-86.066551,-105.733509,-121.116829,-36.234856,-68.224983,-87.421303,-102.849998,-24.52755,-48.480835,-62.293739,-74.744568,-11.638162,-2.135144,16.293464,30.10277,26.406761,47.873242,58.756443,67.006484,44.60998,67.42509,77.879126,85.881732,57.042684,81.029632,92.465252,100.441985,63.712284,86.358692,96.230792,103.763108,25.763798,39.889755,44.203777,36.383972,31.821384,48.629379,54.505692,53.651619,9.070816,23.269901,29.685574,28.90377,-10.292759,7.385273,14.823818,14.94112,-23.891144,-9.835224,-1.448193,0.820599,-2.595617,-12.969223,-18.389674,-24.355628,-53.960505,-62.364952,-43.646241,-28.427574,-53.502502,-31.486566,-13.699082,-8.714867,-43.442063,-9.675394,-2.918386,-5.728184,-29.347254,1.687114,3.687395,-2.096735,63.848104,392.878104,-111.569052,95.582814
106,0.592575,-0.331044,-17.065372,7.12998,-34.594116,-63.355408,-86.125603,-105.283012,-60.923424,-94.527225,-111.919384,-125.372658,-48.851624,-86.228828,-106.042614,-121.550503,-36.130257,-68.225098,-87.523613,-102.980862,-24.203453,-48.260078,-62.223701,-74.851799,-11.758884,-2.153484,16.543059,30.343411,26.870198,48.477531,59.185794,67.338639,45.098425,68.055994,78.488787,86.465088,57.501984,81.366542,92.859776,100.975138,64.141079,86.654168,96.720411,104.558021,32.846832,58.243389,69.418316,67.298012,56.705418,67.135735,61.159115,58.103485,30.587654,44.787025,46.638737,45.376339,8.391552,21.579094,28.329964,31.224346,-10.271473,3.726597,10.714817,13.373852,2.917398,12.585166,30.649261,42.35257,-28.298176,18.341848,38.636739,40.768548,-29.778457,23.272866,40.218352,41.987378,-21.29077,29.011764,45.54451,45.750201,-5.991488,27.066749,40.632883,43.280432,64.284239,392.205966,-128.790865,102.371701
107,0.506172,0.21909,16.606922,13.99005,-34.322319,-63.56266,-86.743298,-105.808697,-61.327171,-95.498257,-112.616272,-125.569382,-49.218864,-87.341309,-106.778755,-121.903381,-36.447258,-69.234009,-88.49453,-104.026566,-24.504318,-49.522705,-63.801842,-76.61396,-12.008047,-2.468349,16.087032,30.248439,27.044149,48.427267,59.080818,67.282631,45.290593,67.947313,78.260064,86.366843,57.692669,81.350178,92.600794,100.621123,64.299098,86.686525,96.763884,104.67899,29.712925,48.667946,47.887974,43.140335,44.051342,53.120899,54.07568,53.715134,18.40044,29.756813,32.533894,32.931862,-5.58197,6.33791,11.499767,13.421917,-25.329723,-12.448883,-4.555321,-0.929947,10.849115,37.338375,68.26082,89.767068,11.750733,55.332383,82.259206,98.709269,12.375524,68.439464,80.963126,78.640199,18.60756,75.884032,76.334933,65.209979,27.083607,71.609421,72.611198,64.125333,64.237633,391.384254,-112.736721,115.320948
108,0.705414,-0.251262,-17.023029,24.65873,-34.694824,-63.833084,-86.90815,-106.104183,-61.597023,-95.379353,-112.975273,-126.784344,-49.485512,-87.343197,-107.059479,-122.702236,-36.895065,-69.703445,-89.075603,-104.83984,-25.223465,-50.352173,-64.833298,-77.74704,-12.223679,-2.363929,16.713243,30.744048,27.370561,48.464008,59.140099,67.400575,45.742544,67.965776,77.978791,85.698333,58.038842,81.534071,92.403069,99.99306,64.615631,87.020471,96.815692,104.272981,30.880451,53.142643,61.497974,61.531048,53.969078,65.195961,71.562252,76.916428,35.111561,46.324768,55.506191,63.344421,15.754051,21.818962,29.319019,36.011581,-2.262268,4.420338,8.812065,12.677135,3.140811,18.926501,38.252528,53.539213,15.058517,42.791615,64.729622,84.15871,19.495037,51.916103,75.37669,95.436003,24.17294,56.458896,74.462475,87.938638,28.104589,53.543906,66.944301,77.474166,63.123493,390.449383,-131.579304,139.29607
109,1.375809,1.345294,16.053429,22.873464,-34.169312,-63.083954,-86.433392,-105.850697,-61.913795,-96.419792,-114.369507,-127.942829,-50.018806,-88.362465,-108.378811,-123.816605,-37.625542,-70.844536,-90.358887,-105.766983,-26.205254,-51.562157,-65.878487,-78.242455,-13.274795,-3.735653,15.670217,30.002302,26.874212,47.4195,57.722618,65.591102,45.736245,67.336972,76.834123,84.134875,57.968879,80.969301,91.33806,98.648074,64.147378,86.148988,95.26446,102.194524,30.092525,54.080143,60.710335,56.91576,46.268692,58.841057,54.751854,50.628777,21.000996,36.538639,38.397732,39.031677,-2.394791,10.964699,11.758976,11.888351,-21.342144,-8.800106,-6.040592,-5.55336,14.301889,40.738352,69.015348,90.544938,22.772996,72.835722,85.728714,83.907016,22.716248,78.530963,84.886068,79.462777,26.382555,78.917891,71.402372,57.638576,32.787987,74.466242,68.205059,57.715455,62.628765,390.561152,-117.396412,160.936008
