YashyHoby/handMotion-similar-search/project/data/handData/tgt/d4_feature_d2/6.csv
,vel_0x_L,vel_0y_L,vel_0x_R,vel_0y_R,posFromWrist_1x_L,posFromWrist_2x_L,posFromWrist_3x_L,posFromWrist_4x_L,posFromWrist_5x_L,posFromWrist_6x_L,posFromWrist_7x_L,posFromWrist_8x_L,posFromWrist_9x_L,posFromWrist_10x_L,posFromWrist_11x_L,posFromWrist_12x_L,posFromWrist_13x_L,posFromWrist_14x_L,posFromWrist_15x_L,posFromWrist_16x_L,posFromWrist_17x_L,posFromWrist_18x_L,posFromWrist_19x_L,posFromWrist_20x_L,posFromWrist_1y_L,posFromWrist_2y_L,posFromWrist_3y_L,posFromWrist_4y_L,posFromWrist_5y_L,posFromWrist_6y_L,posFromWrist_7y_L,posFromWrist_8y_L,posFromWrist_9y_L,posFromWrist_10y_L,posFromWrist_11y_L,posFromWrist_12y_L,posFromWrist_13y_L,posFromWrist_14y_L,posFromWrist_15y_L,posFromWrist_16y_L,posFromWrist_17y_L,posFromWrist_18y_L,posFromWrist_19y_L,posFromWrist_20y_L,posFromWrist_1x_R,posFromWrist_2x_R,posFromWrist_3x_R,posFromWrist_4x_R,posFromWrist_5x_R,posFromWrist_6x_R,posFromWrist_7x_R,posFromWrist_8x_R,posFromWrist_9x_R,posFromWrist_10x_R,posFromWrist_11x_R,posFromWrist_12x_R,posFromWrist_13x_R,posFromWrist_14x_R,posFromWrist_15x_R,posFromWrist_16x_R,posFromWrist_17x_R,posFromWrist_18x_R,posFromWrist_19x_R,posFromWrist_20x_R,posFromWrist_1y_R,posFromWrist_2y_R,posFromWrist_3y_R,posFromWrist_4y_R,posFromWrist_5y_R,posFromWrist_6y_R,posFromWrist_7y_R,posFromWrist_8y_R,posFromWrist_9y_R,posFromWrist_10y_R,posFromWrist_11y_R,posFromWrist_12y_R,posFromWrist_13y_R,posFromWrist_14y_R,posFromWrist_15y_R,posFromWrist_16y_R,posFromWrist_17y_R,posFromWrist_18y_R,posFromWrist_19y_R,posFromWrist_20y_R,posFromBody_0x_L,posFromBody_0y_L,posFromBody_0x_R,posFromBody_0y_R
2,-19.162502,-0.763791,1.43858,-1.214445,34.555035,59.694958,78.543262,97.032108,52.705479,84.347477,88.521023,88.381176,33.66766,63.791485,69.080715,68.418102,12.666149,25.051632,20.09737,10.919552,-7.717152,-17.647419,-25.75098,-33.943348,-7.970126,4.262693,22.694203,37.425196,39.834882,63.479362,65.298405,62.352046,54.114912,77.194869,81.549014,81.499614,60.435931,90.329676,107.684938,119.148408,59.019253,87.910604,104.474719,118.703743,33.024216,62.676659,85.665436,104.502411,66.034813,94.353905,100.699539,97.670059,50.985146,82.714462,91.984749,91.642914,33.995819,65.118141,77.031212,80.391197,17.324867,43.055878,56.429901,63.196106,-12.082394,-4.74768,10.006037,20.387825,19.444834,50.514986,59.105951,59.124043,36.626022,66.779736,74.104076,73.491512,50.574081,78.955374,85.510303,85.58144,60.22283,85.083052,91.199307,91.33522,-30.418425,367.219511,-38.008776,371.20902
3,19.405804,1.255324,0.182648,0.738226,-24.864693,-36.285954,-37.313004,-40.021362,-15.238609,-13.591061,-29.675045,-46.870537,4.383087,12.00737,-6.667671,-22.423382,22.682762,31.564522,10.35141,-6.31176,37.623367,45.183449,29.034576,14.716072,25.944065,57.723421,82.65095,95.59359,59.344616,101.15372,113.527947,121.402174,53.007356,93.660925,103.888276,107.322278,42.459028,83.651122,90.813305,91.576046,34.427769,64.599329,70.114444,69.997427,32.833214,62.477646,85.570679,105.107689,66.166534,93.975105,100.410919,97.907295,51.02726,82.10804,91.200943,91.04084,33.651695,64.050865,75.865288,79.434586,16.478233,41.757202,54.935989,62.390671,-13.37446,-6.335407,8.37669,18.322088,18.57934,49.564277,58.831594,59.412294,36.091263,66.269245,73.912526,73.268716,50.012029,78.395359,85.057302,85.233353,59.287497,84.138518,90.372839,90.834918,-11.778288,368.511129,-38.591795,371.98354
4,-15.336628,-3.686067,0.066662,-0.442318,31.714039,54.953327,72.371235,88.125172,47.356625,76.721592,84.049931,89.221973,28.765469,59.638767,67.459545,69.145947,8.327236,26.766758,26.964054,21.90897,-11.342068,-19.224129,-26.325588,-33.358841,-6.347819,5.870118,25.550591,43.012188,39.86409,64.848986,72.098731,74.405294,54.06545,78.926536,84.768804,85.369945,60.304094,91.436984,106.228369,115.910031,59.172888,88.786039,105.110131,120.304376,32.792873,62.351704,85.345516,104.946728,66.229305,93.699703,100.359936,98.228474,51.118526,81.847057,91.234188,91.445675,33.644543,63.931789,75.977612,79.796734,16.322765,41.491642,54.691601,62.072353,-12.865884,-5.758905,8.759234,18.504684,18.905259,49.675613,58.924281,59.618047,36.083359,66.37311,74.170766,73.708503,49.916563,78.684536,85.464299,85.751006,59.234391,84.497905,90.910377,91.536032,-27.772722,364.844421,-39.18294,371.560581
5,15.519619,2.272786,0.021629,0.675858,-11.002693,-18.525352,-22.378635,-25.418587,1.708946,5.392799,-10.996399,-27.284088,9.280701,13.873901,-7.108154,-22.769508,14.518204,17.352676,-7.537537,-25.206585,17.260895,17.185707,-0.966568,-15.386353,30.192802,63.329185,88.257023,100.14441,63.284601,101.927577,110.822229,117.556359,55.672998,94.2047,104.949642,110.138405,43.631297,85.136528,97.095051,102.516799,33.474157,64.487252,76.027045,81.718581,32.136898,61.676502,84.979076,105.034733,66.331387,93.572216,100.367718,98.634968,51.599636,82.030735,91.215076,91.356983,34.293652,64.213085,76.086788,79.911404,16.86533,42.078609,55.159664,62.744122,-13.754534,-7.194479,7.321993,17.043484,18.151163,48.614926,58.243915,59.515541,35.593864,65.343051,73.297492,73.147006,49.629918,77.814843,84.646909,85.221929,59.165107,83.9382,90.265764,91.111621,-12.885303,367.158641,-39.79351,372.277873
6,-18.78067,-2.082718,-0.008297,-0.049277,32.972832,54.577904,70.079384,88.020287,49.112778,77.78286,84.125633,88.290596,31.171188,57.285347,64.039536,65.457344,10.952682,20.323906,16.111336,7.784729,-9.017429,-19.657459,-27.184124,-34.960442,-5.848073,7.523855,26.926638,42.316384,41.558707,66.579418,74.129826,77.254273,54.099536,80.558661,88.240968,90.600575,59.578959,92.427708,111.114926,123.968275,58.062616,88.539531,104.966685,119.544969,32.257233,61.682854,84.757347,104.786568,66.100388,93.529472,100.316391,98.526649,51.388092,82.095108,91.221657,91.223259,34.184647,64.487915,76.39492,80.145836,16.972618,42.533455,55.74646,63.068848,-13.151911,-6.466812,7.964815,17.667596,17.983881,48.010328,57.860507,59.468549,35.304316,65.041338,73.025605,72.888087,49.490609,77.900306,84.663952,85.157153,59.319792,84.307529,90.512951,91.085439,-31.909904,364.974498,-40.045738,372.127172
7,17.342949,1.870111,0.431786,0.352904,-9.433594,-15.712681,-18.834858,-21.368065,4.553604,9.964485,-7.12326,-24.07608,11.112099,15.821228,-6.459389,-23.10339,15.164795,17.790184,-8.052063,-26.52895,16.869164,15.808868,-3.435745,-18.681335,28.571977,60.283963,85.07311,96.547078,61.69743,100.34868,109.220609,115.819752,55.592476,94.80973,105.713,110.711017,45.03155,87.683856,99.756926,105.253207,36.153508,68.540302,80.335866,86.169859,32.184219,61.707802,84.736404,104.344139,66.082764,93.530617,99.724731,97.098885,51.28727,81.66584,90.853386,91.066933,34.115295,64.005432,75.879135,79.851952,16.90773,41.837196,54.677353,62.020111,-13.838082,-7.35046,7.112042,17.007978,18.111952,48.200334,57.068434,57.613011,35.398856,64.64064,72.287749,71.951148,49.351732,77.445267,84.330809,85.052362,58.872472,83.765113,90.164926,91.096678,-14.818869,366.773997,-39.865866,372.409464
8,-17.812042,-0.558162,0.04303,-0.146163,33.359413,53.951111,69.568863,87.864304,48.800926,77.583389,83.88485,87.945557,30.661697,56.228142,62.866631,64.568024,10.339279,18.573875,13.702469,5.164032,-9.539566,-19.801254,-26.875191,-34.172001,-7.033372,5.815839,25.027133,39.307348,39.05201,62.651042,71.034895,75.269244,52.015274,78.349355,87.133536,90.039943,58.089107,90.456079,109.625383,123.395725,57.175447,87.588143,103.415391,117.259772,32.085457,61.454773,84.412766,104.314384,65.842896,93.236389,99.968834,98.074379,50.995102,81.407776,90.643044,90.87925,33.682365,63.565979,75.405693,79.406776,16.369858,41.371307,54.294662,61.675529,-13.363098,-6.818666,7.586285,17.48784,18.183335,48.064977,57.942079,59.464473,35.44943,65.162925,73.264641,73.108659,49.464612,77.796812,84.738361,85.360126,59.098788,84.162786,90.561178,91.301442,-32.965908,366.224465,-40.157833,372.27193
9,18.223915,2.682438,0.524483,0.324128,-16.266861,-24.010906,-25.675049,-27.140808,-1.51783,7.598763,-9.245453,-27.162151,9.885864,20.16655,-1.354179,-18.357925,18.985977,26.045952,0.241699,-19.004631,25.452003,27.741623,7.932816,-8.324203,26.587566,57.63697,81.597056,92.493904,58.988007,97.789496,106.659017,112.784534,53.189088,91.417718,101.368735,105.86046,42.757159,84.409973,95.227286,99.835164,34.355521,65.453399,75.376752,79.584054,31.75724,61.046791,84.014168,103.965225,64.979668,93.056946,99.483032,96.98204,50.118141,81.342659,90.693512,90.815506,32.933235,63.409424,75.294228,79.195633,15.83622,40.652504,53.437958,60.924454,-13.664934,-7.342,6.912712,16.593879,18.254842,48.311423,57.484817,58.266268,35.405957,64.69109,72.270768,71.915888,49.282386,77.284469,83.913129,84.569906,58.703894,83.756592,90.191849,91.215794,-14.820642,368.876198,-39.712,372.565352
10,-16.511478,0.315051,0.31826,0.293561,31.532307,52.562656,67.825642,84.125004,46.995678,75.747128,82.513103,87.639599,28.60445,54.463406,60.457821,61.589527,8.144703,18.511448,14.678936,7.052708,-11.360435,-20.6464,-27.77956,-34.763889,-8.521742,4.149381,22.63239,37.132746,35.281715,58.6364,67.627693,72.401864,48.476049,74.547197,84.172419,88.098819,54.826277,87.435434,106.498095,120.176491,54.187592,84.194587,99.549815,113.581547,31.675644,60.874329,83.720284,103.547401,65.054283,93.21682,99.222107,96.107483,50.195045,81.273308,90.475616,90.311737,32.921333,63.238564,75.051041,78.755264,15.752907,40.265465,53.049088,60.506516,-13.903846,-7.491745,6.719433,16.393376,17.9041,48.564229,57.438936,57.604489,35.053177,64.714617,72.194383,71.548967,49.038657,77.284778,83.900038,84.400278,58.564708,83.875399,90.429465,91.325525,-31.347342,369.179778,-39.40896,372.847444
11,16.984234,0.570574,-0.401745,0.181484,-22.554474,-32.661209,-35.135021,-39.448357,-11.538506,-8.750954,-25.240288,-42.134056,5.936966,14.70623,-3.009796,-17.963676,22.480545,32.450981,11.482658,-5.18692,36.146507,44.220543,29.085045,16.083069,29.993225,63.840416,89.990543,104.92982,59.606808,98.392427,110.917943,119.804074,50.061924,88.469692,98.880441,103.29893,37.097054,77.124968,85.625838,87.717386,27.49258,57.59887,64.658548,65.725657,31.748028,61.14584,84.305935,104.092999,65.813999,93.731403,99.899311,97.238102,51.096668,81.937809,91.086903,91.224575,33.726597,63.804989,75.578671,79.407635,16.279049,40.575428,53.194599,60.635662,-14.411311,-8.013104,6.540665,15.884861,17.298019,47.892446,56.960988,57.499267,34.641919,64.191715,71.634615,71.135734,48.704835,76.519443,83.349533,84.180446,58.216004,82.896532,89.587436,90.925753,-14.298306,369.740719,-39.745903,373.019295
12,-14.676704,-2.641991,-0.27895,-0.48542,30.654144,53.118324,69.429131,86.889153,46.010742,75.114212,83.093719,89.078064,27.977829,57.047653,65.307655,67.528152,8.185844,22.88681,21.918411,15.906601,-10.797958,-18.45892,-24.870186,-31.597252,-7.355153,5.422921,24.250066,39.807774,37.592478,61.767393,69.941295,74.053873,51.034122,76.148879,83.642724,85.277072,57.228059,88.966412,106.27215,117.601313,56.106857,85.574771,102.002295,116.750886,31.711006,61.368713,84.321671,104.015007,65.994072,93.762016,100.063705,97.23175,51.375275,82.289886,91.59359,91.41758,34.148254,64.58519,76.061897,79.49913,16.770401,41.788673,54.291,60.671196,-14.088295,-7.195096,7.593201,16.890714,17.406885,48.64012,57.410655,57.516063,34.724912,64.751112,72.185676,71.505927,49.018774,77.37339,84.027861,84.428004,58.95281,84.321299,90.399269,90.637687,-28.849382,367.064317,-39.899225,372.499465
13,10.871658,0.122513,0.064201,-0.229032,3.695412,5.545578,9.644737,11.899796,14.834976,28.460541,14.635277,-0.163994,14.814835,24.986115,6.524963,-8.73848,13.030472,16.851311,-7.160568,-25.191994,9.659271,7.124748,-11.487408,-25.811405,24.113783,54.854743,79.119321,89.655053,61.058066,93.923612,98.060951,101.935234,56.665945,90.72704,98.565699,102.769667,47.234249,86.49868,97.406335,104.336892,38.088457,69.197573,80.628995,88.066091,31.536369,61.25061,84.612122,104.877548,66.016502,93.567924,100.432549,98.590851,51.17466,82.205544,91.212387,91.282082,33.702393,63.859291,75.638466,79.54319,16.156769,41.044006,53.887138,61.263542,-13.785532,-7.036583,7.49897,16.181572,17.842041,48.60764,58.409035,59.716415,35.152657,65.229677,72.741244,72.269965,49.048846,77.412354,84.354459,85.159376,58.544825,83.343296,89.626215,90.629536,-17.674685,367.115138,-39.531984,372.19874
14,-19.966221,-0.761444,-0.340691,0.162465,32.44566,59.168987,79.197292,99.364643,58.691082,89.72311,93.79549,92.125454,42.358074,76.884327,82.963886,81.626644,24.1012,49.134579,54.1749,53.015957,5.01852,6.294365,4.561729,1.655102,-9.940211,1.669422,20.850829,34.233934,32.525424,58.151721,64.085627,65.592893,49.42256,74.079499,77.206046,75.546566,60.23833,87.837862,96.927337,101.694283,63.63312,92.877498,108.725309,122.304842,31.368713,61.094398,84.401779,104.922752,66.051865,93.828163,101.098366,99.586945,51.53801,82.798233,91.811829,91.598854,34.335594,64.699631,76.384392,80.050507,17.011757,42.272987,55.191994,62.645187,-14.085269,-7.239248,7.549544,16.278335,17.277951,47.579989,57.702919,59.459472,34.670016,64.392403,72.225381,71.982394,48.741823,77.067355,84.073371,85.006543,58.385694,83.294575,89.832956,91.116129,-37.407789,366.32024,-39.639559,372.327752
15,24.488926,-0.64381,0.000973,0.001914,-24.06126,-34.250336,-35.639591,-37.96463,-8.365631,0.851898,-14.199543,-30.325928,10.22541,28.319092,13.062744,-1.726913,26.101913,43.30925,25.679169,9.726791,38.405457,50.07534,37.895622,25.777016,27.881855,61.203797,85.017164,97.145933,62.552612,100.845277,110.762208,116.447692,53.363286,91.579319,96.550474,96.185344,39.995248,79.427208,83.548431,82.765868,28.730367,57.66976,62.767997,63.401,31.304798,61.080265,84.43594,105.066776,66.174259,93.767338,101.085377,99.916248,51.629848,82.822666,91.971874,91.93285,34.494724,64.80566,76.548214,80.349483,17.201672,42.298336,55.230732,62.74538,-13.83271,-7.235481,7.421412,16.240358,17.691678,47.413881,57.356747,59.293487,35.138084,64.198816,71.787386,71.560268,49.188958,76.989426,83.789752,84.75491,58.799977,83.292908,89.831659,91.208384,-12.560492,365.65985,-39.280214,372.313087
16,-22.437401,-0.582862,0.098534,0.417865,32.768784,59.178429,78.539886,98.081589,56.156158,87.330093,93.109016,93.96595,39.002266,72.519493,79.037132,78.961487,19.422569,40.546532,41.476822,36.831093,-0.548286,-4.22081,-9.395313,-15.249252,-8.285547,3.941467,22.262938,36.693392,37.542583,61.506807,64.659844,63.205437,52.992598,76.051005,78.797169,77.591924,61.390531,89.426514,102.124128,110.575042,62.032673,91.0135,108.162824,123.830448,31.232929,61.018696,84.456997,105.112209,66.147823,93.816204,101.177845,99.741383,51.676884,82.723103,91.829052,91.508274,34.594517,64.641552,76.409512,79.926968,17.428951,42.410374,55.35696,62.654858,-14.128927,-7.591596,7.000644,15.784764,17.311543,47.217144,57.179646,59.01104,34.837483,64.039438,71.511732,71.08374,49.002225,76.881795,83.533796,84.266032,58.782131,83.278211,89.510248,90.484608,-34.631653,365.084769,-38.815441,372.738732
17,21.673164,0.356115,0.192947,0.445035,-24.248028,-33.615932,-33.195534,-35.426559,-10.889168,-4.181442,-21.121845,-38.729153,8.145561,24.915733,8.420105,-7.237244,25.659142,44.57634,26.191864,9.039803,39.887466,53.940353,41.432877,28.32653,28.418898,62.574471,88.010269,101.780734,62.19767,102.380331,113.613225,120.227064,53.491541,91.730978,98.430404,99.135223,40.425216,79.250232,83.536513,82.831756,29.18627,57.587076,62.308142,62.375141,31.346111,61.189213,84.636898,105.141163,65.619564,93.840466,101.049213,99.206142,51.116467,82.991924,91.999226,91.26646,34.279346,65.024014,76.75066,79.878788,17.420254,42.559261,55.421848,62.253399,-14.154615,-7.872622,6.513557,15.372333,17.37459,47.143414,56.774749,58.247435,34.921649,63.81374,70.694033,69.847188,49.156415,76.729333,82.800078,83.049302,59.035432,83.479764,89.386315,89.834746,-12.668839,365.490114,-38.332844,373.232998
18,-22.2052,-1.715056,0.241241,0.247496,32.517586,60.346184,80.844841,97.988319,57.838097,90.037766,92.53727,89.872627,40.586929,76.317215,81.174431,78.783531,21.680145,46.665573,48.387451,43.851013,2.386951,2.017708,-1.821556,-6.975632,-7.937707,4.416822,22.783679,38.576038,38.713618,64.307805,62.692106,56.76666,54.286393,76.828689,76.013831,72.163137,63.324986,90.627251,99.562659,104.251924,65.134458,93.484751,109.195291,123.050416,31.309834,61.05154,84.394398,104.767971,65.916882,93.973446,101.020489,99.121113,51.452808,83.017902,91.940861,91.274815,34.434528,64.932575,76.617565,79.888515,17.35239,42.319622,54.983654,61.701336,-14.676776,-8.214781,6.348869,15.098099,16.930851,46.82509,56.608887,58.119241,34.619627,63.863943,70.815002,69.845459,48.949675,76.81955,82.894494,82.917095,58.754158,83.482111,89.374335,89.555882,-34.601326,363.813528,-37.81889,373.518964
19,22.192039,2.124276,0.275116,-0.384952,-24.68977,-34.043083,-33.425446,-35.21307,-13.256664,-9.084778,-25.300655,-42.657337,5.831337,19.271049,1.635818,-13.746185,23.957748,39.245796,20.210609,4.565277,39.014626,50.113449,36.020393,22.898598,27.538337,60.180964,84.62579,96.80927,63.997324,104.688499,116.451767,124.04009,56.13168,94.974912,104.062103,106.305804,43.302168,81.873204,86.606497,85.779288,32.742971,60.51491,64.223392,62.896747,31.593761,61.236477,84.278927,104.528561,65.355091,93.531361,100.934887,99.405384,50.670033,82.476482,91.974392,91.73418,33.698559,64.679432,76.734066,80.276012,16.732922,41.843319,54.754314,61.619968,-14.053097,-7.714417,6.963285,15.797546,17.375578,47.243202,57.080228,58.577614,35.013039,64.210301,71.389034,70.591033,49.280657,77.138059,83.2122,83.228934,59.081189,83.821553,89.78584,89.919962,-12.284546,365.98969,-37.419033,373.185898
20,-20.316753,-1.52789,-0.158787,0.462758,33.373547,60.437222,80.458889,97.158909,55.689182,87.470913,90.399799,87.841473,37.003269,69.485607,74.689808,72.155628,16.296787,35.091648,32.866001,24.710827,-4.253025,-11.775341,-19.613628,-28.393879,-7.304333,4.305547,22.942069,39.53953,41.498253,66.898791,65.2185,59.10453,56.326194,78.800071,80.214958,78.224063,63.771194,92.24116,106.046267,114.799697,63.090581,91.614825,108.034939,122.609951,31.611443,61.028137,84.261932,104.972305,64.924164,93.476028,101.397285,100.399132,50.265198,82.495079,92.385292,92.44812,33.399696,64.694824,77.014503,80.607033,16.664543,42.340965,55.591965,62.703094,-14.388525,-8.455175,5.899634,14.84801,16.508787,46.898326,57.12827,58.869508,34.198551,63.737787,71.233114,70.478771,48.61999,76.518455,82.602662,82.585618,58.567116,83.310568,89.185564,89.347968,-32.542334,364.482656,-37.518854,373.669512
21,19.600124,4.654684,-0.231686,-0.076818,-16.819153,-22.657528,-22.171898,-23.332157,0.192947,12.252731,-2.738342,-18.410625,11.566658,24.416313,5.140915,-10.137978,20.614815,30.487175,6.291161,-12.050171,26.972466,31.01223,12.522926,-2.768669,28.424147,60.887141,87.04264,101.18935,59.492014,94.43509,103.472942,110.382628,52.451726,87.870034,98.429107,103.921003,41.171161,80.337162,91.452175,96.846073,31.849319,61.398929,71.785595,76.507155,30.791531,60.372334,83.887653,104.834576,65.243282,93.354092,101.51762,101.482143,51.093693,82.646427,92.326641,92.689419,34.402599,65.206089,77.284756,81.002254,17.58894,43.16534,56.207829,63.464985,-14.419894,-8.661483,5.655288,14.172028,15.999593,45.834182,56.652051,59.424027,33.8475,63.016419,71.003526,70.859277,48.499391,75.91361,82.2823,82.701215,58.639735,82.87813,88.87181,89.418796,-12.851486,369.175656,-37.659817,373.63101
22,-16.078033,-1.846029,0.464973,0.357164,30.630226,51.421394,67.972641,85.755157,47.59449,74.062271,83.283234,90.686417,30.71949,57.356987,66.260834,69.915504,11.758919,24.587517,24.803009,19.992256,-7.598019,-14.463673,-19.348297,-25.284805,-5.303311,6.606985,24.820763,39.117774,36.845421,57.08134,65.665944,70.913494,49.793556,73.059568,82.677133,86.628294,55.916851,85.985164,104.522205,117.678439,54.909701,83.583258,99.643861,114.421846,30.929775,60.086231,83.257084,103.802319,64.438076,93.286228,101.034794,99.614582,50.165348,82.942829,92.423,91.835918,33.776722,65.738125,77.91441,81.06451,17.566051,44.091511,57.442303,64.283466,-14.14739,-8.41831,5.712284,14.656152,15.864113,45.724142,55.557093,57.0362,33.566474,62.693526,69.65465,68.771063,48.370703,76.07305,81.611135,81.358144,58.921873,83.195713,88.477349,88.239795,-28.854733,367.390606,-37.120056,374.049153
23,15.43808,0.111768,-0.147285,-0.334131,-20.777149,-28.701267,-29.157658,-31.546383,-4.583588,5.601883,-9.144974,-24.98251,10.836411,27.335014,10.885963,-3.695755,24.628601,39.840775,19.742661,2.991714,35.757294,45.179901,31.096687,17.923508,30.151615,64.150033,89.73823,103.828131,63.696847,100.993108,110.797097,117.164614,54.329371,90.820345,99.057047,101.566831,40.490733,78.472918,86.028142,87.615745,29.04054,57.280547,64.590437,66.340691,30.985508,60.194378,83.290615,104.046078,64.759426,93.339787,101.094875,100.19228,50.510731,82.761326,92.493153,92.542706,33.842297,65.573902,77.834644,81.305065,17.28796,43.753223,57.147045,64.039478,-14.413472,-8.468328,5.771255,14.496033,15.632487,45.718214,55.979712,57.920775,33.600128,62.993757,70.521132,70.059239,48.529649,76.286582,81.970399,81.719384,58.920144,83.189538,88.48198,88.076527,-13.340006,367.539764,-37.190695,373.752412
24,-18.295841,-1.280518,-0.153408,0.087315,34.315739,58.9781,77.452984,96.19463,52.880688,82.184544,90.310764,96.274395,34.796162,64.887943,72.623234,74.668751,13.961849,29.631786,28.201847,21.907711,-7.022438,-14.584866,-21.455097,-28.841915,-8.208853,3.959869,23.898706,39.326985,37.951186,60.096674,67.757245,70.933563,51.556592,76.019327,82.3585,84.224351,57.600229,88.56701,106.154207,118.529731,56.488227,86.103107,102.394595,117.283731,30.967941,60.632172,83.943329,104.287949,65.06218,93.615074,100.979805,99.33609,50.81337,82.854881,92.115211,91.898804,34.191513,65.480118,77.3283,80.863838,17.616348,43.770905,56.677208,63.319016,-14.206423,-8.460856,5.562601,14.377472,15.727212,45.409277,55.376164,56.980254,33.446184,62.734343,70.427209,70.116852,48.277707,76.004815,82.074016,82.111684,58.835052,83.271974,88.820125,88.641111,-31.526413,366.326925,-37.234669,373.907405
25,18.567524,-0.222795,0.106373,-0.721677,-16.119404,-21.421108,-18.604488,-18.201256,-2.361603,2.68261,-13.347073,-29.212189,10.198975,19.414787,0.948143,-13.501568,20.719299,29.161148,6.394958,-10.657425,28.456192,33.202286,16.131706,1.824989,23.917293,54.474052,79.650807,93.100417,63.353082,98.769599,109.683737,118.835642,59.040557,93.187855,102.471659,107.393847,49.1206,86.441314,95.185111,99.285523,39.767265,68.100083,76.974914,80.705812,31.608982,60.812473,83.828144,104.162922,65.169582,93.603802,100.722141,98.99065,50.942745,82.659817,91.694012,91.651211,34.251537,65.221653,76.758556,80.41151,17.464428,42.939777,55.577602,62.093182,-13.965103,-8.027183,6.173189,15.000348,16.174409,45.657143,55.661327,57.586705,33.708068,62.786213,70.47062,70.352615,48.329022,75.858282,82.213758,82.594387,58.69284,83.238814,88.780543,88.629193,-12.801218,366.202405,-36.970625,373.284004
26,-16.250153,0.666225,-0.401688,0.215571,31.5065,55.330009,73.649712,92.541504,48.063812,78.323593,88.208199,94.869232,30.90889,60.871239,69.887466,71.921539,12.128906,27.146759,26.424408,19.808121,-6.24218,-12.507362,-17.905655,-24.713802,-7.978832,3.880705,22.44257,37.054817,35.696061,57.431403,65.356698,70.213985,50.543577,74.668166,82.399997,85.057364,58.065765,88.486982,106.168471,119.183976,58.28362,87.68787,103.985224,118.548873,31.643772,61.089878,84.253635,104.816036,66.147022,93.76997,101.026897,100.258312,51.921101,82.138538,91.307316,92.19183,35.10767,64.748898,76.472225,80.738811,18.142033,43.021717,55.735188,62.848949,-13.952629,-8.40207,5.305225,14.078168,15.879489,45.485539,55.761301,58.111522,33.285695,62.428679,70.800429,71.330371,47.768204,75.053674,81.824359,82.490276,58.095652,82.227034,88.015764,88.350081,-28.843746,366.964389,-37.164688,373.595334
27,16.703911,-0.177224,-0.177841,-0.03421,-14.340534,-20.562172,-21.017532,-21.496124,-0.048409,5.543175,-10.876923,-27.094803,10.416412,16.87088,-3.94455,-19.651051,18.744164,23.780022,-0.738945,-18.768883,24.705391,26.346474,8.093834,-7.038002,26.459743,57.56219,82.358809,94.542104,62.675989,99.327699,109.514788,117.695544,57.435664,93.670744,104.403892,109.835149,46.735491,85.743782,96.726895,102.076395,37.032031,65.802227,76.275961,81.233284,31.634617,61.010571,84.044437,104.454288,66.091747,94.003086,101.399288,100.162067,52.029018,82.982426,92.06892,92.09753,35.493107,65.638905,77.094669,80.725422,18.727169,43.767986,56.476421,63.023815,-13.640604,-7.615802,6.506332,15.50454,16.580356,45.071379,54.978059,57.275051,33.934815,62.403052,69.94358,69.989275,48.305371,75.12376,81.037412,81.116267,58.571316,82.525721,87.974515,87.825635,-12.000961,366.897668,-37.203655,373.671627
28,-18.09082,0.7754,-0.357227,0.268923,32.312279,55.052147,72.866821,91.185379,48.543091,77.664299,87.255821,94.298744,30.675774,58.181648,66.96991,69.449387,10.969505,22.663536,21.048088,14.124641,-8.120441,-16.591759,-22.561512,-29.744282,-8.253251,3.2159,22.676172,38.904983,36.046556,57.330997,65.86725,71.428245,50.622555,74.503478,82.858308,86.632246,57.588064,87.964882,106.421833,120.483761,57.114253,86.757723,102.614056,117.20963,31.851768,61.240082,84.487724,105.123711,66.484909,94.1185,101.642303,100.841446,52.457542,83.066368,91.990814,92.190056,35.773201,65.589867,77.20356,81.018448,18.764534,43.953323,56.717262,63.395119,-13.727364,-8.027862,5.626883,14.254836,15.993171,44.776459,55.050678,57.652469,33.341703,62.037181,70.044789,70.367929,47.83156,74.907634,81.211178,81.473988,58.256018,82.259885,87.64236,87.490021,-30.034161,367.792524,-37.503262,374.060006
29,18.14415,-0.304553,-0.043945,-0.435587,-11.741295,-16.90218,-16.379528,-17.5807,1.544037,8.076324,-8.342056,-25.096378,11.171265,20.068474,0.250626,-15.511837,18.697586,26.798172,2.37957,-16.095657,24.043121,28.388672,10.912514,-3.792686,28.489911,61.161437,85.98325,97.693845,64.045613,99.972558,108.591743,115.866435,57.07992,92.224673,100.523743,104.66664,45.382786,83.633708,92.704659,96.815136,35.060834,63.504062,72.528946,76.261327,31.585236,61.167297,84.239502,104.801674,66.658974,94.143448,101.690025,100.705605,52.563057,83.079185,92.079163,92.123222,35.832024,65.565376,77.11956,80.872078,18.849907,43.995438,56.736031,63.399353,-13.941391,-7.784566,6.426242,15.193071,16.331996,44.786215,54.959349,57.711812,33.778649,62.332904,70.075603,70.370522,48.195209,75.025516,81.293738,81.74643,58.467513,82.349917,87.837862,87.857066,-11.759834,367.53521,-37.41703,373.671657
30,-18.764706,-0.237492,-0.087547,0.130417,33.312321,57.509823,75.840282,94.601612,50.625286,80.160198,88.618298,94.622784,32.649479,61.175365,68.392582,69.637127,12.532482,25.131969,21.961956,13.894558,-7.41497,-15.066032,-21.459103,-28.957157,-8.912375,2.94179,22.204954,37.342574,36.61361,58.475294,66.283942,70.554477,50.657197,75.208359,82.622792,85.832455,57.135433,88.299693,107.031619,120.734035,56.285686,86.526653,102.421518,116.571625,31.371918,60.625877,83.835297,104.565468,66.202583,94.112206,101.862602,101.225739,52.151413,82.890358,92.377167,92.891464,35.434914,65.488243,77.357712,81.422539,18.437233,43.952408,56.816597,63.672295,-13.976959,-8.189401,5.689683,14.143747,15.510221,44.718969,55.000907,57.578616,33.06821,62.227125,70.207378,70.425913,47.676937,74.993961,81.604034,82.244262,58.08429,82.197888,87.907516,88.296173,-30.422802,367.318266,-37.40284,373.822622
31,17.348614,2.190905,-0.469551,-0.158081,-9.120598,-11.372681,-9.458199,-9.978333,9.144974,21.281776,6.881104,-7.775917,16.12278,27.874603,9.121742,-6.434097,20.275841,28.83522,5.234756,-13.757401,21.782455,25.559578,9.185829,-5.050735,26.7341,57.299195,80.718533,90.917293,59.982312,94.033589,100.861332,105.732205,53.894092,88.589735,97.184033,100.422225,43.136121,81.773477,91.946425,96.675642,33.318176,62.955718,73.53097,78.726156,31.545525,60.593147,83.29834,103.643074,66.088943,94.129372,102.020874,101.620903,51.953316,82.697182,92.870636,94.082108,35.148926,65.40493,77.814445,82.312202,18.066788,43.559647,56.747475,64.134521,-13.988753,-8.040953,6.212709,15.235062,16.29544,44.92466,54.561923,56.644641,33.912524,62.273067,70.079246,70.302165,48.353166,75.180386,81.896978,82.695719,58.451705,82.580246,88.602146,89.185564,-12.977371,369.520471,-37.775574,373.675841
32,-21.411896,-0.08818,-0.436993,0.718775,32.087746,56.740036,75.878563,94.827576,53.426743,82.518654,92.558556,99.826012,37.384529,68.246727,78.867531,82.556877,18.722305,38.716507,44.410973,44.135628,-0.940189,-4.458675,-9.312115,-15.699692,-10.109777,0.311407,19.078901,32.697831,31.626956,50.960577,59.217348,64.322008,47.728375,71.405027,78.224804,79.991484,56.484831,85.289731,100.220672,110.295684,57.715393,86.257483,103.064463,118.689541,31.00462,60.255375,83.101788,103.297405,65.126324,94.278088,102.844906,102.583294,51.01038,83.01115,93.636761,94.709988,34.643955,65.952358,78.882465,83.215313,18.310146,44.547443,57.973537,65.370541,-15.148858,-9.378344,4.843579,13.742369,14.69172,44.759601,54.495603,56.106733,32.404825,61.228621,68.817561,68.726974,47.23499,74.462043,81.198519,82.137311,57.710515,82.096555,87.862932,88.43857,-34.318972,369.463691,-38.142271,374.426016
33,12.865334,1.439958,-0.474815,-3.222754,4.184647,9.006386,11.823463,11.728935,24.044609,45.943336,36.715393,26.519394,22.140427,35.306625,18.729858,4.951515,18.619308,25.833664,5.18177,-11.0606,14.727859,14.825592,-0.677948,-12.898121,23.533823,51.937469,76.882721,90.112314,49.733226,81.086071,88.023483,92.620122,46.962609,84.063862,96.663539,102.724898,40.673638,83.624507,97.196507,104.740617,34.990253,70.255543,84.481047,92.881203,30.998669,60.815105,83.389263,102.629757,63.761044,92.900906,102.472744,103.996181,49.084682,81.589451,93.889446,97.364902,32.443714,64.860935,78.903522,84.787731,16.526012,43.17873,57.327747,65.702991,-14.393712,-7.1515,8.18477,18.637324,14.761127,47.214365,57.845933,60.002134,32.434713,63.761499,72.34104,73.139226,47.242523,76.126525,83.733312,85.173764,57.643824,83.227205,89.842527,91.004917,-21.410866,370.926512,-38.574314,371.226125
34,-18.422871,1.421433,-4.340172,-5.4525,28.30164,54.828472,75.89098,93.973904,48.687572,86.006527,100.807743,108.745365,34.263325,74.041042,89.375095,94.553089,20.919971,53.833866,70.811863,78.271351,9.9646,24.371052,35.370197,42.276592,-13.246266,-4.454675,11.517934,22.568726,14.809293,41.133987,53.016248,62.724648,33.279088,62.990175,71.413302,71.587067,46.829104,75.946523,85.00043,87.821127,54.860116,83.896456,96.21202,102.991351,31.355724,60.820827,82.878284,103.309078,59.738903,92.107944,104.585552,109.0135,44.472485,80.285969,94.87627,100.006199,28.163166,63.424244,79.437275,86.473103,13.772564,42.121296,57.548389,66.171284,-13.614237,-4.451958,11.044061,20.39258,14.499614,47.270496,59.06606,63.546299,31.745887,66.254364,76.507093,77.823118,46.307004,78.572521,86.897218,87.190779,56.284019,83.257525,89.551744,89.030694,-39.871187,372.369588,-42.951937,365.795269
35,20.250835,-0.043843,-4.413357,-11.187199,33.019524,44.700508,46.385765,50.662422,31.525726,25.707664,12.760391,1.383591,15.250053,-0.851212,-17.289562,-30.495644,-0.578156,-17.653313,-32.301579,-43.90583,-14.462585,-29.613247,-40.118237,-47.323494,15.705909,33.320955,50.583961,62.03397,49.761384,78.205909,93.665557,106.490129,53.451959,86.483799,104.836577,119.608016,54.323875,87.408202,104.965512,120.039528,52.656676,77.156955,91.740735,104.77532,34.426231,66.981239,88.455963,105.483398,52.912102,86.581078,101.6185,107.272568,36.349525,76.591187,92.468262,95.313034,21.568794,60.202217,77.842026,82.661819,9.598961,40.53463,57.714043,64.430923,-13.553042,1.189004,25.388991,43.923809,12.625304,48.660621,59.166651,61.65192,32.35277,71.317959,78.256915,76.484246,48.216389,83.526571,89.197914,86.802369,58.770769,84.969802,90.204261,88.339954,-19.940414,372.531158,-47.685356,354.813483
36,66.809921,33.531462,32.484627,20.571594,-34.179153,-64.146881,-90.094299,-104.253044,-66.1409,-99.477882,-111.832523,-119.034805,-54.874649,-92.25666,-109.404945,-119.538403,-42.804222,-76.966496,-94.780884,-106.246376,-30.682526,-58.069153,-72.624722,-84.410019,-3.043369,2.769382,12.486119,25.306677,14.159431,42.436118,58.091885,66.734102,27.99776,60.394373,76.788181,86.275082,40.047983,70.118457,85.141468,94.782189,49.582185,75.304874,86.618044,93.962267,8.181725,19.401398,29.441071,39.824982,0.829811,17.499619,30.010414,33.983574,-1.306343,22.57679,33.548927,32.158585,-1.957626,20.381355,31.388855,32.714081,-1.201057,14.876404,23.735847,26.51516,-0.819057,3.089744,9.954043,15.375853,4.633689,11.444204,14.158196,17.445109,8.187734,20.765058,22.731315,23.36543,9.511663,22.947256,25.067827,25.50681,8.847723,16.506564,18.129056,19.476759,46.804733,406.373919,-15.265503,375.696376
37,-0.419769,-17.122401,-75.541019,-78.605866,-31.569328,-60.295715,-83.0056,-102.25668,-58.107948,-91.149502,-106.722507,-117.519836,-43.926888,-80.264969,-97.979679,-110.440979,-29.594879,-63.838806,-83.480873,-97.166348,-16.771088,-43.602448,-58.430901,-71.229115,-5.965213,6.256922,25.174408,39.79388,25.547504,56.043995,72.360985,84.314013,40.718098,73.692571,91.577219,104.336954,52.805186,83.366391,99.232603,109.609451,61.251592,88.696439,100.973224,108.582727,44.824104,80.086613,105.310535,117.979259,85.651302,111.24876,106.535625,93.799038,72.618084,99.328709,94.549084,81.418705,57.432747,83.482761,79.551716,66.266212,41.394196,68.926678,68.277912,56.559563,-8.452767,7.002435,32.81139,53.209527,30.319514,58.964913,50.048462,39.770538,50.313062,72.435148,60.679166,49.872535,65.905041,81.405383,70.961721,61.924486,76.562298,88.027991,77.788538,68.266254,46.565752,390.423572,-90.625734,298.262564
38,9.160767,2.719735,8.227501,-31.148205,-33.728485,-62.456932,-84.640388,-103.435249,-58.892212,-91.701736,-108.542461,-120.67812,-45.229225,-81.465626,-100.52124,-114.533901,-31.487617,-65.791969,-84.154186,-97.527237,-19.565849,-46.861725,-60.486145,-71.649971,-10.689182,-0.622691,20.469768,35.620293,22.575457,52.05356,67.51401,79.371201,39.400344,70.5454,86.744447,98.528834,51.693493,80.894892,95.666455,106.439926,60.151076,85.674806,96.833415,105.368618,36.66893,65.344906,83.208103,91.097088,78.394489,93.790684,84.682331,73.076191,66.113377,74.90942,65.973186,54.79311,48.791714,54.147835,46.659851,37.155819,29.679108,35.994473,32.467861,25.773811,-6.77402,5.95873,27.107011,46.028387,33.343123,65.393378,65.99248,60.3149,50.087118,81.521288,76.544082,67.90983,62.477647,90.998927,82.017268,71.040576,71.204956,96.47341,88.151986,77.895613,55.757389,393.673172,-82.367363,267.644224
39,4.520416,-0.392547,-43.81937,-51.198193,-34.145737,-62.673798,-84.692631,-103.043232,-58.1987,-91.082897,-108.066502,-120.052528,-44.327888,-80.822639,-99.857712,-113.564014,-30.576897,-64.907684,-83.638458,-97.403355,-18.805618,-46.311607,-60.559731,-72.134056,-11.155644,-0.625779,20.68997,35.73274,22.62498,51.055673,66.537921,78.937342,39.726016,70.110553,86.048705,98.123257,52.195215,81.157949,95.416737,106.076093,60.514539,86.210429,97.312845,105.6502,33.324223,67.822952,96.09581,113.440933,74.829998,114.360008,106.826248,93.866272,67.193069,103.265762,92.865658,80.302849,57.160378,91.189327,81.352615,68.269844,46.068535,74.903412,68.506622,57.549534,-22.92941,-23.97682,-10.648426,0.549332,-9.105778,14.421438,13.404903,9.058353,14.298864,35.304007,29.340153,25.216089,36.390197,52.361571,45.684499,42.558322,56.707071,66.01576,59.074643,57.129196,60.809898,393.657549,-125.65464,216.822956
40,2.249451,-1.63194,-11.550465,-42.954513,-33.957253,-62.433586,-83.806343,-101.825638,-57.536888,-89.817352,-106.755238,-118.932209,-43.77182,-79.367294,-98.313904,-112.045383,-30.236893,-63.802071,-82.205086,-95.936222,-18.590012,-45.256805,-58.978729,-70.105362,-10.942111,0.773424,22.291837,37.048642,23.982872,52.901393,68.572474,80.857471,40.858457,71.505433,87.473534,99.174249,52.877742,82.428772,96.791177,107.278744,60.560852,86.516526,97.345202,105.361085,26.57999,60.541592,91.430054,110.222797,56.430016,100.026569,96.974945,86.214924,53.847427,95.954647,87.78511,77.028351,50.446815,90.995693,81.368809,69.368935,46.7276,77.967854,69.935474,59.367599,-34.597212,-48.191936,-46.262976,-37.9037,-31.218353,-26.39966,-25.51774,-25.36991,-6.907895,-2.603459,-5.451697,-5.443237,16.509775,18.432066,14.714197,15.825149,37.698565,35.474006,30.317476,30.701811,64.65251,392.992034,-135.611944,174.834868
41,2.74601,-1.135343,-5.815201,-46.670406,-33.688431,-61.999168,-83.547249,-101.29549,-55.786057,-88.890038,-106.253529,-118.760834,-41.7136,-78.272324,-97.7425,-111.785316,-28.332253,-62.210999,-81.352959,-95.507641,-17.349815,-44.443817,-58.798027,-70.487366,-10.641881,0.51858,21.825868,37.427295,24.125515,52.813398,68.760134,81.183946,41.529931,72.234706,88.406027,100.066851,53.908789,83.554235,97.943749,108.217721,61.754241,88.023977,98.600464,105.996496,21.310616,50.798893,77.862797,94.869633,48.036003,89.485073,87.522182,78.180256,45.780029,89.961205,83.331814,71.839142,43.027725,85.148735,76.787167,65.816803,40.573483,73.226395,65.980968,55.709839,-38.208808,-62.47459,-73.907061,-75.193538,-52.841865,-58.349909,-53.015507,-50.225439,-28.981105,-28.942109,-26.511181,-26.016931,-5.43206,-4.841541,-4.500679,-3.966352,16.033247,14.892285,12.4382,10.890982,68.941441,392.194049,-139.884224,128.50182
42,1.941376,-0.946881,-0.681324,-45.338604,-34.311562,-62.354622,-83.960609,-101.268997,-56.173553,-88.778687,-106.104126,-118.936501,-41.799088,-78.048248,-97.504063,-111.89661,-28.165054,-61.522522,-80.623169,-95.047359,-16.859894,-43.740349,-58.187141,-70.002022,-10.267056,0.864691,21.305374,36.909765,24.321944,52.580476,68.354619,80.615348,41.396303,71.940218,87.94154,99.356228,53.60615,83.14236,97.87712,108.175298,61.417269,87.711458,98.737242,106.855012,17.648849,43.067493,67.638988,81.868629,29.822502,61.176338,77.614517,85.884762,31.67347,78.698673,78.819351,69.304276,35.127354,81.247845,75.552921,64.379482,39.317493,72.795181,67.138596,57.119408,-38.38983,-60.739095,-69.395144,-71.141476,-61.622897,-79.333626,-84.674511,-87.460412,-43.403037,-48.217253,-41.14186,-39.120368,-22.555974,-24.452175,-18.129334,-17.389317,-2.066508,-3.98849,-1.819785,-3.214294,72.153683,391.941983,-139.294682,83.858032
43,1.743736,1.14158,10.068512,-48.062723,-34.581757,-63.014946,-84.797058,-101.93922,-56.854935,-90.025978,-107.330647,-119.804249,-41.943169,-79.061508,-98.410892,-112.397575,-28.038483,-62.473984,-81.589622,-95.748024,-16.997681,-44.749603,-59.260597,-70.496521,-11.713374,-0.754281,19.712152,35.579846,21.797648,51.279642,67.637511,80.258863,39.447213,71.058113,87.152926,98.388352,52.234735,82.410186,97.129446,107.396378,60.405426,86.624898,97.357984,105.169411,15.892754,35.820293,53.489113,65.756435,33.110561,56.52586,64.615517,65.063095,36.220608,63.550186,60.065289,53.053951,39.103374,65.949497,59.260025,52.00819,43.191204,66.408691,61.592045,53.767376,-41.169555,-72.00237,-90.198456,-105.731155,-64.162537,-79.519402,-83.505051,-84.063584,-45.562202,-45.830847,-39.686434,-35.809867,-25.400939,-23.396737,-18.059896,-16.223408,-6.006061,-5.412671,-2.699141,-1.613847,74.2101,393.604351,-128.913488,36.316097
44,0.738258,-0.462572,-0.822653,-8.362107,-34.248161,-62.438049,-84.342842,-101.924629,-56.448784,-89.613991,-107.00861,-119.714012,-42.043762,-79.009323,-98.305435,-112.406216,-28.4729,-62.409782,-81.17878,-95.161285,-17.542076,-44.508591,-58.688278,-69.907722,-11.258706,-0.205691,20.28217,35.458013,23.229393,51.723195,67.335675,79.208241,40.619545,70.816978,86.753771,98.237989,52.857303,82.020355,96.650325,107.181549,60.314406,86.173317,96.825325,104.747039,14.706044,34.171009,51.467108,63.062973,32.839751,56.792335,63.301806,62.765879,36.097688,63.963027,59.687342,52.29917,39.176883,66.528463,59.225659,51.66461,43.379011,66.842179,61.602826,53.681917,-40.375738,-70.83406,-89.007762,-104.028102,-63.941877,-79.086902,-81.733494,-81.616471,-45.642717,-46.557078,-40.119083,-36.021645,-25.697128,-24.444832,-18.873126,-16.720017,-6.433768,-6.335219,-3.555542,-2.244386,74.748774,394.958908,-129.935727,29.771119
45,-0.647392,0.015376,-0.822654,-8.362107,-34.026947,-62.397881,-84.508667,-101.720924,-55.717392,-89.300194,-106.594734,-118.873615,-41.008072,-79.112549,-98.678856,-112.681274,-27.279625,-62.506828,-81.760483,-96.314564,-16.613846,-44.446793,-59.139748,-70.742111,-11.872072,-0.910757,19.662257,35.572251,22.326664,52.241837,67.957008,79.533234,40.065829,71.833143,86.994351,97.200459,52.69138,82.926604,96.827363,106.313461,60.464336,86.801134,97.553795,105.553869,13.519335,32.521725,49.445104,60.369511,32.568941,57.058811,61.988096,60.468664,35.974769,64.375868,59.309397,51.54439,39.250393,67.107429,59.191294,51.32103,43.566818,67.275667,61.613607,53.596458,-39.581921,-69.66575,-87.817067,-102.325048,-63.721217,-78.654402,-79.961936,-79.169359,-45.723231,-47.283309,-40.551732,-36.233423,-25.993316,-25.492927,-19.686355,-17.216627,-6.861474,-7.257768,-4.411943,-2.874924,73.950634,397.377764,-130.909128,23.812492
46,1.037865,-0.073359,-0.822654,-8.362107,-34.529228,-63.091164,-85.448341,-102.510567,-56.536102,-90.355225,-107.62888,-120.079937,-42.203407,-79.967422,-99.135933,-113.092403,-28.896446,-64.093666,-83.282661,-97.767105,-18.306313,-46.243515,-60.758629,-72.35321,-11.803653,-1.703323,18.438303,34.468154,21.801971,51.314654,67.034642,78.648103,39.642035,70.934613,86.141763,96.316378,52.482354,81.912663,95.905862,105.417154,60.648291,86.257607,96.864969,104.90265,12.332626,30.87244,47.423101,57.676048,32.298131,57.325287,60.674386,58.171449,35.851851,64.788709,58.931451,50.789609,39.323902,67.686396,59.156928,50.97745,43.754625,67.709155,61.624389,53.511,-38.788104,-68.497439,-86.626372,-100.621995,-63.500557,-78.221902,-78.190378,-76.722247,-45.803746,-48.00954,-40.984381,-36.445201,-26.289505,-26.541022,-20.499585,-17.713237,-7.289181,-8.180316,-5.268344,-3.505463,74.032116,398.142172,-132.688165,16.288153
47,-0.396652,0.130911,-0.822654,-8.362107,-34.352074,-62.67334,-85.209961,-102.622776,-56.016884,-90.422859,-107.601929,-119.897232,-42.060928,-80.191727,-99.340725,-113.22361,-29.14341,-64.6661,-83.934746,-98.324146,-18.833427,-47.160988,-61.671753,-73.071098,-11.614882,-1.815709,17.893232,33.630942,20.883063,50.028023,65.825322,77.676769,39.045156,70.120063,85.390507,95.85325,52.320321,81.433541,94.97695,104.225989,60.834406,86.095944,96.528368,104.311204,11.145916,29.223156,45.401097,54.982586,32.027321,57.591763,59.360676,55.874234,35.728932,65.20155,58.553505,50.034829,39.397412,68.265362,59.122563,50.63387,43.942433,68.142643,61.63517,53.425541,-37.994287,-67.329129,-85.435678,-98.918942,-63.279898,-77.789402,-76.418821,-74.275135,-45.884261,-48.735772,-41.41703,-36.656979,-26.585693,-27.589117,-21.312815,-18.209846,-7.716887,-9.102865,-6.124745,-4.136001,72.588358,398.844614,-134.557925,8.497577
48,-0.234947,0.849624,-0.822653,-8.362107,-33.767967,-62.18399,-84.714775,-102.860641,-55.884933,-90.716743,-108.298187,-120.693855,-41.878624,-81.03653,-100.548706,-114.546833,-28.899765,-64.863052,-84.253693,-98.692417,-18.672066,-47.372246,-62.2435,-73.864632,-12.394049,-2.394187,17.850809,33.355535,21.401952,50.118549,65.428946,77.140838,39.39491,69.474648,84.410281,95.053459,52.392878,81.089159,94.652699,104.319046,60.543994,85.717846,95.894685,103.451947,9.959206,27.573871,43.379092,52.289123,31.75651,57.858238,58.046965,53.577017,35.606012,65.61439,58.175559,49.280047,39.47092,68.844327,59.088196,50.290288,44.130239,68.57613,61.645951,53.340082,-37.20047,-66.160819,-84.244983,-97.215889,-63.059238,-77.356902,-74.647263,-71.828023,-45.964776,-49.462003,-41.849679,-36.868757,-26.881881,-28.637211,-22.126045,-18.706456,-8.144594,-10.025413,-6.981146,-4.76654,71.196871,400.172927,-136.537118,0.614159
49,-0.268021,-0.167405,-0.822654,-8.362107,-34.71405,-62.667618,-85.066681,-102.608585,-54.909096,-89.378815,-107.031555,-119.956055,-41.065407,-79.38858,-99.139709,-113.542385,-28.396683,-64.077759,-83.699684,-98.432922,-18.501892,-46.910591,-61.785278,-73.648567,-11.145208,-0.930579,19.093104,34.781969,21.426034,49.994924,65.494525,77.072295,39.385833,70.132042,85.091882,95.261064,52.472968,81.780331,95.165783,104.298545,60.82959,86.459778,96.703059,104.187209,8.772497,25.924587,41.357088,49.595661,31.4857,58.124714,56.733255,51.279802,35.483093,66.027231,57.797613,48.525266,39.54443,69.423294,59.053831,49.946708,44.318046,69.009619,61.656732,53.254623,-36.406653,-64.992509,-83.054289,-95.512836,-62.838578,-76.924402,-72.875706,-69.38091,-46.045291,-50.188234,-42.282329,-37.080536,-27.17807,-29.685306,-22.939274,-19.203066,-8.5723,-10.947962,-7.837547,-5.397079,69.877682,400.623227,-138.41094,-7.130243
50,-1.068993,0.484247,-0.822654,-8.362107,-34.121475,-61.879692,-84.061432,-101.521683,-54.414711,-88.802948,-106.393318,-119.159203,-40.515518,-78.926239,-98.449745,-112.584801,-27.733955,-63.628006,-83.026886,-97.571125,-17.624245,-46.14109,-61.024017,-72.730179,-11.008431,-0.741314,19.361718,35.199155,22.167225,50.717219,66.016439,77.439216,40.044092,70.301239,84.988265,95.151457,52.935479,81.65998,94.917299,104.0768,60.96223,86.292681,96.591538,104.244637,7.585788,24.275303,39.335084,46.902199,31.214891,58.39119,55.419545,48.982587,35.360174,66.440072,57.419667,47.770486,39.617939,70.00226,59.019465,49.603128,44.505854,69.443107,61.667514,53.169165,-35.612836,-63.824199,-81.863594,-93.809782,-62.617918,-76.491902,-71.104148,-66.933798,-46.125805,-50.914465,-42.714978,-37.292314,-27.474258,-30.733401,-23.752504,-19.699675,-9.000007,-11.870511,-8.693948,-6.027617,68.226814,401.664138,-139.815469,-14.935685
51,1.492767,0.458003,-0.822654,-8.362107,-34.383202,-62.4123,-84.496422,-102.298508,-55.479355,-88.689651,-106.399784,-119.638767,-41.671371,-78.70079,-98.474064,-113.087654,-28.767357,-63.577423,-82.871017,-97.510357,-18.525696,-46.459351,-61.319733,-73.314056,-11.837245,-1.680599,18.676103,34.620677,22.006859,50.679983,66.034347,77.504486,40.077685,70.102834,84.618257,94.53352,52.974011,81.585879,94.915138,104.08421,61.033551,86.35684,96.295013,103.507646,6.399079,22.626019,37.31308,44.208737,30.944081,58.657666,54.105835,46.685372,35.237255,66.852913,57.041722,47.015705,39.691448,70.581227,58.9851,49.259548,44.693661,69.876595,61.678295,53.083706,-34.819019,-62.655889,-80.672899,-92.106729,-62.397258,-76.059403,-69.332591,-64.486686,-46.20632,-51.640696,-43.147627,-37.504092,-27.770447,-31.781496,-24.565734,-20.196285,-9.427713,-12.793059,-9.550349,-6.658156,69.366875,402.904982,-140.99083,-22.514952
52,1.529846,0.776944,-0.822654,-8.362107,-33.540115,-61.701393,-83.792839,-101.950436,-55.487022,-89.282455,-107.060223,-120.173035,-41.778374,-79.545479,-99.376087,-113.849773,-28.938103,-64.31282,-83.828773,-98.528137,-18.61496,-46.827278,-61.707344,-73.673401,-12.261903,-2.084941,18.207603,33.490953,20.822115,49.473936,64.615693,76.031059,38.816432,68.704435,83.56109,93.998268,51.730728,80.094977,93.774978,103.39384,59.931862,85.252928,95.469039,102.927192,5.212369,20.976735,35.291076,41.515275,30.673271,58.924141,52.792125,44.388156,35.114337,67.265754,56.663776,46.260925,39.764958,71.160193,58.950735,48.915968,44.881468,70.310083,61.689077,52.998248,-34.025202,-61.487579,-79.482205,-90.403676,-62.176598,-75.626903,-67.561033,-62.039574,-46.286835,-52.366927,-43.580276,-37.71587,-28.066635,-32.829591,-25.378964,-20.692895,-9.85542,-13.715608,-10.406751,-7.288694,70.067711,403.605664,-142.642494,-30.95332
53,1.282196,-0.976398,-0.822653,-8.362107,-33.982658,-61.862183,-83.955688,-101.969776,-54.121857,-87.607155,-105.977039,-119.773579,-40.373611,-77.902107,-98.147621,-112.959366,-27.746658,-62.420654,-82.139282,-97.008705,-17.739487,-45.175667,-60.065575,-72.288895,-11.165771,-1.01987,19.327632,34.651429,22.061076,50.138371,64.83608,75.863345,40.079784,69.278343,84.124748,94.793984,52.826304,80.949109,94.806766,104.480586,60.646253,86.003813,96.231225,103.400571,4.025659,19.32745,33.269071,38.821811,30.40246,59.190616,51.478414,42.09094,34.991417,67.678594,56.285829,45.506143,39.838466,71.739158,58.916368,48.572387,45.069275,70.74357,61.699857,52.912788,-33.231385,-60.319269,-78.29151,-88.700623,-61.955938,-75.194403,-65.789475,-59.592461,-46.36735,-53.093158,-44.012925,-37.927648,-28.362823,-33.877686,-26.192194,-21.189505,-10.283126,-14.638156,-11.263152,-7.919233,69.77766,402.534788,-145.037393,-39.409906
54,1.067734,0.498079,-0.822654,-8.362107,-33.267632,-61.422043,-83.488083,-101.367874,-53.762283,-86.306992,-104.097576,-117.343998,-39.750137,-77.342262,-97.687454,-112.310143,-27.177544,-62.557755,-82.35363,-97.168808,-17.216034,-45.00721,-60.106659,-72.29908,-12.18632,-1.947361,18.330795,33.666942,21.00959,49.923788,65.212819,76.765704,39.068498,69.031218,83.679033,93.885018,51.951116,80.523649,94.253235,103.924091,60.028934,85.706731,95.880359,103.541115,2.83895,17.678165,31.247067,36.128349,30.13165,59.457092,50.164704,39.793725,34.868498,68.091435,55.907884,44.751363,39.911976,72.318125,58.882003,48.228807,45.257082,71.177058,61.710639,52.82733,-32.437568,-59.150959,-77.100816,-86.99757,-61.735278,-74.761903,-64.017918,-57.145349,-46.447865,-53.81939,-44.445574,-38.139427,-28.659012,-34.925781,-27.005423,-21.686114,-10.710833,-15.560705,-12.119553,-8.549772,70.589247,403.678977,-146.116195,-47.125903
55,1.750946,-0.704016,-0.822654,-8.362107,-32.780914,-60.87822,-82.952385,-100.724831,-52.117195,-85.980949,-104.330235,-117.787857,-37.979622,-76.545067,-97.066383,-111.736908,-25.611191,-61.212502,-81.271591,-96.261063,-16.060753,-44.465561,-59.712524,-72.236023,-11.055979,-0.99202,19.275268,35.066515,21.466913,50.142755,65.433701,76.964602,39.448633,69.338982,84.423064,94.90921,52.46562,80.937376,95.020361,104.915185,60.867752,86.48386,96.643964,104.051111,1.652241,16.028881,29.225063,33.434887,29.86084,59.723568,48.850994,37.49651,34.745579,68.504276,55.529938,43.996582,39.985485,72.897091,58.847637,47.885227,45.444889,71.610546,61.72142,52.741871,-31.643752,-57.982649,-75.910121,-85.294516,-61.514618,-74.329403,-62.24636,-54.698237,-46.52838,-54.545621,-44.878223,-38.351205,-28.9552,-35.973876,-27.818653,-22.182724,-11.138539,-16.483254,-12.975954,-9.18031,71.687393,403.670363,-147.591648,-54.792607
56,0.946541,0.942867,-14.273987,-1.675227,-33.06015,-61.455002,-83.961754,-100.933113,-52.499199,-85.08625,-103.065834,-116.50732,-38.341713,-76.086273,-96.719055,-111.599007,-25.936775,-61.273384,-81.277313,-96.237831,-16.47892,-44.268608,-59.54361,-71.947174,-12.261224,-2.474463,17.273319,33.217399,19.901602,49.735079,65.298529,76.854439,38.186578,68.886598,83.744921,93.84346,51.358559,80.376065,94.316406,103.813187,59.802557,85.741744,96.245921,103.993004,2.25666,14.969559,29.624691,35.264225,21.985474,60.091095,54.511814,43.678837,27.711296,68.484364,58.995609,48.045044,34.080505,72.894516,63.09145,51.815243,41.535873,73.127003,65.368824,54.271832,-29.896832,-58.058324,-78.181857,-94.702747,-64.7701,-74.372258,-62.912462,-56.756224,-50.165325,-54.55087,-43.993834,-40.827643,-32.760662,-37.40701,-27.061501,-23.421221,-14.513755,-19.548204,-13.09013,-9.241814,72.591391,405.537927,-161.908178,-55.543137
57,1.1483,-0.435711,-13.78933,-5.822385,-33.187752,-61.146011,-83.19603,-100.479698,-52.304306,-85.278053,-103.398857,-117.061558,-38.127365,-75.718117,-96.539154,-111.589222,-25.693474,-60.414162,-80.677299,-95.930443,-15.945168,-43.944511,-59.404793,-72.120438,-11.139527,-1.219756,18.815042,34.613638,20.624638,49.248671,64.501269,76.06354,38.642482,68.354619,83.330081,93.702977,51.747401,80.044404,94.16592,103.959165,60.189362,85.819488,96.223753,103.549822,4.742317,19.323349,33.393059,37.554989,25.704002,66.514091,58.485947,46.930847,30.343723,73.845291,63.860607,52.27541,36.749153,76.39904,67.402153,56.689281,44.800358,78.046875,70.752468,60.020256,-32.820653,-61.072856,-81.028119,-98.529945,-65.897168,-73.782572,-62.574595,-58.409715,-50.009714,-53.480519,-44.505807,-42.430344,-32.017125,-37.394012,-29.636801,-27.437653,-13.668515,-22.568016,-18.270743,-15.059845,73.643131,406.538669,-175.794067,-59.929068
58,-0.613747,1.972246,-4.925194,-7.588292,-33.232155,-61.50135,-83.227158,-99.931068,-53.410149,-86.201019,-103.699665,-116.485348,-38.686752,-76.172218,-96.457214,-111.137123,-25.730095,-60.679779,-80.68531,-95.921059,-15.735626,-43.447609,-58.858337,-71.125374,-12.95079,-2.941172,17.089921,32.961011,19.912655,49.393784,64.708071,75.971532,38.19053,68.547342,82.913637,92.637721,51.410491,79.981604,93.411639,102.459742,59.659667,85.198958,95.642928,103.037972,2.730217,17.113152,29.979858,32.293625,22.873249,66.92688,57.140179,43.722553,27.795353,73.610687,61.998024,49.308529,34.140015,75.208855,64.992371,53.57563,42.016525,75.81356,68.332214,57.989616,-33.598554,-63.990593,-85.725874,-105.091621,-69.156355,-75.039348,-62.872293,-60.076019,-51.022976,-53.741198,-44.259423,-43.581218,-31.503671,-36.823345,-28.99716,-27.648963,-12.291605,-21.131207,-16.628768,-13.233206,73.059425,409.373013,-180.68922,-66.655263
59,0.326614,0.150609,-7.941341,-7.190033,-33.258705,-61.076431,-82.89608,-100.270157,-52.465782,-85.536919,-103.660927,-116.932468,-38.185387,-76.005135,-96.690674,-111.714191,-25.692444,-60.967026,-81.09375,-96.379852,-16.161804,-44.35009,-59.970016,-72.671242,-12.418502,-2.506202,17.718354,33.599881,20.114456,48.99253,64.281808,75.798878,38.635072,68.401611,82.766918,92.61086,52.038307,80.353341,93.501362,102.513032,60.477612,86.119101,96.050543,102.778188,3.403244,18.164177,31.249008,33.554764,24.882603,70.620518,60.363464,45.965767,29.394836,76.714554,65.134506,51.377563,35.385704,78.194847,67.386131,55.05312,42.83741,77.289391,68.6479,57.712097,-34.440397,-65.318999,-87.970949,-108.754146,-68.234051,-72.009595,-61.567569,-60.020659,-49.382669,-50.469445,-42.454334,-42.189271,-29.295723,-33.753115,-27.198309,-26.9246,-10.153219,-18.723065,-15.216351,-12.844394,72.941179,409.580726,-189.075422,-73.788192
60,-0.665817,0.22508,-6.630192,-4.534456,-33.669662,-61.755066,-83.448601,-100.19165,-52.293434,-85.263519,-103.267822,-116.375084,-37.753601,-75.336456,-95.699501,-110.445042,-25.148964,-60.13298,-80.157509,-95.207176,-15.515099,-43.329735,-59.126015,-71.791191,-12.460307,-2.584131,17.543601,33.360413,20.442536,49.376679,64.85479,76.499374,39.037993,68.866468,83.4923,93.489753,52.505326,80.839379,94.04316,102.842162,61.033737,86.242416,96.36652,103.367473,4.886456,21.437187,34.267159,34.839249,24.042206,73.446865,63.496113,48.880234,25.906105,77.955093,66.372128,52.364674,29.897976,77.313709,66.722546,53.864708,36.167107,74.284973,67.945004,58.303642,-33.576015,-65.271729,-88.96987,-110.36787,-66.604828,-67.651945,-58.181701,-57.83241,-45.966605,-46.870724,-39.744171,-39.856093,-24.589909,-29.287356,-23.499768,-23.274348,-4.833328,-13.12153,-11.929994,-10.883664,72.024393,410.128051,-195.956583,-78.000403
61,0.02758,0.518703,-5.026016,-0.280409,-33.214645,-61.381874,-83.452263,-100.554771,-52.269745,-85.183525,-103.143883,-116.100883,-38.194885,-76.178513,-97.000237,-111.815414,-25.931282,-61.275444,-81.487541,-96.35582,-16.50959,-44.811172,-60.866318,-73.440399,-13.171301,-3.648276,16.523422,32.536601,19.25032,48.083626,63.605394,75.581084,37.875418,67.437069,82.188131,92.468525,51.462176,79.304634,92.692988,101.699656,60.425557,85.361238,95.337326,102.280048,5.944347,21.353817,32.724323,32.081738,19.864426,68.337708,60.338516,46.843243,21.358852,73.05439,62.633171,49.465542,25.124245,72.277622,62.245502,49.804859,31.817665,68.993282,61.66769,51.120758,-31.530532,-64.031318,-88.187708,-109.973424,-63.824053,-64.100571,-54.94845,-55.235929,-43.154245,-43.938166,-36.32644,-36.115315,-21.174803,-25.081844,-18.572455,-18.28794,-0.963584,-7.697436,-5.241468,-4.063949,71.701984,410.609411,-201.332588,-78.318156
62,-1.511879,-0.558965,-6.098728,3.079524,-33.017464,-61.379356,-83.347664,-100.077152,-52.690887,-85.491829,-103.080368,-115.803051,-38.318596,-76.133423,-96.445541,-110.994015,-25.665779,-61.178627,-81.135521,-95.877914,-15.941277,-44.263802,-60.116844,-72.622032,-13.015134,-3.468582,16.514901,32.488189,18.580143,47.563934,63.238041,75.141236,37.13219,67.464116,82.461809,92.689715,50.940014,79.235041,92.694655,101.648279,60.232649,85.085399,95.159114,102.248617,6.566677,21.727295,32.556667,32.436733,17.84214,66.644611,59.522324,46.010456,19.244614,71.116276,60.787926,47.692451,22.636242,70.031261,60.453186,48.541317,28.52417,65.622311,58.860683,48.937569,-32.010456,-64.319816,-88.29852,-108.581801,-60.592437,-61.352708,-53.610751,-53.625108,-38.897943,-38.925082,-33.113566,-32.637501,-16.255981,-20.904892,-15.993882,-15.408272,4.129435,-3.050439,-1.796906,-0.617103,69.90077,409.936717,-207.720652,-75.35236
63,-1.049652,-1.232168,-4.023628,2.842063,-32.939529,-61.179543,-83.339424,-100.533371,-52.419434,-85.43644,-103.116074,-115.983925,-37.609749,-75.711021,-95.834312,-110.327911,-24.575729,-60.227623,-79.982414,-94.789467,-14.981003,-43.485146,-59.06765,-71.509895,-12.107527,-2.09019,17.952883,33.9505,19.941678,49.439294,64.970387,76.461954,38.033623,68.808978,83.487113,93.364215,51.371958,80.383599,93.595099,102.445662,60.090129,85.555752,95.335103,102.06176,8.382854,23.685322,34.454498,35.034313,20.4883,68.097553,58.12191,44.003448,20.765362,70.543327,58.467121,46.262226,23.116837,69.50489,58.949776,47.614517,27.511425,63.893166,57.207756,48.422356,-32.791877,-64.512971,-87.634996,-107.443849,-55.625203,-55.093131,-49.650789,-50.350205,-33.40651,-33.261921,-29.765397,-29.710964,-10.768037,-15.472801,-13.100288,-12.928406,9.652176,1.78329,0.893096,1.31587,68.458471,408.430949,-212.136927,-72.783898
64,0.452728,-1.149113,0.771561,5.875181,-32.510605,-60.349274,-82.219276,-99.197273,-51.634598,-84.736404,-102.349033,-115.081615,-37.037086,-75.235176,-95.194817,-109.185791,-24.063606,-59.956627,-79.543076,-94.073753,-14.117889,-42.733269,-58.051186,-70.297966,-12.037564,-1.405007,19.267734,35.104677,21.194841,50.335354,65.906956,77.696591,39.005327,68.992747,84.035889,94.333634,51.78371,80.206252,94.014508,103.665233,60.008927,85.46714,95.508312,102.849263,7.131042,22.565575,33.17276,31.724281,17.139702,66.593113,57.486191,43.572063,16.414433,69.961109,58.724155,45.982647,18.658619,67.601852,57.101669,45.155697,23.705521,63.249836,55.98999,45.176411,-32.128122,-63.078046,-86.445637,-106.356239,-57.727126,-55.639776,-49.244935,-50.668652,-35.197889,-34.817507,-29.711828,-30.245537,-12.44067,-16.10778,-11.684506,-11.89455,7.941566,0.710377,1.333191,2.157374,68.786774,407.169079,-211.489792,-67.021473
65,1.639137,0.708586,-0.014877,4.389682,-33.2024,-61.413689,-83.323288,-100.086823,-52.6577,-84.623337,-102.070885,-115.104218,-38.20118,-75.282211,-95.546036,-110.115166,-25.359764,-60.285873,-79.903221,-94.514008,-15.57003,-43.721466,-59.160805,-71.450043,-13.082442,-2.818227,17.53934,33.514419,19.709435,49.161294,64.615014,76.114916,38.180094,68.467313,83.321375,93.177667,51.43235,80.063546,93.855007,103.056806,59.787922,85.252557,95.512141,102.801715,7.088699,22.771282,33.863983,33.242683,17.796135,66.924534,58.48772,44.56953,18.238506,71.135101,60.115757,47.174606,21.404858,70.198917,59.887161,47.757511,27.147675,66.51495,58.908062,48.28886,-32.259619,-63.610859,-87.201323,-106.580331,-56.449942,-56.954597,-50.693013,-51.627235,-34.893491,-36.8034,-31.055764,-30.705547,-13.047368,-18.585948,-13.889211,-13.389465,6.345102,-1.687207,-1.142043,-0.099449,70.736904,408.018564,-211.193676,-62.490892
66,0.698204,-0.846104,-0.658379,4.012233,-33.139229,-61.043472,-82.654152,-99.506607,-51.669273,-84.308853,-102.370434,-115.714474,-37.300072,-74.548988,-94.746552,-109.139786,-24.831276,-58.798256,-78.522606,-93.201027,-15.51178,-42.810974,-58.298149,-70.869598,-11.929439,-1.241739,20.224618,36.625713,21.826733,50.732842,65.927395,77.529495,39.70712,70.16372,84.95702,95.269894,52.227325,81.452066,95.172514,104.559009,59.799161,85.779659,95.773222,102.359644,8.575172,25.010204,35.717068,34.710617,21.244469,69.790134,61.218853,47.490864,20.875511,73.87579,62.673512,49.759827,23.177719,72.116718,61.386795,49.241753,28.30719,67.607346,60.051785,49.333248,-32.420325,-63.446418,-86.713603,-106.124876,-58.369052,-57.855567,-51.342658,-52.209201,-36.23789,-36.772556,-30.787428,-30.397814,-13.687411,-17.711902,-12.72994,-12.419335,6.780133,-0.218072,0.336293,1.057538,72.138577,407.461529,-211.148586,-58.18959
67,-0.419884,-0.719578,1.476402,3.369133,-33.9505,-61.791916,-83.026314,-99.37088,-52.7108,-84.116821,-101.156502,-113.718109,-38.047714,-74.027481,-93.56884,-107.621727,-24.989204,-58.641815,-77.987938,-92.486687,-14.924355,-42.234421,-57.598686,-70.052147,-11.497494,-0.80152,19.986879,36.44429,21.970488,51.788218,67.28683,78.910975,39.884035,70.728984,85.580081,95.604458,52.779436,82.079821,95.501149,104.359555,60.961797,86.935997,97.088753,104.044813,9.974098,27.191563,38.339024,37.006073,22.64431,71.365185,61.148758,47.212429,21.297626,74.344425,62.486401,49.707813,23.154831,72.531738,61.392231,49.291363,28.214836,67.842464,60.353222,50.283451,-31.88146,-63.261074,-86.363817,-105.533554,-58.727421,-55.793442,-50.241926,-51.853735,-35.944791,-35.046724,-30.38463,-30.17616,-12.589056,-16.032661,-12.487014,-12.557533,9.092686,1.547187,0.746501,0.758172,72.869253,407.10154,-208.521624,-54.460868
68,-0.89138,-2.548316,4.199696,6.739718,-33.644714,-61.616249,-83.009491,-99.366302,-51.446114,-82.500458,-99.454079,-112.037544,-36.221123,-71.94912,-91.346397,-105.330734,-23.068085,-56.549263,-75.661469,-89.84848,-13.393364,-39.892616,-54.695892,-66.586533,-10.571979,1.158005,22.126531,38.299211,22.329999,52.895835,68.905432,80.607876,40.204026,72.15832,87.406597,97.269805,53.176861,83.487422,97.512175,106.449683,61.248813,88.079923,99.099161,106.605356,10.136604,27.10825,38.604469,38.32552,20.986176,70.142727,61.169872,47.507172,18.726425,73.50563,62.549744,49.188595,19.841194,70.630817,60.694714,48.030567,24.635639,65.908756,59.296646,48.22855,-32.411741,-63.098393,-86.068681,-105.764408,-58.932401,-56.31934,-50.241802,-52.053683,-36.032631,-35.190881,-29.500518,-29.873769,-13.077348,-16.334836,-11.071077,-10.918986,7.860951,0.980319,1.35502,1.892033,73.609514,404.689769,-202.690287,-47.584605
69,-0.820084,-5.514806,2.696629,8.399538,-32.959671,-60.269966,-80.444527,-95.695038,-50.329514,-79.826889,-95.997276,-108.155251,-34.569397,-69.177132,-88.157845,-101.421947,-20.737152,-53.407402,-72.669067,-86.889153,-10.75882,-37.318382,-52.905464,-65.83889,-9.923723,2.394063,23.430947,39.414794,22.170065,52.925908,69.930427,82.704241,39.541753,71.808813,87.84558,98.32444,52.169095,82.868744,97.860633,107.327156,60.547143,87.190594,98.035633,105.270559,11.86758,30.676632,44.216137,47.391357,23.846798,71.863117,61.684055,48.106899,21.191998,72.893085,61.276474,48.915882,21.402283,69.256439,58.93404,47.175293,24.14938,61.568642,54.271088,45.031528,-32.580011,-62.311908,-84.847907,-104.504946,-58.101086,-53.420868,-47.761813,-49.572675,-36.127048,-32.586094,-28.213238,-29.162991,-13.260376,-14.867616,-11.967569,-12.86894,7.918564,2.117607,1.679549,0.764933,73.546028,399.502102,-199.237061,-38.857929
70,1.575394,-7.485447,0.489178,7.528579,-30.737228,-59.598427,-79.98642,-95.591927,-50.081863,-80.326881,-96.37928,-108.104668,-34.957924,-70.361366,-88.56926,-100.987816,-21.388206,-54.585342,-73.251686,-85.84053,-11.310883,-38.007774,-52.788391,-64.074898,-12.649325,-2.539794,17.230897,34.435179,16.524348,49.256575,66.5273,79.115307,33.222277,68.11126,84.155252,95.077356,46.213391,77.016102,92.402328,102.425717,55.38098,80.911935,91.612294,99.401799,16.724739,38.066139,53.018131,58.363895,27.794323,74.809914,65.867672,53.371868,21.411095,73.894787,62.83041,50.665054,18.628521,67.708569,57.630215,46.144638,19.346008,58.180962,50.746021,41.522884,-31.637175,-58.684381,-80.121221,-97.445546,-58.457911,-48.542863,-41.42267,-43.37491,-37.411641,-27.535929,-21.693939,-23.354315,-14.86672,-10.238404,-5.995502,-7.698486,6.978723,7.130011,7.685642,6.115946,76.377897,392.550765,-197.491407,-30.795239
71,-0.158958,-11.834466,4.884567,9.399185,-28.868294,-58.905602,-78.830566,-94.161301,-44.085159,-74.540405,-92.29969,-105.121994,-30.092812,-65.130615,-84.586143,-98.425713,-18.491478,-49.449463,-68.867798,-82.97287,-10.065994,-33.2341,-48.876228,-60.808868,-13.872107,-8.335997,7.856443,24.012944,3.977221,34.877559,53.079851,65.9558,23.7242,56.11933,72.371051,84.181311,39.664451,68.062169,81.158752,90.581926,51.29724,74.849959,83.013117,89.369395,21.299915,43.83419,58.590374,66.402683,29.25333,74.882927,67.155533,55.995083,19.58725,71.515446,60.463943,47.088947,14.334641,61.485271,52.098141,40.58012,12.899609,47.046604,39.998188,31.482353,-29.459547,-54.597584,-75.028696,-92.067456,-58.057459,-45.233412,-37.664355,-41.138618,-38.194482,-25.482141,-19.836363,-23.012063,-16.727075,-8.226606,-5.630094,-9.692159,4.454551,8.349675,7.773296,3.662417,76.726027,380.330992,-192.099752,-21.781362
72,-8.062248,0.115041,-0.442715,7.832361,-25.858498,-45.590973,-58.971977,-71.182137,-44.244919,-67.821007,-79.828148,-87.080956,-35.626717,-58.867836,-71.647797,-79.259834,-24.345016,-42.730751,-55.354271,-65.11631,-11.256409,-22.697639,-30.425606,-36.69239,-5.586066,-0.714946,9.936382,20.827426,3.981543,16.702375,26.411639,34.556395,16.501377,30.014158,41.786319,50.744389,26.294128,39.026693,49.061876,56.705095,33.892331,46.464777,53.945469,58.818502,23.936062,48.969097,68.327065,82.959251,29.74062,77.422886,79.150887,70.994854,19.803829,72.7882,70.906277,60.277977,14.569302,64.406204,61.532364,52.36908,13.555241,50.714264,51.098385,45.454273,-26.696926,-46.760592,-60.99187,-75.116042,-56.655169,-45.190804,-28.665004,-21.511157,-40.658972,-25.852304,-11.08034,-6.459464,-20.408017,-8.044504,1.757262,3.134204,2.03622,8.614275,12.289135,11.620872,69.423923,379.561829,-191.782322,-14.833205
73,23.262634,-93.671114,0.780487,7.676935,-41.560593,-73.973351,-89.82399,-92.93026,-67.965546,-95.412598,-102.495804,-101.730194,-51.422424,-81.572914,-88.840942,-87.790718,-33.865471,-61.569099,-69.174271,-69.236984,-16.857948,-36.495438,-46.11351,-49.904022,-8.069482,2.329534,19.62885,36.003948,30.657351,63.228408,73.817739,74.290686,48.222502,85.854562,94.810409,94.738038,60.674288,96.396716,105.363925,106.383548,69.611857,100.944633,108.351534,108.174804,31.99934,55.601978,71.43322,87.178288,31.278706,69.146805,87.777386,97.068043,16.504726,58.33437,76.359386,85.760822,6.038818,45.571918,63.783703,74.276848,-0.158329,32.459335,47.900906,58.66539,-18.513607,-34.19673,-47.991648,-58.611268,-53.879427,-40.619421,-19.969991,-5.136029,-42.643661,-23.14813,-0.210847,15.866182,-25.310228,-5.635219,15.321728,29.181547,-4.613713,5.713735,16.58437,24.90638,93.176708,284.95271,-190.511684,-8.094275
74,14.67659,-52.38448,-3.998051,2.066508,-35.661736,-65.240479,-84.07402,-88.127632,-65.299644,-86.968002,-88.450584,-85.068054,-51.110458,-73.354454,-75.428352,-73.127747,-33.5075,-54.996986,-57.208672,-55.532913,-13.891754,-27.393036,-33.799438,-36.642952,-13.917123,-9.935024,0.25719,12.249614,25.511442,51.767717,56.221836,51.317309,43.379664,75.110978,79.199967,74.664276,54.894634,85.443675,90.637996,88.243623,60.835888,87.286863,94.73353,93.676548,31.891823,60.332108,82.388134,100.545731,35.652122,64.594631,82.533131,93.345222,17.64782,55.739193,76.001358,87.925186,5.451679,41.232376,62.753391,76.106243,-1.899776,26.328678,42.138233,52.898712,-16.750726,-29.987019,-37.93547,-43.235014,-54.048345,-46.146268,-33.899926,-22.123135,-44.368165,-27.206645,-8.224383,6.446712,-27.241071,-9.947189,6.236298,17.814778,-7.345953,4.037705,12.693137,18.645907,108.298702,232.868229,-194.064331,-5.727768
75,31.164436,-57.304629,13.337231,1.70851,-30.13504,-57.539978,-80.766792,-96.550026,-59.661026,-84.064751,-84.683304,-78.550301,-49.5187,-69.414825,-68.174057,-62.885513,-35.30159,-53.270988,-51.907082,-47.870522,-18.57605,-30.887947,-30.688019,-28.114357,-17.184769,-19.480649,-18.094044,-17.45221,4.269609,17.478269,20.906281,19.989596,22.114058,44.234908,44.693343,39.033979,36.305846,59.034073,58.247496,52.096785,46.00029,67.181422,67.072124,60.356149,26.111298,48.967552,63.280563,75.020599,30.951805,42.26263,51.979237,57.561035,16.505871,32.858276,41.913872,45.943909,1.258907,18.853569,28.195267,31.568127,-13.187714,3.207893,15.510807,22.386303,-5.869377,-23.713517,-39.412108,-49.623804,-48.93961,-55.797734,-47.100621,-37.319973,-49.98489,-51.381715,-39.210832,-27.409835,-45.017131,-44.995302,-32.58631,-21.111787,-35.279801,-35.945532,-27.53068,-18.748537,139.465113,177.697679,-180.725126,-1.885178
76,-2.416649,-16.852181,-9.766273,-9.93771,-31.225662,-54.259071,-68.766747,-77.197151,-39.495163,-44.003792,-46.073227,-47.5494,-19.819908,-23.112602,-25.295105,-25.844193,-1.658249,-3.533134,-8.203697,-9.917107,13.931923,14.035263,8.057671,4.373474,-12.423195,-38.634454,-58.459239,-71.225056,-61.70271,-92.557507,-76.57542,-62.05444,-62.581418,-91.934847,-71.424849,-58.740543,-58.385756,-84.248742,-63.172678,-51.719891,-49.709452,-66.860845,-51.386007,-41.593781,30.02615,52.865696,68.212452,82.892075,34.918842,36.870861,40.055695,45.404434,20.305996,22.231407,27.057667,32.9599,6.095352,7.408733,10.060616,13.184681,-6.831093,-6.869316,-5.383415,-3.073311,-6.066422,-23.126301,-36.667364,-49.001206,-41.014099,-55.62508,-69.195289,-82.506763,-40.624546,-51.731716,-63.543737,-74.99288,-34.099319,-42.75898,-52.26737,-59.68483,-22.798777,-29.763143,-36.944932,-42.133942,137.083597,165.912304,-190.456266,-6.756082
77,15.539017,-54.369632,-16.066303,-6.337476,-29.324799,-50.417175,-62.397423,-70.327492,-18.187866,-15.213203,-13.630943,-12.910881,2.194405,9.679642,10.986786,10.847969,17.949257,26.689224,25.861588,23.374901,30.976753,38.80394,36.536179,33.195877,-20.384614,-50.813364,-74.068106,-94.578845,-86.148062,-116.753542,-128.465557,-131.845651,-82.813755,-116.393074,-126.032282,-126.530917,-73.123418,-100.07349,-107.692441,-108.818521,-58.167159,-75.900118,-78.536675,-76.160643,34.166679,62.726383,78.819752,93.973331,39.70396,42.192364,42.888966,44.339333,23.522587,26.036282,27.417583,28.08094,8.779278,9.337406,9.652805,10.713902,-5.774689,-9.95985,-10.468082,-9.781322,-12.182492,-36.510981,-55.094489,-70.37574,-73.374989,-102.791619,-115.831083,-127.186274,-72.838069,-103.330577,-116.330459,-125.852079,-66.473238,-92.222326,-105.349229,-115.343224,-53.833361,-70.067976,-78.122669,-83.918779,152.538471,113.160656,-206.606712,-11.475573
78,8.928337,-55.123667,3.296127,-10.850474,-26.429787,-43.964882,-55.250587,-66.643639,-12.446365,-6.421738,-2.227135,1.526871,4.130058,13.285904,17.930603,21.590195,17.10125,27.817612,31.3797,33.589096,27.904587,38.541641,41.504631,42.440758,-22.162408,-54.040286,-76.53096,-94.514069,-81.210066,-110.038524,-124.51279,-138.045516,-74.411006,-101.955302,-118.20761,-132.186205,-63.208802,-86.9481,-103.286055,-117.830778,-47.804267,-66.074639,-77.775694,-88.433537,33.758068,57.66901,72.52573,86.686192,32.032013,32.331676,31.221657,29.973278,15.568485,14.92281,14.235191,11.462402,-0.061054,-2.487316,-2.740746,-4.04171,-14.216194,-19.428291,-21.621666,-23.925419,-21.125001,-46.144663,-64.133021,-78.436238,-81.689929,-109.909064,-129.709828,-148.522492,-81.953912,-112.076288,-132.633833,-152.903622,-76.082127,-104.354121,-124.499822,-143.150206,-63.951444,-84.499326,-99.79129,-115.01817,164.175138,59.293749,-200.602255,-21.069287
79,6.833611,-50.301392,1.169014,-30.88345,-25.879555,-41.718178,-50.352859,-64.051781,-8.703232,-2.097931,1.909904,5.320587,7.490959,17.869377,24.113503,30.047607,20.184059,30.90271,35.752831,39.730339,30.900307,39.990692,43.969231,47.68261,-20.274575,-53.005164,-78.203377,-96.401748,-85.282599,-117.94693,-134.522439,-149.74532,-82.55391,-118.583083,-137.475714,-154.219153,-74.326871,-107.185748,-125.426078,-142.557372,-60.211345,-84.293295,-98.999403,-112.868885,31.303368,54.806843,69.173298,83.590622,29.937973,27.576942,25.274677,22.684307,12.948875,11.662102,11.119366,9.224682,-2.664013,-4.86414,-4.676743,-5.023956,-18.518543,-25.376415,-26.557617,-26.654263,-14.978242,-40.345311,-60.930922,-75.501611,-85.452659,-122.241023,-140.34646,-154.982573,-85.827577,-124.699785,-144.023543,-158.665121,-79.845351,-114.451147,-133.454435,-148.367946,-67.668541,-92.204264,-105.942573,-117.272075,174.29718,6.97633,-196.14481,-53.968764
80,6.143646,-38.237584,-2.022285,-12.071897,-27.473259,-43.983536,-52.773857,-67.140312,-9.586258,-1.738815,2.492981,6.057701,6.212425,16.225662,21.391296,26.127205,18.959427,29.000015,33.371315,36.571312,30.084343,38.492317,41.726761,44.669724,-21.213119,-53.83756,-78.754963,-96.342715,-90.266937,-125.878215,-143.996959,-160.491791,-88.646607,-128.340296,-149.380051,-167.659408,-81.025649,-118.080234,-138.326758,-156.672898,-66.822467,-94.458802,-110.93724,-125.951652,32.656689,57.130566,72.565956,88.035164,31.056347,30.593605,29.3153,27.278309,15.709362,14.004078,13.658009,11.679211,1.349316,-1.75993,-1.697502,-1.897659,-13.146915,-17.736855,-18.141632,-18.134537,-18.482331,-44.004548,-63.716082,-76.49939,-91.082182,-121.659319,-141.660462,-161.017781,-92.194616,-126.235904,-148.106727,-168.426611,-86.798911,-119.020075,-139.339928,-158.53915,-75.566171,-100.060954,-115.617535,-131.247135,180.189571,-30.839468,-198.41835,-65.618875
81,0.408554,-32.109658,3.041096,-13.273158,-28.03997,-45.383377,-54.855652,-69.516106,-11.53141,-2.682152,2.189484,6.421738,4.111176,14.394836,19.371758,24.072762,16.894684,26.991234,30.952721,34.088745,28.38398,37.405586,40.20401,43.201447,-20.029642,-52.02781,-76.136251,-92.921511,-93.018397,-129.13081,-147.194951,-163.562839,-91.155418,-131.541839,-153.012843,-171.448382,-83.313579,-121.759092,-142.345074,-160.761887,-68.624097,-98.152017,-115.024005,-130.714908,32.390671,57.192249,73.201733,89.15966,32.523594,32.592602,31.511307,29.366398,16.605949,16.065216,16.361217,14.536285,1.712208,0.057449,0.666161,0.299149,-13.425007,-15.601044,-15.019512,-14.776955,-18.158326,-44.188965,-63.723106,-76.356005,-91.814495,-123.287415,-144.66161,-165.923928,-93.44009,-128.098667,-151.119437,-172.643315,-88.850352,-123.311188,-145.515185,-166.370353,-79.002196,-105.520617,-122.173206,-139.111606,179.681025,-59.435698,-196.294355,-75.378604
82,2.387466,-14.636021,4.7085,-12.97901,-30.838509,-49.987793,-62.644844,-77.559357,-17.97924,-12.245865,-7.437859,-2.892265,-1.806679,4.023628,7.216072,9.903259,12.397842,18.849564,21.455383,23.535347,26.069298,31.117058,32.6754,33.95462,-23.309113,-53.5042,-77.218551,-93.550624,-95.745233,-126.073408,-144.933033,-163.425892,-96.182087,-130.818587,-154.281984,-175.755458,-91.161408,-125.040756,-146.899321,-167.361076,-80.133386,-106.969004,-123.765702,-140.506316,32.02755,57.018127,74.006538,91.068649,33.026161,34.046116,33.634014,31.954079,17.769814,18.393345,19.662437,18.865986,3.25407,3.005333,4.954777,6.328354,-11.697006,-12.967014,-12.145557,-11.29303,-17.678958,-44.053423,-62.999021,-73.428897,-92.803629,-123.83917,-144.612425,-164.689831,-95.015205,-129.719368,-153.331831,-174.496275,-91.104705,-125.766323,-147.94846,-167.90976,-81.712159,-108.912783,-125.417094,-142.246952,181.638708,-70.178077,-192.015638,-84.463973
83,-5.359955,-14.979075,4.984074,-11.465816,-31.08902,-50.569611,-64.490662,-80.021667,-19.421082,-17.083626,-13.470383,-10.096893,-3.731689,-0.534325,2.005005,4.056931,10.265465,14.498634,16.351318,17.723236,24.185715,27.860985,29.03389,29.894829,-20.827982,-49.394494,-71.665151,-86.309137,-94.405419,-124.586983,-144.41291,-163.545534,-96.181377,-130.152455,-154.278464,-176.377084,-92.608621,-126.586662,-149.092603,-169.816381,-83.253017,-110.9817,-128.565099,-145.589749,33.519516,59.330292,75.921993,91.81921,35.322647,37.072449,36.855412,35.350742,20.766964,22.260818,23.234253,22.334976,6.133919,6.966419,8.990707,10.26598,-9.300442,-10.030575,-9.156704,-8.318768,-15.897242,-42.204338,-61.600991,-72.222016,-91.492205,-123.693362,-143.832487,-162.272179,-93.782759,-129.318917,-152.245301,-172.697709,-90.121932,-124.695031,-145.92933,-164.966048,-81.061557,-108.280629,-124.717029,-141.57676,175.559864,-81.285016,-187.750454,-92.057653
84,-6.123734,-13.596453,5.122032,-9.726616,-31.388626,-52.330856,-67.77523,-85.923729,-20.898399,-18.869019,-16.017952,-13.027954,-4.792328,-2.917328,-1.2117,0.627251,9.100227,12.332382,13.10955,13.720551,22.713318,25.425568,25.588875,25.019073,-18.350493,-46.539402,-68.25219,-79.765045,-93.514917,-123.578876,-142.654505,-160.921728,-95.684209,-129.623516,-153.109653,-173.655389,-92.206626,-125.553871,-147.391533,-166.909411,-82.769758,-109.772781,-126.914155,-143.150052,33.571529,59.616222,76.434174,93.689575,37.740154,39.344501,39.525032,37.91193,22.925663,24.809303,26.631317,26.003666,8.001423,8.874722,11.49107,12.632275,-7.679558,-8.71788,-7.609863,-6.944847,-12.008973,-37.214827,-56.791221,-66.422464,-88.721417,-121.120778,-141.298466,-160.33256,-91.982457,-128.140719,-150.880308,-172.146803,-89.024535,-123.889358,-145.100068,-164.892511,-80.14447,-107.306639,-123.545408,-140.514514,168.271036,-94.23769,-183.793516,-101.14049
85,-5.767021,-10.788507,3.555622,-7.964784,-30.04715,-53.404312,-71.107178,-90.009842,-21.78257,-18.547668,-15.924911,-13.596153,-6.442909,-3.785248,-2.505341,-1.77372,7.311172,10.722427,11.439514,10.982666,20.999794,24.563713,24.998131,24.187775,-15.629956,-40.917845,-61.623932,-71.86709,-88.967462,-120.064784,-138.314933,-155.306539,-91.541806,-127.171716,-150.232338,-170.512246,-88.407293,-122.469608,-143.554811,-161.971199,-79.273141,-106.241152,-123.247323,-139.196081,33.692322,60.090923,76.787224,94.11953,39.952927,42.224808,42.307034,40.720024,24.740639,27.629185,30.030556,30.050411,9.176273,11.519108,14.552135,16.178341,-7.568836,-7.598934,-5.815201,-3.911762,-7.969755,-32.625568,-52.735037,-63.016527,-85.024976,-118.008264,-137.693446,-155.833216,-89.294399,-126.450456,-148.871922,-169.265212,-87.291185,-122.166768,-143.377942,-162.722988,-79.511961,-106.512205,-122.571882,-138.923946,161.598129,-103.941983,-181.14378,-108.021061
86,-4.209366,-6.254298,4.935093,-5.208246,-29.15657,-53.333931,-71.253891,-90.405464,-23.875237,-21.779022,-18.752861,-16.136398,-8.13961,-6.431122,-5.197792,-4.191742,6.318169,8.836441,8.690643,7.891617,20.39772,22.648888,22.013168,20.419464,-12.297286,-36.974788,-56.638589,-65.532825,-85.739721,-116.653166,-135.143339,-151.470395,-88.468673,-125.431111,-148.278215,-167.836925,-85.408431,-120.652494,-141.500683,-159.515038,-76.499359,-104.040506,-121.179966,-137.237342,32.277145,58.202305,75.282784,92.438164,38.778477,41.257439,41.553669,39.963856,23.761024,27.067795,29.876404,30.279808,8.309841,11.003551,14.369373,16.205177,-8.555775,-8.589306,-6.961441,-5.232754,-6.427323,-30.490208,-49.635568,-58.115134,-83.852397,-116.965021,-136.775094,-154.095668,-88.35956,-125.509673,-147.988058,-167.491872,-86.753308,-121.708503,-143.298708,-162.099864,-79.339029,-106.49896,-122.356419,-137.806743,157.037802,-110.319967,-176.559649,-113.352993
87,0.312881,-2.730758,1.848049,-4.391504,-29.963264,-55.656395,-73.9785,-93.119087,-27.462387,-27.873116,-26.401749,-24.908409,-12.578888,-13.664131,-14.349174,-14.749146,1.80542,1.358643,-1.078835,-3.696899,16.748199,16.600571,13.619156,9.851875,-12.12281,-36.323769,-55.927194,-64.834475,-84.708397,-114.665745,-132.412582,-149.035005,-87.864399,-122.310863,-144.506238,-164.316287,-85.420765,-118.890461,-138.875874,-156.435236,-77.017414,-104.089999,-120.881896,-137.046734,31.731091,58.761578,75.942478,92.215748,40.153999,44.519863,46.296558,46.479378,25.692444,30.493069,33.975735,35.243225,10.209274,14.360275,18.43729,21.185188,-7.057285,-5.990295,-3.709145,-1.157455,-6.105541,-28.267332,-46.694442,-55.634481,-80.958742,-112.781076,-132.076459,-149.082175,-85.990644,-122.598558,-144.596802,-163.992398,-84.625296,-118.87402,-140.147037,-158.378761,-77.330828,-103.84962,-119.586095,-134.415148,157.477884,-112.678354,-174.584398,-117.372126
88,1.98761,-0.669992,-4.916782,2.798714,-29.417152,-56.104431,-75.301781,-93.444557,-31.518974,-36.98513,-40.611877,-43.873444,-16.640167,-24.055824,-30.329361,-36.316566,-1.879921,-7.703819,-15.069237,-22.711945,14.096947,10.84774,5.213127,-1.572876,-12.750889,-35.981981,-55.304317,-65.159251,-80.395424,-109.226552,-124.765689,-139.016927,-84.544527,-115.817297,-134.005495,-148.896908,-83.522974,-114.577488,-131.136834,-143.903716,-77.10686,-102.88159,-117.931616,-131.51822,32.69783,60.952148,78.935165,96.201782,46.109562,53.323975,55.362911,55.884819,30.512753,38.344803,42.798443,45.326729,13.853931,21.114922,26.068039,30.242958,-4.830151,-1.096458,3.003445,8.247814,-9.216944,-32.610176,-52.086241,-61.024876,-77.867316,-106.593731,-123.691386,-139.210538,-83.778498,-115.536024,-134.202294,-150.652635,-83.816196,-112.673445,-129.882544,-144.455888,-78.503654,-101.145724,-115.147969,-128.523819,158.896179,-114.074562,-180.070496,-115.299628
89,0.689507,0.330241,4.083767,0.570111,-31.362762,-56.34201,-74.584694,-94.209023,-31.627464,-40.756531,-49.481392,-57.397957,-17.182961,-27.338562,-40.404854,-52.006531,-3.271294,-12.05555,-24.862976,-36.635742,12.93148,5.439491,-5.354805,-18.236961,-15.679541,-38.914183,-56.918766,-67.242756,-75.67249,-97.19325,-106.334024,-110.283905,-79.424183,-105.258996,-112.585018,-111.476846,-79.753081,-105.38421,-111.519175,-110.444085,-76.727403,-97.854766,-106.792861,-110.664102,33.795547,57.484989,74.517002,90.950603,38.503017,47.987251,53.15918,52.772083,24.803925,33.715897,38.691502,36.300545,8.738136,15.584106,22.721386,22.531471,-9.560566,-5.184288,5.287971,10.29459,-15.545682,-39.283389,-58.346405,-68.951143,-77.214599,-104.596784,-92.021761,-77.695403,-78.040541,-105.089259,-85.607251,-69.801909,-76.19178,-102.130504,-87.218443,-71.795969,-71.142449,-94.925188,-92.308684,-83.227962,158.807802,-114.556663,-176.764612,-115.54186
90,-2.83493,-3.576306,3.824444,1.265019,-30.912209,-55.414696,-74.554024,-92.13295,-27.906532,-36.139412,-45.473213,-53.358078,-15.134926,-26.464691,-39.762497,-49.241066,-1.166267,-10.461159,-23.178177,-32.35096,15.486946,8.163757,-4.717369,-18.452568,-14.903122,-36.897014,-54.251519,-67.353119,-66.030688,-82.538472,-87.753603,-88.199194,-70.003679,-90.056554,-91.107052,-85.631705,-71.706771,-92.381688,-92.221276,-86.219924,-70.80398,-89.939105,-93.785198,-91.406372,33.75927,54.481144,68.565731,85.261173,35.68903,47.479134,56.247482,59.204292,22.019691,36.01387,46.850967,49.10923,5.83643,18.852825,30.902424,35.037346,-13.084431,-3.359127,11.200905,20.641479,-16.246086,-40.955528,-58.014775,-69.236723,-75.28919,-94.408785,-75.948746,-58.145577,-75.804775,-90.959993,-68.792244,-50.413036,-73.682923,-88.367217,-67.504701,-47.878491,-68.924004,-86.561203,-78.456492,-65.684052,156.008034,-118.005516,-172.905006,-114.149388
91,-4.767265,-6.668736,4.117355,1.885209,-29.397812,-51.250763,-69.307022,-85.547447,-27.374954,-34.733505,-44.284744,-51.471519,-13.843117,-25.320969,-37.630577,-44.804649,0.883713,-8.739738,-21.411095,-29.573822,17.22599,9.524918,-3.759956,-16.725769,-11.106089,-33.140365,-48.95003,-60.265963,-59.558226,-75.336429,-75.808017,-70.41699,-63.464758,-80.346271,-76.182332,-66.392515,-64.800018,-82.655458,-77.738968,-67.056177,-63.324816,-82.335498,-84.947711,-80.203674,32.038822,52.631721,65.099831,80.823269,36.617088,48.750343,56.28479,58.710594,22.646427,36.060562,45.508747,47.185364,5.802898,18.81237,30.0313,34.112377,-14.16893,-3.902092,9.74802,18.584118,-14.546822,-40.44053,-56.721829,-69.47349,-71.362744,-88.367742,-70.224251,-52.843919,-72.961508,-86.812789,-65.046356,-45.743563,-71.9999,-86.476774,-65.929155,-45.802534,-68.641773,-86.512358,-77.772637,-63.585248,151.041698,-124.886256,-168.986721,-112.476183
92,-1.590614,-2.065443,2.302895,2.556066,-27.136116,-49.075127,-67.475967,-83.819389,-31.006508,-40.159492,-48.76442,-53.621178,-17.563362,-29.339218,-40.339851,-46.090736,-2.278862,-11.350822,-24.365387,-32.828636,14.424019,7.949295,-5.48069,-18.766594,-8.699166,-30.222504,-46.110623,-57.05735,-54.346183,-68.656331,-62.484671,-53.495339,-59.748711,-75.973523,-66.241674,-54.336858,-61.679198,-79.102834,-69.34227,-56.789708,-60.04749,-78.90182,-79.088214,-72.896639,30.558529,51.073036,63.320732,79.579067,35.705109,49.531803,55.008373,56.919422,21.095409,36.285553,43.515644,45.054646,4.092236,19.281292,28.704071,32.930374,-15.219498,-4.072952,7.889328,16.156769,-13.527354,-39.201523,-55.706745,-69.163271,-69.967292,-82.381209,-64.064787,-46.346262,-71.902272,-81.12394,-59.139512,-39.211573,-70.780314,-80.821733,-60.18436,-40.155475,-66.780631,-81.22288,-71.897765,-58.288576,149.925385,-126.656023,-166.209526,-109.624441
93,-2.947655,-0.582878,1.840153,1.904784,-26.685562,-47.770157,-64.060593,-79.862595,-29.724655,-38.207588,-47.137527,-52.051277,-16.129074,-28.408699,-38.980522,-43.709793,-0.757141,-10.974884,-23.386459,-30.705299,15.940819,8.14579,-4.851723,-17.018509,-6.643912,-27.823516,-43.547193,-54.955952,-51.678534,-68.646574,-62.80585,-53.994267,-56.885853,-73.635545,-64.265198,-52.738603,-58.911545,-76.641462,-66.730305,-54.00583,-57.546305,-76.836933,-76.51262,-69.409732,29.455776,49.391899,61.214733,76.678734,34.84869,49.140015,53.866024,55.870972,19.506111,35.837517,42.234993,43.24585,2.203903,19.053669,27.494602,30.785751,-17.105141,-2.705154,10.687351,20.109844,-13.894275,-39.50867,-54.996414,-67.585687,-69.558829,-80.409843,-61.518771,-44.515887,-71.450969,-78.607441,-55.73552,-35.939465,-70.036067,-78.272692,-56.587275,-36.712102,-65.986938,-79.397707,-68.904244,-54.399581,146.761293,-126.05479,-164.58581,-106.535547
94,0.023918,-1.292807,0.565624,-0.184912,-26.272545,-47.610168,-64.166222,-80.420837,-30.82798,-38.365288,-46.847076,-51.374245,-17.002373,-28.518562,-38.353271,-42.704315,-1.714554,-11.157074,-22.44381,-29.094429,14.889336,7.885323,-3.924751,-14.871368,-6.246178,-26.15573,-40.948998,-51.834546,-49.987344,-66.970993,-61.351597,-52.165343,-55.056389,-71.289029,-61.544752,-49.356826,-56.834971,-74.087156,-63.914301,-50.382007,-55.441697,-74.715405,-74.282936,-66.705358,29.169903,48.922405,60.73637,77.26244,34.621925,48.675213,53.045597,54.382839,19.445,35.22789,41.575527,42.492142,2.142448,17.968941,26.08881,28.940392,-17.327843,-4.836159,8.610306,18.029251,-13.313975,-38.661933,-53.651228,-65.982229,-66.349861,-78.309619,-60.005824,-42.602875,-67.873104,-77.840732,-55.517727,-35.214068,-66.684486,-77.764687,-56.54073,-36.648237,-63.301073,-79.17678,-69.815649,-55.69776,146.812048,-127.188451,-163.993349,-106.561312
95,-0.668793,0.161817,0.871296,0.091483,-25.920639,-46.916084,-62.75528,-79.927025,-29.726143,-38.391266,-47.110977,-51.015587,-15.976524,-28.49659,-37.976189,-41.350365,-0.488777,-10.735359,-22.002411,-27.929192,16.547127,8.726006,-3.841209,-14.917145,-5.549973,-25.371531,-39.849208,-50.455335,-49.410009,-67.471171,-60.198562,-50.200214,-54.378107,-71.09311,-59.026416,-46.660062,-56.047437,-73.727707,-62.120776,-48.358353,-54.734901,-74.108537,-72.385408,-63.580725,28.220844,47.652111,59.232616,75.890179,32.83659,47.349815,51.524734,52.977562,17.802601,33.810596,39.831505,40.930481,0.638924,16.938286,24.644222,27.361164,-18.559799,-5.666599,7.927666,17.651768,-12.859338,-39.11055,-54.726627,-67.084181,-67.104049,-76.609429,-58.417403,-41.546449,-68.332141,-77.009433,-54.244819,-33.834687,-66.673309,-76.122805,-54.178685,-34.235725,-62.583039,-77.288097,-68.10385,-54.687878,146.249943,-126.690495,-163.015366,-106.13369
96,0.622444,0.670718,1.111908,0.08324,-26.165886,-47.338829,-63.397522,-81.31691,-30.480652,-38.971367,-46.477203,-49.014587,-16.600227,-28.902054,-37.191696,-39.289398,-0.865517,-11.357231,-21.853981,-26.524773,16.564636,8.54702,-4.317284,-15.284615,-4.768552,-24.693712,-39.620052,-50.122439,-49.502943,-68.437163,-59.258551,-48.155843,-54.226973,-71.562784,-57.387236,-44.562571,-55.569119,-73.881358,-61.224576,-47.201243,-54.154,-74.0707,-72.197594,-63.204078,27.338276,45.987453,57.358589,73.153667,30.475616,45.743294,49.480591,50.605259,15.50766,32.276344,38.156033,39.103718,-1.540718,15.517101,23.613052,26.311855,-20.454311,-7.46109,6.705265,17.260609,-12.698447,-39.51608,-55.141698,-68.275316,-67.426402,-75.917562,-57.269339,-40.521161,-68.193481,-76.020747,-52.576724,-32.171239,-65.817047,-74.711345,-52.568496,-33.031777,-60.929687,-75.346571,-67.313846,-55.2859,146.841631,-125.477115,-161.934214,-105.507788
97,-0.320549,2.715088,-2.091808,-0.07583,-25.217514,-46.193733,-62.992859,-80.258102,-27.94693,-36.337852,-44.687462,-48.517914,-14.558601,-26.909752,-35.98114,-39.3853,0.582733,-9.571037,-20.295982,-26.114731,17.151146,10.004196,-2.010727,-12.824593,-5.590234,-25.651939,-40.609263,-51.09754,-49.743276,-67.738241,-60.28401,-50.46642,-54.646351,-72.314487,-60.569219,-49.143834,-56.709587,-75.788751,-64.678138,-51.897223,-56.077278,-76.211973,-75.179212,-67.198265,27.681541,46.716557,58.795338,73.873158,31.470737,45.199871,49.920273,52.091846,16.333065,32.171574,39.388676,41.465206,-0.687962,15.912552,25.416698,29.389,-19.340343,-6.038818,9.00713,20.525379,-11.768023,-37.265494,-52.920196,-67.119549,-62.632933,-74.763076,-57.209148,-41.086455,-63.643819,-74.909764,-52.931295,-33.448824,-62.121949,-73.818048,-53.23327,-34.14029,-58.364066,-74.235049,-67.198327,-55.564225,146.574268,-121.653591,-163.972836,-104.475182
98,1.655388,2.368838,0.298519,4.145923,-25.010834,-46.944008,-63.958511,-80.905495,-29.768486,-37.672577,-46.104927,-50.090218,-16.396294,-28.312912,-37.148666,-40.632591,-1.03466,-11.126175,-21.966019,-28.252029,15.982475,8.78849,-3.16761,-14.650383,-4.784885,-25.674293,-41.23921,-51.607675,-49.250647,-67.352471,-60.693754,-51.082226,-54.43694,-71.667821,-60.08965,-48.448879,-56.177113,-74.421133,-63.094194,-50.084895,-55.099152,-74.773944,-74.643342,-67.716505,27.44648,46.100864,57.562809,72.104588,29.743538,43.863487,49.411182,52.876396,14.866676,31.338673,39.046555,42.799358,-1.758442,15.920506,26.089211,31.801815,-20.398064,-4.505138,10.479126,22.366047,-13.171085,-39.234591,-55.761193,-70.955469,-64.318936,-74.82211,-58.221885,-42.054161,-65.389842,-75.113911,-53.910811,-33.89951,-63.525613,-73.778188,-53.48921,-34.125779,-59.483925,-73.33712,-64.756823,-52.663252,148.025951,-118.839918,-163.878021,-99.884425
99,1.450653,5.233008,-0.581303,4.711556,-24.492531,-45.887032,-61.654816,-76.979713,-29.492569,-38.087082,-45.461426,-48.269806,-16.434746,-27.86396,-36.302261,-39.096794,-1.199799,-10.63591,-20.9618,-26.236382,15.645332,8.920097,-3.603058,-15.133438,-5.242394,-26.264395,-42.349467,-54.50218,-49.792398,-65.858019,-57.678667,-47.112585,-55.292492,-71.346781,-60.087134,-47.729888,-57.580638,-76.304382,-65.715869,-52.527154,-56.806442,-77.052288,-77.133134,-69.425417,27.03661,45.043831,55.986328,69.607143,29.86948,45.029354,50.956764,54.41534,14.792862,32.885971,40.819588,44.587727,-1.486473,18.03297,28.901939,34.72435,-19.584961,-2.510948,12.785912,24.912701,-12.843808,-38.989195,-56.172868,-72.1366,-64.867465,-74.456377,-58.250213,-42.627313,-65.747393,-74.479086,-53.501607,-33.333274,-63.282949,-72.470314,-51.682656,-32.334831,-58.670687,-70.561949,-61.907706,-50.722205,149.207497,-113.614321,-164.728432,-95.180279
100,-0.667191,6.370975,-0.635662,6.364368,-22.890472,-41.774483,-55.60833,-66.773987,-23.382339,-32.947998,-42.880325,-47.71122,-11.607742,-23.287582,-35.033798,-40.121727,2.444,-7.863579,-20.488701,-27.359047,18.119316,10.356903,-1.809311,-11.988487,-6.587935,-27.424778,-43.235647,-57.680813,-49.224989,-64.731768,-59.77585,-49.938515,-54.696493,-71.542283,-63.265891,-49.528122,-57.044645,-77.293639,-68.956809,-55.246334,-56.164516,-76.155687,-76.279913,-67.694213,26.463432,44.181232,55.027657,66.26627,27.974339,43.297977,49.621296,52.570381,13.35989,32.26141,39.59816,41.86615,-2.367725,18.113708,28.631973,33.109646,-18.992958,-1.455746,13.820686,25.246181,-11.369239,-37.640705,-55.717721,-72.193858,-66.593944,-74.093702,-57.620081,-43.318254,-67.393041,-72.552442,-51.544829,-33.677501,-63.252877,-69.105241,-48.322631,-30.543853,-56.144864,-65.575742,-57.809794,-48.47483,148.066721,-108.017248,-165.837679,-89.589813
101,2.249565,7.498723,-4.700832,7.898001,-22.686539,-40.525246,-53.598518,-61.704826,-19.074669,-31.031914,-43.752136,-50.84919,-9.481544,-22.495422,-37.335205,-45.101967,2.841797,-8.103905,-23.747864,-32.910004,17.129288,8.414612,-5.39772,-16.895599,-8.956928,-29.213595,-43.38993,-56.812571,-49.642515,-62.02321,-56.940703,-46.21688,-53.697741,-70.104054,-61.006999,-46.406577,-54.23355,-74.82617,-66.682634,-53.234382,-51.654328,-71.24602,-72.511533,-66.057534,29.742451,49.717369,61.914597,71.710682,32.077103,51.362514,57.100525,58.708649,17.05862,40.893345,47.070923,48.48175,1.798439,28.113956,37.798061,41.284847,-13.160076,7.909756,23.125706,33.681049,-10.26437,-33.532697,-51.394544,-67.251278,-66.410052,-69.353941,-52.223543,-39.173967,-68.063434,-65.684284,-43.745443,-26.664538,-62.688571,-59.817686,-38.384488,-21.500413,-53.195124,-56.198664,-46.69421,-36.737543,150.649166,-101.328937,-170.205631,-82.502225
102,-3.5075,11.503021,-11.2397,3.595449,-17.799339,-30.129662,-41.676407,-50.251923,-5.77343,-15.957527,-30.06958,-39.40979,0.987854,-11.407814,-28.553467,-38.528137,8.994827,-1.683083,-17.584076,-26.802635,18.002815,9.7015,-2.729874,-13.22422,-10.130001,-28.572471,-41.934566,-55.550269,-48.815862,-64.808246,-62.525287,-53.690393,-51.454565,-70.454611,-63.875552,-51.114953,-50.79257,-72.212676,-66.113681,-54.167384,-47.0542,-65.724113,-66.995569,-62.037088,31.079807,53.348007,70.235538,85.292645,32.090092,61.80788,71.78215,74.34494,20.47657,55.358162,67.039719,68.980122,12.057095,47.633743,60.587482,63.703022,4.734707,33.0966,46.270638,53.090687,-7.522775,-24.3338,-38.806738,-49.240195,-55.204853,-51.774479,-31.820636,-16.942337,-56.395355,-46.22395,-21.118641,-3.242205,-49.543205,-38.077774,-14.06591,2.71637,-38.271269,-33.359857,-19.212745,-7.334807,148.571291,-90.610625,-180.015707,-79.691485
103,8.822823,4.666818,9.177017,6.466164,-15.138588,-28.327789,-43.112755,-53.743401,-13.521309,-27.494774,-34.975777,-36.819992,-10.770149,-27.603951,-34.242096,-35.096283,-7.434311,-23.88176,-31.332092,-32.529716,-3.185463,-14.794235,-22.658958,-26.76178,-9.817204,-25.681224,-37.64018,-48.295368,-46.013011,-56.591551,-45.912759,-34.646273,-45.967732,-57.682665,-42.253414,-27.841038,-42.433849,-53.744579,-38.92942,-25.906459,-36.258422,-45.185802,-42.187866,-37.562482,26.709652,47.716713,61.807938,71.674919,35.189724,59.346142,65.928268,67.765617,20.981483,47.696228,57.384624,60.329361,8.446884,35.303135,45.628796,48.691406,-2.151604,19.431896,30.878906,37.357006,-7.108584,-17.961188,-26.920679,-33.708377,-43.530027,-37.313119,-19.281721,-5.196359,-42.6595,-27.9646,-8.879678,6.107455,-34.480689,-19.965174,-1.500967,10.885641,-23.202717,-13.587468,-0.871175,9.573907,158.449602,-86.540238,-169.783201,-73.821753
104,1.977654,69.872845,-2.916469,40.674518,-26.984024,-38.885536,-47.143822,-53.164101,-15.065346,-31.595192,-43.771591,-43.982849,-2.891693,-23.786316,-36.205444,-35.104408,8.598289,-12.062187,-26.371193,-27.687149,18.370056,2.255859,-13.097763,-20.01091,-24.918947,-55.021439,-75.412969,-93.872976,-82.972485,-105.71615,-90.391303,-75.755961,-81.067886,-103.965711,-84.899129,-68.255015,-75.813852,-98.660393,-83.18117,-68.411552,-66.308395,-84.071241,-79.166097,-70.002891,24.066581,48.068962,68.038244,82.195043,38.407259,69.948578,82.885408,88.032789,27.761049,63.503866,69.955415,68.565731,19.366264,54.193353,61.593761,60.947599,13.165369,42.989187,51.770525,53.98776,-17.317193,-29.350913,-32.938658,-33.851808,-50.795889,-47.399308,-32.435778,-19.453819,-44.121812,-29.89268,-12.978687,-2.025815,-30.848839,-17.364386,-1.950511,7.102053,-14.74041,-5.871523,3.568371,10.093537,162.107592,-19.410146,-171.019334,-35.889987
105,-3.063354,8.964338,-2.91647,40.674517,-23.962326,-36.09066,-39.429588,-34.301147,-27.190018,-40.219803,-43.142281,-40.274734,-10.618744,-24.527321,-27.721252,-24.944115,5.966492,-8.693275,-15.980759,-15.401688,20.838547,6.679115,-1.041412,-2.124825,-15.247659,-39.633637,-56.690892,-68.651576,-62.713194,-78.785097,-59.373917,-45.373894,-60.663419,-77.856371,-55.76019,-41.818583,-55.071117,-71.040792,-50.001192,-36.138842,-46.497257,-56.644857,-43.398004,-32.845415,21.423512,48.421211,74.268551,92.715168,41.624794,80.551014,99.842548,108.299961,34.540615,79.311504,82.526207,76.802101,30.285645,73.083572,77.558727,73.203793,28.482342,66.546478,72.662144,70.618515,-27.525802,-40.740637,-38.956637,-33.995238,-58.061751,-57.485496,-45.589835,-33.711279,-45.584123,-31.820759,-17.077694,-10.159085,-27.216988,-14.763597,-2.400053,3.318467,-6.278103,1.844423,8.007917,10.613167,159.333315,-12.804581,-173.646727,2.425757
106,-1.574192,31.599955,3.16,32.488436,-21.215516,-37.600422,-46.545182,-45.445405,-21.451035,-41.422406,-42.493401,-37.94632,-7.76167,-32.264443,-32.603932,-25.918122,3.811855,-19.754963,-21.815587,-17.479992,13.375968,-7.336121,-10.471802,-9.149437,-10.844021,-25.51101,-35.816274,-45.604053,-46.267484,-33.773585,-15.532421,-6.779948,-43.529286,-27.578769,-10.160907,-2.792771,-36.459883,-22.055395,-5.909592,1.007504,-25.060818,-15.641148,-3.963667,2.649293,20.771284,48.756008,74.452114,89.487877,50.147839,91.671638,112.871504,124.443626,47.756853,91.44702,87.071915,77.475386,45.859594,87.0823,84.273434,75.899391,45.218096,82.532272,82.476025,76.420555,-30.001901,-46.665512,-51.52283,-56.344148,-58.370426,-59.565096,-51.768597,-42.485874,-43.086782,-30.034243,-20.217085,-18.076862,-22.464985,-12.53521,-3.639539,-1.121434,0.296757,5.524176,9.890455,11.212562,156.672507,11.323868,-171.573343,27.442686
107,-1.574193,31.599955,3.16,32.488435,-18.468704,-39.110184,-53.660774,-56.589661,-15.712051,-42.625008,-41.844521,-35.617905,-4.904594,-40.001564,-37.48661,-26.892128,1.657219,-30.81665,-27.650414,-19.558296,5.913391,-21.351357,-19.902191,-16.174049,-6.440383,-11.388381,-14.941655,-22.55653,-29.821775,11.237927,28.309075,31.813998,-26.395152,22.698834,35.438376,36.233042,-17.848648,26.930003,38.182009,38.153851,-3.624379,25.362561,35.470672,38.144001,20.119057,49.090805,74.635677,86.260586,58.670883,102.792263,125.900459,140.587292,60.973091,103.582535,91.617622,78.14867,61.433544,101.081028,90.98814,78.59499,61.95385,98.518066,92.289906,82.222595,-32.478,-52.590387,-64.089024,-78.693058,-58.679101,-61.644695,-57.947358,-51.260468,-40.589441,-28.247726,-23.356476,-25.994639,-17.712982,-10.306823,-4.879024,-5.561335,6.871617,9.20393,11.772994,11.811958,155.574875,41.006426,-167.936783,58.013725
108,12.349663,78.136594,18.65942,24.716004,-20.927696,-50.175133,-76.367226,-85.422821,-25.555115,-74.502296,-77.231026,-70.487595,-16.210098,-69.066582,-71.08326,-63.18409,-12.620316,-64.078217,-63.250465,-53.044395,-12.633591,-54.150124,-55.871201,-49.277573,-27.46399,-40.991405,-36.429347,-28.750498,-44.132464,-23.830997,-8.129936,-5.126766,-24.915365,0.521606,11.800998,11.302795,-3.833064,19.338932,25.864284,22.511483,17.708968,33.56987,36.827575,35.216816,15.124054,38.162556,60.210342,70.526161,54.534531,96.917553,122.118587,141.510601,61.799355,103.34341,95.637989,82.076969,66.747723,104.173164,97.08149,84.318352,70.456982,102.851658,98.969822,89.162807,-34.767674,-60.883467,-80.997429,-98.544982,-58.723963,-67.623617,-69.796182,-70.396365,-40.131593,-45.053101,-42.220671,-39.658739,-18.99631,-24.796989,-21.396024,-18.218564,3.13936,-5.392571,-4.104272,-1.519492,167.67786,118.089327,-149.52404,81.676035
109,-9.896278,35.169144,20.698128,13.761573,-3.560944,-21.252136,-42.924614,-55.445366,-38.841934,-58.805122,-49.137611,-41.439743,-52.183914,-68.318596,-57.632332,-49.915581,-59.332581,-75.335884,-62.511635,-53.261375,-60.981331,-75.230827,-64.895096,-55.846825,32.82936,55.406792,65.793458,69.163549,48.465614,72.607863,70.474757,61.698109,32.052045,60.30218,59.606746,50.468735,16.234245,41.418595,42.426053,34.481492,0.821219,18.898899,23.212474,20.431668,10.850945,28.526859,43.845177,47.922192,56.720238,93.439465,119.459553,138.956966,68.689442,102.673988,94.644756,81.390381,75.081081,104.015808,97.666912,86.564941,78.319588,105.469151,101.661358,91.007137,-36.656774,-65.920047,-89.461403,-110.470808,-65.613178,-78.831533,-83.397359,-86.153094,-46.553975,-56.673324,-53.137866,-50.377283,-26.255472,-37.151703,-34.999362,-31.399683,-6.335284,-17.590006,-18.842397,-15.755247,159.447126,153.13568,-127.160368,95.314818
