YashyHoby/handMotion-similar-search/project/data/handData/tgt/d4_feature_d2/7.csv
,vel_0x_L,vel_0y_L,vel_0x_R,vel_0y_R,posFromWrist_1x_L,posFromWrist_2x_L,posFromWrist_3x_L,posFromWrist_4x_L,posFromWrist_5x_L,posFromWrist_6x_L,posFromWrist_7x_L,posFromWrist_8x_L,posFromWrist_9x_L,posFromWrist_10x_L,posFromWrist_11x_L,posFromWrist_12x_L,posFromWrist_13x_L,posFromWrist_14x_L,posFromWrist_15x_L,posFromWrist_16x_L,posFromWrist_17x_L,posFromWrist_18x_L,posFromWrist_19x_L,posFromWrist_20x_L,posFromWrist_1y_L,posFromWrist_2y_L,posFromWrist_3y_L,posFromWrist_4y_L,posFromWrist_5y_L,posFromWrist_6y_L,posFromWrist_7y_L,posFromWrist_8y_L,posFromWrist_9y_L,posFromWrist_10y_L,posFromWrist_11y_L,posFromWrist_12y_L,posFromWrist_13y_L,posFromWrist_14y_L,posFromWrist_15y_L,posFromWrist_16y_L,posFromWrist_17y_L,posFromWrist_18y_L,posFromWrist_19y_L,posFromWrist_20y_L,posFromWrist_1x_R,posFromWrist_2x_R,posFromWrist_3x_R,posFromWrist_4x_R,posFromWrist_5x_R,posFromWrist_6x_R,posFromWrist_7x_R,posFromWrist_8x_R,posFromWrist_9x_R,posFromWrist_10x_R,posFromWrist_11x_R,posFromWrist_12x_R,posFromWrist_13x_R,posFromWrist_14x_R,posFromWrist_15x_R,posFromWrist_16x_R,posFromWrist_17x_R,posFromWrist_18x_R,posFromWrist_19x_R,posFromWrist_20x_R,posFromWrist_1y_R,posFromWrist_2y_R,posFromWrist_3y_R,posFromWrist_4y_R,posFromWrist_5y_R,posFromWrist_6y_R,posFromWrist_7y_R,posFromWrist_8y_R,posFromWrist_9y_R,posFromWrist_10y_R,posFromWrist_11y_R,posFromWrist_12y_R,posFromWrist_13y_R,posFromWrist_14y_R,posFromWrist_15y_R,posFromWrist_16y_R,posFromWrist_17y_R,posFromWrist_18y_R,posFromWrist_19y_R,posFromWrist_20y_R,posFromBody_0x_L,posFromBody_0y_L,posFromBody_0x_R,posFromBody_0y_R
2,14.928703,-9.600584,-6.624985,-5.124481,-22.706909,-32.726555,-37.519054,-43.662128,-7.710342,4.181271,-12.035522,-28.765297,4.936581,19.558697,1.155682,-14.678364,12.478924,24.494419,1.640682,-18.070393,15.052357,22.783985,5.946178,-9.034939,36.376797,70.424678,94.945766,106.434122,50.96243,78.032514,87.9655,97.273633,36.461457,64.906784,78.323914,88.310005,24.796248,57.491795,75.954983,88.804996,17.383791,44.916138,61.57467,72.917974,27.541695,58.142567,80.200024,96.915607,61.705799,97.969723,109.929714,110.989323,50.773716,90.527515,101.110439,100.352039,37.236042,73.247051,85.171566,88.212261,23.572197,51.005688,62.638149,67.640133,-20.823165,-17.134072,-2.589936,11.257779,-11.949199,10.020425,28.63169,38.663847,8.076151,39.076772,52.423815,54.573532,29.0067,59.381234,70.049544,70.460122,46.631997,73.16831,79.974811,78.586415,1.346912,374.198111,-38.528652,377.256732
3,-15.001888,1.074087,-1.165123,0.623988,-17.416592,-20.465698,-21.059361,-23.508911,-9.169178,-13.788757,-28.121166,-41.481514,6.194401,17.026291,20.517769,21.28418,21.62384,38.259544,47.294655,50.654526,34.590797,51.131058,64.420052,73.44532,29.869107,63.411189,90.355549,106.024469,54.120346,79.322171,94.29609,108.1175,38.440434,61.141862,72.987628,83.316929,21.831858,44.164018,57.871189,69.011519,6.721347,23.865917,34.670942,45.410327,27.72583,56.126804,75.625134,90.467205,62.560444,97.706966,110.940342,113.470516,51.797047,89.926128,100.706806,101.297207,38.47538,73.262272,84.749508,88.316517,24.709625,51.467228,62.645588,67.68877,-21.237943,-18.742979,-5.770514,6.016281,-10.149112,10.70641,28.148555,39.073252,8.510812,38.065053,52.726639,57.947389,28.230498,57.958566,69.420492,71.883716,45.266757,70.976912,78.130512,78.521515,-10.737906,375.053107,-36.776705,377.661629
4,-4.629593,-0.48999,-0.595322,0.18451,-15.826206,-19.567223,-20.60463,-21.691132,2.626934,20.106468,21.306267,20.010338,16.415749,42.725029,53.496552,59.024048,28.257866,55.020905,68.015327,74.792175,36.954231,61.405334,75.844116,85.067024,23.847392,51.359855,71.214218,79.835934,51.215359,77.076,89.354266,99.467625,34.097528,56.373927,67.151412,74.478407,15.665833,36.595517,48.558116,58.691791,-0.86537,11.881767,19.917781,28.100698,27.719135,56.298923,76.168499,91.480923,62.829494,97.449131,111.203213,114.086437,52.235584,90.137043,101.712055,102.975712,38.998032,73.518391,85.553226,89.552937,25.276566,52.13522,63.769627,69.250774,-21.573309,-19.414206,-6.509296,5.386797,-10.872519,7.939559,25.590544,37.455886,8.149819,36.692651,51.688553,57.816725,28.190051,57.091035,68.659789,71.514696,45.522836,70.881137,77.976815,78.342995,-14.424391,374.956745,-36.428919,378.239768
5,16.734238,5.370742,-7.169437,-4.737306,-8.353443,-15.860996,-21.621437,-27.945957,4.297943,20.882492,4.883652,-13.627453,5.951271,17.839851,-3.13282,-21.691647,2.438507,6.33831,-18.414745,-39.986115,-4.823513,-7.115993,-26.251431,-42.349434,26.392558,53.501174,76.838014,89.876057,36.899082,61.511623,74.130382,87.295755,32.267246,60.63767,77.59001,91.339604,29.344537,63.450833,82.417596,97.324145,26.350136,55.216601,72.361603,86.921485,34.913921,68.887711,93.436317,108.362503,69.863319,108.573761,116.597214,116.032104,56.058884,100.315018,110.397148,108.49823,41.795483,82.175903,94.292679,96.549225,27.803993,56.872559,70.312157,77.092667,-20.783768,-17.597509,-3.575781,13.51735,-2.14663,28.394321,41.480778,45.559948,20.983531,52.83674,63.913591,62.52044,39.565527,67.922798,76.222609,76.013831,52.816301,78.286802,84.838644,84.78029,2.976894,380.275879,-42.931309,373.450853
6,-3.974075,3.199227,-0.24725,1.185484,15.024719,16.778297,11.31958,4.703293,22.860146,36.391411,20.067329,3.109016,8.854523,11.369591,-8.444366,-25.355186,-9.10778,-14.462814,-36.421509,-54.674778,-29.287777,-38.241978,-54.517365,-66.726036,23.98775,48.377187,70.773012,84.075965,35.62301,57.8497,70.30587,82.785319,34.584985,61.73411,80.449486,95.785757,34.624135,66.879154,86.211479,102.062316,32.466576,61.984446,79.019162,93.771767,31.520119,59.155712,79.192142,93.983288,70.933628,108.199482,119.211445,119.668636,60.620213,101.968174,111.305065,109.76366,46.819725,85.138149,96.924419,99.738865,32.034302,62.156925,74.721394,79.898014,-20.374301,-21.153283,-12.94301,-3.687488,-7.223934,14.100089,30.261839,39.186317,14.314425,42.170097,55.129409,58.653876,34.762641,62.002354,71.473014,72.380437,51.424138,76.652021,82.041906,80.431888,-1.49065,383.547123,-43.672028,374.708354
7,2.800598,-2.535904,2.549629,-1.481639,-4.676743,-10.313988,-14.629498,-19.81842,8.68927,26.975784,13.706703,-1.327343,6.95343,16.398926,-2.05267,-17.41642,-0.187569,0.153465,-22.017803,-39.792595,-10.675621,-15.763779,-33.90976,-47.601013,23.871166,50.538451,75.262822,89.414844,32.185426,56.319772,68.291263,80.865931,30.760721,60.071604,79.07906,93.661543,31.798066,65.524721,85.870617,101.572326,32.665227,61.159028,78.075862,92.482172,30.59063,58.780346,78.590641,93.089504,68.138409,105.374851,117.255306,118.373852,57.118778,97.141857,107.243671,107.674084,43.053703,79.46291,91.188869,95.412426,28.62711,56.577587,68.915119,75.718746,-19.371907,-17.095108,-5.334865,5.303064,-5.052295,16.540836,33.380358,43.215038,14.634724,43.169713,57.090973,61.807037,33.733386,61.301486,72.603911,75.183041,49.475789,74.45945,81.956011,82.72573,1.297016,381.277224,-41.13533,373.49272
8,-2.740059,-3.251097,1.697273,1.683687,5.812912,2.553978,-5.183487,-14.682827,16.169701,36.725693,22.592697,7.07119,8.010979,20.866241,0.651455,-16.413174,-3.787994,0.185909,-22.548981,-41.252232,-17.724323,-20.040436,-37.499313,-51.512489,29.824584,59.869927,85.77126,100.555421,37.630825,61.800183,74.20195,86.748214,33.966617,62.893721,82.499971,97.251527,32.20179,66.395093,86.434645,101.784563,29.638654,60.215791,77.993981,92.962713,29.363079,57.009373,76.507816,90.856762,66.705151,103.416195,115.472889,116.749706,56.005497,95.756092,106.24815,106.394062,42.319393,78.34734,89.962978,93.766308,28.166885,56.169033,68.351841,74.284801,-20.367015,-18.890316,-7.996678,2.093771,-6.50874,13.978688,30.728858,40.619853,13.237374,41.887713,56.1084,61.025092,32.703389,61.32594,71.929041,73.632735,48.694214,74.473961,81.559141,81.378336,-1.561003,378.130562,-39.556017,375.280842
9,-15.3685,0.043658,1.038322,1.28941,-14.540634,-16.276417,-17.56216,-21.820335,4.185562,27.649841,35.41317,40.253906,18.416862,45.030098,57.019272,64.274826,30.110435,55.837669,69.246712,77.802658,37.972069,60.833817,74.555626,84.149094,21.320997,46.339609,64.288724,72.552844,47.415424,68.796443,78.698183,87.85404,31.073795,51.912522,62.456281,70.646485,13.423366,33.272851,45.320912,56.375718,-1.813363,11.009296,18.286211,26.392867,27.40139,55.551395,74.930592,89.336414,64.876385,101.745472,114.146748,115.529766,54.195156,94.058704,104.499264,104.432774,40.552082,76.519032,88.266621,92.144337,26.362438,54.047756,66.19772,72.323055,-21.888977,-20.987915,-9.95713,-0.568351,-7.429995,13.409472,30.118269,40.144128,11.942962,40.79473,54.866353,59.888081,31.162284,60.017695,70.812285,73.033818,47.190653,73.002572,80.229964,80.259913,-17.248936,378.230891,-38.837128,376.626924
10,22.428532,-2.975938,-0.213833,0.22224,0.4632,-5.774231,-16.532593,-28.601704,5.357723,3.857174,-16.054974,-32.772617,-0.547199,-8.682861,-30.724525,-46.047649,-10.074806,-19.698315,-42.122097,-58.486919,-22.876167,-31.883926,-48.244572,-59.79641,39.882924,74.287104,102.510068,119.039048,57.372617,85.820599,98.426946,109.551344,46.682138,77.33955,95.230806,108.884193,37.861215,70.622341,89.827275,104.998919,28.680967,57.613443,75.24967,89.138263,27.266922,56.045723,75.827637,91.206322,64.838333,100.607872,114.030533,116.423721,54.294434,93.114624,104.7155,106.125984,40.684605,75.770874,88.161621,92.655716,26.375084,53.348122,65.485497,71.988945,-21.647595,-20.638778,-8.993639,0.596262,-8.647528,10.696715,27.533274,38.526082,10.544933,38.275005,53.082692,59.54938,29.830142,58.09769,70.077146,73.982119,46.274277,71.772566,79.778445,81.186539,4.833355,375.263614,-39.397202,376.857824
11,-15.374107,-1.220497,0.487232,0.383655,-21.162472,-25.363655,-24.979134,-29.552708,-4.376335,-6.258545,-19.140072,-29.916916,10.75716,19.663754,20.638561,21.31834,24.513645,39.49728,42.111912,41.81345,35.497341,51.314907,64.242725,73.236752,32.61101,68.347023,97.346066,113.494417,53.800849,82.221538,98.561932,113.585622,35.470486,61.821672,74.584803,87.231472,17.02712,42.373935,60.058945,76.085338,1.169862,17.178532,29.627107,42.077163,26.535873,54.779949,74.633732,90.294056,64.246387,99.300213,113.098125,116.02438,53.926907,92.326183,104.711437,107.018795,40.496807,75.264874,88.080997,93.01981,26.296864,53.147106,65.29604,71.747074,-21.867488,-21.424738,-10.70289,-1.574636,-9.236688,8.823763,25.338788,36.449663,10.269588,37.348625,52.145197,59.028639,29.733317,57.631351,69.414626,73.230616,46.252355,71.534086,79.454193,80.796277,-10.707264,374.049771,-39.076481,377.248133
12,-10.569763,-6.484781,0.956783,-0.634732,-14.81266,-14.920578,-14.976196,-16.514797,6.316566,29.678135,37.47797,40.779476,22.571812,53.663349,65.126553,67.585773,36.338482,65.671177,78.393345,82.94775,46.163006,72.566471,89.014149,99.097538,27.03254,58.459918,84.481603,101.100245,56.62661,81.60249,92.088389,101.183237,40.213103,66.662102,77.80731,83.511319,22.260653,47.932831,60.560914,70.118766,4.894832,24.623841,33.141878,42.559001,26.667938,55.148735,74.787598,89.632759,63.494911,97.971954,111.553688,114.58992,52.486496,89.871712,102.431145,105.622902,38.550911,72.586212,85.770493,91.573677,24.140625,50.061722,62.036133,69.05777,-21.426714,-20.386899,-8.585407,1.215495,-7.84434,11.957412,28.462617,39.681865,11.302363,38.883926,53.513031,60.894181,30.19484,57.743798,69.971306,74.960122,45.747916,70.358172,78.872504,81.787741,-21.413212,367.586973,-38.255882,376.635384
13,21.402512,-2.564062,-0.063286,0.954106,-24.501228,-31.431255,-31.339474,-37.392941,-12.3456,4.521503,-10.428772,-26.30928,2.321205,26.400204,14.171047,2.42094,14.755154,37.707081,20.160084,3.322048,23.084621,39.964886,30.55109,20.487728,40.792322,81.749456,113.873132,133.088563,60.731407,87.376462,97.908489,108.007522,44.088497,72.919518,85.0297,95.318739,29.993225,60.474587,76.499189,88.0643,19.440697,44.89502,59.63509,70.062264,26.036682,53.17955,72.648125,88.389359,62.25975,96.667557,110.962029,115.027542,52.103348,89.393806,102.031403,104.978714,38.878555,72.361679,85.273018,90.780487,24.898911,50.898628,62.729187,69.408646,-21.676494,-21.708419,-11.70794,-3.77894,-8.342295,9.529756,25.641797,37.295273,10.688935,37.974095,53.161053,61.037997,29.857621,57.67649,69.429323,73.573393,45.970465,71.062745,79.2096,80.856545,-0.0947,365.030058,-38.403168,377.596637
14,-9.89233,3.768875,0.398483,0.062924,-17.778454,-21.316452,-23.721542,-26.086349,-4.497986,9.143715,5.138626,-1.420269,10.003967,33.366623,38.168221,37.73243,24.050446,48.962173,54.771309,53.05481,36.666298,61.569099,75.28759,81.246185,35.317716,71.180441,100.330032,117.463548,55.53548,80.020383,91.523929,100.697138,35.88267,62.054903,72.327146,79.583252,17.534276,43.691936,59.920439,73.600687,1.86301,19.521096,32.196418,45.176416,26.758804,53.723946,73.671227,89.761848,60.798111,95.073509,110.312691,115.38414,50.706367,88.029556,101.537132,105.231628,37.696323,71.231346,84.625282,90.415878,24.119339,50.202141,62.296486,69.542313,-21.514338,-21.053556,-10.070504,-0.3429,-9.63078,6.757656,22.693647,34.531139,9.47912,36.326471,51.936543,60.335401,29.035105,56.737761,68.667014,73.118663,45.58718,70.628022,79.197497,81.422549,-10.079498,368.782476,-38.097153,377.643104
15,-18.37635,-4.853706,0.335426,0.610094,-11.283932,-7.823582,-6.235714,-8.815212,14.798641,43.885918,54.638329,59.383278,29.647064,65.750771,77.550659,80.299416,42.426224,75.606995,87.75032,91.910591,52.247086,82.649574,98.932571,109.069862,30.055655,61.626047,85.123499,100.129219,60.658232,83.906954,92.205159,96.098461,44.004146,70.275983,79.319392,82.26569,26.005136,50.732533,61.870208,69.204922,7.971299,27.370808,37.670407,47.189541,25.477581,51.062279,70.415039,86.351166,59.889908,93.165665,108.703079,114.529953,50.404701,86.128693,99.583626,103.513527,37.584572,69.887924,83.231049,89.231987,23.719254,48.840752,60.975723,68.411407,-22.100472,-22.402864,-13.627945,-6.137991,-9.23638,5.834488,20.82545,32.719444,9.761382,35.934973,51.215483,59.741918,29.059744,56.074252,67.920328,72.843935,45.399459,69.72628,78.400484,80.895448,-28.46858,363.938774,-37.774458,378.263202
16,28.557243,0.698644,0.817738,1.181841,-26.527519,-33.812771,-33.332176,-39.86578,-14.672184,-0.304298,-16.635876,-33.542233,2.116184,26.613922,14.830399,3.241024,16.889877,41.676865,26.157532,10.899239,27.332726,47.183762,40.840416,32.94136,39.519708,81.248846,113.500777,132.99001,63.149368,90.042907,100.689975,111.128758,46.259704,73.948094,83.946783,93.335624,31.966768,59.831888,72.072179,81.637009,21.140686,44.284925,54.802873,62.670617,24.762726,49.706097,69.027271,85.864277,58.57481,91.400814,107.153263,113.795643,49.054241,84.572353,98.09824,102.2299,36.454639,68.501759,82.068615,88.270397,23.001823,48.293095,60.430126,67.724819,-22.97455,-23.726793,-15.364182,-7.586285,-10.485096,4.395765,19.862267,32.298738,8.544528,35.1182,50.321028,58.725753,27.899021,55.191839,67.214459,72.411374,44.194399,68.437179,77.003505,79.411709,0.088778,364.671303,-36.956606,379.478929
17,-11.016827,4.628996,0.346184,-0.624914,-17.415791,-18.057117,-18.989067,-22.234554,0.15873,22.466412,22.152729,18.733234,13.743725,43.006153,48.882809,48.93877,25.65588,52.330112,54.298725,48.563404,35.626202,56.20966,65.600567,66.812725,34.12019,69.908691,99.936805,119.635186,53.512845,76.931257,86.200982,93.038419,34.688788,62.343648,71.294679,77.510167,17.843029,45.49122,62.616215,77.100638,3.373425,21.856064,34.043805,47.017443,25.248013,51.191769,70.762424,87.547932,58.960018,90.021343,106.041241,113.814411,48.898258,83.062649,96.548138,101.248226,35.925579,67.464466,81.243382,87.718906,22.190781,46.998425,58.968143,66.432209,-22.532849,-22.606208,-13.660241,-5.789595,-9.363215,4.679817,20.195287,33.507503,9.07694,35.734284,50.737473,59.133924,27.945272,55.463973,67.693704,73.239076,44.007357,68.297561,76.918413,79.62481,-10.954885,369.305595,-36.637259,378.85931
18,-20.12392,0.087871,0.247707,0.543527,-9.921684,-3.490105,0.377083,-0.845375,17.20562,47.543335,59.693413,65.568352,31.05114,69.391022,83.25325,86.170235,43.239441,78.145294,92.476044,97.800293,51.991425,82.663193,99.526863,109.17984,28.085508,58.402181,81.367839,98.243609,57.954676,79.952396,85.965033,89.84722,41.105211,65.81149,73.381102,75.917686,22.762993,46.379499,56.003733,62.826228,4.421638,21.71126,28.988916,36.89266,25.372982,51.425285,71.210632,88.069611,58.502884,89.101753,105.324554,113.361626,48.487129,82.274323,95.842094,100.369835,35.441437,66.884422,80.664825,86.877251,21.633682,46.748543,58.748474,66.049461,-23.077734,-23.243843,-13.698403,-5.435765,-10.182581,3.607521,19.113605,32.630894,8.345753,34.757393,50.016352,59.00221,27.320297,54.740135,67.126835,73.295207,43.659085,67.771509,76.558161,79.748743,-31.073399,369.404364,-36.384144,379.413736
19,29.890079,-2.315949,0.013962,-0.00846,-25.194569,-30.842972,-29.927731,-36.668186,-13.29586,5.54369,-8.344002,-23.07066,2.139816,27.453861,16.776867,6.278286,15.685673,39.730396,23.942356,8.669186,25.185413,43.672314,36.877155,29.041157,40.010315,80.783247,113.216478,132.378742,58.869508,84.919908,95.015112,104.84621,41.427919,69.533928,81.991765,93.122585,27.005678,55.597292,72.53259,85.575573,16.065543,39.472839,53.981901,64.849356,25.431519,51.940498,71.935272,88.611717,58.365555,89.170418,105.212631,113.072205,48.481178,82.826042,96.01902,100.009689,35.585632,67.423553,80.820007,86.464691,21.867542,47.253456,59.01226,65.784416,-22.792695,-22.37236,-11.984211,-2.919374,-10.357582,3.279503,18.759219,32.050687,8.048487,34.718675,50.162268,59.161341,27.07984,54.932302,67.336107,73.173188,43.508105,67.819551,76.37186,79.242698,-1.164837,367.077578,-36.3517,379.394439
20,-6.944962,3.923806,-0.25938,0.006052,-18.658218,-22.276726,-25.217571,-29.167557,-4.245071,17.283955,15.926113,12.032433,10.202293,36.137409,40.85844,40.405025,23.530712,49.032612,53.090687,49.570827,35.175991,58.592548,70.760708,75.075016,34.970308,71.474496,101.062083,119.78771,53.500804,76.011484,84.86285,91.830334,32.763472,58.111645,68.431868,76.135047,13.797265,39.045218,56.558376,71.86056,-2.018127,15.203816,27.617501,40.722853,24.99115,51.190281,71.276035,88.095303,58.09576,88.83791,105.039425,113.334217,48.149128,82.12492,95.831051,100.648098,35.282192,66.909428,80.673695,86.9977,21.612053,46.904125,59.097347,66.54356,-22.694264,-22.879763,-13.85,-6.802981,-10.473117,3.438942,19.164364,32.827692,7.702685,34.459447,49.806894,58.680552,26.593494,54.392974,66.821232,72.711419,43.1234,67.321349,76.139431,79.254987,-8.047342,370.988556,-36.548624,379.387662
21,-19.905224,-5.937858,-0.236721,0.083116,-11.159706,-6.094723,-2.850838,-0.712967,12.903099,40.211792,49.216347,52.405243,27.923183,63.458862,74.209213,76.26709,41.343384,73.748245,85.259399,88.620071,51.51947,80.907898,97.08744,106.892395,30.972278,64.165841,89.728103,106.005697,60.586231,83.985747,92.546824,97.153837,43.552689,69.999835,79.052075,81.781813,25.521137,50.751367,63.40168,70.955731,7.960554,27.766135,38.871329,48.925037,24.500141,50.158195,69.763527,86.424408,58.509293,88.467636,104.776497,113.402824,49.014244,82.27478,95.91362,100.806313,36.269989,67.559624,81.401482,87.866821,22.374172,47.041512,59.07383,66.796989,-23.142202,-23.747232,-15.098778,-9.063787,-9.793492,2.526148,17.645798,31.434603,8.714527,34.340701,49.307827,58.322461,27.456394,53.985545,66.197738,72.402358,43.764184,67.059095,75.985611,79.376203,-27.938061,364.98992,-36.77084,379.41
22,25.932083,0.690246,0.475731,-0.050882,-25.732327,-32.665386,-31.815662,-37.875538,-13.685474,5.419121,-8.942814,-25.327663,3.379154,32.023315,20.539627,7.976303,18.916855,45.867691,29.51992,12.475204,29.920807,49.669991,41.366386,31.146126,38.058076,78.166759,109.053451,127.456926,58.53124,89.351735,99.687272,108.150351,42.257042,73.210177,84.109804,92.567573,27.310972,59.186411,72.53648,81.249648,15.971991,41.216671,52.435795,59.633299,23.678169,48.945351,68.456039,85.201263,57.749748,88.77594,105.005608,113.306808,48.930588,83.424454,96.959381,101.460915,36.445942,68.284836,82.117538,88.406067,22.32296,47.177353,58.750648,66.100845,-22.853704,-23.97503,-15.910735,-9.522531,-9.662334,1.263599,15.447854,28.360235,8.800175,33.646811,48.288946,57.32019,27.507339,54.054829,66.47296,73.107116,43.925785,67.600893,76.632817,80.104734,-1.975565,365.64608,-36.264696,379.325031
23,-11.4394,1.69684,-0.016823,-0.563411,-15.999126,-17.792473,-19.481564,-20.040493,-0.377884,15.774593,14.605865,11.870441,13.279839,42.198029,51.210022,54.980392,26.782951,55.5439,65.319443,67.208633,38.317795,63.511963,78.914566,86.788101,33.335157,67.957255,96.205969,111.366251,56.413386,80.651904,92.001383,100.396228,37.225186,62.784052,73.581729,80.809985,18.509439,43.965923,59.971877,73.322563,1.850042,18.479984,30.857669,43.912138,24.654121,50.619736,70.747147,87.165413,58.110809,89.086189,105.706787,114.756889,49.024887,83.208733,97.314262,102.546844,36.283264,67.922287,82.109756,88.975868,22.091274,46.894455,58.829727,66.729469,-22.555573,-23.424957,-14.918714,-8.107953,-9.558902,1.90111,16.025529,28.843123,9.050881,33.712452,48.590411,57.917687,27.925698,54.255456,66.805671,73.708441,44.473141,68.020549,77.145407,80.851111,-13.35969,367.367898,-36.226244,378.786598
24,-20.403271,-3.975059,0.294399,-0.279853,-8.938236,-1.538315,4.676857,6.354046,19.773273,50.991154,64.917583,71.363926,34.511547,72.989674,87.569103,90.961132,47.394962,81.694508,95.071621,99.925175,56.788731,87.075405,102.081356,110.342846,31.344571,61.526999,84.120178,101.05881,61.719105,83.764434,90.789037,94.816955,45.685054,71.594292,78.224002,80.395517,28.383886,53.071947,62.726562,69.809705,11.073763,31.494563,40.935336,50.804596,24.503288,49.967937,69.380894,85.805454,58.02515,88.862743,105.181904,113.919811,48.828106,82.922115,96.781597,101.915417,36.010208,67.698383,81.927052,88.856449,21.727867,46.443958,58.412647,66.591854,-22.190072,-23.255452,-15.209003,-8.681552,-8.323523,3.511993,17.552246,29.949691,9.97899,34.664211,49.47196,58.554705,28.442055,54.520365,66.973447,73.734253,44.653081,68.146334,77.341527,81.218958,-33.726797,363.444076,-35.895681,378.557983
25,32.953033,4.514758,0.810528,-0.355065,-23.894405,-31.851826,-32.561531,-38.393555,-9.368534,9.483776,-4.69677,-21.137524,5.527096,26.511669,11.85957,-2.839737,16.533222,34.917011,13.874187,-6.321316,22.939396,36.544819,23.512287,9.593868,37.977677,75.95066,106.42665,124.752258,55.274214,83.732818,93.028725,102.265598,41.460338,71.915394,84.145619,94.241503,29.513733,62.451588,79.673037,92.561953,20.589872,46.605382,62.423615,74.810068,24.354744,50.98835,70.822906,87.524529,58.198013,89.26403,104.497833,112.104034,47.753906,81.827087,94.660263,99.05674,34.221725,65.874252,79.416962,86.078682,19.852753,44.673843,56.442261,64.380341,-22.480608,-22.690559,-13.299433,-6.195419,-8.250226,7.405542,23.138188,36.58397,10.037776,37.303794,52.423383,61.471177,28.44576,56.224429,68.749945,75.126354,44.205082,68.725492,77.879002,81.380559,-0.773106,367.975012,-35.084496,378.219097
26,-14.563694,0.57891,0.45639,-0.286892,-16.098518,-16.0536,-14.404507,-14.72683,-0.157299,13.973579,10.122929,3.79858,14.003963,40.742455,50.595589,54.733772,27.905388,55.620804,67.883034,71.918564,40.408058,65.938797,82.973328,93.043671,32.498871,67.926132,96.620993,113.690351,54.913345,81.412978,95.028759,106.163964,36.377229,63.142081,74.933878,83.069001,18.274479,45.257618,59.230563,70.131425,1.983114,21.17082,32.802498,44.911136,23.867741,50.342445,69.992638,86.415596,58.643074,90.043945,104.904556,111.650276,48.057404,82.404327,95.301247,99.700813,34.353733,66.016731,79.483223,86.310768,19.778023,44.480095,56.103287,63.986893,-22.532046,-22.304681,-12.640927,-5.109291,-7.72226,7.75122,23.484978,36.493073,10.614834,37.349304,52.190707,60.716463,29.079813,56.754804,69.046902,74.836127,44.730949,69.527012,78.18479,80.895633,-15.306473,368.552332,-34.597778,377.930614
27,-17.57,-2.751907,-0.122738,-0.044213,-10.130424,2.085686,12.220345,18.943405,20.972157,56.690712,72.02774,80.643425,34.562588,75.051727,89.009857,92.772217,47.17907,83.158379,94.793701,98.917809,56.030388,84.56749,95.601997,101.144257,24.322808,50.09002,70.615857,85.148878,51.614329,71.621277,78.308167,82.768214,42.150831,67.700249,75.034161,76.937617,30.900956,55.358133,64.689052,71.869514,19.207774,39.258998,46.747779,55.663797,24.334488,50.739155,70.420017,86.950893,58.494816,90.494556,105.19907,111.22015,47.927227,82.569637,95.533848,99.601994,34.293194,66.152287,79.747753,86.344585,19.94957,45.134411,57.291698,65.372028,-22.05064,-21.688968,-11.891524,-4.685745,-8.630979,8.526867,25.026577,37.955508,10.259893,37.61057,53.005566,61.60184,29.265929,57.121601,69.367264,74.814761,45.221185,69.895785,78.532383,81.12411,-32.851868,365.807974,-34.695911,377.89395
28,34.844112,1.290337,0.471268,-0.020995,-25.661602,-37.337265,-41.450214,-47.637005,-17.131977,-15.589314,-32.298832,-49.192085,0.220299,4.426975,-13.208771,-28.667049,14.654331,21.043224,-0.487289,-19.161358,24.267597,31.547985,16.600285,1.953793,29.042269,63.60558,91.544801,104.443474,57.566636,90.891111,104.116011,116.131345,48.676368,82.285635,96.742271,108.101815,39.308398,74.625064,91.221784,102.781276,31.954603,59.12639,73.278473,83.76499,24.025555,49.879475,69.512157,86.034565,57.83289,90.404491,105.251484,111.252079,47.633457,82.7215,95.698986,99.495564,34.300976,66.35725,79.80669,85.914173,20.139771,45.347729,57.404995,64.98476,-22.270348,-22.023655,-13.063547,-7.359291,-8.37879,8.477405,24.516396,37.094893,10.206046,37.242229,52.478711,60.911594,29.010961,56.83088,68.813609,73.912897,44.783745,69.748572,78.39715,80.617139,2.041225,367.121066,-34.175663,377.89571
29,-12.375011,2.731776,0.642471,-0.353151,-19.721317,-23.561096,-25.874405,-30.96571,-6.172256,3.782558,-2.379971,-9.406757,9.232178,28.301697,34.020653,37.133102,22.864952,44.101753,52.424698,56.056023,34.877815,56.494446,71.12011,80.986862,28.136637,58.161355,79.989508,90.782306,53.073059,79.462036,93.692295,106.997162,35.418122,59.87641,74.169655,87.025782,16.471243,41.461511,59.202713,76.640721,-0.711982,14.974104,26.134874,38.299335,24.930782,52.229404,72.7775,90.251255,57.446766,90.650539,105.568943,111.387806,46.734409,82.448788,95.785847,99.745502,33.251095,65.832539,79.715939,86.28027,19.199524,45.259037,57.620831,65.584087,-21.618387,-20.390295,-9.787132,-1.675103,-9.915202,6.158492,23.709565,37.33751,8.631781,35.991969,52.471363,61.649821,27.865985,56.254996,69.057585,74.445864,44.424975,69.748078,78.687747,81.271693,-10.18404,369.874378,-33.383446,377.564095
30,-16.328888,-5.875799,0.81459,-0.258611,-13.998127,-9.476337,-1.320248,2.99017,13.783379,42.763939,55.619888,63.827248,28.558674,64.19323,78.480492,84.625282,41.260185,74.54567,89.241257,97.515335,50.46524,81.813354,97.681618,108.718414,29.410733,58.175742,77.076617,88.614373,58.914648,80.725634,89.491291,95.475708,42.797605,67.889514,77.737964,82.414755,25.233997,48.460612,59.78996,68.659295,6.782665,22.794177,30.655128,39.481731,23.630905,50.475712,70.713787,87.771893,57.973652,90.600414,105.39259,111.211681,47.279491,82.151928,95.528469,100.04076,33.569241,65.366421,79.259663,86.267338,19.19529,44.39043,56.580105,64.596233,-21.718299,-20.934686,-11.537385,-4.884643,-8.051142,7.460623,24.018625,37.230497,10.032713,36.606509,52.298462,60.846509,28.548142,56.28056,68.866159,74.004966,44.35106,69.382639,78.199116,80.597873,-26.481314,364.015776,-32.537241,377.322681
31,30.516529,4.075774,0.080395,-0.627878,-16.491108,-23.228588,-26.481686,-33.88567,-6.906509,-0.452213,-16.452827,-31.168327,0.767097,5.235844,-12.718792,-26.44558,5.396175,9.162998,-12.984009,-30.351791,6.228275,9.876194,-5.585918,-18.800354,36.10985,74.585482,106.65173,124.74917,59.364932,87.831192,98.661103,110.474204,46.972365,76.899888,92.546577,106.413065,35.981162,68.431621,87.163732,102.107764,26.405464,53.680436,70.259804,82.987305,23.848858,50.323448,70.412292,87.637367,57.110252,90.296974,105.690651,111.7519,46.838379,81.928368,96.084938,100.766373,33.282452,65.046043,79.450836,86.677666,18.929443,43.873444,56.348419,64.872894,-21.018852,-20.162559,-10.457926,-2.88887,-8.127527,6.551595,22.983133,35.674633,10.1141,35.922067,52.024228,60.811435,28.781126,56.044118,68.831085,74.28309,44.816226,69.399189,78.383688,81.042352,4.066916,368.098806,-32.425146,376.702059
32,-16.502953,-2.243639,-0.327301,0.302639,-21.446228,-28.794651,-31.894226,-35.811481,-3.57502,-0.958099,-10.725803,-20.906239,13.363323,30.780659,36.642323,40.557804,28.306675,50.494938,59.670811,64.057674,39.756947,62.777424,78.54166,88.469639,26.545885,55.192271,76.723343,85.9307,58.227057,89.178463,106.626104,120.961338,42.53955,69.852375,82.907215,93.320866,25.334033,50.97515,65.672304,78.650512,9.204763,24.35004,34.933443,46.696958,22.905579,48.473167,67.701874,84.069099,57.352295,89.316444,104.937859,111.764717,47.014275,81.058846,94.702721,99.511528,33.375492,65.097313,79.19014,86.269798,18.942947,43.923912,56.514816,65.16964,-22.269977,-22.369087,-13.273128,-6.189059,-6.920986,9.357596,24.955379,37.355418,11.520157,37.68745,52.730715,61.230844,29.766539,56.510519,68.537338,74.056775,44.937874,69.091918,77.939641,80.787261,-12.480183,365.825804,-32.796593,376.975335
33,-17.550774,-6.304779,-0.875359,-0.591075,-12.448769,-6.368351,0.29171,2.940674,18.03669,50.144176,62.713566,69.755802,33.746796,70.521984,85.438671,91.013889,46.828136,79.979267,94.358997,101.212864,56.046581,84.717007,99.986172,109.725552,32.938164,64.580372,89.33216,107.315362,64.515966,84.761271,90.651519,95.449958,48.052195,72.303928,79.337423,82.923455,29.864537,52.51218,61.577326,69.518305,11.335523,28.764453,36.233042,45.806517,22.87405,48.993988,68.392639,85.079842,57.390289,89.662514,105.598068,113.066597,47.22187,81.816673,95.929298,101.034164,33.584347,65.53894,80.266228,87.780991,19.028378,43.698921,56.378632,65.415916,-22.328949,-21.970982,-12.387565,-5.446572,-6.098779,9.097194,24.194058,36.823067,12.835008,38.080121,52.435301,61.042876,31.256515,57.362736,69.029304,74.749862,46.31849,70.135809,78.734739,81.721668,-30.049639,359.480255,-33.690634,376.34349
34,24.239616,15.848861,-1.512165,0.175309,7.049618,7.089729,0.683441,-8.458672,30.194149,64.43224,67.391682,65.035915,16.541233,41.095791,37.706051,29.958401,-3.409595,3.380413,-10.668468,-25.193024,-25.733643,-28.417053,-41.627655,-54.283962,30.866561,62.246947,91.195046,114.034362,36.417676,50.140161,56.874785,63.999547,31.545383,52.545463,69.19782,85.134429,29.320763,55.965572,79.378673,99.637192,26.529212,50.772732,70.236709,87.558997,22.341957,46.876431,65.400867,82.261562,58.227825,90.149174,106.943836,115.50127,48.576107,82.526035,97.398548,103.419514,34.933319,66.622639,82.088871,90.138416,19.728699,43.663273,57.190876,67.413425,-23.626634,-25.01855,-17.330191,-12.333348,-4.941638,8.098134,21.784681,33.480703,14.718211,37.253591,50.662879,59.150164,33.026837,57.237939,67.768731,73.284463,47.752026,71.002661,79.456046,82.395057,-5.812769,375.291232,-35.205545,376.480915
35,-7.097855,-10.392718,-2.103539,-1.687083,20.978565,35.350971,43.952351,44.629383,32.645016,59.357929,62.40057,60.480824,12.979946,26.774311,22.377949,13.460083,-8.089886,-8.665581,-20.404301,-31.923351,-27.345257,-33.591557,-44.313297,-54.207687,14.226986,38.518981,64.057716,86.610881,47.272719,65.79562,74.948081,82.462797,54.777741,83.061035,98.185131,113.585993,58.734337,89.319007,105.432715,122.483486,58.091021,84.666299,100.591483,117.388398,21.531944,47.155895,66.618061,83.962841,58.42123,92.306728,108.294125,116.859798,48.167667,83.494091,99.530811,107.673283,34.159985,66.585102,84.041805,94.899158,18.723278,42.48991,56.908779,68.817616,-22.440038,-24.349793,-18.282012,-16.66304,1.179989,16.109694,28.583957,38.563503,20.770554,42.424633,53.764478,60.27291,37.826018,60.657491,70.546141,76.108371,50.441256,73.489474,82.442975,86.278787,-12.875404,364.831839,-37.273865,374.727157
36,-19.841137,4.201745,-5.939426,1.810646,22.752857,41.9561,61.061783,79.82151,41.638527,76.534653,95.820694,112.657814,28.308792,61.643257,83.718109,99.757462,11.969776,30.951233,41.11908,47.904739,-4.338799,-0.350018,-1.506672,-0.518246,-11.843606,-7.913624,-1.749451,-0.779105,22.197544,31.961025,37.963165,44.66185,40.413792,59.042718,68.050621,75.616714,51.650391,74.963827,91.023195,105.897572,58.010684,83.217572,95.533136,109.174667,22.054768,47.405262,69.383812,88.345184,58.481712,91.359558,108.600426,120.817337,48.795547,83.168678,103.029213,116.485405,35.526409,66.904907,86.629028,100.968018,20.650177,43.550377,58.703613,72.416039,-23.601007,-28.011222,-24.363255,-23.205805,4.078923,16.811611,25.609501,32.737166,24.445753,42.584319,51.56073,57.292897,41.036422,61.959437,71.124742,76.96207,52.805309,74.52966,83.616665,87.90659,-32.717457,368.906841,-43.214207,376.41106
37,6.472664,-1.60125,-9.616013,-1.5755,27.55949,46.534996,60.577469,65.881004,38.216743,63.210297,72.72171,76.673584,19.479733,33.114052,35.230865,33.334007,-0.473614,-0.196838,-6.552486,-14.225292,-18.327599,-23.020992,-29.976826,-36.711159,12.060843,33.385854,55.126631,73.727522,46.299594,60.931725,69.233327,77.104652,55.364431,79.784126,96.439138,111.731689,60.159289,88.1292,105.210722,122.713815,61.831737,86.100452,100.326388,115.846366,22.225571,47.859249,72.825737,93.409653,59.069366,95.344048,113.338394,125.404358,49.350357,86.956558,108.482323,121.659851,37.184315,70.849228,91.216164,104.221802,24.508553,50.894737,66.452751,78.735237,-25.919241,-32.613974,-31.101274,-30.027929,3.764923,17.143458,25.685146,32.508134,26.012361,44.418553,53.055336,58.494004,44.034713,64.940685,72.56365,76.320792,56.212882,77.107122,84.012424,85.604349,-26.238184,367.334027,-52.82361,374.863996
38,60.830727,5.033585,-13.891239,-3.268017,-31.550446,-48.843784,-58.986969,-63.396664,-58.326931,-79.889431,-90.054245,-98.432064,-48.123264,-72.026024,-84.555817,-95.095196,-35.085182,-55.019073,-67.468643,-77.574234,-17.532349,-30.358601,-39.477654,-46.392517,0.025132,13.397431,28.707211,38.294271,44.184396,70.095548,84.447702,93.642277,59.976261,89.870191,106.243375,116.640291,71.807269,98.333209,111.044469,120.168648,80.076329,101.149336,111.338278,119.022499,23.601952,53.17852,79.449291,100.631962,59.357815,99.562283,119.853573,133.388729,51.440678,94.562931,115.942097,126.032925,41.714916,79.75668,99.158192,108.249607,31.635647,61.502323,76.52853,84.079685,-29.65508,-35.013039,-30.843466,-27.370747,-0.82585,13.055519,19.221792,24.213078,24.693805,42.873929,47.653843,49.786084,43.3541,62.021682,65.843538,66.654691,54.5999,69.14737,70.306858,67.687405,34.645729,372.323677,-66.661663,371.552044
39,26.543884,12.451106,-2.880936,-9.805348,-37.980309,-64.902592,-84.954185,-93.923206,-62.173347,-95.558167,-109.313736,-120.676003,-49.6455,-84.192982,-101.882343,-115.909653,-35.868759,-66.504364,-83.700542,-97.564659,-21.443367,-44.135056,-56.66502,-67.984142,-1.538573,6.943216,18.168638,27.774656,30.019901,55.311944,69.446736,79.867427,44.506054,75.052933,91.640514,103.542967,54.383711,83.647726,98.869573,109.285015,60.454086,84.386261,96.175093,104.606062,21.413097,49.531288,73.662014,95.443211,43.37574,83.780537,106.962147,120.088863,36.198406,83.174343,107.400112,116.595669,29.903927,72.875118,93.402157,100.968189,24.894905,58.425922,73.64748,78.158627,-31.040882,-36.100094,-26.017919,-17.050215,-6.306508,8.844018,13.628131,18.70667,20.580239,38.193433,36.555194,33.910671,40.600896,56.359107,52.513847,49.334812,54.116456,66.452521,62.315367,57.813947,61.184235,384.85546,-69.547977,361.827373
40,5.930901,-5.388464,4.034328,-10.215865,-31.863441,-55.871544,-77.064743,-93.778782,-56.380234,-90.829868,-108.089733,-121.210556,-45.363121,-80.85062,-100.460243,-115.851345,-32.834358,-64.510174,-82.834797,-96.511116,-20.33638,-43.718719,-56.681786,-68.185158,-4.437817,6.545111,22.168274,33.855404,28.144788,55.035055,70.280676,81.779035,44.140985,74.843722,91.025294,102.935652,54.941009,84.523902,100.293599,111.092696,60.531829,86.748276,100.015105,109.274826,17.954235,37.595501,60.378971,81.534004,30.157986,66.953716,77.911835,78.893738,29.336758,68.129139,77.510262,72.798386,28.854618,63.622742,69.782581,64.579983,28.114758,56.268082,61.883698,57.228127,-26.114002,-30.381326,-21.648459,-13.608741,-14.625029,-10.393829,-11.775804,-10.605201,11.180962,19.566236,17.6487,18.3098,32.318684,39.830992,34.63346,34.135875,48.908735,53.39447,47.855149,44.513711,66.988106,380.12757,-65.640678,352.272083
41,4.35276,-2.4271,-19.059047,-41.826086,-31.755638,-58.286247,-79.63028,-95.634327,-56.178589,-90.403404,-108.615932,-122.055759,-44.420471,-80.536366,-100.510826,-115.679741,-31.612701,-64.426117,-83.068657,-96.520729,-19.248619,-42.995453,-56.250343,-67.546577,-9.111767,0.415704,19.711411,34.891885,28.830897,55.558019,69.902516,80.984924,45.910505,74.097654,90.052293,101.895899,57.055219,84.273257,99.760384,110.912879,62.996597,87.203932,99.278299,108.806387,19.911747,47.595377,77.957897,97.026443,34.599552,80.390997,80.406847,73.265676,33.799095,78.782844,77.498731,67.723245,34.579382,76.194677,72.338676,61.726942,35.882835,69.606971,67.295551,57.119636,-30.916146,-41.891819,-35.853987,-24.50633,-23.645931,-21.872212,-24.298849,-24.375296,3.096567,6.085009,0.948209,0.426757,25.658964,27.162833,20.267998,20.764101,43.812504,42.058391,35.843737,35.639127,71.100826,377.868864,-84.939766,310.61439
42,3.605919,0.150239,-19.059048,-41.826086,-33.179398,-60.30899,-81.113491,-97.244682,-57.222176,-90.801601,-108.874111,-122.379742,-44.608154,-80.694065,-100.818729,-115.881786,-31.562233,-64.259949,-83.010464,-96.824226,-19.744263,-44.466362,-58.192406,-69.243965,-11.174046,-1.046484,19.795824,35.917436,27.79596,55.160285,69.503855,80.350501,45.977566,74.34305,89.691177,100.981375,57.621162,84.990859,100.238085,111.194646,63.613545,87.943516,99.519681,108.306518,21.869259,57.595253,95.536823,112.518883,39.041119,93.828278,82.901859,67.637615,38.261433,89.43655,77.487202,62.648106,40.304146,88.766613,74.894772,58.873901,43.650913,82.945862,72.707405,57.011147,-35.718291,-53.402312,-50.059515,-35.403919,-32.666832,-33.350595,-36.821894,-38.145391,-4.987828,-7.396217,-15.752283,-17.456286,18.999243,14.494674,5.902537,7.392327,38.716273,30.722312,23.832325,26.764543,74.654303,377.753761,-104.051256,268.522963
43,2.496414,0.815785,0.305443,-37.76402,-33.885727,-61.410942,-82.775974,-99.665451,-58.475761,-91.964607,-109.889488,-123.461494,-45.872726,-81.912346,-101.766529,-116.945801,-33.088417,-65.528526,-84.150009,-98.104191,-21.350441,-46.285744,-60.050354,-71.171265,-11.727268,-1.938716,18.516787,34.304021,28.771678,54.668628,68.556295,79.396457,47.135139,74.106237,88.792338,100.126255,58.648071,84.918734,99.507269,110.310195,64.120146,87.58839,99.049575,107.858148,5.542202,32.445087,65.469875,83.938923,47.294254,82.12286,77.497902,66.189423,59.61256,78.514137,66.206875,55.151768,66.176777,81.121674,66.858845,54.611778,68.95277,79.970741,66.036987,54.246712,-40.78553,-65.551953,-73.945871,-79.080912,-62.219036,-69.887017,-68.303613,-65.27457,-39.316981,-41.468427,-40.166482,-38.613459,-14.445397,-18.274787,-17.487717,-15.101496,10.303982,3.688352,3.079493,4.782755,77.127457,378.889027,-103.769073,231.078424
44,-0.750389,-0.516357,10.835495,-47.905352,-33.306999,-60.391159,-81.515121,-98.482647,-57.012978,-91.083069,-109.134007,-122.508888,-44.081268,-81.143246,-101.190605,-116.225853,-31.333351,-64.425888,-83.243237,-97.109528,-20.1511,-45.488548,-59.270782,-69.995384,-11.318418,-0.592433,20.672741,36.735752,29.992422,56.426353,70.744915,81.972622,48.086281,75.945597,90.764708,102.083188,59.512762,86.638051,101.019722,111.642151,64.95001,89.184268,100.462116,109.113534,-5.743332,6.338825,32.64307,51.085625,10.751953,47.770672,53.77018,52.718182,25.329037,58.832359,48.176594,36.832008,39.6912,67.255611,52.332973,40.656681,53.085136,70.174026,56.82106,47.618809,-37.186716,-70.523417,-88.736731,-94.332801,-61.935787,-82.964457,-87.020533,-86.524554,-43.931096,-55.811751,-53.552613,-51.746166,-25.852674,-36.275094,-33.106804,-28.991757,-7.659398,-16.600672,-14.836401,-12.453576,75.574465,379.046599,-93.736181,183.847001
45,-0.02243,-0.114362,5.614872,-51.075927,-33.075714,-59.917374,-81.112404,-97.259731,-56.316605,-91.254616,-108.987007,-121.911106,-43.561249,-81.306152,-101.529522,-116.594296,-30.99575,-65.16037,-84.398975,-98.779507,-19.842911,-45.416794,-59.769516,-71.416969,-10.851276,-0.088859,21.313093,37.813606,30.942267,57.512666,71.806837,82.864854,49.100284,76.779413,91.399317,102.235958,60.427656,87.104452,101.682119,112.128621,65.704661,89.771143,101.177062,109.913325,-11.78484,1.009598,30.111294,50.750713,2.544594,24.452305,18.308544,12.897034,22.893448,41.609058,29.656677,22.422466,42.762222,59.600086,43.218555,34.891148,60.127029,66.62178,53.968678,48.554878,-43.936437,-82.487806,-107.002905,-121.333786,-52.79898,-83.872991,-83.690766,-76.964417,-35.526124,-74.594374,-74.919521,-64.126815,-23.389265,-65.078728,-62.352818,-48.891136,-13.912121,-50.72855,-48.443847,-36.10491,75.040941,380.053948,-88.632402,133.892785
46,-0.338745,0.748044,7.126522,-47.120041,-33.651009,-60.989571,-82.282505,-97.8689,-57.880898,-92.236462,-109.458904,-122.12471,-44.92939,-82.220078,-102.016754,-116.774082,-31.974907,-65.840836,-84.627056,-98.66993,-20.427017,-46.458664,-60.676346,-72.100697,-11.597468,-0.52988,20.787165,37.367336,30.774923,57.549408,71.898351,82.941548,48.904783,77.017213,91.570427,102.123202,60.220854,86.987558,101.481306,111.610041,65.433886,88.990062,100.107545,108.601438,-23.219433,-19.940186,-3.692665,9.13456,12.408943,32.623329,37.516651,40.582066,34.557381,36.790524,25.970764,21.05484,50.476284,47.755852,35.123119,28.081341,63.075886,58.393135,45.678577,39.419289,-32.782028,-64.347665,-83.154062,-91.16519,-81.720403,-115.785697,-128.884194,-135.627957,-72.540555,-96.92496,-89.977544,-80.094453,-59.713822,-78.486348,-72.498843,-61.461142,-44.879952,-62.505311,-58.176329,-48.604923,74.486761,382.258932,-81.721315,88.229683
47,-0.517616,-1.195611,7.317924,-48.23865,-33.640709,-60.787582,-81.741829,-97.146549,-58.106232,-92.464943,-109.905453,-122.488747,-44.995766,-82.123718,-101.86924,-116.436939,-31.94458,-65.716095,-84.397774,-98.25983,-20.245171,-46.487503,-60.996208,-72.682743,-10.581674,0.79868,22.3392,39.151737,32.741303,58.959787,73.228826,84.365327,50.699064,77.948101,92.469822,103.030995,61.716141,87.917581,102.017176,111.877914,66.724037,89.436209,99.965148,107.903349,-23.605042,-16.763821,1.711636,13.551064,13.352165,34.639034,27.496204,21.689587,35.479431,35.006332,22.749767,19.05344,49.624214,46.808109,33.863182,26.829014,58.882141,57.623291,45.476589,38.32798,-36.033125,-70.22334,-92.334218,-106.606652,-86.863039,-126.593593,-130.098053,-124.303332,-74.241193,-102.681734,-96.335891,-85.410638,-59.213335,-85.135231,-81.232482,-69.576103,-44.065619,-66.953533,-64.465948,-55.628229,74.002991,383.328233,-74.369545,42.255946
48,-0.322723,0.142952,4.66713,-48.31942,-33.977394,-61.525497,-82.362099,-97.130413,-58.361435,-92.652798,-109.827919,-122.349415,-45.375366,-82.696667,-102.519321,-117.292213,-32.558327,-66.910057,-85.689583,-99.660301,-21.111832,-47.316399,-61.556969,-72.956657,-11.061722,0.559767,22.317587,39.385586,32.701721,59.227846,73.377027,84.067628,50.80509,78.288037,92.399056,102.46956,61.811854,87.813964,101.505945,110.899479,66.716936,89.323515,99.970768,108.113856,-7.46973,6.887913,21.779766,32.197952,33.368626,62.874641,69.061432,69.624538,49.253368,80.74379,81.362228,76.362534,59.583206,86.988144,84.109497,77.99366,66.278458,84.483948,81.138954,75.592461,-46.181466,-82.342785,-105.469827,-119.001658,-85.902974,-123.017349,-140.446588,-147.827461,-68.40936,-110.062761,-128.341346,-132.818622,-52.211177,-91.845525,-107.74885,-109.977793,-36.460809,-69.330368,-84.052561,-87.955743,74.107275,386.213521,-69.275408,-3.321138
49,0.060196,0.554827,-11.485176,-4.31515,-33.415375,-60.833359,-81.689014,-96.99852,-58.829498,-92.74086,-109.980469,-122.567196,-46.021385,-83.175602,-103.012676,-117.47858,-33.405647,-67.260017,-85.9972,-99.287052,-22.334633,-48.159485,-62.152977,-73.014164,-11.36047,0.560447,22.657523,39.181871,31.805167,58.811525,73.242472,84.058736,50.170357,77.754637,91.979338,101.996181,61.526999,87.683239,101.319952,110.459199,66.906324,89.76855,100.09927,107.734585,-8.061733,5.779495,23.776131,38.436527,32.667732,58.043232,69.854736,75.671253,48.915882,76.692867,85.727463,87.096291,59.565353,84.890442,86.137161,82.774258,65.369339,82.104836,78.866901,74.328632,-41.191168,-71.551654,-91.901286,-103.422739,-87.215479,-118.056692,-132.321006,-140.160035,-74.647572,-108.150042,-123.734765,-132.413971,-59.853841,-89.848856,-101.47263,-106.836333,-44.743577,-69.707323,-78.969916,-83.627657,74.700623,387.953169,-80.227432,-6.451467
50,0.644188,-0.464301,2.628522,-4.648813,-34.254913,-61.639366,-82.004757,-97.203999,-59.780159,-92.6651,-109.831181,-122.49773,-46.752663,-82.846928,-102.521439,-117.071114,-33.720703,-66.867714,-85.463848,-98.854752,-22.207375,-47.677574,-61.691551,-72.675419,-10.427854,1.926675,24.22938,40.744095,32.949155,59.863134,73.996013,84.36014,50.677637,77.870851,91.85769,101.752391,61.657231,87.594009,101.168232,110.344528,66.895642,89.38261,99.390684,106.60517,-8.42403,4.954376,22.797317,37.31172,31.265626,56.32399,67.807717,73.134508,47.483015,75.188779,83.674826,84.441752,58.335437,83.465018,84.292283,80.480318,64.461922,81.18483,77.865696,73.080835,-40.537797,-70.647589,-90.713347,-101.595982,-85.626453,-115.946014,-129.249327,-136.240908,-73.130233,-105.800009,-120.035715,-127.502626,-58.370884,-87.488002,-98.077729,-102.579936,-43.307592,-67.511579,-76.246108,-80.424689,75.461426,387.579456,-77.482295,-11.009692
51,0.936928,-0.074718,2.628522,-4.648813,-34.284668,-61.912994,-81.886024,-97.478886,-59.831085,-92.513123,-109.579239,-122.1698,-46.613503,-82.681046,-102.382793,-117.276421,-33.492508,-66.384888,-84.843006,-98.652477,-21.842079,-47.345695,-61.345139,-72.778931,-10.252915,2.323236,25.006015,41.571612,33.290388,60.180655,74.478716,84.840682,50.993737,78.08778,92.474885,102.829318,61.946778,87.809642,101.609315,111.096586,67.128132,89.594723,100.068704,107.876179,-8.786326,4.129257,21.818504,36.186914,29.863519,54.604749,65.760698,70.597763,46.050148,73.684692,81.62219,81.787214,57.105522,82.039594,82.447404,78.186378,63.554506,80.264825,76.86449,71.833038,-39.884426,-69.743524,-89.525408,-99.769225,-84.037427,-113.835336,-126.177648,-132.32178,-71.612895,-103.449976,-116.336665,-122.591282,-56.887927,-85.127147,-94.682828,-98.32354,-41.871606,-65.315835,-73.5223,-77.22172,76.440668,387.406369,-74.811458,-15.756873
52,1.44207,-0.212915,2.628521,-4.648813,-34.463081,-62.065201,-82.203655,-98.040733,-59.264488,-92.009697,-109.474182,-122.310677,-46.198883,-82.125092,-102.216682,-117.381248,-33.27713,-65.734062,-84.481773,-98.552456,-21.915779,-47.158585,-61.223831,-72.848282,-9.785032,3.027067,25.858109,42.693309,33.994405,60.651996,75.124131,85.734149,51.573574,78.42469,92.702991,102.996661,62.346983,88.479881,102.163463,111.462581,67.33339,90.233592,100.614207,108.151956,-9.148621,3.304139,20.839692,35.062109,28.461414,52.885509,63.71368,68.061018,44.617281,72.180605,79.569555,79.132677,55.875607,80.614171,80.602527,75.892439,62.64709,79.344821,75.863286,70.585242,-39.231056,-68.83946,-88.337469,-97.942467,-82.448401,-111.724658,-123.105969,-128.402653,-70.095556,-101.099943,-112.637614,-117.679937,-55.40497,-82.766292,-91.287926,-94.067143,-40.435621,-63.12009,-70.798491,-74.018752,78.317842,387.111835,-71.747833,-20.487305
53,1.48819,0.685677,2.628522,-4.648813,-34.338226,-62.251625,-82.362041,-97.986717,-59.010887,-91.895714,-109.339714,-122.237892,-45.891495,-82.335949,-102.336502,-117.52882,-33.156052,-66.04866,-84.702244,-98.764915,-22.004929,-47.616234,-61.61293,-73.092613,-10.195055,2.579315,25.280433,42.03789,33.916229,60.311936,74.720901,85.444601,51.604264,77.808977,91.982673,102.577623,62.42522,87.839097,101.613823,111.380391,67.427066,89.993074,100.515468,108.554137,-9.510917,2.47902,19.860878,33.937302,27.059307,51.166268,61.666661,65.524273,43.184414,70.676518,77.516919,76.478138,54.645691,79.188748,78.757649,73.5985,61.739674,78.424817,74.86208,69.337445,-38.577685,-67.935395,-87.149529,-96.11571,-80.859375,-109.613979,-120.034289,-124.483525,-68.578217,-98.74991,-108.938564,-112.768592,-53.922014,-80.405438,-87.893025,-89.810746,-38.999635,-60.924346,-68.074683,-70.815784,79.859247,387.770697,-69.066096,-25.162933
54,0.591774,1.001839,2.628522,-4.648813,-34.406433,-62.040596,-82.15662,-97.508011,-58.324013,-91.512966,-108.817806,-121.714382,-45.119362,-81.894722,-101.642303,-116.67572,-32.386894,-65.967865,-84.393082,-98.233223,-21.340485,-47.30381,-61.21788,-72.410088,-10.321828,2.281369,24.920182,41.784219,33.044251,60.077593,74.506812,85.15246,50.852638,77.799468,92.353299,103.167957,61.700888,87.307055,101.361881,111.404042,66.623569,89.289305,100.115819,108.542404,-9.873213,1.6539,18.882065,32.812496,25.657201,49.447027,59.619642,62.987528,41.751547,69.17243,75.464282,73.8236,53.415776,77.763324,76.912771,71.30456,60.832258,77.504812,73.860874,68.089648,-37.924314,-67.03133,-85.96159,-94.288952,-79.270349,-107.503301,-116.96261,-120.564397,-67.060878,-96.399877,-105.239513,-107.857247,-52.439057,-78.044583,-84.498124,-85.554349,-37.56365,-58.728601,-65.350875,-67.612816,80.548382,388.894137,-66.340213,-29.690144
55,0.994606,0.677834,2.628522,-4.648813,-34.259262,-61.763191,-82.042065,-97.266312,-58.481026,-91.951103,-109.235115,-121.884499,-45.188713,-82.320557,-102.166042,-116.951122,-32.367554,-66.639404,-85.290527,-99.109154,-21.388321,-47.995949,-62.268448,-73.676491,-10.631445,1.888575,24.511517,41.838745,32.979784,60.258275,74.657545,85.372353,50.660408,77.790452,92.025713,102.344268,61.436843,87.080184,101.018734,110.733679,66.396883,88.901451,99.569761,107.658077,-10.23551,0.828781,17.903252,31.687689,24.255095,47.727785,57.572623,60.450783,40.31868,67.668343,73.411646,71.169062,52.18586,76.3379,75.067892,69.01062,59.924841,76.584807,72.859669,66.841851,-37.270943,-66.127265,-84.773651,-92.462195,-77.681323,-105.392623,-113.890931,-116.64527,-65.543539,-94.049844,-101.540463,-102.945902,-50.9561,-75.683728,-81.103222,-81.297952,-36.127665,-56.532857,-62.627067,-64.409847,82.128267,389.569996,-63.126412,-34.340933
56,1.499176,0.885007,2.628522,-4.648812,-34.007378,-61.734009,-82.39975,-98.121872,-58.600845,-92.846088,-110.32877,-123.005333,-45.440254,-83.378448,-103.031387,-117.521782,-33.011971,-68.205185,-86.745987,-100.278225,-22.353401,-49.70192,-64.12571,-75.488091,-11.612288,0.908472,23.7715,41.427549,32.602118,60.013929,74.364416,85.089104,50.581553,77.770939,91.768028,101.763691,61.264189,86.75865,100.24741,109.50781,65.947711,88.3599,98.705502,106.560957,-10.597806,0.003662,16.924439,30.562883,22.852988,46.008544,55.525603,57.914038,38.885813,66.164255,71.35901,68.514524,50.955944,74.912477,73.223014,66.716681,59.017425,75.664802,71.858463,65.594053,-36.617573,-65.223202,-83.585713,-90.635439,-76.092298,-103.281946,-110.819253,-112.726143,-64.026201,-91.699812,-97.841413,-98.034558,-49.473144,-73.322874,-77.708322,-77.041556,-34.69168,-54.337113,-59.903259,-61.20688,83.711329,390.460745,-60.414004,-38.984002
57,0.628281,-0.561064,2.628522,-4.648813,-33.875427,-61.350746,-82.13419,-97.612839,-58.519249,-93.288689,-110.919571,-123.887672,-45.632057,-84.038658,-103.920765,-118.981018,-33.394661,-69.068871,-87.998714,-101.991692,-22.77935,-50.464668,-65.08461,-76.651726,-11.260496,1.156153,23.966446,41.514308,33.139223,59.877584,73.872512,84.481974,51.044928,77.875976,91.818849,101.837791,61.687674,87.178861,100.466438,109.635942,66.506429,88.642222,98.654928,106.431652,-10.960102,-0.821457,15.945625,29.438076,21.450882,44.289303,53.478584,55.377293,37.452946,64.660168,69.306374,65.859985,49.726029,73.487053,71.378136,64.422741,58.110008,74.744797,70.857258,64.346256,-35.964202,-64.319137,-82.397774,-88.808681,-74.503272,-101.171268,-107.747574,-108.807015,-62.508862,-89.349779,-94.142363,-93.123213,-47.990187,-70.96202,-74.31342,-72.785159,-33.255695,-52.141369,-57.179451,-58.003912,84.504204,389.816225,-57.620888,-43.716271
58,0.722237,-0.3048,2.628522,-4.648813,-34.138069,-61.791,-82.812996,-98.296108,-59.001961,-93.79034,-111.307526,-124.269104,-46.337357,-84.65498,-104.511681,-119.665318,-34.298286,-69.763298,-88.692913,-102.745171,-23.734589,-51.331787,-65.820236,-77.32933,-11.430804,0.910942,23.680912,41.061801,32.916304,59.51869,73.738266,84.571141,50.89401,77.850226,92.015524,102.289557,61.689279,87.279267,100.609946,109.763086,66.78906,89.00408,98.911933,106.617644,-11.322398,-1.646576,14.966812,28.31327,20.048776,42.570062,51.431565,52.840548,36.020079,63.15608,67.253737,63.205447,48.496113,72.061629,69.533257,62.128801,57.202592,73.824792,69.856052,63.098459,-35.310831,-63.415072,-81.209835,-86.981924,-72.914246,-99.06059,-104.675895,-104.887888,-60.991523,-86.999746,-90.443312,-88.211868,-46.50723,-68.601165,-70.918519,-68.528763,-31.81971,-49.945624,-54.455643,-54.800944,85.403738,389.331902,-54.815068,-48.544608
59,0.527115,-0.838509,2.628522,-4.648813,-34.537239,-62.308846,-83.439159,-99.255123,-58.852615,-93.8241,-111.518898,-124.52179,-46.122208,-84.58849,-104.397411,-119.527245,-34.137383,-69.500999,-88.508377,-102.731552,-23.820534,-51.372986,-66.043854,-77.893867,-10.514181,1.825342,24.827988,42.945065,34.010089,60.531088,74.426969,84.993514,51.759442,78.183432,91.721098,101.564237,62.286282,87.615992,100.66404,109.612786,67.17111,89.41861,99.434836,107.268987,-11.684694,-2.471695,13.987999,27.188463,18.646669,40.85082,49.384546,50.303802,34.587212,61.651993,65.201101,60.550909,47.266197,70.636206,67.688379,59.834862,56.295175,72.904787,68.854847,61.850662,-34.65746,-62.511007,-80.021896,-85.155166,-71.32522,-96.949912,-101.604215,-100.96876,-59.474184,-84.649714,-86.744262,-83.300524,-45.024273,-66.24031,-67.523618,-64.272366,-30.383724,-47.74988,-51.731835,-51.597975,86.27389,388.360305,-51.84351,-53.326508
60,1.034889,-0.943485,2.628522,-4.648813,-34.656258,-62.699432,-83.818016,-99.881401,-59.283028,-94.294338,-111.904106,-125.087242,-46.308517,-84.62431,-104.17202,-119.321766,-34.266815,-69.770508,-88.705902,-103.267593,-23.866081,-51.68644,-66.435471,-78.469505,-11.348305,1.633545,25.191698,43.215285,33.929134,61.147975,75.224228,85.877903,51.776609,79.067945,92.569487,102.109185,62.175625,88.467222,101.756157,110.856439,66.827222,89.641221,99.856962,107.95769,-12.046991,-3.296814,13.009186,26.063657,17.244563,39.131579,47.337527,47.767057,33.154344,60.147905,63.148465,57.896371,46.036281,69.210782,65.843501,57.540922,55.387759,71.984782,67.853641,60.602865,-34.004089,-61.606943,-78.833957,-83.328409,-69.736194,-94.839234,-98.532536,-97.049632,-57.956845,-82.299681,-83.045211,-78.389179,-43.541317,-63.879455,-64.128716,-60.015969,-28.947739,-45.554136,-49.008027,-48.395007,87.316103,387.406925,-49.207663,-57.985217
61,-0.227623,-3.426036,2.628522,-4.648813,-34.862366,-62.302322,-82.758236,-99.359837,-58.956413,-93.2024,-110.462551,-123.403301,-45.491638,-83.002224,-102.712097,-117.877007,-32.680206,-67.611465,-86.884632,-101.090012,-21.709213,-48.807907,-63.465729,-75.119133,-9.368032,4.200263,27.444971,43.975185,35.774484,63.317637,77.393706,88.18212,52.786784,80.373163,94.864441,105.655758,63.012529,89.545199,103.236871,112.649795,68.03753,91.084266,101.089562,108.833804,-12.409286,-4.121933,12.030373,24.93885,15.842457,37.412338,45.290508,45.230312,31.721478,58.643818,61.095829,55.241833,44.806366,67.785358,63.998623,55.246983,54.480343,71.064777,66.852436,59.355068,-33.350718,-60.702878,-77.646018,-81.501652,-68.147168,-92.728556,-95.460857,-93.130505,-56.439506,-79.949648,-79.346161,-73.477834,-42.05836,-61.518601,-60.733815,-55.759572,-27.511754,-43.358391,-46.284219,-45.192039,87.26881,383.989966,-46.398811,-62.624952
62,0.292854,-2.990758,1.171303,10.84717,-34.367867,-61.715126,-82.306137,-97.739639,-56.887779,-90.604534,-107.607594,-120.566139,-43.8834,-80.875511,-100.546131,-115.883331,-31.696472,-66.358337,-85.527077,-99.727306,-21.309013,-47.683067,-62.083855,-73.679924,-8.725271,4.756572,27.3684,44.360508,35.844138,64.173992,79.053618,90.340853,52.931465,81.43737,96.531826,107.597561,63.39359,90.643368,104.776741,114.566898,68.782981,92.371824,102.784981,110.950917,-15.445862,-10.010033,4.067001,17.545052,-0.325298,19.270535,27.17886,30.337601,17.438507,37.623081,35.217762,29.082642,31.877346,46.895142,39.66465,31.620884,43.226852,54.831791,47.244186,39.848499,-29.875374,-54.768416,-71.557273,-80.014023,-60.593549,-85.351883,-93.030083,-94.178857,-49.769072,-72.605918,-70.469231,-62.267263,-35.247537,-55.477589,-52.12661,-43.862769,-20.309216,-37.553976,-36.840419,-31.573449,87.540178,381.044332,-45.248995,-51.732658
63,1.436462,-3.918743,-5.797462,8.392529,-34.111519,-61.539917,-82.824097,-98.517551,-55.109367,-88.589516,-105.184479,-118.420315,-41.977615,-78.8871,-98.103046,-113.511944,-30.120277,-64.064827,-82.870674,-97.249775,-20.347595,-46.045647,-60.534439,-72.775154,-8.674266,3.975986,25.543367,42.601609,35.038789,63.426997,78.448341,90.120713,52.256842,80.972451,96.096485,106.99321,62.849508,90.4399,104.814594,114.623646,68.308923,92.648095,103.456949,111.764973,-11.051331,-3.106098,12.826366,25.240803,-1.62077,22.490215,32.842712,37.129498,15.895214,37.679901,32.19944,23.89452,31.446533,49.06374,41.334858,33.261166,43.796654,55.870171,49.080391,43.00375,-27.913811,-53.817306,-70.112684,-80.664285,-55.15448,-80.676481,-88.688041,-90.08888,-43.216149,-66.116012,-59.927355,-51.854167,-28.820276,-51.415369,-44.685006,-35.880046,-14.815838,-33.068272,-29.907978,-23.654236,89.200001,377.172998,-50.823097,-43.29272
64,0.900192,-6.989344,-5.833054,7.411902,-32.286186,-60.125427,-82.305565,-97.66325,-52.428246,-85.995541,-102.833118,-116.146202,-39.785156,-76.815376,-96.096382,-111.095409,-28.41877,-61.670952,-80.427017,-94.770069,-18.805161,-43.606453,-57.844162,-69.848442,-10.291818,1.334118,21.106106,36.938417,31.130297,60.586787,76.786329,90.05149,48.59356,78.815694,94.603669,106.024593,59.803051,88.93387,104.452613,115.276225,65.924308,91.152562,102.572807,111.748424,-3.693123,6.676769,22.090473,34.180412,4.489403,30.775166,44.395466,52.880001,16.645374,44.394207,39.340782,30.355282,29.387627,54.561138,47.334881,38.369236,41.243305,61.090393,55.181122,47.196236,-28.934545,-52.248259,-64.738298,-71.027856,-48.892865,-71.184362,-79.625582,-83.664491,-35.322779,-55.576729,-47.91517,-40.998445,-19.96184,-39.061396,-30.075785,-23.078846,-4.617758,-19.418714,-14.348449,-9.365839,90.130892,370.913714,-56.625452,-35.150758
65,3.927727,-9.949288,2.900562,20.261483,-30.412331,-59.038124,-81.64135,-98.403568,-50.83168,-82.770996,-100.34277,-114.365845,-39.550209,-75.670967,-96.300831,-112.288342,-29.072685,-61.690407,-81.408348,-95.309372,-20.470734,-44.630814,-58.297577,-68.623581,-13.146663,-4.10986,13.664563,29.455317,25.854589,54.250577,70.097586,82.184056,43.819945,74.880958,90.435887,102.010322,55.518066,84.451592,99.121453,109.891959,61.992721,87.5577,98.007043,106.660499,5.492878,22.863808,41.565514,49.285469,50.623055,78.432884,79.93721,76.878204,55.184669,87.829971,86.4188,80.648232,54.720211,85.511398,81.624756,74.950562,51.079388,72.035637,68.922615,63.607407,-39.309726,-65.489986,-78.343396,-85.425088,-67.07657,-100.140087,-110.287502,-113.021656,-52.360768,-90.011044,-100.815822,-101.31529,-39.133613,-70.84492,-80.174358,-82.133513,-25.415759,-50.641389,-58.114609,-59.975921,94.094009,360.881511,-53.689499,-14.97219
66,0.909805,-14.788359,-15.256176,45.698933,-27.431602,-54.079056,-74.486732,-90.942249,-42.843933,-73.933411,-91.08427,-105.000343,-33.110161,-67.981224,-87.718391,-102.906017,-25.194397,-57.992249,-77.544937,-91.053543,-18.620567,-42.282372,-56.296234,-66.752815,-13.698897,-7.423511,8.723913,23.618051,19.563827,48.735772,63.449845,73.990146,38.949875,70.511807,84.847227,95.777791,51.949757,80.446337,93.58312,104.010047,59.126822,84.653949,94.126956,102.482157,4.287443,24.233751,47.538614,60.557527,43.561306,75.470581,79.218263,76.620855,51.248274,79.813928,75.563249,68.750925,55.257396,80.500803,72.656364,64.268818,56.369562,73.866977,67.232265,60.161819,-40.805522,-68.405949,-81.179022,-87.478752,-68.339351,-94.941706,-101.347416,-101.281529,-52.154074,-80.699344,-84.09236,-80.984971,-36.588679,-62.025479,-64.474022,-61.342134,-20.795563,-43.172199,-45.742976,-42.82371,95.146866,345.571206,-68.802624,30.204798
67,4.865685,-4.287702,-15.256176,45.698932,-23.8377,-46.965408,-66.671791,-83.439445,-33.095856,-62.973518,-79.788437,-92.434044,-26.31752,-58.130722,-76.846962,-90.579643,-21.796188,-51.385345,-69.402809,-81.642838,-17.987366,-40.668297,-54.262733,-62.991142,-20.60216,-24.709057,-15.805574,-2.686884,3.562196,26.388483,40.392118,50.476022,26.096156,50.722159,64.517016,74.053255,42.252287,64.645395,75.154512,83.22702,52.393434,73.875044,80.867228,86.39426,3.082008,25.603695,53.511715,71.829586,36.499557,72.508278,78.499317,76.363506,47.311878,71.797886,64.707699,56.853619,55.794582,75.490208,63.687973,53.587074,61.659737,75.698318,65.541916,56.716232,-42.301317,-71.321911,-84.014647,-89.532416,-69.602131,-89.743325,-92.40733,-89.541401,-51.94738,-71.387644,-67.368897,-60.654651,-34.043743,-53.206038,-48.773686,-40.550755,-16.175366,-35.703008,-33.371343,-25.671499,100.038643,340.646565,-84.032707,75.26679
68,-4.928627,-4.55965,-7.693806,12.235319,-16.347427,-30.592461,-45.327301,-59.484444,-21.981468,-45.347786,-57.260284,-63.147354,-18.344536,-44.774208,-57.167931,-60.8321,-14.74411,-38.991737,-50.117798,-53.906364,-11.584282,-31.801529,-40.250473,-41.741066,-18.565817,-27.230758,-25.371021,-19.455455,-6.308052,8.882797,20.235363,26.580774,14.098792,33.114955,44.610165,49.022047,30.009527,48.852418,57.565031,61.957585,41.434218,57.48352,63.596255,66.692606,13.735027,41.407185,69.295006,83.381081,42.693214,81.504078,78.918686,70.016155,44.569416,81.146851,74.208355,63.646774,46.710148,77.720089,67.906094,57.998772,47.115726,67.154732,58.655949,50.734406,-37.434674,-59.296852,-65.974542,-67.160335,-54.512893,-65.788982,-61.426655,-56.61074,-35.512446,-47.246259,-41.92359,-35.7948,-14.510359,-25.750786,-21.957057,-17.718015,6.672935,-1.963015,-0.749743,2.259787,94.823141,335.772481,-92.013388,87.187676
69,-13.771477,7.463587,3.645515,20.436175,-7.2892,-12.978745,-19.706955,-21.441994,-10.039215,-14.85054,-15.341263,-13.725243,-3.011055,-7.923775,-8.786545,-4.878502,4.117126,0.735855,1.527672,4.742317,10.77095,9.662247,10.075836,12.618484,-16.299824,-32.568155,-45.358456,-53.584167,-17.4088,-17.874336,-19.248653,-21.909417,-0.873583,5.119356,2.312429,-3.900094,13.029399,18.454543,12.763193,6.291935,24.227527,31.292454,27.330424,21.297779,10.817642,31.716385,52.518368,67.174187,42.161694,76.975307,76.836205,71.752567,42.721252,77.626076,81.797562,77.154064,39.270744,68.192596,74.739704,72.897434,34.067631,53.827686,59.118977,57.162151,-31.441334,-46.143335,-51.000036,-54.718337,-43.455309,-52.978982,-48.314943,-43.561736,-24.402126,-26.940284,-22.405396,-18.2248,-4.704887,-5.544878,-5.097682,-5.964225,13.879517,16.514283,16.17373,13.100967,80.695667,342.850699,-88.723869,107.238482
70,51.405373,-56.842242,2.729588,12.589118,-16.435089,-32.349815,-45.107689,-57.890396,-15.74707,-27.573395,-36.163902,-41.261902,-8.257256,-23.886337,-34.852409,-41.197243,-3.331718,-17.930374,-29.554367,-36.416931,0.708046,-10.370293,-17.212257,-21.99646,-18.280715,-23.693633,-22.149996,-19.557837,-5.146526,5.642073,11.97501,16.507367,10.29015,27.454974,32.218895,35.578426,23.261689,42.11162,48.393983,51.704546,32.525177,51.515713,61.684895,70.016075,14.692841,31.104298,45.207195,55.4282,29.210529,48.018322,59.258423,68.641148,26.352139,45.862942,61.94355,74.275188,20.091362,38.315163,54.07774,66.834755,14.990215,28.009815,39.604397,49.460392,-28.189742,-44.846175,-55.758399,-63.336255,-34.022192,-38.851229,-38.782809,-33.89298,-14.810651,-11.734246,-8.223673,-1.059267,4.713347,10.531286,14.288984,18.551121,21.677544,32.03914,37.183813,39.103757,132.09938,285.441326,-85.995941,119.260469
71,3.731689,-6.391909,-0.546913,0.177409,1.453743,0.379601,-4.484253,-5.11425,0.724068,-5.512962,-6.22673,-4.610825,-4.150314,-11.952209,-11.767502,-9.542198,-7.240906,-16.8433,-17.25563,-15.767097,-10.053749,-20.453682,-22.976303,-22.099571,21.716014,42.659099,55.924014,68.131823,24.320709,28.366287,32.963605,35.841421,10.988362,15.301505,18.827701,19.541968,-0.588975,2.327064,5.019444,5.851037,-10.502201,-12.953322,-13.167411,-13.072933,12.259026,27.226639,39.956131,49.379768,13.465691,34.533062,49.255486,60.272312,8.798103,29.826336,49.01041,61.664543,4.089317,21.781368,41.43837,54.530926,1.892509,12.06625,25.055809,35.471764,-21.315409,-37.753214,-49.271055,-56.616236,-25.877961,-30.42591,-29.08676,-26.305768,-6.873315,-4.167597,-0.378654,4.732552,11.334473,17.414481,21.640802,24.778711,25.550159,36.412242,44.820734,50.051858,135.871153,278.736651,-86.502771,119.125113
72,-4.920387,9.931442,-13.388271,6.633415,2.071609,1.164207,-5.018806,-9.994812,8.382111,6.897583,6.580353,7.028046,3.699875,1.279221,4.129601,6.64135,-0.869293,-5.104752,-1.481323,1.248207,-5.460434,-8.800392,-7.270775,-4.925995,8.454125,13.031498,15.980574,18.971517,13.913171,16.185339,18.990042,21.774863,9.806892,9.34716,10.129538,10.84047,5.834302,8.26838,7.706884,6.870227,1.996638,1.22062,1.446133,0.903223,9.580364,24.855881,39.523144,49.202671,16.713753,35.087585,49.507484,58.151665,14.97551,32.601299,49.728127,60.782375,12.518349,28.768387,45.039082,55.545101,11.19381,22.57988,33.854313,42.519779,-25.710031,-46.602635,-62.769572,-75.152258,-33.269146,-43.02463,-43.430794,-41.817348,-15.573207,-19.827872,-20.333268,-18.168978,3.637655,3.044851,2.445687,2.319963,20.517871,28.65744,31.83277,33.409628,131.005611,288.381247,-99.836197,125.471681
73,-2.473869,-28.423529,-11.264305,3.930537,-3.036003,-9.559708,-16.189156,-20.744133,-4.923363,-1.957512,1.748543,3.994789,-2.325325,1.868477,5.440292,7.959137,-0.502396,2.256889,5.187607,8.003197,1.402588,2.359886,4.580841,7.371025,-17.009027,-19.352332,-15.901843,-9.509131,14.719816,33.112423,47.289207,61.323964,30.056457,49.087502,64.32701,79.946035,40.943055,59.439959,72.469419,85.379207,47.800438,64.613964,76.195562,87.126867,11.374798,26.715145,40.793266,50.585461,23.233452,40.392208,49.200897,55.32629,20.854626,36.611309,46.710205,54.653664,18.424587,35.702477,45.484085,50.899487,16.850109,30.509949,38.554688,44.167213,-29.743815,-55.152967,-72.537993,-89.787569,-43.719045,-56.138318,-66.350231,-76.605122,-29.711396,-40.737179,-49.864693,-58.545689,-12.841369,-18.73878,-23.15165,-27.508574,5.587733,7.274754,7.355771,7.595733,128.858013,259.523782,-110.774231,128.968283
74,-4.749069,-9.752366,-2.159386,-1.454901,-5.069504,-14.894943,-25.588074,-35.97496,-11.803322,-13.781433,-13.21804,-13.725014,-10.767288,-10.292587,-10.567131,-10.525818,-10.63488,-9.746017,-10.106621,-9.650345,-10.379448,-10.090027,-8.868256,-6.286011,-15.148735,-19.345787,-17.684947,-15.710787,13.868649,29.762649,42.346889,53.751696,29.20319,49.972138,65.847181,81.260208,40.623805,61.768505,76.175679,90.167705,48.084737,66.012549,80.008897,93.731506,12.429886,23.466167,33.480835,40.400047,19.486427,33.317528,40.394554,43.957958,15.9589,27.003193,34.663696,39.692173,13.486347,25.575886,34.141674,38.018188,13.008728,24.771652,32.763233,37.886868,-30.727406,-57.950323,-77.200272,-95.299071,-48.90151,-62.160558,-73.652804,-86.065748,-35.538504,-45.98618,-57.882304,-70.504336,-19.419424,-26.660401,-33.768305,-40.53683,-1.245691,0.04514,-0.952006,-1.693567,124.590998,249.582877,-112.451563,127.324842
75,-32.383461,-21.892003,-1.305542,3.924609,-7.526665,-13.009872,-17.022629,-17.514153,7.502403,4.906311,1.385651,1.268234,13.716087,9.038773,4.020767,1.78894,16.308403,10.025024,4.743233,3.170357,16.850281,12.409058,7.848816,7.430763,2.07043,5.301767,10.596494,19.315961,-2.906839,6.228332,12.314205,15.907524,-4.309747,9.113064,16.645812,19.357457,-3.136797,10.595197,18.862898,21.525206,-0.355188,9.982263,17.29876,20.978591,9.516907,18.060093,26.452103,32.572918,12.731667,20.489674,27.291183,31.346569,10.094776,16.487389,24.390335,29.093685,7.970409,15.337429,23.427715,27.426395,7.282677,15.661297,22.066612,25.34483,-35.356897,-64.919628,-84.229507,-104.335534,-52.360181,-61.972744,-73.589201,-85.456395,-36.783609,-45.392604,-57.88178,-69.934626,-19.071429,-26.853093,-38.546367,-47.347375,-0.870866,-5.188578,-11.506263,-15.497254,91.939545,227.963425,-114.025097,131.522002
76,-5.624771,-23.778376,-2.684841,3.105675,-8.01445,-14.660873,-18.147506,-19.496193,3.365937,-0.246238,-3.63285,-4.774551,9.799767,4.196282,-0.362053,-3.634453,13.007584,6.462517,1.750069,-0.65876,14.782105,10.059777,5.621033,4.118042,-10.846748,-16.976248,-18.877553,-17.877361,-15.970221,-13.187572,-12.317354,-12.195696,-12.167424,-7.145881,-5.24475,-4.831167,-7.493021,-2.32412,0.062636,0.701897,-2.015574,1.915025,5.015369,7.482071,7.978249,16.906471,25.132427,29.202232,16.050224,23.95277,25.687466,25.911999,12.569447,20.82201,19.722805,17.874756,8.833866,18.194733,18.277016,17.475243,6.472435,15.623589,17.731819,17.636948,-34.459972,-60.65675,-76.233137,-90.652414,-50.969284,-56.290379,-57.835837,-59.573988,-35.856643,-35.788501,-35.424421,-35.725855,-18.619602,-18.660357,-18.892292,-18.879756,-1.853377,-1.409638,-2.464953,-3.817287,84.996185,204.51651,-118.028526,134.959138
77,-5.624771,-23.778375,4.449348,2.6042,-8.502235,-16.311874,-19.272384,-21.478233,-0.770531,-5.398788,-8.651352,-10.817337,5.883446,-0.64621,-4.744873,-9.057846,9.706764,2.900009,-1.243095,-4.487877,12.713928,7.710495,3.39325,0.805321,-23.763926,-39.254263,-48.351602,-55.070685,-29.033603,-32.603476,-36.948915,-40.298916,-20.025103,-23.404826,-27.135313,-29.019791,-11.849245,-15.243439,-18.737627,-20.121413,-3.675961,-6.152214,-7.268023,-6.014449,8.546619,14.096889,19.491405,21.780338,13.105659,14.296474,13.848953,13.41362,10.039158,9.005814,5.55542,3.599625,5.894394,5.803699,3.180656,2.015533,3.124237,2.436218,1.740475,0.442715,-28.51634,-48.855598,-61.463334,-71.045732,-44.783838,-54.003421,-55.826108,-53.959301,-30.947547,-33.226507,-29.476003,-25.397944,-16.629386,-16.070051,-12.090731,-9.052178,-4.871799,-0.822515,4.036254,8.078374,77.6859,180.778489,-115.264692,137.603692
78,-5.624771,-23.778375,-4.061451,36.259965,-8.990021,-17.962875,-20.397263,-23.460274,-4.906998,-10.551338,-13.669853,-16.860123,1.967125,-5.488701,-9.127693,-14.481239,6.405945,-0.662498,-4.236259,-8.316994,10.645752,5.361214,1.165466,-2.507401,-36.681103,-61.532279,-77.82565,-92.264008,-42.096985,-52.019381,-61.580475,-68.402135,-27.882781,-39.663772,-49.025875,-53.208416,-16.205469,-28.162757,-37.53789,-40.944722,-5.336347,-14.219453,-19.551415,-19.510969,14.722366,15.706558,16.459694,17.688503,7.105579,5.664597,8.470173,9.550667,1.357155,0.400829,1.851139,0.96714,-3.273869,-1.839752,0.303955,-0.081768,-5.811024,-3.115654,-0.64579,-0.836678,-31.079723,-49.022726,-61.101847,-73.209714,-34.954438,-31.283685,-28.503928,-25.052451,-20.909492,-8.231268,-0.937742,6.344731,-8.381692,5.575136,11.237896,15.424388,1.633916,10.790143,15.05969,20.13576,71.447783,158.018363,-119.939489,174.881906
79,-1.685486,-34.930989,-0.896645,25.753503,-10.297737,-14.45343,-12.542724,-13.278351,-5.068302,-4.843883,-5.419407,-6.845798,2.046833,1.72308,0.652828,-2.138786,7.344017,7.587319,5.582371,2.890263,12.72377,12.939377,10.027313,6.965504,-32.822953,-58.477871,-75.487439,-90.265609,-55.17847,-73.587255,-81.313868,-85.272023,-43.864158,-61.825083,-66.271051,-67.776202,-31.654758,-47.498725,-50.874404,-51.525485,-18.442239,-27.901676,-29.879388,-29.618631,14.63974,16.541004,18.0443,19.259205,7.413483,3.667202,5.718498,4.892178,1.375809,-3.29195,-1.754608,-3.563976,-3.845901,-5.067043,-1.182003,-1.396294,-7.983456,-5.77755,-0.725842,-0.375137,-25.331131,-42.804151,-54.10003,-66.104989,-31.860125,-26.174456,-20.89319,-16.380347,-17.95066,-3.259928,5.189566,11.582154,-6.076735,8.59646,15.026778,18.924896,3.47167,13.030387,17.574353,22.240461,69.522543,124.123731,-121.075888,201.671767
80,-1.685486,-34.930988,5.047188,-27.327336,-11.605453,-10.943985,-4.688187,-3.096428,-5.229607,0.863571,2.831039,3.168526,2.126541,8.93486,10.43335,10.203667,8.282089,15.837135,15.401001,14.097519,14.801788,20.51754,18.88916,16.438408,-28.964803,-55.423465,-73.149229,-88.267212,-68.259955,-95.155131,-101.047263,-102.141912,-59.845535,-83.986396,-83.516228,-82.343989,-47.104048,-66.834694,-64.210919,-62.106249,-31.548131,-41.583901,-40.207361,-39.726294,13.321667,19.350929,19.066143,13.122597,10.607815,12.754898,11.883087,9.547749,-0.026379,-0.956612,-2.789898,-5.924492,-9.292889,-10.499897,-11.080112,-12.984581,-16.807823,-18.362274,-16.358185,-16.289463,-7.360093,-9.351174,-9.656406,-11.080494,12.320566,29.783891,41.133184,48.620113,22.48209,44.744225,58.49493,69.420431,29.918939,49.966025,59.7928,66.172606,32.487509,48.040339,55.150096,61.616908,67.038774,90.855882,-116.826982,176.00757
81,5.119057,-4.283225,2.2015,57.109375,-3.659134,-1.639481,0.941963,1.416092,-3.933678,9.955902,20.286255,29.53743,-0.60791,10.546875,21.262436,30.028038,2.852325,12.911224,22.793541,29.95182,7.732544,14.740791,20.011024,23.278656,-41.488589,-71.743142,-92.919241,-115.810644,-64.902277,-81.375619,-91.737925,-101.579675,-50.322973,-65.014601,-78.351454,-89.915701,-32.803486,-45.022627,-57.119347,-66.890702,-12.230719,-17.796438,-26.316852,-33.647028,5.071049,12.01767,16.481667,19.823513,19.525452,9.530582,3.814945,3.21619,14.733067,1.207008,-2.243786,-0.843601,8.127766,-5.354118,-7.056942,-4.929371,0.212574,-9.233608,-10.496235,-9.290028,-15.931236,-31.675121,-40.905819,-46.790201,-16.980375,-22.950776,-18.568287,-12.881753,-8.428869,-16.498907,-9.614971,-1.264401,-1.091253,-8.916512,-1.737286,6.079699,5.669058,0.259784,5.165175,11.197696,70.848227,87.506818,-115.935087,234.051105
82,7.324677,-5.037784,8.885479,-10.929514,-2.767868,0.611572,3.023987,5.91053,-3.525581,13.328476,28.726387,41.48735,0.089264,16.66008,30.205994,41.47007,3.725967,19.00898,30.842514,39.814339,7.685852,17.75116,24.731827,29.623375,-37.824752,-68.336958,-91.150277,-115.394539,-63.30643,-79.242204,-89.028317,-98.320303,-48.849022,-63.220411,-75.985704,-88.339738,-31.27223,-43.245666,-56.4848,-68.307812,-10.981076,-15.084452,-23.189287,-30.39275,5.845499,12.488137,17.415076,21.274538,9.818087,13.919735,10.629473,7.903004,4.857788,8.642578,8.303232,7.303219,-0.051269,2.673826,4.391156,4.905768,-5.571184,-4.450721,-1.266975,1.088476,-15.406265,-29.899766,-39.667014,-50.068129,-16.128034,-9.102474,-7.016329,-5.272929,-5.916461,1.570128,3.897624,6.793935,3.345946,9.908656,13.099794,16.047635,11.591633,16.739518,21.707061,26.984158,76.412802,83.670527,-108.80971,224.323084
83,5.296326,-2.463965,8.885479,-10.929514,-4.674797,0.494156,7.279358,13.959961,8.909111,30.953636,45.061798,53.258972,11.984711,29.703712,39.197273,41.042175,12.239914,28.334084,37.799721,39.316177,11.96022,25.11795,35.124664,38.296165,-36.888461,-63.558588,-82.436584,-99.020244,-57.063309,-67.0988,-70.094159,-70.983241,-39.347671,-46.21302,-49.354079,-50.091502,-17.815642,-23.247733,-29.489681,-33.191217,3.856992,5.349531,0.591044,-4.065956,6.619949,12.958603,18.348484,22.725563,0.110722,18.308887,17.444,12.589817,-5.01749,16.078148,18.85025,15.450039,-8.230305,10.701771,15.839252,14.740906,-11.354942,0.332165,7.962284,11.46698,-14.881294,-28.12441,-38.428208,-53.346057,-15.275693,4.745828,4.53563,2.335895,-3.404053,19.639163,17.41022,14.852271,7.783145,28.733825,27.936874,26.015572,17.514208,33.219252,38.248946,42.77062,81.730471,81.264993,-99.902887,213.452001
84,10.300369,-14.078785,4.773159,-18.201737,-6.191025,-1.279564,10.174026,15.863571,7.735519,13.798256,20.318642,25.492401,13.215179,18.964577,25.424767,31.207581,15.107574,21.60759,28.099022,35.017319,17.002258,25.343857,33.1604,38.852577,-22.453469,-39.107184,-48.67643,-61.007338,-20.028437,-5.853291,2.313047,5.12621,-11.553409,4.880629,18.810102,27.084472,-5.630063,9.181206,21.835625,28.801751,-1.093816,7.529814,12.776901,14.368796,-0.485802,8.426285,15.86832,19.945564,15.229969,7.571697,0.039825,-1.923237,12.790661,5.53545,1.39286,2.192574,8.553772,4.092007,1.817436,3.492737,2.676315,7.18111,9.595585,12.628498,-18.220509,-36.889264,-50.87814,-67.787318,-31.669563,-11.479278,-6.184119,-6.659041,-15.967792,7.72652,8.942139,6.218575,-0.190438,20.914,21.919482,19.320592,14.825533,30.957334,36.744027,40.881243,92.385893,67.167714,-94.774675,195.23177
85,20.23613,80.551004,-0.786438,-25.37096,-18.538399,-24.300957,-16.683311,-5.329742,-18.792915,-8.347435,-2.974091,0.908432,1.423759,16.553764,11.870384,5.426674,20.001984,33.82988,26.099167,18.284225,36.752014,50.092964,41.970291,32.637863,-10.654787,-25.38473,-27.630345,-28.292557,-67.847277,-94.604472,-103.289945,-103.61784,-64.404476,-79.762884,-60.130143,-47.009786,-53.394315,-61.654946,-40.376896,-27.552787,-38.965035,-47.589993,-33.126688,-23.538454,1.689949,6.932201,16.529331,25.58527,2.956295,6.63826,6.30764,6.153488,3.177166,8.340454,6.607189,5.19413,2.523594,8.465366,8.566017,8.044338,1.42662,10.433521,12.015438,11.772366,-23.840414,-45.875307,-58.248978,-68.159796,-37.970822,-26.854204,-20.086977,-17.477157,-24.64743,-9.674684,-2.734987,1.818858,-11.749621,-2.733876,2.401041,6.204249,0.888588,2.452603,5.807873,8.995677,112.551384,148.416575,-95.631752,170.558667
86,-10.152397,14.646179,4.72744,-5.317143,-11.434536,-14.421787,-7.396316,1.511135,-7.136135,-0.644016,4.450607,8.22052,5.817375,17.865543,18.404789,16.408768,17.942677,30.044575,27.7034,23.948593,28.356056,39.95327,37.407475,32.704067,-16.937829,-28.536656,-32.976788,-37.824072,-29.474305,-37.167542,-40.056519,-38.876129,-19.03952,-17.492718,-2.532075,9.19476,-7.782821,-3.943381,10.50586,20.287264,3.166453,4.053112,14.283148,22.748327,0.286903,4.395332,8.078842,12.306347,3.491592,5.487156,5.14349,4.438019,2.05822,3.941116,3.933563,4.318771,0.749416,1.21748,0.703125,-0.082169,-0.773563,0.317974,0.180645,-0.706501,-5.857829,-14.793299,-19.462742,-26.313518,-34.927515,-50.231058,-61.280924,-72.676468,-34.613205,-50.387657,-62.163183,-73.814034,-30.699773,-44.400337,-55.503586,-66.865415,-24.229071,-33.381038,-40.672156,-49.48783,103.147402,163.223999,-90.155897,165.40277
87,-10.152397,14.646179,-31.842213,-35.116533,-4.330673,-4.542618,1.890678,8.352013,4.520645,7.059402,11.875305,15.532608,10.210991,19.177322,24.939194,27.390862,15.883369,26.25927,29.307632,29.612961,19.960098,29.813576,32.844658,32.770271,-23.220872,-31.688582,-38.323232,-47.355588,8.898667,20.269387,23.176906,25.86558,26.325436,44.777447,55.065992,65.399306,37.828673,53.768183,61.388616,68.127315,45.297941,55.696216,61.692984,69.035108,2.985134,14.380188,26.485233,30.335197,12.919178,30.455132,32.238636,30.605221,15.898075,33.877773,35.284653,33.332863,19.269218,38.979893,41.846752,39.608231,24.021893,43.205967,47.860851,47.337399,-37.88749,-67.896091,-88.778567,-104.390924,-51.461373,-63.035315,-66.065037,-67.44309,-34.912386,-41.917754,-45.314614,-46.203356,-16.060047,-21.610977,-25.095769,-25.745815,3.260916,4.337411,3.992535,4.354824,94.206762,178.125238,-120.786352,130.541297
88,-6.69239,45.216863,-5.245743,-14.916831,9.090271,5.009537,-3.588867,-10.45063,-10.798645,-16.334381,-9.810677,-5.041008,-15.730476,-20.354347,-13.726044,-8.805542,-17.9076,-21.300316,-14.997597,-10.317993,-18.589439,-21.308212,-16.429482,-12.148476,-25.933876,-44.501422,-54.866661,-57.165444,-47.346326,-63.141155,-58.618308,-51.222399,-41.139359,-57.755778,-54.408288,-47.06215,-34.31705,-49.339999,-48.082329,-42.912276,-27.817511,-40.211066,-41.269344,-37.984284,4.692879,13.765926,22.351398,25.998001,15.284615,28.515358,31.307545,32.03167,19.101677,30.146084,31.114712,30.846748,23.565331,37.490501,36.940269,34.263668,29.783363,43.017368,42.119522,40.132084,-36.552755,-64.051603,-85.549021,-104.744229,-48.322075,-61.191046,-69.819493,-74.821153,-32.340976,-41.651795,-48.504084,-53.645331,-14.99229,-19.564754,-25.543922,-30.121913,2.723039,3.757358,-1.122036,-3.824821,89.515572,223.430065,-124.030895,115.71243
89,-19.915581,-14.650316,-8.025684,-9.51827,-2.369328,-8.550225,-15.721665,-19.745121,-3.892765,-11.074505,-11.562767,-10.175629,0.380344,-8.150826,-10.936089,-10.062104,3.198108,-5.109101,-8.250675,-7.443524,4.762859,0.222015,-2.245102,-1.54644,-4.112207,-7.405449,-6.828917,-0.077034,-16.440029,-22.128816,-18.324188,-13.177353,-18.446824,-23.720587,-20.142985,-15.589077,-19.12225,-23.048002,-21.011041,-17.921668,-18.583169,-22.887111,-22.828078,-20.695466,8.982353,19.841022,28.823833,31.683483,10.474491,28.775425,30.742722,28.36544,12.107334,32.14119,32.574749,29.637508,16.022644,38.02494,36.894493,32.282181,21.644325,41.338062,43.154182,41.262074,-32.511993,-59.001315,-80.619702,-97.091593,-42.835057,-55.976656,-62.018316,-63.485784,-24.011401,-39.919727,-45.02732,-44.911661,-4.376066,-15.268283,-20.879512,-22.518307,14.438327,12.456571,8.73228,6.998051,70.496264,208.461966,-131.160307,105.876376
90,-19.915581,-14.650316,8.131542,12.196663,-13.828926,-22.109985,-27.854462,-29.039612,3.013115,-5.814629,-13.314857,-15.310249,16.491165,4.052696,-8.146133,-11.318665,24.303818,11.082115,-1.503754,-4.569054,28.115158,21.752243,11.939278,9.055595,17.709462,29.690524,41.208829,57.011377,14.466269,18.883523,21.969932,24.867694,4.245711,10.314604,14.122319,15.883997,-3.92745,3.243996,6.060247,7.06894,-9.348827,-5.563156,-4.386811,-3.406647,5.382957,13.215294,19.248676,21.62693,12.159061,18.445301,17.819824,15.651283,9.122829,15.763836,12.683773,10.39793,5.624313,15.836391,14.595051,12.812576,2.421455,12.143097,12.057266,11.364613,-37.470675,-65.83903,-84.229322,-102.477186,-52.349251,-58.556959,-65.71062,-71.685837,-35.285884,-44.069447,-52.299203,-57.902281,-17.535419,-25.624785,-36.787808,-43.628086,-0.220634,-4.169913,-11.161263,-16.932272,50.531187,193.06839,-123.07826,117.329781
91,0.192833,-24.767967,-1.514426,17.3686,-13.545685,-26.830444,-35.424271,-40.918236,-13.381348,-14.024048,-14.438553,-16.353951,-1.513367,-4.34967,-8.562584,-12.820244,6.477356,1.763306,-2.121849,-4.513321,13.201447,9.595184,1.672783,-3.131218,-7.789135,-12.531999,-13.631342,-10.627122,-3.911148,17.328895,20.541522,20.661009,4.618313,26.14426,26.151917,23.255699,11.969638,32.353758,34.691875,34.383185,18.889328,37.236178,42.748081,46.577471,11.775914,17.521591,20.922203,21.706209,11.106091,16.228409,18.085127,18.143921,6.180268,11.221934,11.260987,10.511942,1.701136,9.505291,10.447569,9.557419,-1.630554,5.212813,6.946564,6.830893,-35.131276,-60.050037,-76.258995,-90.932159,-52.204709,-58.538804,-60.196787,-59.883604,-37.171694,-38.833182,-38.207727,-36.677815,-21.352165,-20.939086,-21.426219,-21.038396,-6.678029,-5.346026,-5.024878,-4.106556,50.249605,167.117625,-125.067101,133.515583
92,5.101547,-19.998735,-1.514425,17.3686,-15.381203,-29.063759,-36.094666,-40.511856,-20.931244,-19.0131,-18.495941,-19.788437,-10.298309,-7.799034,-8.245926,-8.549309,-0.910034,-0.767326,-3.005676,-4.01825,8.028374,6.788864,0.536156,-3.300819,-15.117674,-27.051188,-32.86184,-33.861796,-18.313628,-11.882323,-6.53023,-3.344711,-7.86867,0.458126,3.96697,5.25848,1.158129,9.810844,14.709998,17.680934,9.845918,16.609441,21.096658,25.785181,18.168869,21.827888,22.59573,21.785488,10.05312,14.011517,18.35043,20.636559,3.237705,6.680031,9.8382,10.625954,-2.222042,3.174191,6.300087,6.302261,-5.682564,-1.717472,1.835861,2.297173,-32.791877,-54.261044,-68.288669,-79.387132,-52.060167,-58.520649,-54.682954,-48.081372,-39.057506,-33.596917,-24.116253,-15.453349,-25.168912,-16.253388,-6.064631,1.551294,-13.135424,-6.52214,1.111507,8.719158,54.878912,146.169971,-127.053766,149.935265
93,4.006119,-41.382039,-2.878361,26.834815,-7.455139,-15.797195,-25.078125,-30.695572,-3.032455,-10.370979,-16.132851,-24.02401,0.026894,-6.572914,-16.169357,-26.759262,0.151062,-7.692032,-18.320389,-27.772865,-1.342392,-9.383812,-19.923592,-28.233604,-27.425087,-42.962973,-56.214889,-71.859726,-12.931617,-0.392609,3.953755,4.84256,7.874073,26.892428,34.431412,36.491221,21.191259,40.378162,44.449923,44.515254,29.103834,45.459851,49.323389,51.061045,18.869133,25.145531,26.680069,26.894474,10.484734,19.138641,25.390091,26.776886,2.345181,12.013264,19.274311,20.795918,-3.52335,6.595745,13.103771,13.551865,-7.686138,1.344452,8.163471,9.803753,-25.576218,-44.065341,-56.852925,-64.982892,-52.024784,-62.655611,-57.231579,-49.352905,-42.416111,-44.165191,-35.383295,-26.605721,-29.929992,-29.083888,-22.235459,-15.418707,-17.936951,-17.633942,-13.619053,-8.069173,58.194036,104.878274,-130.623121,176.86042
94,7.713776,10.194808,16.3064,-5.953851,-8.530998,-15.326385,-18.068047,-19.555092,-7.004814,-11.972694,-14.650383,-15.76355,-2.935982,-9.15493,-11.943741,-13.13633,0.39299,-3.580284,-6.154976,-7.788277,4.601097,0.800972,-2.234459,-5.228348,-44.358594,-75.173747,-95.81231,-111.407654,-70.598412,-81.119077,-83.507151,-84.274708,-53.337011,-61.275922,-62.625631,-63.653313,-35.234168,-43.190739,-45.917174,-48.343626,-16.8218,-22.336359,-27.994241,-32.798176,10.221577,14.278507,17.03104,17.419395,3.359241,-2.497559,-2.880192,-2.006435,-6.868057,-14.162407,-12.193737,-9.028816,-15.408726,-21.578808,-17.340317,-13.411503,-21.724892,-25.967216,-22.736778,-20.347881,-11.431669,-20.377821,-27.071936,-31.890012,-0.738288,4.750768,10.451751,13.636405,7.535465,14.678937,21.885396,26.92812,12.388182,17.791343,23.674799,28.143738,15.896532,19.659046,25.273579,30.78326,65.826559,115.666271,-114.397974,171.499759
95,0.540619,-29.55526,1.333866,19.209565,-7.791824,-8.587189,-5.984688,-6.066742,-5.557938,3.896255,9.343987,12.541237,-1.308975,8.643951,12.699738,15.156097,3.129501,12.690239,16.4328,18.244057,8.598175,14.604034,15.947571,15.316887,-36.16169,-64.131384,-83.756067,-101.753224,-62.055953,-82.295978,-89.955746,-94.941073,-49.130573,-67.448617,-74.324957,-78.189823,-32.818985,-48.560215,-56.956913,-61.389018,-14.238194,-22.673485,-29.067679,-33.960689,11.4077,20.669632,26.707306,30.857391,0.897961,13.438854,16.949329,16.185608,-11.830387,3.01918,14.439411,18.434601,-18.912849,-5.77858,6.064281,10.981121,-21.711845,-11.906662,-3.628063,1.142635,-14.676097,-25.740783,-31.438246,-33.192637,-12.09882,-0.623,0.919649,2.888561,-1.202281,16.511751,24.240495,31.023345,7.319585,23.769957,30.197495,34.607216,13.476225,26.258683,29.813778,31.480978,66.236944,87.098323,-113.194342,191.696636
96,7.109184,-3.024257,12.915115,14.283982,-1.819382,0.427551,1.465073,1.400642,-2.902222,11.129494,23.218803,33.839836,1.787453,15.080452,24.915161,33.227234,6.001282,17.782631,27.231674,33.983688,10.377159,19.229965,24.23893,26.908722,-37.346834,-64.7701,-86.107553,-109.398141,-60.958432,-74.758383,-83.279693,-92.211458,-46.176217,-59.205678,-71.522013,-82.209651,-28.019249,-38.685738,-52.066002,-63.81902,-7.760699,-11.461278,-20.095591,-27.931039,12.062588,18.373032,25.95417,36.328239,-0.06134,11.384811,19.454212,24.044838,-10.713215,6.218605,21.715393,32.619724,-14.505672,2.707386,17.226505,28.305073,-13.223305,-0.325813,12.034321,23.773613,-22.087814,-31.648877,-36.468744,-41.970088,-21.128768,-7.218808,-0.417865,5.626451,-6.120639,15.693064,27.335302,36.802381,8.303084,31.526364,45.375067,57.61826,20.812915,39.89021,52.157177,63.010923,72.85778,84.660787,-100.767574,206.567339
97,7.828331,-0.307641,-4.370041,-12.620487,-5.579109,-0.074043,6.245155,10.154572,6.969223,27.411804,39.648857,46.177254,11.187057,29.774094,39.333801,41.863976,11.40873,28.462715,38.267899,40.938377,9.618301,23.42308,32.283783,35.335808,-34.470408,-59.982127,-77.386697,-93.704892,-52.463922,-65.087744,-71.444517,-76.346882,-34.77354,-42.610594,-51.497281,-57.96045,-14.003758,-20.584345,-29.331971,-35.209344,7.201055,10.348134,5.897411,1.214816,12.299824,25.926247,38.966045,53.461647,11.951694,27.25193,40.025711,49.249477,5.827045,26.328793,44.385395,57.55909,5.525379,25.964985,42.156086,54.219532,8.940468,27.635307,40.392494,51.011238,-26.172727,-35.474438,-38.502432,-41.664176,-21.314884,-6.116872,1.76106,7.304394,-0.576193,18.692282,27.800097,33.652369,17.3933,37.696836,49.532722,58.207359,31.334382,51.238392,63.415265,71.831784,80.721359,84.58644,-105.102367,194.180145
98,15.242386,-15.368319,13.673916,-15.263714,-0.937157,1.924896,8.545418,8.652992,3.229408,15.164337,22.7108,27.283173,4.864655,15.429955,22.459602,26.529465,4.56974,14.040184,20.451851,24.669571,5.095253,12.547188,18.219337,20.73349,-23.707743,-38.177748,-47.359849,-57.441283,-16.909424,-6.791094,3.251499,10.617057,-0.960528,12.728242,23.885399,32.96484,12.543238,28.497476,39.033856,47.510149,22.83521,36.494092,45.542967,53.297213,12.701283,26.04269,43.088207,58.088036,-4.723606,13.500137,35.209293,55.127163,-7.54961,10.240288,35.94944,57.372551,-4.317913,14.550648,37.266426,53.424797,2.33139,20.227432,34.685326,46.574192,19.736481,35.128698,47.045663,51.579625,22.410398,40.20452,45.965216,50.656395,5.54599,21.624377,23.738587,25.939187,-12.068995,-4.896128,-2.032577,3.653772,-27.416133,-32.457931,-37.499914,-39.170324,97.688284,69.340387,-89.703913,179.038697
99,17.002945,76.560816,-12.848682,-11.010592,11.259613,15.241241,18.457832,19.464912,-6.072464,-2.712364,4.342232,7.341614,-8.730698,-0.235748,6.816559,6.877441,-7.807388,3.543663,9.914589,9.551353,-4.503136,3.879776,8.863564,8.065109,-25.17484,-49.624484,-64.775009,-73.769111,-68.176438,-96.583819,-91.412933,-81.921678,-57.639533,-76.931998,-65.141065,-55.981719,-44.729775,-53.772321,-43.646766,-35.718229,-31.980971,-34.55411,-26.524581,-19.387962,8.581867,29.446278,50.077,64.356537,32.949314,64.341831,75.912838,81.630936,35.151272,73.176613,89.525814,93.798637,35.366936,71.822948,87.183838,92.824574,32.9496,61.303997,74.253445,80.125637,-30.986048,-48.627461,-54.351539,-60.69942,-32.573404,-32.473862,-29.711396,-26.834259,-6.332999,-3.901082,-2.668853,-2.163549,17.261834,19.925129,20.061659,19.453726,35.996847,40.032669,41.48405,41.366601,116.078367,146.039246,-101.165457,168.166147
100,0.638695,47.242029,-9.610004,-6.75284,-0.326271,0.080223,-0.34481,-0.562248,5.20649,0.666847,-4.646759,-8.615913,4.50943,-0.603676,-5.976219,-9.762955,2.758255,-1.765823,-6.998177,-10.005226,0.386925,-4.087601,-8.550797,-11.763611,-19.160597,-39.284501,-52.341687,-61.732813,-53.489133,-73.334295,-81.76406,-86.328187,-51.316877,-72.556364,-80.627204,-85.313258,-47.177871,-66.786899,-73.132804,-75.548974,-40.54353,-55.800883,-61.936589,-65.052577,14.326057,35.73349,55.118351,71.777802,35.156193,64.729443,85.428715,103.24625,37.253723,68.135204,89.26815,107.809181,38.604641,66.747894,86.187057,102.824707,37.640076,59.690094,73.578243,85.242062,-26.961156,-44.257261,-55.092544,-70.056059,-31.487029,-37.592848,-40.958801,-42.955624,-14.738835,-19.282184,-21.856373,-23.282993,1.824416,2.195536,-0.669992,-3.557503,17.419359,24.156885,24.156885,23.486831,116.790648,192.823488,-110.701876,160.955521
101,3.254128,-45.556366,-0.160789,-31.759595,4.041367,0.329819,-8.055267,-18.348885,4.856873,-0.055504,-6.384888,-10.110168,-0.832443,-6.58905,-12.270699,-14.085388,-7.726135,-15.447121,-18.384018,-17.467117,-15.093498,-20.43663,-21.629791,-21.503105,11.769443,21.606593,30.836921,37.396667,22.954419,37.132993,47.274139,52.583255,17.303021,31.057987,39.20441,41.979412,10.813979,18.76842,24.520286,24.941609,4.69192,8.323709,12.21664,13.87365,12.67828,35.827789,56.023808,65.639534,51.450062,82.291546,91.539745,94.796791,49.234142,80.105267,92.426205,99.066525,43.071442,71.600533,85.178604,94.641094,34.092693,54.257183,65.031681,74.073143,-29.496968,-47.748413,-58.551278,-73.286717,-41.290895,-34.077521,-28.292711,-26.024402,-25.428881,-18.742115,-16.486959,-14.760757,-7.253636,-0.84419,3.429309,4.817335,12.456972,21.881258,26.060094,28.083655,120.667677,146.396395,-110.239763,128.325198
102,9.242134,78.652179,0.114498,-15.543474,-16.90361,-36.054955,-51.826515,-62.780113,-19.681778,-39.733772,-54.489784,-67.046585,-14.907875,-35.424614,-51.28212,-65.153503,-12.020531,-31.680336,-45.589371,-57.900124,-9.23172,-24.728394,-34.480133,-43.370361,-19.145345,-23.299851,-14.297443,-0.265342,2.96754,18.900504,32.499427,44.686488,20.537817,41.223093,56.736217,70.772332,35.255657,54.606816,69.43803,81.93304,45.75934,65.653409,79.352305,90.412483,22.069473,45.248222,60.613518,68.276539,44.557171,73.599529,76.61253,75.48048,40.621262,73.04306,76.407852,74.554195,36.727695,65.71455,67.714119,66.139069,33.390198,55.69828,61.186409,62.564907,-19.720272,-34.166009,-48.458667,-64.463231,-27.033836,-18.631273,-20.4455,-24.809988,-18.18244,-10.994877,-11.566871,-13.446801,-8.85115,-2.168582,-2.789081,-6.508092,0.619418,4.383816,1.421062,-4.028967,130.024595,223.305452,-110.010481,111.038603
103,-5.543518,43.325015,10.651703,-17.492935,-23.304176,-42.240028,-56.871071,-65.717354,-53.289986,-76.655045,-78.132591,-74.085274,-46.74408,-71.636238,-73.011703,-70.239601,-38.339996,-60.133896,-60.821571,-57.03083,-28.454361,-45.860367,-49.760742,-46.919861,-21.476052,-25.480567,-16.510022,-2.100749,26.608067,49.530376,55.775627,54.535062,49.843451,73.988541,74.198307,68.234761,63.970154,84.539463,83.771103,79.34261,70.202129,90.144919,90.657941,85.428607,21.774559,34.206734,45.234547,52.081261,10.485821,35.618591,45.939789,49.317799,2.742634,32.301693,43.847923,47.994003,-0.535069,30.297375,43.026981,48.310089,1.138115,28.698578,45.231228,57.22229,-30.245722,-55.049165,-72.285835,-83.720992,-66.714466,-65.063105,-51.737922,-43.336902,-58.335985,-53.760464,-40.508332,-30.663989,-43.791972,-36.795465,-23.855327,-15.045766,-25.327518,-23.306242,-16.424961,-10.590906,124.599781,263.805757,-99.240074,90.720957
104,-4.295998,27.582612,8.481245,-22.976541,-24.239159,-42.597313,-59.813805,-70.931854,-35.779037,-67.969322,-80.126152,-84.04953,-29.519463,-63.800812,-75.92926,-80.260162,-24.764671,-56.422119,-68.043938,-71.262016,-20.585976,-43.269882,-54.42524,-56.827812,-19.006283,-19.675966,-6.181463,15.264702,20.494962,46.025114,56.574431,60.993969,44.83049,70.317726,77.641572,79.019964,60.29162,82.444766,85.647204,84.455112,68.233094,90.197715,92.628953,88.761215,23.406458,32.534723,36.949367,39.456196,7.874937,29.669466,38.911056,40.705204,-2.452412,26.186971,34.436617,34.645757,-8.608847,21.786804,30.862283,32.127914,-10.691157,15.751791,27.824764,32.990827,-30.464164,-57.833321,-77.40905,-92.677673,-72.347863,-82.377782,-67.344628,-56.366486,-66.630439,-69.516329,-53.033121,-41.150968,-55.92091,-55.563159,-40.236383,-28.871142,-41.643474,-46.562867,-36.742822,-27.378233,119.164982,289.73741,-91.89763,66.093457
105,4.421539,-1.148249,8.481245,-22.976541,-29.618454,-53.422966,-70.987015,-86.321754,-29.489365,-57.913742,-76.903152,-92.922935,-19.317856,-50.96981,-74.378471,-94.672394,-15.440483,-45.402145,-67.799263,-86.239586,-13.870468,-31.645775,-45.614548,-59.38076,-8.429487,0.906311,19.133674,36.243787,28.685413,57.126171,75.355819,91.667993,47.809515,78.0038,93.91404,107.227676,62.224717,90.866966,105.372015,116.44479,71.575458,98.176733,111.07201,121.324122,25.038357,30.862713,28.664188,26.831131,5.264053,23.720341,31.882324,32.092609,-7.647457,20.07225,25.025311,21.297512,-16.682625,13.276234,18.697586,15.94574,-22.520428,2.805004,10.418301,8.759365,-30.682606,-60.617477,-82.532266,-101.634355,-77.981261,-99.692459,-82.951335,-69.39607,-74.924893,-85.272194,-65.557912,-51.637948,-68.049849,-74.330854,-56.61744,-42.69652,-57.959431,-69.819493,-57.060684,-44.165562,122.164278,287.757059,-84.838629,42.284814
106,-0.67543,10.795392,10.893425,-19.738327,-33.072624,-57.192192,-73.598328,-87.950363,-29.757385,-55.982323,-76.94458,-95.967751,-18.171272,-48.151817,-71.883659,-94.036674,-13.880997,-40.623436,-62.684784,-82.049904,-13.541565,-29.026451,-42.957458,-57.492599,-0.262192,12.335509,30.224233,49.700004,36.901984,67.582738,85.172837,100.552024,53.254111,84.488951,99.884132,114.520647,64.7098,94.920449,111.344947,124.82537,72.225443,98.814059,113.872391,127.825205,25.983616,32.411155,28.304306,23.004684,7.915523,19.547195,23.194793,21.304882,-7.232815,13.970592,18.772339,16.991146,-18.51067,5.575493,11.666759,11.419258,-26.768246,-6.048832,1.320717,1.179531,-31.052399,-62.728446,-85.999478,-103.597533,-80.741066,-107.001367,-96.695946,-86.611134,-76.766871,-89.254003,-68.747296,-53.702987,-68.942186,-76.357812,-57.446625,-42.767317,-58.250967,-73.874896,-66.485218,-58.196074,120.79608,298.346977,-74.637972,22.341012
107,-1.746368,10.594271,10.893425,-19.738328,-33.293839,-58.185539,-73.743553,-88.081284,-30.651855,-56.125145,-76.575508,-94.986877,-18.708687,-49.08062,-73.071213,-94.457817,-14.139977,-41.294632,-63.229065,-81.938782,-13.928947,-29.893684,-44.338989,-58.191605,1.166774,16.266108,35.769914,55.176587,41.633363,73.520349,92.71318,109.01356,56.176758,88.060719,104.029808,118.947472,65.799078,96.207883,113.410621,127.05561,72.073908,98.655854,113.427973,126.606993,26.928875,33.959598,27.944423,19.178238,10.566993,15.37405,14.507263,10.517154,-6.818173,7.868934,12.519367,12.68478,-20.338715,-2.125248,4.635933,6.892776,-31.016064,-14.902668,-7.776867,-6.400303,-31.422191,-64.839415,-89.466689,-105.560712,-83.500871,-114.310276,-110.440556,-103.826198,-78.608849,-93.235811,-71.93668,-55.768026,-69.834523,-78.384769,-58.275809,-42.838113,-58.542503,-77.930298,-75.909751,-72.226586,119.086704,309.235334,-63.707554,2.896771
108,-9.319038,7.700894,10.893425,-19.738328,-28.121338,-51.300659,-66.890144,-81.322746,-23.78334,-50.659447,-71.126289,-88.878822,-12.050743,-44.861183,-68.729095,-89.198685,-7.636299,-36.86348,-58.445663,-76.586151,-7.298584,-23.822479,-37.675781,-50.452309,-0.253794,14.887283,34.752082,53.903602,44.749165,76.644303,94.725379,109.205974,58.771016,91.155464,106.431281,120.030451,67.79868,98.077871,114.320761,126.843806,73.219748,99.548704,112.80028,124.635426,27.874134,35.508041,27.584541,15.351791,13.218464,11.200905,5.819732,-0.270573,-6.40353,1.767276,6.266395,8.378414,-22.16676,-9.825989,-2.394894,2.366295,-35.263882,-23.756504,-16.874451,-13.980137,-31.791983,-66.950383,-92.933901,-107.52389,-86.260676,-121.619184,-124.185167,-121.041262,-80.450826,-97.217619,-75.126064,-57.833065,-70.726859,-80.411726,-59.104993,-42.90891,-58.834039,-81.985701,-85.334284,-86.257097,109.755535,317.830837,-52.826259,-15.946948
109,-2.645302,8.018353,10.893425,-19.738328,-28.699837,-50.661507,-66.139069,-80.431137,-24.389305,-54.617844,-74.908676,-91.069794,-12.917633,-48.536911,-72.133026,-91.062698,-7.916451,-38.545418,-59.355354,-76.287117,-6.453667,-24.077682,-38.713417,-51.751099,-4.821163,9.537722,30.331864,48.609863,41.243224,72.768353,89.772934,103.197597,54.409894,87.58345,102.361373,115.374099,63.669553,94.337586,109.029862,120.657959,69.349232,96.332372,108.315718,118.426237,28.819393,37.056484,27.224659,11.525345,15.869934,7.027759,-2.867798,-11.0583,-5.988888,-4.334381,0.013424,4.072048,-23.994805,-17.52673,-9.425721,-2.160187,-39.5117,-32.61034,-25.972035,-21.559971,-32.161775,-69.061352,-96.401112,-109.487068,-89.02048,-128.928092,-137.929777,-138.256325,-82.292804,-101.199428,-78.315447,-59.898103,-71.619196,-82.438683,-59.934178,-42.979707,-59.125575,-86.041103,-94.758816,-100.287609,106.283512,325.944116,-42.759556,-35.59035
110,-8.615227,1.279469,10.893425,-19.738327,-24.941483,-44.692955,-59.801331,-72.397842,-15.836105,-46.057663,-66.329727,-83.062592,-5.129471,-41.120911,-65.022125,-84.686966,-1.190071,-32.052841,-53.610535,-71.454277,-0.921478,-18.499947,-33.430138,-47.178154,-5.166101,8.764606,29.491626,47.704355,39.007056,70.08079,87.31712,101.838718,52.791168,85.379022,99.746614,111.865564,62.573483,93.869704,107.938053,118.445503,68.791379,96.552697,108.119229,117.664052,29.764652,38.604927,26.864777,7.698898,18.521404,2.854614,-11.555328,-21.846027,-5.574245,-10.436039,-6.239548,-0.234318,-25.822849,-25.22747,-16.456547,-6.686668,-43.759518,-41.464176,-35.069618,-29.139805,-32.531568,-71.172321,-99.868324,-111.450247,-91.780286,-136.237001,-151.674388,-155.47139,-84.134782,-105.181237,-81.504832,-61.963142,-72.511533,-84.465641,-60.763363,-43.050504,-59.417111,-90.096506,-104.18335,-114.318121,95.207205,327.256451,-34.327211,-55.295811
