YashyHoby/handMotion-similar-search/project/data/handData/tgt/d4_feature_d2/8.csv
,vel_0x_L,vel_0y_L,vel_0x_R,vel_0y_R,posFromWrist_1x_L,posFromWrist_2x_L,posFromWrist_3x_L,posFromWrist_4x_L,posFromWrist_5x_L,posFromWrist_6x_L,posFromWrist_7x_L,posFromWrist_8x_L,posFromWrist_9x_L,posFromWrist_10x_L,posFromWrist_11x_L,posFromWrist_12x_L,posFromWrist_13x_L,posFromWrist_14x_L,posFromWrist_15x_L,posFromWrist_16x_L,posFromWrist_17x_L,posFromWrist_18x_L,posFromWrist_19x_L,posFromWrist_20x_L,posFromWrist_1y_L,posFromWrist_2y_L,posFromWrist_3y_L,posFromWrist_4y_L,posFromWrist_5y_L,posFromWrist_6y_L,posFromWrist_7y_L,posFromWrist_8y_L,posFromWrist_9y_L,posFromWrist_10y_L,posFromWrist_11y_L,posFromWrist_12y_L,posFromWrist_13y_L,posFromWrist_14y_L,posFromWrist_15y_L,posFromWrist_16y_L,posFromWrist_17y_L,posFromWrist_18y_L,posFromWrist_19y_L,posFromWrist_20y_L,posFromWrist_1x_R,posFromWrist_2x_R,posFromWrist_3x_R,posFromWrist_4x_R,posFromWrist_5x_R,posFromWrist_6x_R,posFromWrist_7x_R,posFromWrist_8x_R,posFromWrist_9x_R,posFromWrist_10x_R,posFromWrist_11x_R,posFromWrist_12x_R,posFromWrist_13x_R,posFromWrist_14x_R,posFromWrist_15x_R,posFromWrist_16x_R,posFromWrist_17x_R,posFromWrist_18x_R,posFromWrist_19x_R,posFromWrist_20x_R,posFromWrist_1y_R,posFromWrist_2y_R,posFromWrist_3y_R,posFromWrist_4y_R,posFromWrist_5y_R,posFromWrist_6y_R,posFromWrist_7y_R,posFromWrist_8y_R,posFromWrist_9y_R,posFromWrist_10y_R,posFromWrist_11y_R,posFromWrist_12y_R,posFromWrist_13y_R,posFromWrist_14y_R,posFromWrist_15y_R,posFromWrist_16y_R,posFromWrist_17y_R,posFromWrist_18y_R,posFromWrist_19y_R,posFromWrist_20y_R,posFromBody_0x_L,posFromBody_0y_L,posFromBody_0x_R,posFromBody_0y_R
3,19.731674,2.355099,-2.798939,-1.61218,4.027863,11.68499,20.861206,25.132828,-20.042381,-0.793533,22.941742,39.586487,-25.74131,-8.240891,22.733917,43.441429,-25.580177,-13.143425,16.886673,35.816689,-21.722832,-12.926216,6.696625,21.701317,-10.331832,-6.767104,8.759728,25.604314,26.831357,56.058506,60.941852,59.538018,46.978293,77.06118,78.338425,71.206314,61.721081,85.27559,87.712693,83.2256,71.100598,90.395811,94.579092,92.287967,25.286064,42.42794,47.794075,44.163094,57.537231,59.457951,47.744865,36.867771,51.016331,49.281921,36.723347,25.222092,41.748619,38.548565,27.204723,17.368469,31.707859,31.616249,23.853436,16.58535,8.499821,20.996128,33.534426,42.459089,33.790258,56.533737,65.050848,63.987197,40.406876,64.373631,70.508041,64.880973,44.31543,64.494168,69.219927,62.927869,46.461195,63.599528,67.025811,63.367532,215.98134,329.305762,-317.265902,303.247891
4,-16.785622,-9.636831,-2.757111,0.782501,12.025223,25.075264,37.008018,45.285187,-2.231369,22.550354,46.437607,62.193146,-8.777618,18.603745,46.67942,64.088516,-8.28598,13.367157,38.117867,54.576759,-4.856186,9.377289,26.787987,41.365013,0.552172,10.079396,24.390733,39.315252,40.5192,69.450194,73.984218,72.329307,57.366874,89.320674,90.194443,81.859495,67.990847,96.205413,98.268988,92.153783,72.611568,93.726628,97.318773,93.821291,23.983326,40.414124,46.385136,43.106689,55.259628,57.79953,47.352104,37.342587,49.623184,47.482224,37.577591,27.617798,41.444664,37.662449,27.873859,18.745422,32.626534,30.532322,23.808346,17.402573,6.885356,19.27113,30.855508,37.45181,35.152163,53.420714,59.454964,57.307902,42.294339,60.010841,64.424205,59.175605,45.785831,60.145272,63.86771,58.659866,47.047948,61.724539,64.28823,60.765246,170.964289,320.899632,-348.254442,305.261093
5,31.723366,12.028795,171.561642,6.86504,5.846558,10.096779,12.209129,11.354027,-29.778099,-9.419975,14.918404,30.489807,-38.413811,-17.597122,12.299309,32.260094,-38.964386,-22.51339,6.005745,25.397072,-36.397018,-23.170967,-3.705368,11.243362,-3.414613,-0.319805,11.921967,26.98351,28.227904,57.212374,63.337212,64.088097,45.689624,74.489275,77.865232,74.04461,58.39755,82.628597,83.658532,79.86366,65.95932,82.519113,85.12461,83.981857,21.643295,37.29866,45.08789,45.880928,37.735252,46.721458,46.644821,45.139312,31.303825,38.693428,40.395469,40.328598,25.45536,30.597381,31.479148,31.903991,20.756683,24.617233,25.116729,26.056442,3.141429,14.168097,26.98775,36.54764,34.537005,55.950505,62.611089,61.882064,44.732163,65.797452,70.051808,65.207097,50.604977,68.461488,72.348203,67.583047,53.24242,69.710781,73.53344,70.864546,160.671759,335.635133,-218.708696,314.832839
6,-19.829521,0.262933,171.561641,6.86504,4.315338,14.578285,26.159248,34.510689,-14.399414,9.786758,34.166222,49.992256,-19.08886,5.236244,33.815231,50.932846,-17.210884,2.541733,26.528206,41.380806,-13.025093,-0.046806,16.464615,29.898376,-6.285266,-2.821994,8.837657,24.76914,27.205873,56.890716,63.23483,63.320169,44.550082,75.368724,77.074888,70.648338,56.551707,81.763659,84.529398,79.247268,62.762316,81.086998,83.846438,80.059718,19.303265,34.183197,43.790646,48.655167,20.210877,35.643387,45.937538,52.936039,12.984467,29.904633,43.213349,53.039398,9.466057,23.532315,35.084439,45.062561,8.886833,18.702145,26.425114,34.710312,-0.602498,9.065064,23.119993,35.64347,33.921848,58.480296,65.767215,66.456226,47.169987,71.584063,75.679412,71.23859,55.424124,76.777704,80.828696,76.506229,59.436892,77.697024,82.778651,80.963847,-123.279133,333.967316,-311.268425,319.767129
7,-14.635963,-0.63535,171.561642,6.865041,13.817596,27.812347,38.41198,47.377396,0.787697,25.190506,46.669121,61.331635,-6.502419,21.454239,45.333366,61.436806,-7.223625,15.961533,37.329369,53.959579,-4.20948,11.35437,26.911697,41.845551,-6.324107,0.789911,12.258383,26.15272,28.352825,55.8438,61.611288,61.211763,43.786538,72.961261,76.743968,72.927175,54.050877,80.567553,84.651726,82.19196,59.561483,79.711075,85.308071,84.62153,16.963234,31.067734,42.493401,51.429405,2.686501,24.565315,45.230255,60.732765,-5.334892,21.115837,46.031227,65.750198,-6.523247,16.467247,38.689728,58.22113,-2.983017,12.787056,27.733498,43.364182,-4.346426,3.96203,19.252235,34.7393,33.30669,61.010086,68.92334,71.030387,49.607811,77.370673,81.307014,77.270081,60.24327,85.09392,89.309189,85.42941,65.631364,85.683266,92.02386,91.063147,-188.517838,335.070317,-190.309525,328.370521
8,1.552391,0.417803,2.615089,5.031238,11.938705,24.26033,33.428307,42.052231,-4.280663,19.67308,40.936432,57.999458,-10.318794,17.272568,41.81488,60.880508,-9.122887,13.212776,35.150757,54.625053,-3.884583,11.296577,26.160049,41.786957,-7.59351,-3.082766,10.13491,25.694161,28.308859,54.079961,61.097648,62.559836,44.527728,71.33457,75.232132,71.757807,54.137327,78.39258,82.072905,78.690835,59.193513,78.620192,84.464931,83.712811,12.262802,24.923172,34.491577,43.842201,-3.741417,19.826317,41.592178,58.548889,-9.557076,17.334709,42.37381,61.682968,-8.199692,13.783607,36.286354,55.884476,-3.037262,12.040329,27.268639,42.895546,-6.973598,-2.425309,11.57073,28.568396,28.490837,55.798537,62.619302,63.046121,45.76181,72.791077,76.740016,72.305286,56.235977,80.879146,84.503895,80.314871,61.745842,82.106127,87.930178,86.333189,-189.353657,336.236072,-190.082645,334.149711
9,-2.11853,0.750082,-1.439323,1.227104,14.097061,27.346573,36.374474,44.892082,-2.011871,22.955132,44.431801,61.501694,-8.815842,20.532875,44.683342,63.154335,-8.120499,16.401787,38.176804,56.810074,-3.314323,12.156372,27.357101,43.075562,-8.797272,-3.686747,9.721429,25.059305,27.203712,53.300177,60.761356,62.773246,42.984832,70.491924,75.82753,73.31293,52.767641,77.564507,82.609639,80.86519,57.832225,77.862021,84.474872,84.710944,13.579216,27.098694,37.044868,44.676018,-2.427521,23.430061,44.791603,61.524353,-8.9011,20.489388,44.475174,62.832413,-7.990837,16.357269,37.824554,56.571007,-3.018608,12.743111,27.782364,43.543968,-7.81964,-2.393199,11.329904,26.634743,29.137735,55.004365,61.984323,63.839861,45.35716,72.886728,77.459717,74.531451,55.023754,80.11202,84.730087,82.473541,59.917722,80.178155,86.369128,85.860922,-194.37561,337.052042,-194.425392,335.442703
10,0.130806,-0.905076,0.296974,-0.004384,13.776283,27.078781,36.619377,44.229584,-2.337685,22.936249,44.027824,61.331291,-9.148979,20.708542,44.533195,63.01609,-8.526421,16.232986,37.801323,56.79245,-3.802299,11.811447,26.709366,42.461243,-7.628584,-2.41864,11.090312,26.190758,28.83312,54.367533,61.593257,63.782371,44.622144,71.740949,76.308751,73.755124,54.15752,78.843729,83.547875,81.801759,58.954106,78.96902,85.491037,85.648933,13.496132,26.885376,36.615486,44.302254,-2.677574,22.511444,43.741608,60.909691,-9.303932,20.158997,44.090424,62.402916,-8.580208,15.721664,37.318497,56.233864,-3.817635,11.912727,26.815338,42.471428,-7.591472,-2.362756,11.421603,26.851796,29.168548,55.04407,62.14617,64.15911,45.20019,72.4885,76.901061,74.228997,54.844493,79.59307,84.096528,82.025234,59.874558,79.858288,86.142195,85.902418,-196.593475,336.351607,-196.477089,335.64296
11,-0.371475,0.138259,-0.717201,0.574773,13.847923,27.198257,36.568794,44.485359,-1.902237,23.377075,44.547386,61.901894,-8.64315,21.244354,45.214462,63.782845,-7.997704,16.666832,38.253708,57.297478,-3.24543,12.096405,26.885262,42.533569,-8.197429,-3.084989,10.423655,25.835014,28.591614,54.035563,61.496186,63.835723,44.466966,71.283379,76.020376,73.584384,53.976467,78.390913,83.238876,81.579704,58.721925,78.614573,85.281827,85.624542,13.843575,27.499809,37.212296,45.152092,-1.677933,23.730927,45.020256,62.257004,-8.371239,21.525879,45.623245,64.144249,-7.675552,17.047462,38.746719,57.716217,-2.882538,12.641258,27.595482,43.325386,-8.153833,-2.999959,10.465769,25.819576,28.82571,54.449229,61.629072,63.646952,44.838765,71.866241,76.357287,73.565983,54.435952,79.015827,83.644206,81.639293,59.240319,79.216948,85.686292,85.658875,-197.326984,337.259354,-197.556324,336.98722
12,0.027695,-0.02365,0.221329,-0.331044,13.577843,26.983337,36.740913,44.88945,-2.122536,22.856598,44.130249,61.564293,-8.683891,20.6147,44.621315,63.206177,-7.917595,16.029167,37.670746,56.765442,-3.031883,12.102013,26.856194,42.544327,-7.996555,-2.857809,10.691096,26.167663,28.519181,54.173698,61.306982,63.281205,44.405956,71.546065,76.005927,73.353994,53.908048,78.780064,83.495511,81.688385,58.661842,78.910357,85.563656,85.877162,13.572464,26.928177,36.751099,44.917946,-2.176323,22.865868,44.086304,61.329002,-8.667183,20.500946,44.505043,62.936668,-7.938652,15.806351,37.498055,56.529236,-3.138084,12.084503,26.823235,42.436867,-7.674835,-2.539115,11.212702,26.855563,28.877457,54.839121,61.72213,63.546114,44.828082,71.932808,76.254225,73.735426,54.395814,79.238931,83.843289,81.931064,59.313802,79.542064,86.1212,86.269895,-197.303009,337.510508,-197.338715,336.930981
13,0.267448,-0.133134,0.248337,0.051438,13.387413,26.547089,36.094551,43.767815,-2.421455,23.011436,44.319763,61.70929,-9.510612,20.673637,44.595451,63.293381,-8.805428,16.479836,37.876396,56.781921,-4.03038,12.263145,27.295647,42.975769,-8.318274,-3.223186,10.194129,25.386335,29.389182,55.112366,62.260779,64.29774,45.25947,72.503629,76.590889,73.63891,54.479857,79.165881,83.538921,81.579766,58.786886,78.820387,84.781278,84.536314,13.379517,26.660728,36.311302,43.982964,-2.348328,23.093147,44.315872,61.620712,-9.455223,20.643425,44.460754,63.087959,-8.79467,16.429138,37.759438,56.650772,-4.053154,12.236023,27.226753,42.91008,-8.005632,-2.81267,10.783536,26.032615,29.789448,55.499171,62.551006,64.524858,45.625712,72.921864,76.901493,73.889555,54.825474,79.588253,83.925726,81.936869,59.143063,79.234053,85.202786,84.922872,-196.15694,337.661287,-196.211758,337.266332
14,-0.463028,-0.375196,-0.454903,-0.176853,13.836823,27.132339,36.692162,44.56913,-1.517143,24.066124,45.340462,62.53418,-8.738136,21.828232,45.574036,64.227333,-8.284492,17.51461,38.910027,57.645149,-3.656158,12.606239,27.793007,43.684616,-7.78191,-2.281554,11.116556,25.69694,30.240535,56.205966,62.980357,64.639961,45.868515,73.176585,77.444711,74.357685,54.938292,79.773134,84.390274,82.435133,59.071123,79.454626,85.643622,85.393101,13.806152,27.092857,36.689529,44.588585,-1.467705,24.12735,45.38475,62.53418,-8.71788,21.807289,45.548401,64.133835,-8.294792,17.32235,38.740997,57.540207,-3.710632,12.464676,27.603836,43.484802,-7.679713,-2.1717,11.282788,25.978522,30.323528,56.449757,63.162829,64.745863,45.915877,73.37221,77.589207,74.513111,54.961201,79.97901,84.620048,82.679664,59.096935,79.596343,85.877471,85.727541,-194.729691,337.840734,-194.776382,337.644121
15,0.828209,-1.161402,0.816765,-0.946016,13.364525,26.353912,35.775719,43.144684,-2.329445,22.837257,43.685303,60.759888,-9.583168,20.573502,43.87001,62.177353,-9.23172,15.802803,36.857758,55.811119,-4.775391,10.941582,25.518379,41.2603,-6.8601,-1.33455,12.449995,27.293559,30.63475,56.971177,63.817137,65.671872,46.058644,73.438962,77.545859,74.88491,55.090445,80.168954,84.853032,83.047326,59.430449,80.174512,86.820276,86.941369,13.435822,26.43322,35.835686,43.276176,-2.235374,22.946548,43.810501,60.883827,-9.470787,20.651207,43.927803,62.242012,-9.135017,15.867348,36.924477,55.885735,-4.707642,10.968132,25.549278,41.321068,-6.872389,-1.406489,12.318034,27.086942,30.64957,56.976858,63.76329,65.526388,46.069636,73.46286,77.550922,74.824333,55.102918,80.215514,84.885204,83.023058,59.44249,80.21854,86.86943,86.96786,-193.965797,337.038133,-194.023933,337.056905
16,-0.822601,0.147522,-0.700607,0.197972,13.700523,27.285919,37.045212,45.052185,-1.490479,24.019661,45.255089,62.567596,-8.749809,21.448975,45.236435,63.913193,-8.402939,16.82579,38.33004,57.301369,-3.85952,12.118149,27.245979,43.198242,-7.244003,-1.626506,12.161126,26.957204,31.125172,57.13426,63.680236,65.206274,46.554562,73.948774,78.083952,74.999827,55.429702,80.337842,84.959366,83.07425,59.50597,79.91726,86.441808,86.502879,13.65509,27.179489,36.933632,44.90799,-1.612015,23.901787,45.119591,62.461052,-8.843307,21.289787,45.052299,63.74176,-8.464394,16.69384,38.150826,57.142525,-3.91468,12.013435,27.057037,42.942467,-7.322796,-1.727777,12.070353,26.939729,31.017232,56.963582,63.56927,65.154095,46.49028,73.858495,78.006887,74.981611,55.384871,80.282822,84.914103,83.062579,59.495102,79.886878,86.394013,86.467929,-195.642815,337.176778,-195.578957,337.246
17,0.727501,-1.228648,0.583534,-1.287126,13.625908,27.194366,36.755791,44.175682,-1.47171,23.833122,44.587669,61.447906,-8.833122,21.286469,44.739189,63.01609,-8.735275,16.272583,37.380867,56.225967,-4.607964,11.246681,25.870972,41.530495,-6.134656,-0.196799,13.828079,28.474967,31.878465,58.484927,64.859236,66.120983,47.090926,74.983525,78.918509,75.758369,55.975328,81.456512,86.051793,83.948821,60.181581,80.879084,87.617968,87.897698,13.647423,27.18441,36.761398,44.241257,-1.408539,23.88588,44.692268,61.66729,-8.801422,21.341286,44.819641,63.153877,-8.711128,16.317101,37.45285,56.365471,-4.553833,11.224022,25.848999,41.551323,-6.204928,-0.296525,13.716804,28.313984,31.826224,58.350867,64.820087,66.248744,47.043069,74.805746,78.82897,75.81802,55.932535,81.347399,86.032032,84.065158,60.124585,80.872292,87.682127,88.045528,-196.179256,336.038996,-196.259365,336.04974
18,0.13813,-0.385817,0.180359,-0.453619,13.428726,26.686134,36.263237,44.061012,-1.530304,23.58181,44.150047,60.829582,-8.850174,21.109543,44.24572,62.313766,-8.697281,16.377754,37.320442,56.085091,-4.533005,11.455765,26.142654,41.875877,-6.215055,-0.308629,13.708838,28.627182,31.490672,58.240642,65.134767,66.847723,46.644347,74.62105,78.862316,75.935964,55.572963,81.121146,85.998317,84.072013,59.889625,80.619547,87.442041,87.80112,13.394623,26.673431,36.290703,44.160233,-1.493912,23.645782,44.239197,60.915527,-8.767548,21.181984,44.329262,62.401199,-8.578835,16.484985,37.431679,56.177216,-4.386978,11.579247,26.296577,42.055321,-6.15454,-0.232614,13.770342,28.660342,31.617075,58.343827,65.147734,66.765039,46.760685,74.73146,78.93691,75.933308,55.665959,81.22748,86.074332,84.101591,59.953907,80.70044,87.481068,87.795563,-196.17794,335.837767,-196.21582,335.780709
19,0.259552,1.933097,0.35202,1.891971,13.215179,26.925659,36.710358,44.375267,-1.748428,23.91243,44.614792,61.41861,-9.010391,22.061005,45.564308,63.936424,-8.69133,17.784691,39.045067,57.664375,-4.330788,12.478638,27.810745,43.753853,-7.694595,-2.125511,11.505275,25.952463,29.966487,55.836328,62.770035,64.580927,45.688945,73.073709,76.943051,73.706712,55.002327,79.882494,84.304379,82.309347,59.498992,79.772084,85.867468,85.698395,13.124428,26.813049,36.623955,44.245605,-1.820297,23.729095,44.375954,61.170273,-9.105034,21.895409,45.32238,63.634415,-8.796387,17.631683,38.83667,57.459755,-4.42749,12.433548,27.711639,43.622818,-7.597215,-2.021647,11.69454,26.144569,29.913814,55.845282,62.832341,64.756607,45.648745,73.051602,76.911558,73.733697,54.971328,79.853657,84.300304,82.33096,59.50103,79.783879,85.915756,85.760022,-197.378769,337.985261,-197.324181,337.887078
20,0.384636,0.558841,0.28759,0.79232,13.023491,26.320381,36.290474,44.238281,-2.738228,22.99324,44.06868,61.327057,-9.654465,21.018791,44.796982,63.342476,-9.01062,16.438408,37.771111,56.766357,-4.278603,11.529579,26.36467,42.249184,-7.958331,-2.820512,10.650588,25.313532,29.170771,54.703517,61.867059,64.019122,45.111331,72.225134,76.301279,73.403888,54.535556,79.583499,84.18094,82.261182,59.098911,79.762328,86.422357,86.67646,13.067551,26.391563,36.343346,44.313812,-2.656288,23.078957,44.134827,61.345825,-9.582939,20.980225,44.763451,63.32222,-8.928452,16.428108,37.773514,56.747589,-4.184303,11.565971,26.420631,42.310753,-8.049043,-2.936294,10.526099,25.221709,29.001945,54.516228,61.717499,63.891855,44.947878,72.101263,76.252002,73.364368,54.378277,79.431284,84.065467,82.195603,58.940089,79.560589,86.222718,86.524307,-195.399628,338.922508,-195.442085,339.057804
21,-0.547142,-0.693951,-0.45742,-0.838509,13.908005,27.41787,37.649231,45.801773,-1.948013,24.171066,45.342064,62.206879,-8.873405,22.196388,46.06945,64.420166,-8.135605,18.047218,39.777489,58.549919,-3.082924,12.97451,28.20591,44.289322,-8.090539,-2.229066,11.562332,26.447269,29.762402,55.902771,63.473372,65.894976,45.581067,73.274521,78.006578,75.127095,55.035055,80.267755,85.162772,83.262774,59.588839,80.224838,86.756241,86.702827,13.8834,27.366829,37.586632,45.717659,-2.010727,24.092216,45.210342,62.114296,-8.929482,22.160683,45.96817,64.311104,-8.20507,17.96093,39.63604,58.445663,-3.177681,12.814293,27.981949,44.043617,-8.046079,-2.155028,11.65255,26.536931,29.753572,55.862325,63.43731,65.896643,45.526417,73.160406,77.882769,75.087328,54.946443,80.139499,85.053412,83.244125,59.484295,80.123444,86.704247,86.737346,-196.052856,338.241401,-196.005592,338.232139
22,0.21492,-1.342083,0.20565,-1.451073,13.372765,26.727562,36.753159,44.71138,-1.630325,23.864136,44.656448,61.60778,-8.881874,21.276054,44.854317,63.233986,-8.68515,16.243629,37.685394,56.860199,-4.363174,11.207314,26.011162,42.001305,-7.100495,-1.547589,12.195027,26.732124,30.422822,56.976241,64.014306,65.983773,45.986767,73.904931,78.275254,75.738362,55.199558,81.230629,86.148309,84.384099,59.79632,81.252304,88.304509,88.699033,13.363495,26.695404,36.662178,44.617538,-1.5588,23.820648,44.550591,61.507759,-8.874207,21.208076,44.739075,63.144264,-8.77636,16.075745,37.457657,56.641273,-4.556923,10.879326,25.574799,41.526833,-6.997124,-1.403957,12.318837,26.747191,30.511805,57.11592,64.183749,66.194651,45.948482,73.912526,78.347873,75.872114,55.083714,81.179685,86.157201,84.462028,59.649478,81.168323,88.332112,88.873786,-196.081009,336.91102,-196.043015,336.792768
23,0.414848,0.813747,0.412331,1.019746,13.427696,26.705132,36.647758,44.349174,-1.828194,23.741684,44.613533,61.547241,-8.967133,21.362228,44.966354,63.367767,-8.663063,16.499519,38.002281,57.054634,-4.279175,11.347961,26.267853,42.292213,-6.918578,-1.446874,12.152913,26.43566,30.352304,56.313473,62.938366,64.740676,46.120271,73.383943,77.436622,74.672982,55.39401,80.775899,85.450282,83.548554,59.924576,81.122813,87.878493,87.964388,13.392906,26.68293,36.606216,44.314041,-1.8536,23.69648,44.556427,61.499176,-9.022865,21.361885,44.968414,63.363304,-8.738594,16.476631,38.00869,57.075691,-4.360771,11.276207,26.231346,42.3032,-6.976623,-1.524926,12.057818,26.31148,30.166126,56.191887,62.820485,64.597538,45.940392,73.246054,77.250815,74.41326,55.256677,80.694389,85.380442,83.447963,59.806756,81.06625,87.87238,87.981369,-195.129204,337.80762,-195.093727,337.895368
24,0.042114,1.487073,-0.011673,1.362523,13.381348,26.703758,36.978722,44.851112,-2.92408,22.990265,44.315872,61.700821,-9.608231,20.989151,45.124283,63.959541,-8.715477,16.999855,38.743858,57.960091,-3.642883,12.376671,27.606697,43.808098,-8.303578,-3.11994,10.514428,25.33465,28.606434,53.791772,61.076653,63.41755,45.071626,71.887977,76.133194,73.313794,54.92625,79.698231,84.200762,82.218018,59.958106,80.409843,86.656514,86.311824,13.403778,26.773224,37.089043,44.943123,-2.84626,23.179092,44.471512,61.821671,-9.568405,21.211967,45.302124,64.073181,-8.703918,17.266617,38.982468,58.11882,-3.650894,12.492599,27.754326,43.940735,-8.316298,-3.083383,10.557221,25.352002,28.52832,53.772568,61.175577,63.640592,45.013086,71.840923,76.152337,73.343311,54.912542,79.648522,84.153647,82.139904,59.990896,80.429726,86.626195,86.189249,-195.30447,339.427426,-195.322781,339.390623
25,-0.217094,-0.33691,-0.199814,-0.248731,13.59581,27.026711,37.174301,44.839668,-2.265701,23.749924,45.082169,62.386551,-9.278526,21.174889,45.333824,64.062881,-8.498497,17.218895,38.897896,58.108978,-3.352089,12.879982,27.972679,44.127388,-8.140372,-2.648846,10.865541,25.520396,28.818979,54.486835,62.303757,65.516446,45.049396,72.330851,76.998318,74.506009,54.717349,79.751151,84.705819,83.020465,59.634596,80.372916,86.666394,86.361162,13.543167,26.986771,37.201424,44.757271,-2.223358,23.7743,45.043831,62.281723,-9.197273,21.164703,45.279808,63.966637,-8.410149,17.173805,38.786087,57.955627,-3.275528,12.863045,27.875519,43.9571,-8.127527,-2.716833,10.771557,25.344839,28.642249,54.302695,62.119556,65.36207,44.923301,72.161964,76.815784,74.382015,54.615646,79.646237,84.598867,82.94056,59.570931,80.309869,86.600569,86.308242,-194.682827,339.196526,-194.683857,339.247902
26,0.218353,0.464734,0.244904,0.513331,13.242874,26.631088,36.817131,44.143066,-2.540016,23.672333,44.933281,62.22187,-9.386101,21.180267,45.349159,64.293823,-8.477669,17.403259,39.023781,58.256607,-3.306656,12.988586,28.029442,44.200859,-7.996123,-2.66521,10.674485,24.981561,28.533322,53.664998,60.983657,64.017146,44.939789,71.536432,76.202602,73.922036,54.677088,79.146244,84.077261,82.415496,59.582417,79.929795,86.252358,86.017274,13.176842,26.558075,36.763916,44.085388,-2.613373,23.602409,44.84951,62.174606,-9.427071,21.150398,45.308304,64.25354,-8.506851,17.316513,38.914146,58.14949,-3.336754,12.844734,27.839813,44.003906,-8.027677,-2.747461,10.57834,24.903262,28.408771,53.527974,60.870839,63.93755,44.803814,71.369644,75.988698,73.709614,54.538273,79.011134,83.936224,82.276125,59.446813,79.857856,86.222903,86.026784,-194.151821,339.753731,-194.126301,339.853705
27,-0.104713,0.811833,-0.094986,0.64239,13.328476,26.708908,36.687355,44.501724,-2.715569,23.472977,44.862328,62.288246,-9.534645,21.152687,45.383377,64.379654,-8.594742,17.300949,38.942184,58.164482,-3.371658,12.663689,27.648582,43.770103,-8.617517,-3.489022,9.842892,24.442172,28.140651,53.00149,60.590677,63.777369,44.527358,70.752943,75.503772,73.276867,54.244711,78.315825,83.248139,81.726115,59.142692,79.238931,85.594593,85.541549,13.357315,26.671944,36.631966,44.529762,-2.775307,23.447914,44.929733,62.349472,-9.553986,21.172028,45.507431,64.520187,-8.571625,17.411499,39.147377,58.353882,-3.292007,12.832146,27.91008,44.069939,-8.615603,-3.41912,9.914276,24.600808,28.175663,53.1253,60.729431,63.904946,44.55002,70.866317,75.64549,73.347819,54.286578,78.400855,83.296304,81.67233,59.210247,79.2724,85.565385,85.419036,-194.562492,340.703591,-194.527245,340.634122
28,33.274841,5.573654,-0.176582,-0.841658,1.496887,5.967751,10.970078,13.59787,-28.799858,-8.28186,15.612602,31.50032,-34.333534,-15.522652,13.912811,33.835373,-32.890892,-16.786652,10.48851,28.980904,-28.284073,-16.883469,2.182388,17.920074,-8.747255,-11.722019,-1.862022,12.610546,20.825265,47.176203,54.054396,55.502197,42.115695,67.308937,70.538422,65.869658,57.704216,77.862885,79.498592,74.503786,66.702363,80.626216,81.954344,77.351036,13.410988,26.656723,36.51329,44.68071,-2.361603,23.808861,45.154724,62.551231,-9.3853,21.430435,45.513725,64.419479,-8.713875,17.386436,39.008789,58.188171,-3.757439,12.434578,27.499466,43.687477,-8.220338,-2.913631,10.601805,25.488038,28.548759,54.061004,61.807963,65.124454,44.720945,71.317959,76.418852,74.368491,54.45034,78.66737,83.762211,82.229874,59.360918,79.529961,86.004554,86.054695,-161.281071,346.462049,-194.697247,339.977267
29,-17.526741,-6.300086,0.008125,0.142705,4.653397,14.513512,26.285248,35.484009,-14.639168,9.723358,33.882866,50.017433,-19.436531,5.550041,34.188309,51.728668,-17.783432,2.818336,27.186356,42.934799,-13.700294,0.02346,16.522179,30.408096,-5.94323,-3.503471,7.317547,23.359255,28.051792,57.133766,64.115021,65.082958,45.246009,75.692791,78.090436,72.67758,56.988405,81.968176,85.622566,81.064768,63.174994,81.484979,84.326301,80.585276,13.776283,26.993065,36.753044,44.574738,-2.151947,24.095192,45.221558,62.575836,-9.348793,21.465111,45.244904,64.261894,-8.841133,17.446747,38.718681,57.883759,-4.064255,12.33181,27.324142,43.462715,-8.294068,-2.859291,10.472685,25.000148,29.159162,54.362654,61.593813,64.434147,45.188704,71.875504,76.545872,74.272469,54.689993,78.980629,83.916278,82.435935,59.324424,79.649572,86.034256,86.094894,-178.673,340.232574,-194.55431,340.190584
30,-15.265961,-1.138369,-0.065002,-0.129923,13.844261,27.887306,38.719368,47.551346,0.833244,25.156631,46.697845,61.889076,-6.382256,21.593056,45.689049,62.25071,-7.17968,16.275673,38.017044,55.070686,-4.500275,11.0923,26.933899,42.176399,-5.784223,1.612056,13.330926,26.997898,29.819891,56.466059,62.182047,62.290481,45.126707,73.913514,77.362336,74.311804,55.233521,81.608542,85.964045,84.505377,60.573017,80.626093,86.419208,86.235253,13.577156,27.060814,37.145691,44.99073,-2.404747,24.23996,45.482597,62.752876,-9.540939,21.908798,45.760002,64.540329,-8.946991,17.913895,39.293404,58.385124,-4.001083,12.731781,27.877121,44.070854,-8.026874,-2.646129,10.735741,25.241469,29.438027,54.740382,61.8255,64.412163,45.472201,72.128371,76.581502,74.013859,54.939836,79.267151,84.077138,82.332504,59.496831,79.842727,86.352826,86.336339,-193.845863,339.096089,-194.526215,340.062545
31,28.316917,6.466318,-0.016937,-0.137271,3.139343,8.379822,15.68058,20.336838,-25.06176,-3.015518,21.601639,37.85202,-30.248909,-10.242577,19.658775,38.930626,-28.824234,-11.280098,15.676231,32.966537,-24.333,-11.753197,7.285538,22.472649,-7.741464,-9.317952,1.180606,15.720482,24.193194,51.054808,57.484076,58.295909,44.54897,70.230473,72.729697,67.36303,58.931444,79.064734,80.583423,74.896148,67.018093,80.697661,82.142868,77.537831,13.433762,26.960564,36.920586,45.013504,-1.865959,24.294891,45.559959,62.789268,-9.001694,21.911888,45.741005,64.417305,-8.573227,17.557297,38.95443,57.93972,-3.841782,12.407799,27.390518,43.453331,-7.858666,-2.552206,10.870234,25.518605,29.69071,55.235188,62.185752,64.51257,45.567914,72.392663,76.909397,74.291241,54.930449,79.475929,84.3192,82.479284,59.470463,79.875763,86.580253,86.729009,-165.444374,345.583664,-194.45858,339.946531
32,-18.445702,-8.245224,0.164452,-0.293006,5.788994,17.237091,29.085274,39.293633,-9.766731,15.38578,39.118881,54.631348,-14.37149,12.062302,39.620819,56.572838,-12.780418,8.431892,31.935997,47.352905,-8.825455,5.053024,21.231651,35.14595,-4.927868,0.602499,12.492417,28.482378,31.915577,60.201465,65.16274,64.898448,48.170138,78.364113,79.857053,73.912588,59.444713,85.148631,88.626723,84.124007,65.638218,85.278986,88.520204,84.806534,13.050041,26.195068,36.046143,44.506531,-2.861481,23.174515,44.319649,61.681595,-9.732399,20.937195,44.72683,63.508301,-9.134674,16.416435,37.729111,56.945457,-4.387207,11.580276,26.361351,42.348175,-7.995505,-2.691577,10.86832,25.88355,29.237956,54.910381,62.243983,64.858125,45.186667,72.087246,76.636893,74.15996,54.574891,79.295433,84.038112,82.081426,59.217163,79.769985,86.453417,86.601001,-183.89986,337.359497,-194.303913,339.674582
33,-9.708824,2.660393,-0.468407,0.001791,13.019485,26.148491,36.990395,45.795822,-1.685486,23.246613,44.276733,59.924126,-8.913918,20.25238,44.343224,61.818352,-8.903847,15.201759,36.788292,54.800034,-4.904938,9.951668,24.803352,40.134888,-6.953837,-1.108729,10.659233,23.511963,27.179444,53.698591,61.662109,64.66676,43.3767,71.460417,76.027107,73.891963,53.692292,79.389849,84.009398,82.222217,59.445763,80.027608,86.284468,85.976766,13.668594,27.105675,36.869087,45.383835,-1.576767,24.127235,45.281639,62.787895,-8.851433,21.874352,45.889435,64.96582,-8.599548,17.439423,39.159393,58.549232,-4.015274,12.038956,27.226639,43.57132,-7.7879,-2.281307,11.045667,25.558125,29.714545,55.151578,62.617573,65.415052,45.42595,72.330542,77.308737,75.032864,54.730563,79.471854,84.617578,83.042448,59.276196,79.907256,86.652562,86.92093,-193.562908,339.912013,-194.726543,339.568495
34,-0.348015,0.21415,0.764465,-0.427128,12.477608,25.709496,35.809364,44.231529,-3.068962,22.585144,43.65509,60.767097,-9.755859,20.325623,44.458694,63.157539,-8.943443,16.11866,37.675552,56.629601,-3.99559,11.747475,26.705475,42.604065,-8.129812,-3.200586,9.869877,24.767287,28.103539,53.887115,61.836554,65.151625,44.228053,71.221567,75.90762,73.440938,53.830613,78.385355,83.136556,81.054085,58.72353,78.998784,85.530002,85.425643,12.946243,25.993767,35.765533,43.728447,-2.999725,22.916908,43.814964,61.270752,-10.002708,20.668488,44.409943,63.238792,-9.502029,16.007652,37.329597,56.636009,-4.799881,10.987701,25.719566,41.768875,-7.268888,-1.982065,11.522997,25.938261,29.420552,54.953359,62.47882,65.507801,45.383898,72.087925,76.706547,74.464019,54.845975,79.530146,84.597385,82.970509,59.614342,80.243055,87.22116,87.675705,-193.859768,339.970691,-193.910923,338.985895
35,-1.141663,0.350001,-0.848007,1.136022,13.190689,26.642075,36.600266,44.91291,-1.853828,23.712387,44.89666,62.465401,-8.789406,21.744919,45.777512,64.816589,-8.241348,17.604904,39.148064,58.465919,-3.385277,12.603836,27.691841,44.036293,-8.480308,-3.470311,9.548651,24.110572,28.373203,53.404041,61.402942,64.846578,44.412749,70.876567,75.910584,73.879798,53.966279,78.084199,83.346137,81.877218,58.584098,78.565049,85.319,85.554331,13.225479,26.544685,36.483536,44.703255,-1.995621,23.50811,44.7052,62.303696,-8.946648,21.459389,45.582733,64.81041,-8.373413,17.309418,39.00547,58.550377,-3.468475,12.279396,27.399559,43.916817,-8.233923,-3.161683,9.958304,24.541466,28.385615,53.462395,61.632036,65.279448,44.502781,71.026744,76.29072,74.421905,54.128435,78.371956,83.78722,82.379804,58.83783,78.940245,85.795528,86.06371,-194.946327,340.32838,-194.703827,340.129606
36,0.743179,0.041249,0.431442,0.194823,12.913284,25.998917,35.61985,43.435249,-2.31102,23.180466,43.997955,61.578484,-9.236298,21.155891,44.566383,63.448677,-8.742371,16.743279,37.680702,56.910553,-4.110947,11.529236,26.104202,42.142181,-8.197738,-3.222075,10.054449,24.400305,28.426308,53.363162,60.983966,64.093408,44.500311,70.530271,75.335811,73.2237,54.036242,77.997007,83.180769,81.779714,58.635536,78.962228,85.760886,86.119842,12.883759,25.978546,35.686111,43.656349,-2.423744,23.165245,43.993378,61.610069,-9.353943,21.230049,44.730034,63.668976,-8.836899,16.963806,37.993126,57.259712,-4.173775,11.638069,26.277466,42.328835,-8.18125,-3.212318,10.032342,24.363934,28.469225,53.414724,61.262522,64.662561,44.487714,70.556576,75.355942,73.297616,53.994745,77.970084,83.13001,81.782801,58.624606,78.988533,85.78077,86.178319,-194.175911,340.36878,-194.245148,340.323579
37,-0.312767,-0.817514,-0.259781,-0.76163,13.89164,27.136917,36.266212,44.730606,-1.84433,23.147163,44.235992,61.777267,-8.937263,21.491089,45.75428,64.610596,-8.367805,17.797623,39.753342,58.824234,-3.578682,12.616997,27.912369,43.918419,-8.396698,-3.180208,10.712894,26.57781,29.100437,54.90859,63.011294,66.062443,45.121026,72.180118,77.029563,74.313657,54.757981,79.119753,83.714169,81.718519,59.55926,79.506866,85.595457,85.454543,13.92643,27.220573,36.349983,44.915085,-1.759071,23.19912,44.375038,61.932564,-8.804169,21.502647,45.848465,64.797478,-8.215599,17.832298,39.837456,58.898735,-3.450508,12.693787,28.055649,44.090767,-8.464746,-3.21979,10.68418,26.644624,29.167684,55.036351,63.110527,66.043671,45.195559,72.313314,77.316579,74.604625,54.811642,79.173476,83.859838,81.859989,59.579515,79.51051,85.598298,85.427434,-194.412632,339.517937,-194.428883,339.52862
38,34.275856,6.739625,0.342293,-1.462435,0.562592,4.365463,10.246353,13.346901,-28.994637,-8.075752,14.545212,29.610901,-34.728813,-15.798111,12.63176,31.58432,-33.620682,-17.252884,9.410019,27.122269,-29.32457,-16.95385,1.494484,16.445503,-8.049413,-10.26755,0.196058,14.596007,20.378562,47.434382,55.829597,58.21236,41.152142,67.536673,71.934537,67.664311,56.553003,77.891229,79.486489,73.99027,65.952034,79.68798,81.031978,76.740077,13.568115,26.609802,35.996361,44.034576,-1.910019,23.128166,43.759804,60.906029,-9.178276,21.143646,44.757385,63.118401,-8.840218,16.8964,38.237572,57.113113,-4.368095,11.713943,26.674805,42.518005,-7.291612,-1.808793,12.32532,27.760886,29.804701,56.369666,63.990964,66.643391,45.644855,73.191467,77.502139,74.760915,55.158988,80.302212,84.857478,82.791309,59.928281,80.485055,86.756921,86.571361,-160.11446,346.277276,-194.064274,338.085898
39,-18.169556,-1.103665,-0.1054,0.585764,3.924522,13.592606,26.321297,35.821266,-14.377327,9.1119,32.625618,48.942947,-19.200554,4.753189,33.755379,51.459961,-17.314453,2.974205,27.815323,43.434334,-12.562752,0.658722,17.853584,32.0438,-9.294857,-8.626841,2.721464,19.25631,21.660439,51.304589,59.547034,61.084866,39.702242,70.641854,73.096433,67.516727,52.37849,77.306514,80.428553,75.298946,59.437612,77.223954,79.43925,74.982352,13.613205,26.827469,36.070747,43.981934,-1.518517,23.513832,44.404907,61.712494,-8.713989,21.442337,45.145226,63.648262,-8.440132,16.782188,38.180008,57.192535,-4.034157,11.45977,26.294403,42.202034,-7.628646,-2.188805,11.802047,27.013273,29.403447,55.726598,63.077737,65.410853,45.240143,72.651336,77.087485,74.273951,54.706851,79.883235,84.667101,82.666512,59.350297,80.067128,86.775446,86.973232,-178.132668,345.210414,-194.018326,338.708466
40,-14.629784,-7.920911,0.243187,-0.068728,13.541679,27.598686,38.220749,46.410255,1.460609,24.722328,45.942421,61.310234,-6.588249,21.236801,44.942093,61.143723,-7.98008,15.887833,37.565689,54.267769,-5.714264,10.428772,26.427727,41.574669,-5.319613,2.215234,14.142265,28.510783,30.86934,59.239887,65.524041,65.480322,45.644237,75.775598,79.225038,75.826233,55.294283,82.7148,87.188432,85.575388,60.150768,80.947627,86.556108,86.069947,13.355484,26.46698,35.882721,43.811188,-2.005577,23.294334,44.159775,61.301765,-9.111557,21.251678,45.021629,63.465042,-8.708725,16.815147,38.2584,57.294273,-4.155922,11.772652,26.676292,42.53231,-7.539231,-2.200846,11.82119,27.149989,29.681756,56.184477,63.386551,65.566834,45.459727,73.014675,77.155534,74.181326,54.85499,80.122889,84.75065,82.628103,59.504735,80.146354,86.674484,86.586119,-191.504574,337.34653,-192.517262,338.696764
41,31.737785,9.277691,-0.38063,-0.421508,1.99482,6.311188,11.342125,14.718132,-27.400131,-6.66378,17.009239,32.58625,-33.203659,-14.013977,14.617653,33.46138,-32.20047,-15.55172,11.105118,28.946342,-28.214264,-15.135612,3.6129,18.629494,-7.234184,-9.338577,0.683392,14.770946,22.262444,48.683778,55.72246,56.977105,42.826751,68.794961,72.21297,67.501228,57.901941,78.565975,79.873664,74.161133,66.886626,79.869527,81.121022,76.899764,13.642273,26.960678,36.548767,44.794807,-1.564407,24.044037,45.040855,62.260323,-8.816299,22.081947,45.819168,64.255142,-8.535919,17.534752,39.062576,58.084831,-4.085541,11.988373,27.020187,43.07476,-7.288216,-1.460088,12.544658,27.535558,30.339706,56.867066,63.975712,66.055095,46.016654,73.528377,77.794466,74.705772,55.315772,80.576754,85.240392,83.070791,59.757788,80.565454,87.078887,86.999847,-158.54908,346.846537,-191.680183,338.497573
42,-18.135338,-4.851421,0.399971,-0.855861,4.626389,14.762192,27.618713,37.724419,-13.208313,10.401535,34.349327,50.613213,-17.622414,6.55323,35.334892,52.84584,-15.683556,4.711304,29.414978,45.101166,-11.055908,2.444801,19.236374,33.362846,-7.244188,-4.744778,6.099088,21.677914,25.572142,55.380239,62.576509,63.283489,42.727333,74.321684,76.393534,70.500075,54.670171,80.545323,83.804942,78.673421,61.515822,80.470049,82.754815,78.416292,13.78006,27.026482,36.57486,44.317703,-1.673126,23.71994,44.401131,61.245003,-9.168663,21.432037,45.02964,63.260307,-9.078598,16.746826,38.204384,57.17411,-4.819679,11.465149,26.486549,42.439613,-6.861212,-0.932802,13.237683,28.219877,30.617336,57.902188,65.112907,67.269232,46.091743,74.309828,78.490887,75.523903,55.359738,81.216797,85.977939,83.845697,59.983671,80.974427,87.565233,87.483661,-175.859699,342.146883,-190.455494,337.793479
43,-13.548546,-1.481269,-0.208282,0.343209,13.579903,27.73201,38.567505,47.629166,0.903168,25.057869,46.17897,61.217766,-6.926193,20.952759,44.609184,61.259651,-8.118324,15.178986,36.560898,53.895493,-5.550156,9.511299,24.958763,40.366859,-6.253217,0.573167,12.053619,25.870706,27.957993,55.125272,61.411711,61.925536,43.282716,72.533886,76.736434,73.996568,53.361001,79.973823,84.602943,83.261292,58.671783,78.86423,84.651911,84.444429,13.342781,26.854134,36.57074,44.466934,-1.263199,24.171638,44.898834,61.714439,-8.810463,21.891289,45.459709,63.761902,-8.824539,16.993675,38.197289,57.067795,-4.742317,11.458969,26.312485,42.173309,-6.651137,-0.792752,13.141846,27.82313,30.53317,57.58405,64.565428,66.513592,45.943789,74.226465,78.500335,75.465117,55.077909,81.068287,85.889883,83.684776,59.560557,80.675061,87.432594,87.514475,-187.605972,340.906071,-188.861504,338.377144
44,0.751305,0.024453,0.172005,0.3923,13.040314,25.564041,34.790726,42.474747,-3.061409,20.347252,41.333313,58.768158,-9.916191,18.2024,42.362938,61.259193,-9.319611,14.043274,35.593071,55.11795,-4.617004,10.973511,25.776901,41.451302,-7.729793,-2.63983,10.587108,25.649022,27.245023,53.474004,61.664579,64.241424,43.371452,70.459073,75.234108,72.903524,53.236821,77.981199,82.512815,80.093681,58.610589,78.613461,84.948622,84.850932,13.818398,27.331238,37.054024,44.581947,-0.849152,24.40567,44.878578,61.651154,-8.295937,21.865654,45.118561,63.443985,-8.29319,16.92215,37.813568,56.67263,-4.276085,11.545944,26.178932,41.9561,-6.734438,-0.819798,13.286589,27.988806,30.094434,56.785185,63.965646,66.135556,45.696416,73.64774,78.211652,75.577008,54.941503,80.627266,85.598174,83.845512,59.469599,80.317402,87.029116,87.351454,-185.636215,340.980202,-187.471046,338.819123
45,0.454076,0.002649,-3.153648,-11.608769,12.857555,25.239934,34.376947,42.003835,-3.337203,19.910308,40.820884,58.202539,-10.127508,17.801794,41.871982,60.707444,-9.478148,13.719789,35.183418,54.637041,-4.729977,10.740696,25.46692,41.068996,-7.726442,-2.614954,10.619286,25.670551,27.233859,53.442299,61.629385,64.20023,43.351022,70.432314,75.215758,72.894014,53.220832,77.964692,82.503015,80.090903,58.603734,78.614799,84.953476,84.860588,17.29866,32.701836,43.039055,49.17366,29.008141,40.96035,45.13504,46.25885,17.886543,26.409531,28.530464,27.771835,7.386475,14.417953,17.031898,17.558784,-3.488503,0.00721,3.281364,5.639648,4.518463,17.197304,30.023853,40.691484,53.06923,73.233333,84.42257,92.82606,58.301775,82.692879,94.775891,102.280604,58.547727,80.614607,91.421855,98.508518,54.802009,70.056275,78.528678,85.123066,-185.116222,341.040495,-190.558777,327.267998
46,0.454076,0.002649,3.527069,0.69568,12.674797,24.915827,33.963169,41.532922,-3.612998,19.473364,40.308455,57.636919,-10.338826,17.401187,41.381025,60.155695,-9.636687,13.396304,34.773764,54.15613,-4.842951,10.507881,25.156938,40.68669,-7.723091,-2.590079,10.651464,25.69208,27.222694,53.410593,61.594191,64.159036,43.330592,70.405555,75.197408,72.884503,53.204843,77.948184,82.493214,80.088124,58.59688,78.616136,84.95833,84.870244,16.172333,28.277321,36.741028,45.581818,23.153114,30.065002,31.102982,28.189545,16.4851,25.870399,28.200531,25.564156,11.095963,21.473694,25.040703,24.572868,6.37516,14.869652,18.859863,19.846001,3.301362,15.380546,29.095127,41.228404,47.445312,68.404883,80.711864,89.927001,54.898586,77.889932,91.46434,101.328598,57.114068,77.02098,85.964045,91.997616,55.691832,70.432829,78.610065,85.288866,-184.760851,341.044286,-187.130413,327.964821
47,0.454076,0.002648,5.149612,1.861775,12.492038,24.59172,33.54939,41.06201,-3.888793,19.03642,39.796026,57.071299,-10.550144,17.00058,40.890068,59.603945,-9.795225,13.072818,34.364111,53.67522,-4.955924,10.275065,24.846956,40.304384,-7.719739,-2.565202,10.683642,25.71361,27.211531,53.378888,61.558998,64.117843,43.310163,70.378797,75.179058,72.874994,53.188855,77.931677,82.483415,80.085347,58.590026,78.617474,84.963185,84.8799,5.934105,14.735184,26.733284,39.985886,4.17778,14.221344,19.889259,20.531845,9.235497,18.770714,22.192612,19.912033,16.602287,29.10141,34.466286,35.371056,24.050789,36.239891,42.499352,45.109406,2.505955,11.953892,23.790149,36.170613,44.34118,61.501373,61.894846,58.463067,50.813611,73.996321,88.587944,100.807795,52.067762,71.812703,82.372703,89.947564,49.957565,64.91617,73.829534,81.354562,-184.454404,341.104146,-182.128429,329.883807
48,0.454076,0.002649,1.161804,1.831826,12.309279,24.267612,33.135611,40.591098,-4.164588,18.599476,39.283596,56.50568,-10.761462,16.599973,40.399111,59.052195,-9.953764,12.749333,33.954457,53.19431,-5.068898,10.04225,24.536974,39.922078,-7.716388,-2.540327,10.71582,25.735139,27.200367,53.347182,61.523804,64.07665,43.289733,70.352039,75.160707,72.865483,53.172866,77.91517,82.473615,80.082569,58.583172,78.618811,84.968039,84.889555,16.298103,28.507233,34.236259,40.036469,22.688713,27.59594,28.42598,26.016312,11.127663,15.575409,16.757011,14.877319,0.961876,6.919785,13.220444,16.257019,-8.090286,-2.954178,3.74691,8.207359,1.859799,12.927449,24.095443,35.872358,45.342957,67.268552,79.418069,89.320489,48.992221,73.618594,88.095299,100.596485,47.254071,65.261293,58.906188,49.571378,43.390965,57.793693,56.488412,51.631681,-184.036205,341.125505,-181.002502,331.734344
49,0.454076,0.002649,-0.204964,-1.300772,12.12652,23.943505,32.721832,40.120185,-4.440383,18.162532,38.771167,55.94006,-10.97278,16.199366,39.908154,58.500446,-10.112302,12.425847,33.544803,52.7134,-5.181871,9.809434,24.226992,39.539772,-7.713037,-2.515451,10.747998,25.756668,27.189202,53.315476,61.48861,64.035456,43.269303,70.32528,75.142357,72.855973,53.156878,77.898662,82.463814,80.079791,58.576317,78.620148,84.972893,84.899211,15.807037,28.200531,34.134521,41.029358,18.308372,19.305038,18.704567,16.261711,6.854439,10.114288,12.420044,11.376457,-2.592316,2.923737,9.322243,12.396927,-10.282745,-6.762772,-1.689835,0.933037,2.31879,13.896683,25.784564,36.398039,44.249419,66.658335,76.622566,84.844572,48.412755,71.516363,82.346459,90.747541,47.772774,66.266405,61.975492,54.499864,44.060957,59.404143,60.763023,58.401193,-183.7606,341.03559,-181.385937,330.341007
50,0.454076,0.002649,-1.506958,1.149484,11.943761,23.619398,32.308053,39.649273,-4.716178,17.725587,38.258738,55.37444,-11.184098,15.798759,39.417197,57.948696,-10.27084,12.102362,33.13515,52.23249,-5.294845,9.576619,23.917011,39.157465,-7.709686,-2.490576,10.780176,25.778197,27.178038,53.28377,61.453416,63.994262,43.248873,70.298521,75.124006,72.846462,53.140889,77.882154,82.454014,80.077012,58.569463,78.621486,84.977747,84.908866,15.760803,28.229027,35.219765,41.729507,17.932434,16.336555,13.590431,10.311012,6.800766,13.04718,20.389366,23.662834,-2.742233,3.369026,11.092529,14.854202,-10.968933,-7.801437,-3.299904,-1.162033,1.010916,12.424739,24.792976,35.715759,42.514109,68.359929,84.431215,97.842602,45.437065,65.026395,61.918929,56.168792,45.607805,62.607261,58.323017,49.934347,43.073753,58.200998,61.419862,60.066911,-183.403455,340.897819,-182.989826,331.350071
51,0.454076,0.002648,-1.305771,-0.825603,11.761003,23.29529,31.894275,39.178361,-4.991973,17.288643,37.746308,54.808821,-11.395416,15.398152,38.92624,57.396946,-10.429379,11.778877,32.725496,51.751579,-5.407818,9.343804,23.607029,38.775159,-7.706334,-2.465699,10.812354,25.799727,27.166875,53.252066,61.418223,63.953069,43.228444,70.271763,75.105657,72.836952,53.124901,77.865648,82.444215,80.074235,58.562609,78.622824,84.982602,84.918523,16.805305,28.427238,35.967178,43.196182,10.591507,13.537788,15.414391,14.334183,1.243973,10.831718,20.564232,23.438072,-5.366249,4.202728,13.203049,16.066475,-9.744415,-2.678947,3.636589,6.033096,0.490669,10.735556,23.103978,34.837421,39.260171,62.196929,68.012954,71.29437,44.120546,64.553634,61.973393,56.829213,45.604408,63.195433,60.529112,53.642706,44.596271,59.398215,62.365631,61.008481,-183.004482,340.661169,-184.3507,330.28517
52,0.454076,0.002649,0.870781,-0.962751,11.578244,22.971183,31.480496,38.707448,-5.267768,16.851699,37.233879,54.243201,-11.606733,14.997545,38.435283,56.845197,-10.587917,11.455391,32.315843,51.270669,-5.520792,9.110988,23.297047,38.392853,-7.702983,-2.440824,10.844532,25.821256,27.155711,53.22036,61.383029,63.911876,43.208014,70.245005,75.087306,72.827442,53.108912,77.84914,82.434414,80.071457,58.555755,78.624161,84.987456,84.928178,16.990013,28.093643,35.141373,40.901299,12.009544,13.321381,17.444229,19.493408,3.045502,8.347206,15.198555,18.432999,-3.938255,1.703682,7.476311,10.120354,-9.345131,-5.788879,-1.706657,0.694542,3.348046,13.609791,24.399626,34.486494,39.636478,57.803449,61.3972,59.882524,42.600251,59.746426,61.883237,59.18036,42.954389,58.620222,60.134959,56.35392,41.311149,54.984234,59.070074,58.848204,-182.597613,340.625177,-183.527126,329.283779
53,0.454076,0.002649,0.899849,0.345679,11.395485,22.647076,31.066717,38.236536,-5.543563,16.414755,36.72145,53.677581,-11.818051,14.596938,37.944326,56.293447,-10.746455,11.131906,31.906189,50.789759,-5.633765,8.878173,22.987065,38.010547,-7.699632,-2.415948,10.87671,25.842785,27.144546,53.188654,61.347834,63.870682,43.187584,70.218246,75.068956,72.817931,53.092923,77.832632,82.424614,80.068679,58.5489,78.625498,84.99231,84.937834,17.603645,27.92141,33.930588,39.330139,11.404839,14.751091,18.232498,19.33857,2.296715,9.246368,15.557899,17.915611,-4.816246,2.501106,8.652077,10.928993,-10.003395,-5.219421,-0.198784,2.559357,4.090286,14.088789,24.81817,33.849847,38.199855,55.166954,58.111584,57.27289,41.075077,55.464714,54.502396,52.030033,41.349496,54.181417,53.051384,49.154933,39.992099,52.172306,55.08711,54.420206,-182.210714,340.602478,-182.694454,329.604109
54,0.454076,0.002649,-5.736351,-5.38303,11.212726,22.322968,30.652938,37.765624,-5.819358,15.977811,36.209021,53.111962,-12.029369,14.196331,37.45337,55.741698,-10.904994,10.80842,31.496535,50.308849,-5.746739,8.645358,22.677083,37.628241,-7.696281,-2.391073,10.908887,25.864314,27.133382,53.156948,61.31264,63.829488,43.167154,70.191487,75.050605,72.808421,53.076934,77.816125,82.414814,80.0659,58.542046,78.626835,84.997164,84.947489,18.197136,33.814888,44.161377,49.590683,35.584602,47.055588,45.557327,39.840546,24.128494,35.484581,35.561028,30.554466,12.620773,23.348923,23.35968,19.006691,1.176567,7.603912,8.879471,7.335091,4.522106,18.380689,31.699018,42.638598,55.303731,77.311578,87.313107,92.436847,62.452329,88.722621,101.071345,107.275471,64.377707,89.380202,99.933903,106.353043,61.538608,81.155788,90.51857,97.345634,-181.842583,340.55551,-188.51675,324.171462
55,0.454076,0.002648,5.617447,2.975999,11.029967,21.998861,30.239159,37.294711,-6.095153,15.540867,35.696591,52.546342,-12.240687,13.795724,36.962413,55.189948,-11.063532,10.484935,31.086882,49.827938,-5.859712,8.412542,22.367101,37.245935,-7.692929,-2.366196,10.941066,25.885844,27.122219,53.125243,61.277447,63.788295,43.146725,70.164729,75.032256,72.798911,53.060946,77.799618,82.405014,80.063123,58.535192,78.628173,85.002019,84.957146,9.997787,20.677299,31.259766,39.588432,15.221901,16.750488,14.131622,8.635025,18.32428,26.156502,25.019188,18.819008,21.496468,33.535423,33.715553,30.460625,23.771439,35.924835,38.745804,37.580452,3.682301,16.065852,29.069068,39.083441,50.7744,75.319139,89.981712,101.463707,58.590643,85.501288,99.470404,106.904042,60.3798,82.218327,92.294389,97.242943,58.533154,74.684592,83.179843,88.556822,-181.741157,340.408769,-183.251953,326.998072
56,0.454076,0.002649,3.95153,2.363003,10.847209,21.674754,29.825381,36.823799,-6.370948,15.103923,35.184162,51.980722,-12.452005,13.395117,36.471456,54.638198,-11.222071,10.16145,30.677228,49.347028,-5.972686,8.179727,22.05712,36.863629,-7.689578,-2.341321,10.973244,25.907373,27.111054,53.093538,61.242253,63.747102,43.126295,70.137971,75.013905,72.7894,53.044957,77.78311,82.395214,80.060345,58.528337,78.629511,85.006873,84.966801,0.528717,7.83062,20.123863,30.008698,6.74366,7.691917,4.852524,-0.961075,17.029037,23.762741,21.660118,16.005478,25.7341,37.347908,35.795174,31.522064,32.332649,44.046364,45.48912,43.749504,5.965275,18.199267,30.664514,42.141877,47.015035,69.413021,83.761099,95.35196,53.91941,80.139499,95.740247,105.269015,55.009058,77.339118,89.497404,96.504779,52.873173,68.30565,78.13539,85.062119,-181.471388,340.268435,-179.48473,329.218092
57,0.454076,0.002649,-0.9589,-1.138863,10.66445,21.350646,29.411602,36.352887,-6.646742,14.666978,34.671733,51.415103,-12.663323,12.99451,35.980499,54.086449,-11.380609,9.837964,30.267575,48.866118,-6.085659,7.946912,21.747138,36.481323,-7.686228,-2.316445,11.005422,25.928902,27.09989,53.061832,61.207059,63.705908,43.105865,70.111212,74.995555,72.77989,53.028968,77.766603,82.385414,80.057567,58.521483,78.630848,85.011728,84.976457,12.490883,24.146461,32.897301,41.019859,14.917374,16.979485,15.149345,9.785614,12.603722,23.255882,25.797615,22.219849,11.296349,26.65638,32.153549,31.979599,9.985085,23.754158,30.04097,31.503067,1.588221,12.407757,24.54406,35.982027,44.739223,68.533077,82.468601,94.034145,52.160264,76.78954,92.167306,103.496099,53.923856,74.341259,84.261525,90.637008,52.306119,67.498017,75.774239,81.626882,-181.534356,340.352903,-180.960674,328.161048
58,0.454076,0.002649,1.815834,-1.642499,10.481691,21.026539,28.997823,35.881974,-6.922537,14.230034,34.159304,50.849483,-12.87464,12.593903,35.489542,53.534699,-11.539147,9.514479,29.857921,48.385208,-6.198633,7.714096,21.437156,36.099017,-7.682877,-2.29157,11.037599,25.950431,27.088726,53.030126,61.171865,63.664714,43.085435,70.084453,74.977204,72.770379,53.012979,77.750095,82.375613,80.054789,58.514628,78.632185,85.016582,84.986112,17.824974,29.601517,35.911102,42.019958,23.611107,32.624245,36.081161,35.605202,11.988144,18.9505,20.880547,18.383217,2.536354,12.529449,19.709358,22.1632,-5.503235,4.085999,12.173767,16.199913,3.975306,15.667253,26.612822,36.721859,47.325083,68.161216,80.224036,89.913478,51.480886,74.997296,89.869882,102.208294,50.53876,69.791859,72.048528,71.434544,47.169472,62.764416,67.132393,68.044199,-182.200084,339.56598,-180.264645,325.728977
59,0.454076,0.002648,0.809784,-0.902729,10.298932,20.702432,28.584044,35.411062,-7.198332,13.79309,33.646874,50.283863,-13.085958,12.193296,34.998585,52.982949,-11.697686,9.190994,29.448267,47.904298,-6.311606,7.481281,21.127174,35.716711,-7.679525,-2.266693,11.069778,25.971961,27.077562,52.998421,61.136672,63.623521,43.065006,70.057695,74.958855,72.76087,52.996991,77.733588,82.365814,80.052011,58.507775,78.633523,85.021437,84.995769,17.474098,28.716087,34.189339,40.463104,20.661392,27.820702,32.031555,32.742805,7.834969,10.708008,11.589775,9.084549,-2.90863,3.474884,11.752052,15.628166,-12.340279,-5.98732,2.701035,8.478012,3.292779,14.997508,25.758752,36.827513,48.413805,69.256422,79.300682,86.480464,52.460804,77.268044,92.721825,105.984085,50.598596,70.187556,63.802934,53.638075,46.16152,62.655797,61.388802,54.990286,-182.90169,338.760655,-180.610542,324.018275
60,0.454076,0.002649,-1.896057,-1.009804,10.116173,20.378324,28.170265,34.94015,-7.474127,13.356146,33.134445,49.718244,-13.297276,11.792689,34.507628,52.4312,-11.856224,8.867508,29.038614,47.423387,-6.42458,7.248466,20.817192,35.334405,-7.676174,-2.241817,11.101956,25.99349,27.066398,52.966715,61.101478,63.582328,43.044576,70.030937,74.940504,72.751359,52.981003,77.717081,82.356014,80.049233,58.50092,78.63486,85.026291,85.005424,17.543678,29.250526,36.179466,43.616753,16.65802,20.807419,22.773514,22.448616,5.845642,10.013123,13.214149,13.554955,-3.174362,2.392387,9.951553,13.823318,-11.271973,-6.836243,-0.575867,3.679504,3.213924,14.139239,24.75469,35.434239,46.446746,67.345802,75.150004,80.926385,50.468179,73.407964,80.595773,85.496965,50.469661,70.732812,66.721135,58.440096,47.769995,64.151577,65.780182,62.171426,-182.858056,338.592147,-182.917042,322.837313
61,0.454076,0.002649,-2.880821,1.284594,9.933415,20.054217,27.756487,34.469237,-7.749922,12.919202,32.622016,49.152624,-13.508594,11.392082,34.016671,51.87945,-12.014762,8.544023,28.62896,46.942477,-6.537553,7.01565,20.50721,34.952098,-7.672823,-2.216942,11.134133,26.015019,27.055234,52.935009,61.066284,63.541134,43.024146,70.004178,74.922153,72.741849,52.965014,77.700573,82.346213,80.046455,58.494066,78.636197,85.031145,85.01508,18.017807,30.554924,39.124603,47.341919,14.408455,23.476753,28.435936,30.046463,4.152603,14.303055,21.009178,23.006172,-2.947998,7.803612,14.881554,17.27211,-7.341156,0.973434,6.576691,9.018173,1.396239,11.00133,22.101275,32.646331,39.988579,57.932569,62.414599,65.003362,46.868686,65.902324,69.736408,71.090409,49.724272,66.5562,66.438071,61.834948,49.574095,63.184689,65.450126,63.362036,-182.976986,338.44357,-186.370869,323.970681
62,0.454076,0.002649,1.370888,-0.042361,9.750656,19.73011,27.342708,33.998325,-8.025717,12.482258,32.109586,48.587004,-13.719912,10.991475,33.525715,51.3277,-12.173301,8.220537,28.219306,46.461567,-6.650527,6.782835,20.197228,34.569792,-7.669472,-2.192066,11.166311,26.036548,27.044069,52.903304,61.03109,63.49994,43.003716,69.977419,74.903803,72.732338,52.949025,77.684065,82.336413,80.043677,58.487211,78.637535,85.035999,85.024735,17.864227,30.105286,38.634109,46.231956,9.583168,16.174736,23.073692,26.385155,0.275116,10.237083,19.355164,23.424683,-5.668144,4.115868,11.751137,14.887848,-8.958435,-1.941948,4.062881,7.784729,1.786872,10.511834,21.47667,31.982947,39.080724,57.258193,58.426326,55.886469,44.736444,61.218617,61.399546,58.810475,46.956989,61.801047,61.641731,57.289747,46.372398,59.540859,61.811854,59.547466,-182.6207,338.978739,-185.097771,324.46084
63,0.454076,0.002649,-0.276489,1.283297,9.567897,19.406002,26.928929,33.527413,-8.301512,12.045314,31.597157,48.021385,-13.93123,10.590868,33.034758,50.775951,-12.331839,7.897052,27.809653,45.980657,-6.7635,6.55002,19.887247,34.187486,-7.666121,-2.167191,11.198489,26.058077,27.032905,52.871598,60.995896,63.458746,42.983286,69.95066,74.885452,72.722827,52.933036,77.667558,82.326613,80.040898,58.480357,78.638872,85.040853,85.034391,17.186508,29.685631,38.650932,45.598755,12.325516,19.309845,24.715347,26.952782,3.244286,11.315575,18.784218,21.999092,-3.515053,3.78788,10.100899,13.342323,-8.020935,-3.886757,0.72052,4.28318,2.074629,11.235487,21.792647,30.970425,36.474178,53.336486,56.043624,55.599083,41.112189,56.922703,59.485036,59.225746,42.645946,57.276286,59.598719,58.055144,41.716355,54.924892,58.991465,59.159735,-182.079248,339.428646,-185.286884,326.191395
64,0.454076,0.002648,1.906357,0.70908,9.385138,19.081895,26.51515,33.0565,-8.577307,11.608369,31.084728,47.455765,-14.142547,10.190261,32.543801,50.224201,-12.490377,7.573567,27.399999,45.499746,-6.876474,6.317204,19.577265,33.80518,-7.662769,-2.142314,11.230668,26.079607,27.021742,52.839893,60.960703,63.417554,42.962857,69.923903,74.867103,72.713318,52.917048,77.651051,82.316813,80.038121,58.473503,78.64021,85.045708,85.044047,17.690849,29.040184,36.776161,43.225708,9.653435,14.625664,20.325966,23.161926,0.81459,7.573013,15.263443,18.765221,-5.367851,0.327988,6.972542,10.011978,-9.02607,-5.626259,-0.975151,1.942291,2.620749,11.919497,22.297333,30.806972,35.517355,52.578315,54.641766,52.529779,38.730105,54.535617,55.722213,54.27571,38.96735,53.668642,55.55382,53.406511,37.314045,50.645033,54.687462,54.710556,-181.169583,340.02595,-182.924938,327.495132
65,0.454076,0.002649,-4.675026,-8.446098,9.202379,18.757788,26.101372,32.585588,-8.853102,11.171425,30.572299,46.890145,-14.353865,9.789654,32.052844,49.672452,-12.648916,7.250081,26.990346,45.018836,-6.989447,6.084389,19.267283,33.422874,-7.659418,-2.117439,11.262845,26.101136,27.010578,52.808187,60.925509,63.37636,42.942427,69.897144,74.848752,72.703807,52.901059,77.634543,82.307013,80.035343,58.466649,78.641547,85.050562,85.053703,16.428108,32.247047,41.97155,46.863098,32.500763,45.684814,46.816521,44.933167,19.8769,28.301811,28.87104,25.900955,6.478615,8.22567,8.42514,7.252922,-8.115349,-9.800034,-9.086838,-8.305893,8.606217,21.656981,34.478528,44.403795,61.31044,81.452931,89.863028,93.244357,67.144434,91.744378,103.060388,107.360131,67.272504,89.710813,92.693852,89.534701,62.549895,78.824833,83.773017,83.1339,-180.418819,340.782541,-187.303276,319.802975
66,0.454076,0.002649,-1.058578,8.034964,9.019621,18.43368,25.687593,32.114676,-9.128897,10.734481,30.059869,46.324525,-14.565183,9.389047,31.561887,49.120702,-12.807454,6.926596,26.580692,44.537926,-7.102421,5.851574,18.957301,33.040568,-7.656067,-2.092563,11.295023,26.122665,26.999413,52.776481,60.890314,63.335166,42.921997,69.870385,74.830402,72.694297,52.88507,77.618035,82.297213,80.032565,58.459794,78.642884,85.055416,85.063358,16.739273,29.705544,38.696251,46.66729,30.641212,42.13829,41.298409,34.895096,22.392311,33.195877,32.240067,25.462074,13.196754,22.291145,20.257759,14.730034,4.041138,7.583771,6.077499,2.797165,-0.717169,10.190732,24.611923,36.78083,44.295547,63.836403,70.651919,73.059444,55.282303,81.618051,95.128362,101.928565,61.124695,84.902432,94.80936,98.742552,62.343092,81.185119,91.138792,97.862732,-179.619475,341.732874,-188.016586,328.785623
67,0.454076,0.002649,4.613342,1.400252,8.836862,18.109573,25.273814,31.643763,-9.404692,10.297537,29.54744,45.758906,-14.776501,8.98844,31.07093,48.568952,-12.965993,6.60311,26.171038,44.057016,-7.215394,5.618758,18.647319,32.658262,-7.652716,-2.067688,11.327201,26.144194,26.988249,52.744775,60.85512,63.293972,42.901567,69.843626,74.812051,72.684786,52.869081,77.601528,82.287413,80.029786,58.45294,78.644221,85.06027,85.073014,11.972351,22.305908,30.848351,41.773682,14.788399,20.147438,20.926666,18.083725,13.704643,23.272018,24.518509,20.581284,13.507347,27.995911,31.795578,30.684586,13.452187,27.649727,33.075027,33.948097,0.329006,11.225669,24.134037,35.713474,44.231326,63.810035,75.279495,84.6847,53.869392,77.988486,93.180631,104.146516,57.067693,76.13517,84.022674,87.546708,56.12143,69.574251,77.057783,82.024616,-179.009873,342.409251,-183.247719,330.859603
68,0.454076,0.002648,1.47068,-1.284779,8.654103,17.785466,24.860035,31.172851,-9.680487,9.860593,29.035011,45.193286,-14.987819,8.587833,30.579973,48.017203,-13.124531,6.279625,25.761385,43.576106,-7.328368,5.385943,18.337337,32.275956,-7.649364,-2.042811,11.359379,26.165724,26.977086,52.713071,60.819927,63.252779,42.881138,69.816869,74.793702,72.675276,52.853093,77.585021,82.277613,80.027009,58.446086,78.645559,85.065125,85.08267,15.449638,26.881256,33.846359,40.679741,18.799553,23.608017,22.896538,18.77861,11.0923,21.61068,24.38118,22.084808,5.093193,19.240952,25.617027,26.936302,0.109863,13.375511,20.645027,23.417587,2.928822,14.659424,26.641659,37.361531,46.284033,69.528617,83.85391,96.181948,51.539426,74.011697,88.129632,99.682764,52.118336,70.245972,76.780956,80.444979,49.756259,63.906428,70.142725,73.533996,-178.211674,342.510884,-181.432915,329.67381
69,0.454076,0.002649,-1.404419,0.491842,8.471344,17.461358,24.446256,30.701939,-9.956281,9.423649,28.522581,44.627666,-15.199137,8.187226,30.089016,47.465453,-13.283069,5.95614,25.351731,43.095195,-7.441341,5.153127,18.027356,31.89365,-7.646013,-2.017936,11.391557,26.187253,26.965921,52.681365,60.784733,63.211586,42.860708,69.79011,74.775351,72.665766,52.837104,77.568513,82.267813,80.024231,58.439231,78.646897,85.069979,85.092326,17.011642,28.747559,35.73452,43.135986,17.229195,25.786858,28.182106,26.272888,6.732216,16.439323,20.295753,19.036446,-0.796738,9.863091,17.330818,20.242081,-5.995331,3.75515,11.215782,14.746971,0.764717,11.576288,23.690793,36.323507,40.791766,61.857611,69.655576,75.671178,47.81143,73.507196,89.03125,102.215025,48.916886,68.1543,66.228799,61.625244,47.260678,62.469866,63.86771,61.844952,-177.739401,342.504935,-182.819138,330.157053
70,0.454076,0.002649,-0.353394,-1.808546,8.288585,17.137251,24.032478,30.231026,-10.232076,8.986705,28.010152,44.062047,-15.410454,7.786619,29.59806,46.913703,-13.441608,5.632654,24.942078,42.614285,-7.554315,4.920312,17.717374,31.511344,-7.642662,-1.99306,11.423735,26.208782,26.954757,52.649659,60.749539,63.170392,42.840278,69.763351,74.757001,72.656255,52.821115,77.552006,82.258013,80.021453,58.432377,78.648234,85.074833,85.101981,16.64772,28.218269,35.091019,41.543884,14.3573,13.600044,12.69516,10.847054,3.589783,6.353989,11.194611,13.684044,-5.445671,-0.483513,7.260475,11.850471,-13.603477,-8.903732,-1.77166,3.281708,3.297781,14.206979,24.959825,36.021177,46.272301,69.984212,82.798966,92.963269,49.074164,72.089407,77.893822,79.954495,48.273261,67.880499,64.423587,55.776739,44.847286,61.088324,62.402929,57.429056,-177.301004,342.444135,-183.18821,328.285058
71,0.454076,0.002649,-3.711777,0.569215,8.105827,16.813144,23.618699,29.760114,-10.507871,8.54976,27.497723,43.496427,-15.621772,7.386012,29.107103,46.361954,-13.600146,5.309169,24.532424,42.133375,-7.667288,4.687497,17.407392,31.129038,-7.639311,-1.968185,11.455913,26.230311,26.943593,52.617953,60.714345,63.129198,42.819848,69.736592,74.73865,72.646745,52.805126,77.535498,82.248212,80.018675,58.425522,78.649571,85.079687,85.111637,16.848221,29.095459,37.528496,45.377884,13.516388,18.272095,23.063393,24.976616,3.651924,11.688194,19.288559,22.146835,-4.261894,3.957367,11.386986,14.193535,-10.473175,-4.926224,0.565109,3.345451,3.51366,13.899524,24.580554,35.444736,43.496928,62.284491,67.435031,69.418331,47.746283,65.776662,68.794405,67.732051,48.971226,65.80939,66.147906,60.775867,47.60364,62.07244,65.534909,63.594465,-176.841892,342.342426,-186.894951,328.749915
72,0.454076,0.002648,1.03569,-0.197293,7.923068,16.489036,23.20492,29.289202,-10.783666,8.112816,26.985294,42.930807,-15.83309,6.985405,28.616146,45.810204,-13.758684,4.985683,24.12277,41.652465,-7.780262,4.454681,17.09741,30.746731,-7.635959,-1.943308,11.488091,26.251841,26.932429,52.586248,60.679152,63.088005,42.799419,69.709835,74.7203,72.637235,52.789139,77.518991,82.238413,80.015897,58.418669,78.650909,85.084543,85.121293,17.151718,28.267365,35.527267,41.972694,11.678009,12.874031,16.633759,18.206863,2.192802,7.517395,13.859482,17.143822,-5.252495,0.682526,6.537437,9.826469,-10.919151,-6.783829,-1.772346,2.089119,4.030696,13.743851,24.203197,34.229674,42.023317,60.067343,64.020666,63.237547,45.362717,62.285788,65.230048,63.508261,45.750448,61.296855,63.60206,59.973667,43.901208,57.917996,62.192113,61.018793,-176.373569,342.013752,-185.845013,328.221301
73,0.454076,0.002649,-1.464958,1.371662,7.740309,16.164929,22.791141,28.818289,-11.059461,7.675872,26.472864,42.365188,-16.044408,6.584798,28.125189,45.258455,-13.917223,4.662198,23.713117,41.171554,-7.893235,4.221866,16.787428,30.364425,-7.632608,-1.918433,11.520269,26.27337,26.921265,52.554542,60.643958,63.046812,42.778989,69.683076,74.70195,72.627724,52.77315,77.502484,82.228613,80.013119,58.411814,78.652246,85.089397,85.130949,17.33036,29.22718,36.935234,42.394638,13.732796,14.738274,15.914841,14.864502,3.856888,10.911255,16.909904,18.68248,-4.265099,3.315468,9.071274,11.224251,-10.626869,-5.093422,-0.126228,2.562103,2.57104,12.194533,22.680618,32.23248,40.1135,59.145286,66.64654,70.20497,43.277097,58.298626,57.610417,53.782386,43.242332,56.62698,55.227345,49.3358,41.253968,54.532221,56.490697,53.364212,-175.861242,341.916674,-187.25172,329.493236
74,0.454076,0.002649,2.450752,0.103864,7.55755,15.840822,22.377362,28.347377,-11.335256,7.238928,25.960435,41.799568,-16.255726,6.184191,27.634232,44.706705,-14.075761,4.338713,23.303463,40.690644,-8.006209,3.989051,16.477446,29.982119,-7.629257,-1.893557,11.552447,26.294899,26.910101,52.522837,60.608764,63.005618,42.758559,69.656317,74.683599,72.618214,52.757161,77.485976,82.218812,80.010341,58.40496,78.653583,85.094251,85.140604,17.018738,27.890396,34.424744,39.701385,11.82621,13.27858,15.358543,15.743523,2.402,7.271461,13.041,15.862427,-5.630722,-0.814133,5.24929,8.669014,-12.037354,-10.495262,-6.768608,-3.621254,3.075912,13.018284,23.375557,32.907597,37.357579,55.580249,62.565826,64.972857,40.139188,56.370346,59.620764,58.542972,40.320611,55.564194,57.714282,54.903588,38.72004,53.377797,59.4005,60.702754,-175.246949,341.829214,-184.640751,329.506991
75,0.454076,0.002649,-1.946182,1.430942,7.374792,15.516714,21.963584,27.876465,-11.611051,6.801984,25.448006,41.233948,-16.467044,5.783584,27.143275,44.154955,-14.234299,4.015227,22.89381,40.209734,-8.119182,3.756235,16.167464,29.599813,-7.625906,-1.868682,11.584624,26.316428,26.898937,52.491131,60.57357,62.964424,42.738129,69.629558,74.665249,72.608703,52.741172,77.469468,82.209012,80.007563,58.398105,78.654921,85.099105,85.15026,18.79818,29.709778,36.579437,42.488937,10.334358,15.385895,20.275726,21.683121,1.376953,10.536346,17.234802,18.586006,-5.356064,3.795662,10.634079,12.172508,-9.802895,-3.771744,1.78791,4.136696,2.538621,11.433892,21.86545,30.475619,34.101171,52.073628,53.934662,51.854291,38.448338,53.28758,51.527199,48.338778,39.990802,53.51161,52.031823,47.727264,39.883418,52.935726,55.327505,53.752684,-174.651481,341.821396,-186.445541,330.927467
76,0.454076,0.002648,-4.783058,-1.686589,7.192033,15.192607,21.549805,27.405552,-11.886846,6.36504,24.935577,40.668329,-16.678362,5.382977,26.652318,43.603206,-14.392838,3.691742,22.484156,39.728824,-8.232156,3.52342,15.857483,29.217507,-7.622554,-1.843805,11.616803,26.337959,26.887773,52.459426,60.538377,62.923231,42.7177,69.602801,74.646899,72.599194,52.725184,77.452962,82.199213,80.004785,58.391252,78.656259,85.10396,85.159916,18.069534,33.368568,43.252144,49.42543,37.508926,47.674141,45.933495,38.788261,27.420959,38.78746,37.203941,29.70829,16.412315,27.676163,26.612434,20.888786,4.747009,11.809044,12.50782,9.904976,0.413913,11.215172,24.152068,35.916818,46.636319,69.970689,81.89846,88.502358,56.439938,84.081522,98.513829,105.938575,61.174836,86.212591,97.453636,103.858635,61.38522,80.449116,90.357402,97.668774,-174.065169,341.698799,-191.096363,329.115632
77,0.454075,0.002649,3.304253,-1.789836,7.009275,14.868501,21.136027,26.934641,-12.16264,5.928097,24.423148,40.10271,-16.889678,4.982371,26.161362,43.051457,-14.551375,3.368257,22.074503,39.247915,-8.345128,3.290606,15.547502,28.835202,-7.619203,-1.818929,11.648981,26.359488,26.876609,52.42772,60.503183,62.882038,42.69727,69.576042,74.628549,72.589683,52.709195,77.436454,82.189412,80.002007,58.384397,78.657596,85.108814,85.169572,17.064171,29.054718,37.157478,45.929947,24.35154,26.151581,23.661919,17.693024,19.297142,29.331894,30.478134,25.71888,13.918076,27.915802,29.834175,26.526146,8.056183,20.581398,25.280342,24.815712,2.844039,14.580137,27.541734,38.478781,50.509305,73.797609,87.971489,99.452435,59.992069,83.59672,96.415488,104.551413,62.625168,81.385561,87.541089,89.746196,61.226027,74.104879,78.991004,81.435023,-173.392054,341.685485,-187.573071,327.309834
78,0.454076,0.002649,-2.749786,1.001777,6.826516,14.544393,20.722248,26.463729,-12.438435,5.491152,23.910719,39.53709,-17.100996,4.581764,25.670405,42.499707,-14.709914,3.044772,21.66485,38.767004,-8.458102,3.05779,15.23752,28.452896,-7.615853,-1.794054,11.681158,26.381017,26.865445,52.396014,60.467989,62.840844,42.67684,69.549283,74.610198,72.580172,52.693206,77.419946,82.179612,79.999229,58.377543,78.658933,85.113668,85.179227,18.855515,32.463112,40.635681,48.168869,29.983978,41.02581,43.30719,40.036011,20.904465,35.298386,37.978249,34.223213,12.790947,29.369888,34.310646,33.904724,4.923706,20.02739,26.618042,28.561478,0.872348,12.779433,25.91813,38.111737,43.36435,65.207077,78.918323,89.650421,52.676065,76.209086,91.871769,102.989684,56.891704,76.513947,88.277586,96.381402,57.695139,72.85079,81.062606,87.037391,-172.87412,341.641621,-190.258999,328.265097
79,0.454076,0.002649,2.253914,1.05093,6.643757,14.220286,20.308469,25.992816,-12.71423,5.054208,23.39829,38.971471,-17.312314,4.181157,25.179449,41.947958,-14.868452,2.721287,21.255196,38.286094,-8.571075,2.824975,14.927538,28.07059,-7.612502,-1.769178,11.713336,26.402546,26.85428,52.364309,60.432795,62.79965,42.65641,69.522524,74.591848,72.570662,52.677217,77.403439,82.169812,79.996451,58.370688,78.66027,85.118522,85.188883,16.775093,28.950462,38.258629,47.573433,20.91259,27.846565,28.934326,25.750694,15.214577,28.603935,33.647003,32.195435,10.969276,28.63987,36.763687,39.187546,7.517738,23.279114,31.195107,34.169998,2.044803,13.016431,25.526015,36.373833,44.337166,67.249224,81.570874,93.346678,52.583996,74.509961,87.689784,97.649755,55.584757,73.009241,80.975044,86.292434,55.470827,68.972617,75.531251,80.165002,-172.112369,341.49522,-187.697411,329.166978
80,0.454076,0.002648,1.745453,-0.773177,6.460999,13.896179,19.894691,25.521904,-12.990025,4.617264,22.88586,38.405851,-17.523632,3.78055,24.688492,41.396208,-15.02699,2.397801,20.845543,37.805184,-8.684049,2.59216,14.617556,27.688284,-7.60915,-1.744302,11.745515,26.424076,26.843117,52.332604,60.397601,62.758457,42.635981,69.495766,74.573498,72.561152,52.661229,77.386932,82.160012,79.993673,58.363834,78.661608,85.123377,85.198539,17.639122,29.800987,37.772827,46.181488,22.464409,33.41423,37.75795,37.359695,12.821846,22.978592,26.974869,25.268097,5.900345,18.378983,25.325432,27.260056,0.588226,11.95919,19.031868,21.970711,1.53283,12.293951,25.018488,37.387404,39.895459,59.006841,64.534121,68.118608,48.322167,72.802377,87.135574,99.006412,50.980646,71.025633,75.471292,77.240379,50.771436,66.698781,72.379202,75.198664,-170.704428,341.56425,-184.998093,328.460182
81,0.454076,0.002649,1.359558,1.288978,6.27824,13.572071,19.480912,25.050992,-13.265819,4.18032,22.373431,37.840231,-17.73495,3.379943,24.197535,40.844458,-15.185529,2.074316,20.435889,37.324274,-8.797022,2.359344,14.307574,27.305978,-7.605799,-1.719426,11.777693,26.445605,26.831953,52.300898,60.362407,62.717264,42.615551,69.469008,74.555148,72.551642,52.64524,77.370424,82.150212,79.990895,58.35698,78.662946,85.128231,85.208195,18.30574,30.480995,36.979294,44.742966,25.030289,37.601166,43.581734,45.075073,12.253304,19.867859,21.669388,18.775635,1.797981,12.056694,18.706169,20.541344,-6.88282,2.538414,9.515533,12.709579,0.551802,11.826809,25.068383,37.645768,40.715628,60.475575,68.864615,75.287523,47.921716,72.914639,88.223987,101.410849,48.85106,67.178705,62.197485,54.103797,47.495453,62.297335,61.492913,56.68095,-169.708989,341.557327,-183.097172,329.739589
82,0.454076,0.002649,0.490837,-1.045249,6.095481,13.247964,19.067133,24.580079,-13.541614,3.743376,21.861002,37.274612,-17.946268,2.979336,23.706578,40.292709,-15.344067,1.75083,20.026235,36.843363,-8.909996,2.126529,13.997593,26.923672,-7.602448,-1.694551,11.80987,26.467134,26.820788,52.269192,60.327213,62.67607,42.595121,69.442249,74.536797,72.542131,52.629251,77.353917,82.140412,79.988117,58.350125,78.664283,85.133085,85.21785,16.927528,29.26506,36.428375,44.011002,18.518257,25.230331,28.476334,28.592834,6.688499,11.168861,13.82515,11.923943,-2.634201,3.92601,10.442505,12.660027,-10.080643,-5.684395,-0.365753,1.999283,2.078642,13.621338,25.783267,36.986583,43.676807,65.576591,74.156749,80.809368,49.084044,73.492191,85.494372,95.062598,49.361921,68.852883,64.460885,56.931533,46.955384,63.306214,63.851902,60.212209,-168.966923,341.48498,-182.318344,328.619344
83,0.454076,0.002649,-2.276344,0.212298,5.912722,12.923857,18.653354,24.109167,-13.817409,3.306432,21.348573,36.708992,-18.157585,2.578729,23.215621,39.740959,-15.502605,1.427345,19.616582,36.362453,-9.022969,1.893714,13.687611,26.541365,-7.599097,-1.669675,11.842048,26.488663,26.809624,52.237486,60.292019,62.634876,42.574691,69.41549,74.518447,72.532621,52.613263,77.337409,82.130611,79.985339,58.343271,78.66562,85.137939,85.227505,17.091064,29.541092,37.956276,45.566139,14.68174,18.64357,20.050735,19.086456,4.041367,11.839714,19.081306,21.483307,-4.070091,3.425903,11.282272,14.539719,-9.945145,-6.222839,-1.912651,-0.332451,1.9812,13.283378,25.535401,36.385072,42.383877,63.854743,72.202781,78.031834,47.448955,67.29424,68.447491,66.910894,48.866497,66.225094,65.105868,58.997826,47.349104,62.215825,65.759743,64.25754,-168.40367,341.525359,-184.485512,328.869372
84,0.454076,0.002648,-0.119133,-0.684009,5.729963,12.599749,18.239575,23.638255,-14.093204,2.869488,20.836143,36.143372,-18.368903,2.178122,22.724664,39.18921,-15.661144,1.10386,19.206928,35.881543,-9.135943,1.660898,13.377629,26.159059,-7.595745,-1.644799,11.874227,26.510193,26.798461,52.205781,60.256826,62.593683,42.554262,69.388732,74.500097,72.523111,52.597275,77.320902,82.120812,79.982561,58.336417,78.666958,85.142794,85.237162,17.591171,29.768829,37.833366,44.770775,12.083244,16.315155,21.041794,22.899399,2.054329,10.816154,18.184547,21.2146,-5.33638,3.146667,9.748535,12.563667,-10.2388,-5.715065,-1.402817,1.042671,2.825575,13.442262,25.082338,35.965848,39.924914,58.439108,62.160435,61.504213,44.149692,61.254741,63.424095,61.415293,45.372844,60.699729,62.010752,58.45788,44.092264,57.8878,61.707001,61.228745,-167.968248,341.378339,-184.623299,328.035695
85,0.454076,0.002649,-1.268463,0.704387,5.547205,12.275642,17.825797,23.167342,-14.368999,2.432543,20.323714,35.577753,-18.580221,1.777515,22.233707,38.63746,-15.819682,0.780374,18.797274,35.400633,-9.248916,1.428083,13.067647,25.776753,-7.592394,-1.619923,11.906404,26.531722,26.787297,52.174076,60.221632,62.552489,42.533832,69.361974,74.481746,72.5136,52.581286,77.304395,82.111012,79.979783,58.329563,78.668295,85.147648,85.246817,18.344879,30.713882,39.169579,46.621513,11.021004,15.664787,20.593643,21.976433,1.371346,10.990219,19.411354,22.009735,-5.662537,4.221611,12.112083,14.85569,-10.208015,-2.930832,3.810654,7.536621,2.304217,11.909308,22.701304,32.626633,37.669604,57.439616,60.248457,58.948055,41.252486,57.536873,56.921221,53.592009,41.884069,56.373248,55.461565,50.373269,40.651222,54.214762,56.456117,53.986347,-167.917462,340.989614,-186.295052,328.348708
86,0.454076,0.002649,-0.008926,0.629175,5.364446,11.951535,17.412018,22.69643,-14.644794,1.995599,19.811285,35.012133,-18.791539,1.376908,21.74275,38.08571,-15.97822,0.456889,18.387621,34.919723,-9.36189,1.195268,12.757665,25.394447,-7.589043,-1.595048,11.938582,26.553251,26.776132,52.14237,60.186438,62.511296,42.513402,69.335215,74.463396,72.50409,52.565297,77.287887,82.101211,79.977005,58.322708,78.669632,85.152502,85.256473,19.776535,31.682167,39.570694,46.619339,11.525116,17.511635,21.128082,20.316467,1.125526,11.434135,17.648735,17.625504,-6.365433,4.40506,10.871544,11.62262,-11.113586,-3.432655,2.191086,3.868446,2.385233,11.328978,22.610778,31.736254,33.649529,54.343821,55.447547,53.060771,38.569369,55.545978,52.703359,48.632957,40.775711,55.905797,53.910827,49.097753,41.47874,55.477929,56.510149,53.707483,-167.701824,340.394195,-186.542416,328.379814
87,0.454076,0.002649,-0.400543,0.555939,5.181687,11.627427,16.998239,22.225518,-14.920589,1.558655,19.298855,34.446513,-19.002857,0.976301,21.251794,37.533961,-16.136759,0.133404,17.977967,34.438812,-9.474863,0.962452,12.447683,25.012141,-7.585692,-1.570172,11.97076,26.57478,26.764968,52.110664,60.151244,62.470102,42.492972,69.308456,74.445045,72.494579,52.549308,77.271379,82.091411,79.974227,58.315854,78.670969,85.157357,85.266128,20.470848,32.018166,39.669571,47.759857,10.792694,19.510918,25.579948,26.451187,1.045647,11.795082,19.325867,20.847702,-5.59124,5.065727,12.112312,13.616982,-9.097595,-1.592102,4.487457,7.271805,2.019362,10.257299,21.116603,30.601158,30.710147,49.015995,48.4729,44.832405,36.123003,53.036873,51.288842,48.194035,39.419981,55.011528,54.112874,50.665102,41.098604,54.674062,55.863745,53.344946,-167.31687,340.086317,-187.012081,328.625226
88,0.454076,0.002648,2.00695,-0.068605,4.998928,11.30332,16.58446,21.754605,-15.196384,1.121711,18.786426,33.880894,-19.214175,0.575694,20.760837,36.982211,-16.295297,-0.190082,17.568314,33.957902,-9.587837,0.729637,12.137701,24.629835,-7.58234,-1.545296,12.002939,26.59631,26.753805,52.078959,60.116051,62.428909,42.472543,69.281698,74.426696,72.48507,52.53332,77.254873,82.081612,79.97145,58.309,78.672308,85.162212,85.275785,19.689217,30.773735,38.898811,46.187096,10.090256,17.545166,24.095535,27.297478,0.785866,9.210892,17.568855,21.668129,-5.897026,0.839767,8.021736,11.800232,-9.598045,-6.185074,-0.485573,4.261894,1.867641,10.122992,20.728749,30.106722,32.070076,47.965374,48.944673,46.499419,36.93076,53.030019,55.245315,54.25033,39.1857,54.699626,57.610664,56.113896,39.65383,53.922621,58.938607,59.292005,-166.907941,339.91313,-185.050278,328.380787
89,0.454076,0.002649,-1.5905,-4.905761,4.816169,10.979213,16.170681,21.283693,-15.472179,0.684767,18.273997,33.315274,-19.425492,0.175087,20.26988,36.430461,-16.453836,-0.513567,17.15866,33.476992,-9.70081,0.496821,11.82772,24.247529,-7.578989,-1.52042,12.035116,26.617839,26.74264,52.047253,60.080857,62.387715,42.452113,69.25494,74.408345,72.475559,52.517331,77.238365,82.071811,79.968671,58.302146,78.673645,85.167066,85.28544,19.445229,35.51754,44.910278,50.773087,40.426712,52.029648,50.812912,44.318733,27.052689,36.203156,35.246658,28.741951,12.30732,17.770042,16.695099,12.673416,-3.6026,-2.865143,-2.401543,-3.282509,5.492143,18.154436,30.590722,40.026123,55.320897,76.566929,87.723068,92.897135,62.158706,89.20236,103.034823,108.843437,63.933474,87.73974,97.155566,100.530906,60.705533,79.059299,87.575978,91.520224,-166.443222,339.800584,-186.630135,323.35983
90,0.454076,0.002649,6.444511,3.385219,4.633411,10.655105,15.756903,20.812781,-15.747974,0.247823,17.761568,32.749654,-19.63681,-0.225519,19.778923,35.878712,-16.612374,-0.837053,16.749006,32.996082,-9.813784,0.264006,11.517738,23.865223,-7.575638,-1.495545,12.067294,26.639368,26.731476,52.015547,60.045663,62.346522,42.431683,69.228181,74.389995,72.466048,52.501342,77.221857,82.062011,79.965893,58.295291,78.674982,85.17192,85.295096,5.844612,14.175797,25.08316,35.848503,10.170593,14.187584,13.334656,9.040833,18.277473,25.808601,24.070244,17.487717,25.533943,37.312202,35.111389,28.929863,31.330605,42.867165,43.248253,39.051476,9.35247,25.850513,40.455103,49.339073,55.058643,77.700235,89.218539,95.926733,61.359038,87.525096,100.77834,105.921161,61.496,82.137002,87.177626,85.359385,57.683221,72.211302,78.440066,80.105166,-166.03023,339.214597,-180.226707,326.156414
91,0.454076,0.002649,1.152992,1.463176,4.450652,10.330998,15.343124,20.341868,-16.023769,-0.189122,17.249138,32.184034,-19.848128,-0.626126,19.287966,35.326962,-16.770912,-1.160538,16.339353,32.515171,-9.926757,0.031191,11.207756,23.482917,-7.572287,-1.470669,12.099472,26.660897,26.720312,51.983842,60.010469,62.305328,42.411253,69.201422,74.371644,72.456538,52.485353,77.20535,82.052211,79.963115,58.288437,78.676319,85.176774,85.304751,6.983871,16.971931,28.731651,39.779663,12.0298,13.413963,10.503387,4.20433,17.352104,24.246368,23.519325,17.627678,22.573357,35.240021,37.745132,35.7407,26.392822,39.472046,43.82618,44.157143,2.852375,14.604219,26.342355,36.623552,49.736005,70.833404,83.745168,93.86075,57.427574,81.299049,95.599641,104.497011,58.896617,78.821869,88.87249,94.621021,55.875169,69.453158,77.714561,83.734361,-165.188657,339.374571,-178.686218,327.776914
92,0.454076,0.002648,1.285858,2.007938,4.267893,10.006891,14.929345,19.870956,-16.299564,-0.626066,16.736709,31.618415,-20.059446,-1.026733,18.797009,34.775212,-16.929451,-1.484023,15.929699,32.034261,-10.039731,-0.201625,10.897774,23.100611,-7.568935,-1.445793,12.13165,26.682427,26.709148,51.952137,59.975276,62.264135,42.390824,69.174664,74.353295,72.447028,52.469365,77.188843,82.042411,79.960338,58.281583,78.677657,85.181629,85.314408,6.108055,14.959488,26.330795,37.743416,8.896179,10.817299,7.598648,1.184692,13.907776,21.420822,20.599022,15.579071,19.425659,33.165779,35.769997,33.998909,24.182625,38.815269,44.120064,45.307961,3.32316,14.869746,25.376517,34.441725,50.494979,70.615919,84.071272,95.781929,56.591597,78.145455,92.319583,101.98272,56.525339,73.473295,81.74112,86.408401,52.538733,64.890606,73.224874,79.510942,-164.045075,339.548345,-176.710854,329.955978
93,0.454076,0.002649,-1.280022,-0.701546,4.085134,9.682783,14.515566,19.400044,-16.575358,-1.06301,16.22428,31.052795,-20.270764,-1.42734,18.306052,34.223463,-17.087989,-1.807509,15.520046,31.553351,-10.152704,-0.43444,10.587792,22.718305,-7.565584,-1.420917,12.163828,26.703956,26.697984,51.920431,59.940082,62.222941,42.370394,69.147906,74.334944,72.437518,52.453376,77.172335,82.032611,79.957559,58.274728,78.678994,85.186483,85.324063,11.008987,22.189751,31.70105,41.799889,15.382919,17.175865,14.716415,9.401779,13.075447,20.594444,22.171097,19.43367,11.957588,24.593468,29.703484,30.050697,11.192093,24.446411,31.511307,34.018021,3.046086,14.670601,25.965801,36.168698,47.375657,70.928623,85.125722,97.913985,52.69033,75.264057,89.232556,100.311445,52.587454,69.039245,71.335187,70.873109,49.768053,62.471039,67.879881,71.026868,-163.236289,339.924244,-177.636166,329.627682
94,0.454076,0.002649,0.777054,-1.27916,3.902375,9.358676,14.101787,18.929131,-16.851153,-1.499954,15.71185,30.487175,-20.482082,-1.827947,17.815095,33.671713,-17.246527,-2.130994,15.110392,31.072441,-10.265678,-0.667255,10.27781,22.335998,-7.562233,-1.396041,12.196006,26.725485,26.68682,51.888725,59.904887,62.181748,42.349964,69.121147,74.316594,72.428007,52.437387,77.155828,82.022811,79.954781,58.267874,78.680332,85.191337,85.333719,15.339546,26.456566,33.874283,41.07811,18.978195,20.673752,19.467201,15.831757,11.880341,16.973763,18.031883,15.574722,6.889687,15.919189,20.824471,21.924591,3.24646,13.519707,20.061264,22.802124,3.693601,15.293169,26.745091,37.342265,46.644038,68.157264,80.132769,90.105584,51.760122,74.47711,89.224282,101.766161,50.858072,67.710932,66.191996,62.562986,47.110377,60.221966,62.397556,61.801047,-162.710401,340.29102,-176.7873,328.712649
95,0.454076,0.002649,-1.170044,0.114979,3.719617,9.034569,13.688009,18.458219,-17.126948,-1.936898,15.199421,29.921556,-20.6934,-2.228554,17.324139,33.119964,-17.405066,-2.45448,14.700738,30.591531,-10.378651,-0.900071,9.967829,21.953692,-7.558882,-1.371166,12.228184,26.747014,26.675655,51.857019,59.869693,62.140554,42.329534,69.094388,74.298243,72.418496,52.421399,77.13932,82.01301,79.952003,58.261019,78.681669,85.196191,85.343374,10.129623,20.686684,30.595665,41.51516,12.937431,19.243927,21.422539,20.670204,11.918678,19.045258,21.98307,21.478157,13.138275,24.494133,31.018639,34.563103,15.242958,27.823677,34.747124,39.055023,2.158239,12.75146,23.994049,34.720528,44.356618,61.424123,66.789863,70.501063,50.187339,72.126766,87.46069,100.961924,50.427856,67.362104,72.502147,76.022538,47.72078,60.63946,66.854269,71.630169,-162.265709,340.285302,-177.966728,328.819261
96,0.454076,0.002648,-0.163307,1.376108,3.536858,8.710461,13.27423,17.987307,-17.402743,-2.373842,14.686992,29.355936,-20.904717,-2.629161,16.833182,32.568214,-17.563604,-2.777965,14.291085,30.11062,-10.491625,-1.132886,9.657847,21.571386,-7.55553,-1.346289,12.260362,26.768544,26.664492,51.825315,59.8345,62.099361,42.309105,69.06763,74.279894,72.408987,52.405411,77.122813,82.003211,79.949226,58.254166,78.683007,85.201046,85.353031,16.76651,28.628311,35.638733,43.415909,24.99115,32.855186,36.31073,36.520042,13.664589,19.160728,20.821495,18.853912,4.273338,11.857681,17.540932,19.889832,-3.712807,3.39901,9.700813,13.38192,1.235564,12.143033,23.466268,34.238133,43.212321,62.175131,71.494874,78.357259,48.775292,71.340807,86.050311,98.92768,48.019961,64.667563,61.265486,55.544125,44.816905,57.718604,58.045202,55.50479,-161.518607,340.063857,-177.837009,329.971277
97,0.454076,0.002649,-0.591316,0.146966,3.354099,8.386354,12.860451,17.516394,-17.678538,-2.810786,14.174563,28.790316,-21.116035,-3.029768,16.342225,32.016464,-17.722142,-3.10145,13.881431,29.62971,-10.604598,-1.365701,9.347865,21.18908,-7.552179,-1.321414,12.29254,26.790073,26.653328,51.793609,59.799306,62.058167,42.288675,69.040872,74.261543,72.399476,52.389422,77.106306,81.993411,79.946447,58.247311,78.684344,85.2059,85.362686,17.686615,29.527016,35.55233,41.521454,25.743828,32.146683,33.948898,32.525826,14.074516,20.711861,23.294907,21.851921,3.648834,11.198044,16.479836,18.642426,-5.515823,1.763992,8.558464,12.819901,1.739386,12.958386,24.976683,35.709955,41.978918,61.345082,71.294803,79.382131,47.976427,70.649387,86.023079,99.108485,47.914738,65.744058,65.362749,61.657972,45.206612,59.427547,61.993029,61.139206,-160.318377,339.79976,-177.682171,329.851496
98,0.454076,0.002649,-0.128632,0.05539,3.17134,8.062247,12.446672,17.045482,-17.954333,-3.247731,13.662133,28.224697,-21.327353,-3.430375,15.851268,31.464715,-17.880681,-3.424936,13.471778,29.1488,-10.717572,-1.598517,9.037883,20.806774,-7.548829,-1.296538,12.324718,26.811602,26.642164,51.761903,59.764112,62.016974,42.268245,69.014113,74.243192,72.389966,52.373433,77.089798,81.98361,79.943669,58.240457,78.685681,85.210754,85.372342,17.922592,29.530907,35.016174,41.852188,25.778618,31.736298,33.710289,32.959328,13.435822,18.231125,19.621582,17.483826,2.350388,8.052979,13.203621,15.195236,-7.247887,-0.848923,6.403656,11.084633,0.883031,12.493467,25.242086,36.514254,42.060367,61.794564,71.379277,79.013542,47.926903,72.199199,88.071587,101.611723,47.51404,65.963581,61.715091,54.277439,44.698715,59.627248,59.659728,55.726598,-159.229897,339.644899,-177.176399,329.749377
99,0.454076,0.002649,-0.985909,0.347717,2.988581,7.738139,12.032894,16.57457,-18.230128,-3.684675,13.149704,27.659077,-21.538671,-3.830982,15.360311,30.912965,-18.039219,-3.748421,13.062124,28.66789,-10.830545,-1.831332,8.727901,20.424468,-7.545478,-1.271663,12.356895,26.833131,26.630999,51.730197,59.728918,61.97578,42.247815,68.987354,74.224842,72.380455,52.357444,77.07329,81.97381,79.940891,58.233602,78.687018,85.215608,85.381997,18.048592,30.156212,35.56778,42.076607,29.838867,41.704559,47.166023,48.932762,16.311035,20.981827,21.218605,17.913437,3.768311,10.098724,15.863914,17.80117,-7.785873,-1.618767,6.08963,11.489525,1.314666,12.876134,25.078139,36.060759,42.651504,60.949818,71.671171,80.00439,48.395156,72.178389,87.847371,101.475564,47.706578,64.804587,59.110644,50.69468,44.950471,58.687406,56.836438,51.47891,-158.694225,339.428658,-178.080711,329.878204
100,0.454076,0.002648,0.516357,-0.429227,2.805823,7.414032,11.619115,16.103657,-18.505923,-4.121619,12.637275,27.093457,-21.749989,-4.231589,14.869354,30.361215,-18.197758,-4.071907,12.65247,28.186979,-10.943519,-2.064147,8.417919,20.042162,-7.542126,-1.246786,12.389074,26.854661,26.619836,51.698492,59.693725,61.934587,42.227386,68.960596,74.206492,72.370945,52.341456,77.056784,81.964011,79.938114,58.226749,78.688357,85.220463,85.391654,17.939873,29.878807,35.443954,42.448769,28.15052,34.336967,36.321373,35.464668,15.24971,19.206505,20.303192,17.929802,3.018036,8.850746,14.696732,16.514626,-8.32386,-2.30072,5.565262,10.739136,1.614156,13.214465,25.429005,35.903666,43.105925,63.014813,73.692386,82.022578,49.143077,72.960273,87.817978,100.21956,49.124552,66.807956,61.373117,52.693479,46.734503,61.264004,59.454285,53.665245,-158.081877,339.295579,-177.406082,329.313249
101,0.454076,0.002649,-0.774536,-0.98282,2.623064,7.089925,11.205336,15.632745,-18.781718,-4.558563,12.124846,26.527838,-21.961307,-4.632196,14.378397,29.809466,-18.356296,-4.395392,12.242817,27.706069,-11.056492,-2.296963,8.107937,19.659856,-7.538775,-1.221911,12.421252,26.87619,26.608672,51.666786,59.658531,61.893393,42.206956,68.933838,74.188142,72.361435,52.325467,77.040276,81.954211,79.935336,58.219894,78.689694,85.225317,85.401309,17.949142,30.319061,36.207733,42.63073,27.586784,36.868401,41.310539,42.454262,14.48307,18.574448,19.683838,17.337799,2.575035,8.975258,15.165138,17.216721,-8.416901,-2.419853,5.395317,10.631676,2.40345,14.412052,26.407811,37.081122,43.666186,62.317837,71.466098,78.051471,49.212855,72.632811,86.971689,99.075449,48.929297,66.80104,61.662665,53.266152,46.376103,61.22436,60.089388,54.994423,-157.475881,339.270085,-178.028698,328.302287
102,0.454076,0.002649,-0.790558,0.659494,2.440305,6.765817,10.791557,15.161833,-19.057513,-4.995507,11.612416,25.962218,-22.172624,-5.032803,13.88744,29.257716,-18.514834,-4.718877,11.833163,27.225159,-11.169466,-2.529778,7.797956,19.27755,-7.535424,-1.197035,12.45343,26.897719,26.597507,51.635081,59.623337,61.8522,42.186526,68.907079,74.169791,72.351924,52.309478,77.023768,81.94441,79.932557,58.21304,78.691031,85.230172,85.410965,17.579727,29.90387,35.414658,42.624893,29.243774,41.865234,48.041382,50.43972,15.410271,19.64653,19.184303,15.27935,2.837677,9.378662,15.547142,17.651711,-8.930168,-3.678932,3.009567,7.771225,0.281952,12.270239,25.133838,36.05798,43.014781,62.214466,73.202149,82.015786,48.847478,73.411051,89.488821,103.384578,48.239175,65.592646,58.448123,48.339581,45.729762,60.42531,59.008138,53.515501,-156.857353,339.091543,-178.654804,328.78059
103,0.454076,0.002649,-0.284271,-0.519444,2.257546,6.44171,10.377778,14.69092,-19.333308,-5.432451,11.099987,25.396598,-22.383942,-5.43341,13.396484,28.705967,-18.673373,-5.042363,11.42351,26.744249,-11.282439,-2.762593,7.487974,18.895244,-7.532073,-1.17216,12.485607,26.919248,26.586343,51.603375,59.588143,61.811006,42.166096,68.88032,74.151441,72.342414,52.293489,77.007261,81.93461,79.929779,58.206185,78.692368,85.235026,85.42062,18.326569,30.684471,36.256714,43.068581,28.608055,39.20929,44.290695,46.003761,15.274315,19.167595,19.115067,15.871811,3.233986,9.697838,15.748558,17.75631,-7.947006,-2.431297,4.410324,9.16523,1.089401,12.856251,25.293339,36.339129,43.899047,62.572989,71.766885,78.593516,49.905942,74.116673,89.804056,103.398348,49.510492,67.03316,60.894551,51.660889,47.003426,61.289322,59.782797,54.375005,-156.325171,339.041303,-178.86097,328.208256
104,0.454076,0.002648,-0.377655,0.019143,2.074787,6.117603,9.964,14.220008,-19.609102,-5.869395,10.587558,24.830979,-22.59526,-5.834017,12.905527,28.154217,-18.831911,-5.365848,11.013856,26.263339,-11.395413,-2.995409,7.177992,18.512937,-7.528721,-1.147283,12.517786,26.940778,26.57518,51.57167,59.55295,61.769813,42.145667,68.853562,74.133091,72.332904,52.277501,76.990754,81.924811,79.927002,58.199331,78.693706,85.239881,85.430277,18.025475,30.560417,35.927925,43.211288,31.164436,43.492012,49.312935,51.601524,17.190514,20.850563,19.961243,16.077118,4.518127,10.034981,15.307045,17.182045,-7.363358,-3.670921,2.287903,6.939812,0.748847,12.564418,25.433574,36.501965,43.421902,61.922696,72.357713,80.529824,49.825605,74.398749,90.735191,104.913085,49.533587,67.179755,60.797171,51.272911,47.156814,61.689711,60.546402,55.329048,-155.838995,339.028961,-179.206524,328.212409
105,0.454076,0.002649,0.481339,-1.163687,1.892029,5.793495,9.550221,13.749096,-19.884897,-6.30634,10.075128,24.265359,-22.806578,-6.234624,12.41457,27.602467,-18.990449,-5.689334,10.604202,25.782428,-11.508386,-3.228224,6.86801,18.130631,-7.52537,-1.122408,12.549964,26.962307,26.564015,51.539964,59.517756,61.728619,42.125237,68.826804,74.114741,72.323394,52.261512,76.974246,81.91501,79.924224,58.192477,78.695043,85.244735,85.439932,18.601685,30.297661,35.909958,43.267136,25.593796,34.134407,37.284508,37.42836,13.379402,18.232841,19.312019,16.682968,2.945137,10.743027,16.648293,18.130875,-6.089973,0.542107,7.306938,11.262016,1.512453,13.542545,26.896318,38.197385,43.450616,62.125113,66.001866,67.615528,50.61885,74.670512,89.548224,102.663888,51.553566,69.260312,65.900225,59.141148,50.005607,64.561908,65.547692,62.852904,-155.382802,339.134517,-178.723068,327.15163
106,0.454076,0.002649,2.213402,1.523197,1.70927,5.469388,9.136442,13.278183,-20.160692,-6.743284,9.562699,23.699739,-23.017896,-6.635231,11.923613,27.050718,-19.148988,-6.012819,10.194549,25.301518,-11.62136,-3.461039,6.558028,17.748325,-7.522019,-1.097532,12.582141,26.983836,26.552851,51.508258,59.482562,61.687425,42.104807,68.800045,74.09639,72.313883,52.245524,76.957739,81.90521,79.921445,58.185622,78.69638,85.249589,85.449588,17.005692,28.667908,34.196892,41.249886,24.896736,32.198067,34.401512,33.161201,12.357559,16.215134,16.186981,12.257538,1.350861,7.641449,13.639755,15.605965,-8.486938,-4.17572,1.210098,4.247932,0.589469,12.464197,25.324276,36.256878,44.341798,64.974339,74.705093,82.550853,50.103914,74.84082,90.698696,104.296631,49.549827,67.41064,62.345254,54.4341,46.591674,61.726515,62.119185,59.015363,-154.975875,339.210742,-176.556816,328.748403
107,0.454076,0.002649,-0.65712,-2.762034,1.526511,5.145281,8.722663,12.807271,-20.436487,-7.180228,9.05027,23.13412,-23.229214,-7.035838,11.432656,26.498968,-19.307526,-6.336304,9.784895,24.820608,-11.734333,-3.693855,6.248046,17.366019,-7.518668,-1.072657,12.614319,27.005365,26.541687,51.476552,59.447368,61.646232,42.084377,68.773286,74.07804,72.304372,52.229535,76.941231,81.89541,79.918667,58.178768,78.697718,85.254443,85.459243,16.750145,28.211861,34.153519,41.190033,20.241737,27.850914,31.953278,33.293037,7.994156,10.577202,11.139221,8.64315,-1.702652,5.118942,12.038956,15.111465,-9.814682,-3.976135,3.149071,7.541084,2.186582,14.074339,26.481479,38.404125,45.282133,64.848677,66.976535,66.876067,50.516098,75.906879,90.473987,103.520737,49.670673,69.085867,64.107549,56.006389,46.526651,62.277884,62.416081,58.709513,-154.736662,339.078358,-177.428799,325.851336
108,0.454076,0.002648,-0.363464,-1.69721,1.343752,4.821173,8.308884,12.336359,-20.712282,-7.617172,8.537841,22.5685,-23.440531,-7.436445,10.941699,25.947218,-19.466065,-6.65979,9.375241,24.339698,-11.847307,-3.92667,5.938065,16.983713,-7.515316,-1.04778,12.646498,27.026895,26.530524,51.444848,59.412174,61.605039,42.063948,68.746528,74.05969,72.294863,52.213547,76.924724,81.88561,79.91589,58.171914,78.699056,85.259298,85.4689,15.948944,27.754784,34.307899,41.518822,16.104126,17.918129,18.021355,16.752777,4.71508,8.007774,10.373611,10.166473,-4.853096,0.326385,7.047958,10.937347,-13.052559,-9.896393,-5.401955,-2.443199,3.290124,15.055306,26.721626,37.864673,47.488537,69.548254,80.110662,88.327234,50.276568,72.695426,81.788421,87.602098,49.152155,67.042546,63.673505,56.221095,45.220568,60.481812,62.482587,60.149471,-154.740407,338.894782,-178.250084,323.967902
109,0.454076,0.002649,-2.392159,-0.053291,1.160993,4.497066,7.895106,11.865446,-20.988077,-8.054116,8.025411,22.00288,-23.651849,-7.837052,10.450742,25.395469,-19.624603,-6.983275,8.965588,23.858787,-11.96028,-4.159486,5.628083,16.601407,-7.511965,-1.022905,12.678676,27.048424,26.519359,51.413142,59.37698,61.563845,42.043518,68.71977,74.041339,72.285352,52.197558,76.908217,81.87581,79.913112,58.16506,78.700393,85.264152,85.478555,17.71637,29.913254,38.045311,45.657005,11.156387,14.881096,21.007233,23.896408,1.150131,8.889084,17.988853,22.125893,-6.656914,0.294685,7.65667,10.955772,-12.474976,-9.891357,-5.872879,-3.427734,4.130547,14.508877,25.51527,36.17475,43.749549,63.92273,66.274741,63.76224,47.935178,66.399786,66.929049,62.924967,49.167345,66.066395,66.951526,61.433509,47.678111,62.61325,67.631212,66.451471,-154.700722,338.58695,-181.056633,323.60413
110,0.454075,0.002649,-0.839882,0.447876,0.978236,4.17296,7.481328,11.394535,-21.263871,-8.491059,7.512983,21.437262,-23.863166,-8.237658,9.959786,24.84372,-19.78314,-7.306759,8.555935,23.377878,-12.073253,-4.3923,5.318102,16.219102,-7.508614,-0.998029,12.710853,27.069953,26.508195,51.381436,59.341786,61.522651,42.023088,68.693011,74.022989,72.275842,52.181569,76.891709,81.86601,79.910333,58.158205,78.70173,85.269006,85.488211,18.347511,30.545654,38.946533,45.733223,7.784042,13.555527,20.08152,23.325462,-1.195335,8.653564,17.590141,21.840706,-7.201538,3.095284,10.93483,14.424248,-10.470314,-2.648849,3.815575,7.74456,2.535719,12.806541,23.906796,34.304947,40.66876,58.844746,59.908027,56.912576,45.229522,62.24423,63.331037,60.975259,46.559131,62.18285,62.718164,58.487088,45.519007,59.100331,61.403251,58.881858,-154.397194,338.319781,-182.047062,323.782187
111,0.454076,0.002649,2.120247,2.286618,0.795477,3.848852,7.067549,10.923623,-21.539666,-8.928003,7.000554,20.871642,-24.074484,-8.638265,9.468829,24.29197,-19.941679,-7.630245,8.146282,22.896968,-12.186226,-4.625115,5.00812,15.836796,-7.505263,-0.973153,12.743031,27.091482,26.497031,51.34973,59.306592,61.481458,42.002658,68.666252,74.004638,72.266331,52.16558,76.875201,81.856209,79.907555,58.151351,78.703067,85.27386,85.497866,17.601471,29.240913,37.898026,45.094185,10.303917,13.075218,17.364807,19.529457,1.365738,8.110313,14.377899,17.308617,-5.354919,2.006264,8.004913,10.949478,-9.815712,-4.425659,1.162605,5.020409,3.458147,13.218849,23.249524,31.530131,40.844748,58.43954,60.30008,57.875635,44.203106,59.610328,60.242343,57.774488,44.298202,58.182782,58.479431,54.81053,42.293042,55.171461,58.142274,56.519288,-154.305323,338.348535,-180.289021,326.09491
112,0.454076,0.002648,0.559959,1.362276,0.612718,3.524745,6.65377,10.45271,-21.815461,-9.364948,6.488124,20.306022,-24.285802,-9.038872,8.977873,23.740221,-20.100217,-7.95373,7.736628,22.416058,-12.2992,-4.857931,4.698138,15.45449,-7.501911,-0.948277,12.77521,27.113012,26.485867,51.318025,59.271399,61.440265,41.982229,68.639494,73.986289,72.256821,52.149592,76.858695,81.84641,79.904778,58.144497,78.704405,85.278715,85.507523,17.848549,29.7155,37.929039,44.757957,10.637856,13.678207,16.73996,17.104225,1.582146,8.748207,15.518646,17.794075,-5.065613,2.35714,8.688011,10.983353,-9.498825,-4.233971,0.995293,3.634872,2.550539,12.734232,23.184007,31.754964,37.61372,55.571728,59.422607,59.546355,40.945957,55.839045,56.202076,53.652339,41.283794,54.783298,54.460776,50.340356,39.691436,52.450862,54.565258,52.354222,-154.493547,338.366157,-180.371361,327.47216
113,0.454076,0.002649,2.099648,1.213457,0.429959,3.200638,6.239991,9.981798,-22.091256,-9.801892,5.975695,19.740403,-24.49712,-9.439479,8.486916,23.188471,-20.258755,-8.277216,7.326974,21.935148,-12.412173,-5.090746,4.388156,15.072184,-7.49856,-0.923401,12.807387,27.134541,26.474703,51.286319,59.236205,61.399071,41.961799,68.612735,73.967938,72.247311,52.133603,76.842187,81.83661,79.902,58.137643,78.705743,85.283569,85.517178,17.958298,28.474617,35.679016,42.27253,9.277267,14.1362,19.132805,21.245613,0.866776,7.372284,14.535141,17.505913,-5.522804,-0.0737,6.582298,9.480057,-9.694862,-6.404228,-1.199226,2.507515,3.088447,12.761711,22.950282,31.025198,35.182544,51.134466,51.766482,48.953874,38.422465,53.314935,53.665801,51.846387,39.15254,53.230214,53.965908,50.874991,38.270682,51.171764,54.709754,53.978382,-154.71862,338.272136,-178.950863,328.588948
114,0.454076,0.002649,-3.280334,-1.857823,0.2472,2.87653,5.826213,9.510886,-22.367051,-10.238836,5.463266,19.174783,-24.708437,-9.840086,7.995959,22.636722,-20.417294,-8.600701,6.917321,21.454237,-12.525147,-5.323561,4.078174,14.689878,-7.495209,-0.898526,12.839565,27.15607,26.463539,51.254614,59.201011,61.357877,41.941369,68.585977,73.949588,72.2378,52.117614,76.825679,81.826809,79.899221,58.130788,78.70708,85.288423,85.526834,19.098358,33.751602,41.83136,45.969772,39.951782,50.746307,47.478104,39.641533,26.558762,35.408478,33.868103,26.882744,11.739464,18.209724,16.957855,12.105446,-3.605347,-1.657219,-1.219711,-2.704811,4.835922,17.561447,29.680212,39.191134,54.883704,75.828147,84.193229,85.219459,60.744745,87.05252,99.803239,104.490527,60.932281,84.920155,92.089624,92.904606,56.083144,74.101729,81.801512,85.255089,-154.019927,338.528286,-181.98658,326.984626
