YashyHoby/handMotion-similar-search/project/data/handData/tgt/d4_feature_d2/9.csv
,vel_0x_L,vel_0y_L,vel_0x_R,vel_0y_R,posFromWrist_1x_L,posFromWrist_2x_L,posFromWrist_3x_L,posFromWrist_4x_L,posFromWrist_5x_L,posFromWrist_6x_L,posFromWrist_7x_L,posFromWrist_8x_L,posFromWrist_9x_L,posFromWrist_10x_L,posFromWrist_11x_L,posFromWrist_12x_L,posFromWrist_13x_L,posFromWrist_14x_L,posFromWrist_15x_L,posFromWrist_16x_L,posFromWrist_17x_L,posFromWrist_18x_L,posFromWrist_19x_L,posFromWrist_20x_L,posFromWrist_1y_L,posFromWrist_2y_L,posFromWrist_3y_L,posFromWrist_4y_L,posFromWrist_5y_L,posFromWrist_6y_L,posFromWrist_7y_L,posFromWrist_8y_L,posFromWrist_9y_L,posFromWrist_10y_L,posFromWrist_11y_L,posFromWrist_12y_L,posFromWrist_13y_L,posFromWrist_14y_L,posFromWrist_15y_L,posFromWrist_16y_L,posFromWrist_17y_L,posFromWrist_18y_L,posFromWrist_19y_L,posFromWrist_20y_L,posFromWrist_1x_R,posFromWrist_2x_R,posFromWrist_3x_R,posFromWrist_4x_R,posFromWrist_5x_R,posFromWrist_6x_R,posFromWrist_7x_R,posFromWrist_8x_R,posFromWrist_9x_R,posFromWrist_10x_R,posFromWrist_11x_R,posFromWrist_12x_R,posFromWrist_13x_R,posFromWrist_14x_R,posFromWrist_15x_R,posFromWrist_16x_R,posFromWrist_17x_R,posFromWrist_18x_R,posFromWrist_19x_R,posFromWrist_20x_R,posFromWrist_1y_R,posFromWrist_2y_R,posFromWrist_3y_R,posFromWrist_4y_R,posFromWrist_5y_R,posFromWrist_6y_R,posFromWrist_7y_R,posFromWrist_8y_R,posFromWrist_9y_R,posFromWrist_10y_R,posFromWrist_11y_R,posFromWrist_12y_R,posFromWrist_13y_R,posFromWrist_14y_R,posFromWrist_15y_R,posFromWrist_16y_R,posFromWrist_17y_R,posFromWrist_18y_R,posFromWrist_19y_R,posFromWrist_20y_R,posFromBody_0x_L,posFromBody_0y_L,posFromBody_0x_R,posFromBody_0y_R
36,-0.142822,-15.099149,-3.953705,-11.352257,-32.217751,-60.885887,-78.00602,-82.20829,-55.50293,-82.126923,-97.131557,-110.038433,-41.635437,-70.896606,-88.705845,-102.398815,-28.271828,-55.001907,-72.910366,-86.69117,-17.04895,-36.614571,-50.013771,-62.489204,-7.311311,4.665058,22.24256,37.292803,36.310292,68.109593,84.40318,93.752254,53.557676,89.169262,103.726428,109.492928,63.893831,97.936894,111.97758,118.132181,68.303983,97.287651,109.300699,115.892494,25.771351,42.639027,48.339157,49.567909,46.730232,71.48798,70.41172,62.965965,38.755302,62.712135,59.991817,50.513248,28.848495,50.308628,49.86763,43.473873,17.712593,37.880344,40.803509,37.136822,14.559697,38.061472,58.869447,72.933041,51.655208,86.419331,106.490376,115.740094,55.838119,97.025644,119.429434,125.78843,58.956144,97.069301,115.805055,121.431815,59.899752,88.25795,98.189454,100.440194,62.479506,413.689043,-81.286612,390.087109
37,-1.078377,-15.286994,3.372116,-11.016768,-30.741692,-55.998688,-72.49712,-81.634598,-49.613228,-74.156685,-87.731209,-99.052162,-33.321648,-54.519424,-69.831963,-81.422024,-18.511162,-33.599052,-48.827477,-61.317444,-6.899414,-15.649109,-25.397301,-35.405731,-9.961391,-1.207529,14.694807,31.296714,33.176706,64.437234,83.438639,94.922239,51.23407,92.439749,113.636751,125.593545,61.819511,99.960826,118.834778,130.189073,66.021873,98.24861,113.154419,122.332691,31.032085,45.301666,46.071625,44.55534,44.347458,60.312424,60.366383,55.729122,27.190762,47.185192,50.605946,49.683952,8.577461,21.187305,25.16716,26.774826,-8.745804,2.338829,7.985859,9.909325,13.181799,31.109549,49.141781,63.977255,35.825984,68.601311,92.146867,103.388591,40.525128,83.279817,108.025924,118.732581,43.876817,83.304085,92.639882,91.392771,46.638481,72.234582,73.1115,68.182458,61.033258,398.90689,-78.282366,379.575182
38,20.456886,-47.859719,-25.242977,-80.145119,-38.276138,-64.936295,-82.656898,-91.205063,-54.232063,-79.988136,-94.733162,-107.00798,-36.137352,-54.083748,-66.553574,-76.391487,-18.859978,-29.247437,-37.6054,-44.181862,-4.739456,-7.686653,-9.94297,-13.842201,1.655343,16.957836,38.658413,57.377989,40.530994,73.576913,92.738004,106.095544,56.228443,94.380997,118.904741,136.688921,65.985873,101.848289,126.602547,144.718266,69.710843,102.301043,121.357405,135.722404,34.812412,50.93502,54.467182,52.477684,54.525661,75.05928,82.56546,85.381565,33.576622,47.706985,52.361412,54.520855,12.756386,26.586857,30.246277,31.135712,-6.650791,7.107811,13.086491,14.472198,14.940512,39.741392,62.523033,78.518551,56.283278,96.96025,117.781501,131.629586,64.26952,112.729267,138.953371,154.654524,67.640166,109.517875,108.702955,100.3635,69.27223,98.808625,97.91664,91.478357,80.947123,351.290884,-104.068365,299.673777
39,6.952629,-42.932036,-14.969444,-50.391362,-40.166588,-69.771652,-89.440842,-98.251648,-54.610634,-79.501648,-92.339287,-101.706104,-33.108902,-49.418564,-60.327187,-69.016685,-14.023819,-22.014656,-29.395409,-36.235886,0.708504,1.133194,-0.004807,-2.868118,6.601798,26.032553,48.039042,65.185958,42.175346,70.012864,82.21104,90.471517,55.844417,89.912922,109.39067,124.850441,64.728017,97.00576,116.252375,130.975341,67.977571,96.792042,114.538246,128.807654,36.912689,53.516064,55.854263,54.185257,58.326473,81.246471,91.640511,97.811165,37.80241,49.514408,53.571911,55.329552,17.69886,32.081051,36.280746,36.573029,-1.170902,13.054905,18.893967,19.579983,13.954667,39.344584,62.733911,79.050407,54.347155,89.974302,107.977141,121.206487,65.495698,111.132957,134.893219,150.004471,71.000068,108.205123,104.313057,95.643608,74.134828,98.350252,94.873703,88.364037,87.121983,308.628667,-119.815578,249.552233
40,7.415886,-48.03651,-11.723843,-53.414415,-40.005455,-69.364929,-85.133629,-88.315544,-60.892525,-83.772583,-92.08786,-97.252693,-38.9328,-55.879326,-65.029106,-72.73819,-16.61396,-20.043869,-22.295036,-26.335258,1.921463,6.863937,8.869286,7.61055,8.226946,29.007997,53.005936,71.598368,25.826122,52.853166,70.875209,82.626806,35.474438,66.716133,88.550708,104.361222,44.311787,77.539745,98.670242,113.153925,50.770633,82.13904,99.397662,112.351417,35.905609,54.261417,56.477051,53.805885,60.49427,83.107224,91.90567,95.911388,41.056995,52.303963,55.713158,56.678181,20.070877,33.004532,37.416859,38.764515,-0.079136,12.981548,19.546909,21.892776,11.946852,36.783115,61.203859,79.228434,49.127516,84.603128,103.984359,118.552208,58.119303,104.511399,128.504954,144.123239,62.74342,105.585177,104.633603,96.410548,65.95827,97.888853,97.660747,90.96552,92.713194,261.224049,-133.364096,196.76971
41,1.603775,-36.340858,-15.281982,-53.073738,-32.166252,-65.998421,-87.37072,-96.468201,-49.386749,-70.773125,-81.916466,-91.266403,-29.838409,-46.783676,-58.228111,-67.141571,-8.436813,-14.635277,-18.822899,-23.203468,10.768661,14.359131,15.836334,15.692368,3.856004,21.232385,40.38656,55.343004,9.599349,23.666586,37.836206,50.912535,18.384209,31.817826,51.30323,69.130636,27.141467,44.272637,63.247859,79.702121,36.041369,56.879972,71.84185,85.783487,35.802956,57.749977,62.646503,60.795479,63.810368,84.35257,92.895699,97.789822,45.81419,59.421329,64.043999,66.660748,25.739937,38.881359,42.188187,42.823734,6.261578,18.686199,25.184383,27.790031,13.160742,36.165734,59.997194,78.816497,44.246393,79.929733,100.778031,116.536427,52.81346,95.753523,119.332424,134.95781,58.31431,98.417066,102.313949,97.848097,63.030622,93.396757,96.788399,92.423324,94.164934,225.463089,-148.798113,144.27587
42,-1.728973,-44.006061,-10.271702,-42.292857,6.995201,3.702965,4.85939,5.22583,-28.119392,-40.50087,-46.786308,-52.269516,-36.250305,-54.781837,-61.750145,-65.841064,-39.228516,-59.410629,-67.455826,-72.504158,-39.448929,-55.380135,-62.712135,-67.288742,10.412478,24.7374,40.719704,56.910229,13.499134,26.017548,35.625171,44.333153,13.772565,25.040039,37.413895,47.761968,14.829979,24.564437,36.887782,46.12694,16.1896,23.322019,31.710319,38.931782,36.267128,60.252628,69.251575,71.783981,63.746624,83.067341,90.11776,94.365463,47.6647,68.376389,76.446991,81.528912,30.165768,47.7705,52.407246,54.317036,12.723255,28.389301,33.866444,35.186863,10.366042,29.89603,53.419355,73.068213,31.618619,68.870111,90.603786,107.024147,37.737468,79.596837,102.351802,118.382703,43.915967,83.816489,95.610695,98.450596,50.476701,82.28545,88.537864,86.971133,93.054399,183.623634,-158.451376,104.149619
43,3.233757,-21.777147,-3.953247,-32.670074,-30.988197,-56.157532,-74.423103,-89.439812,-60.510178,-74.242744,-73.611946,-69.828873,-49.858131,-63.212242,-59.949646,-56.763153,-39.701958,-51.016388,-48.285828,-45.071182,-29.710579,-40.029259,-40.140495,-37.216759,-1.744758,-0.366612,6.172015,15.476444,-14.675665,-2.572152,3.559108,4.999128,-13.643013,-1.05198,5.768168,7.751653,-10.464842,-0.483012,4.953186,5.871847,-7.316189,1.658616,7.238013,9.450901,35.876427,58.729191,68.677826,71.257324,67.207432,83.635998,89.504585,92.538357,51.061707,69.849758,76.614475,81.102734,33.084126,49.420624,50.905437,50.235386,15.521336,29.720421,33.786793,33.598309,2.326354,20.221438,42.843516,62.719677,24.8739,59.324701,82.968872,101.728401,33.360753,73.724033,92.330297,104.924787,41.178849,79.887959,81.993216,77.676368,48.19703,77.072387,77.932015,73.52038,95.402155,164.659589,-163.290625,74.292646
44,-5.072136,-22.907241,0.052185,-21.528633,-31.698017,-55.535659,-73.327617,-88.834419,-55.497436,-66.781482,-69.362182,-69.120769,-42.282028,-52.302131,-52.896709,-52.484493,-29.377613,-37.098827,-37.859687,-37.055912,-16.988239,-22.342643,-23.616428,-22.619934,-4.318361,-5.419309,-0.534604,8.212959,-20.544548,-15.191621,-8.744939,-5.003451,-20.294458,-13.576075,-5.603109,-1.11089,-16.678447,-12.716479,-5.812906,-2.23518,-11.509011,-8.888849,-3.051582,1.049077,35.020466,58.81319,68.39653,75.939102,67.309284,84.293289,91.085415,94.53186,52.17247,70.737305,76.690979,78.510933,34.933319,49.025002,49.754105,49.141045,17.787895,27.824421,30.228252,30.733566,8.440108,29.572396,54.029449,73.005845,19.548235,54.177094,77.102367,92.563682,25.679465,66.050278,82.387276,88.805984,33.814433,74.896025,78.2931,73.089455,42.916104,76.013213,76.573907,71.357912,89.777641,143.435972,-163.790817,54.447638
45,-5.072136,-22.907242,-0.952377,-16.343821,-32.407837,-54.913788,-72.232132,-88.229027,-50.484695,-59.320221,-65.112419,-68.412666,-34.705925,-41.392021,-45.843773,-48.205833,-19.053268,-23.181267,-27.433548,-29.040642,-4.2659,-4.656029,-7.092361,-8.023109,-6.891963,-10.472005,-7.241224,0.949474,-26.41343,-27.811089,-21.048986,-15.006029,-26.945904,-26.10017,-16.974385,-9.973433,-22.892051,-24.949945,-16.578998,-10.342206,-15.701833,-19.436313,-13.341177,-7.352745,36.295853,61.307659,74.686146,85.539036,71.247597,85.844364,94.128857,99.995384,56.698437,72.952538,70.776501,66.161213,39.719696,54.086494,50.4356,46.688576,22.159309,32.523251,32.665386,31.787567,10.158406,30.598626,55.670003,72.716328,14.671188,46.211507,68.17193,82.525134,18.236904,59.707369,68.470925,67.027695,25.277747,65.919522,70.164307,65.060141,34.819915,68.241461,70.145844,64.931948,84.208117,121.051834,-165.240583,38.62692
46,1.087189,-9.795684,-0.071354,-10.541691,-29.54155,-50.56263,-65.821781,-80.556908,-50.512276,-63.248806,-71.520424,-76.64011,-37.405071,-50.727424,-58.865948,-63.368397,-23.695335,-34.804172,-43.139992,-47.361374,-9.903717,-15.626736,-21.290474,-24.916477,-6.557924,-11.175836,-11.412773,-7.509961,-29.670347,-30.921225,-22.841539,-14.969319,-30.491504,-30.475758,-19.465814,-10.268877,-26.343374,-28.5987,-19.056563,-11.253889,-18.361516,-21.075215,-14.895403,-8.750867,38.825283,62.593517,74.221973,82.987118,75.496273,90.076561,99.533787,105.790615,63.30265,81.400795,92.541504,98.348236,46.51165,63.95422,69.811478,71.527863,27.497177,42.060356,47.632084,48.868389,6.566076,23.356785,45.04109,59.391484,6.261584,34.59289,55.929293,71.821657,8.302806,42.450784,62.758179,77.974345,15.208602,50.012925,61.119045,64.96872,26.838643,54.65106,59.565435,59.766618,85.156631,111.623935,-165.450611,28.453015
47,1.087189,-9.795684,9.889412,-14.467998,-26.675262,-46.211472,-59.41143,-72.884789,-50.539856,-67.177391,-77.928429,-84.867554,-40.104218,-60.062828,-71.888123,-78.53096,-28.337402,-46.427078,-58.846436,-65.682106,-15.541534,-26.597443,-35.488586,-41.809845,-6.223886,-11.879668,-15.584322,-15.969398,-32.927265,-34.031362,-24.634092,-14.932608,-34.037105,-34.851346,-21.957242,-10.564322,-29.794697,-32.247455,-21.534129,-12.165572,-21.021199,-22.714117,-16.44963,-10.148989,34.647903,59.860611,73.141994,80.800095,76.6012,89.932079,100.606499,109.416504,63.077374,82.97636,95.842037,106.527271,45.568199,64.159412,69.239388,71.535416,26.082344,41.600018,46.520634,48.061466,1.641017,18.167743,39.696901,55.198107,5.113397,34.77953,55.372552,72.454198,9.547849,41.961319,61.4039,78.470571,17.276963,51.197452,61.184963,65.623213,27.617501,53.525936,58.386126,58.93237,86.011477,102.618409,-155.793543,14.775175
48,-8.934631,-4.962881,7.9109,-5.436383,-24.462318,-41.28067,-51.79184,-63.959084,-42.380333,-53.676567,-66.646614,-78.064957,-32.692566,-45.266991,-57.574425,-67.240562,-21.106567,-31.460381,-41.807671,-49.857101,-8.636971,-13.913269,-21.549911,-27.497864,-6.163803,-13.192543,-17.620511,-19.229819,-26.859577,-31.471838,-25.936346,-18.162525,-27.056962,-33.474682,-26.636225,-17.954272,-23.744701,-32.474418,-28.062166,-21.164182,-17.482931,-26.192765,-24.737925,-19.018077,30.639496,55.764427,71.654778,82.98111,72.287407,92.398167,106.641197,117.709579,61.769657,84.657269,100.824909,114.453392,45.840168,65.367451,69.013882,69.510727,27.391891,42.112598,46.042557,47.320919,-0.384674,12.097431,28.902774,40.909185,2.945309,26.040396,42.959823,57.874277,6.003221,36.193769,56.327491,73.718815,12.406769,44.044469,56.94728,63.559359,21.075446,46.121691,56.551892,62.166332,76.797123,98.607195,-148.162365,10.290459
49,3.319759,-8.982833,2.915382,1.572258,-26.715946,-46.528702,-60.020886,-73.420429,-41.009503,-52.186718,-62.875729,-72.671471,-26.286335,-32.425289,-40.652447,-47.603989,-11.058827,-12.768746,-18.320446,-23.65757,3.360329,8.027744,7.238388,4.51458,-9.795653,-18.509022,-24.162705,-26.97522,-31.045421,-33.602366,-28.12739,-20.386435,-28.287694,-30.803776,-25.250469,-18.386478,-21.633994,-25.563667,-22.648692,-18.430599,-13.138311,-18.274417,-18.208838,-15.747374,29.277706,54.04026,71.153011,83.27076,67.892933,94.309444,111.577892,125.801697,59.098606,87.77338,106.078148,121.981888,45.453873,66.501217,73.736343,79.248791,29.549961,43.315201,48.387508,52.030735,-3.631665,4.613836,18.220107,29.560756,-8.175909,7.976579,18.284143,28.231671,-4.999807,18.354569,35.559777,51.645822,2.711121,29.069377,43.014689,52.4508,12.989724,35.484195,47.094693,55.1781,79.389124,90.565423,-145.974741,12.803778
50,3.319759,-8.982832,37.920055,-5.439069,-28.969574,-51.776733,-68.249931,-82.881775,-39.638672,-50.696869,-59.104843,-67.277985,-19.880104,-19.583588,-23.730469,-27.967415,-1.011086,5.92289,5.166779,2.541962,15.357628,29.968758,36.026688,36.527023,-13.427504,-23.825501,-30.704898,-34.72062,-35.231265,-35.732895,-30.318433,-22.610346,-29.518426,-28.13287,-23.864713,-18.818685,-19.523288,-18.652916,-17.235219,-15.697016,-8.793691,-10.356069,-11.679751,-12.476671,53.505249,90.76046,118.556614,136.560917,72.782021,89.877892,97.597904,100.262318,46.329002,54.565945,65.802555,67.441978,20.609608,23.411121,31.882725,33.381214,-2.132664,2.314053,8.340168,11.005497,6.582007,17.072877,28.776433,35.983354,-7.398996,8.62644,23.444995,32.531846,-9.520709,10.899164,26.507476,36.784628,-5.147792,23.883979,38.384396,47.092037,5.625524,31.742768,45.269567,54.122044,82.373457,82.447035,-108.390112,8.229153
51,6.401253,-1.291664,-3.857689,8.785879,-22.588005,-39.504433,-55.132141,-68.684692,-20.513878,-34.780197,-46.649208,-55.898323,-3.983917,-5.690689,-11.554642,-16.820526,9.902802,18.86879,22.099113,23.399162,22.377319,37.510529,47.277489,55.592995,-12.417298,-24.837621,-31.602688,-35.633384,-36.548772,-44.809248,-38.907607,-31.602718,-31.210233,-47.601756,-51.518183,-51.232125,-19.848991,-35.817555,-43.943353,-49.276551,-4.93321,-10.214136,-12.962152,-17.391695,44.10593,75.167828,98.321571,111.372242,62.040825,80.637474,96.222095,105.875416,42.171936,55.609531,70.066166,77.35508,21.470947,29.046764,38.451347,42.480011,2.340431,9.91087,16.791916,18.707314,4.418736,8.633788,15.238118,22.561902,-10.54907,-8.225495,5.041705,15.707298,-11.080062,-9.966393,7.416811,21.388274,-5.435364,10.071863,26.164638,37.252233,6.993975,23.803765,36.647017,47.230327,88.868294,81.587824,-112.154217,17.447486
52,5.023842,-12.569976,-8.704205,-7.153816,-24.13765,-39.625168,-55.790176,-66.780052,-17.592087,-23.743629,-32.064171,-38.724976,1.453629,5.53688,0.254517,-3.404503,15.31517,27.104301,29.586983,32.372932,24.208717,40.313187,52.362671,65.489502,-11.567303,-21.601776,-22.785964,-23.107282,-29.992793,-36.13066,-33.433896,-28.876036,-21.998615,-34.177278,-39.726541,-39.409453,-10.339643,-21.268046,-31.681327,-38.150917,3.898026,4.134221,0.719423,-4.075095,35.926666,61.666031,79.989338,90.821857,56.701241,79.7925,96.976776,107.606564,40.092602,58.415279,74.687004,82.548409,21.503448,34.640007,43.946342,46.919174,3.171387,14.250984,22.11216,25.089169,9.17994,15.553725,26.731846,35.932503,-7.908252,-2.023252,10.032775,20.548468,-8.069081,-6.595253,9.107846,22.790472,-2.112265,11.639243,27.649828,37.777574,10.102522,25.057298,38.845023,50.248163,94.297514,69.565313,-120.453043,10.841134
53,9.290543,0.241722,-6.124763,-5.551053,-24.573669,-42.216339,-59.821243,-71.150551,-20.50518,-31.151161,-41.508636,-48.765221,-1.225662,0.366211,-4.067688,-7.519913,14.095116,25.68409,30.095329,33.513794,25.025482,40.212593,52.649117,65.552559,-11.131685,-22.936789,-24.194336,-25.63522,-32.096876,-42.651627,-36.615246,-28.450514,-26.251582,-43.911243,-50.55426,-51.465973,-15.420961,-31.810447,-40.793557,-46.094274,-0.297205,-4.062807,-7.181141,-10.454437,32.061138,55.760765,72.390175,86.121826,55.140266,76.094055,90.825233,100.027714,39.832478,60.990944,77.802944,87.233791,22.322845,39.444408,51.259518,56.983967,5.964375,17.414074,26.216755,31.800327,8.271035,17.498801,28.694892,40.19569,-9.78707,2.15475,18.888864,34.137172,-9.835729,3.862365,23.078043,40.852961,-2.831565,15.485614,31.876489,43.966232,9.888773,28.270697,41.273018,52.826489,103.96863,70.016801,-126.197233,5.499847
54,-2.776566,-5.89241,37.684822,-15.114895,-22.584686,-38.736191,-54.994011,-67.297897,-17.993774,-21.633797,-25.127907,-27.472229,2.686272,8.471146,7.368393,6.239891,17.07962,32.235146,35.691147,36.799393,26.901398,44.486961,53.793755,62.5811,-15.356988,-25.772214,-25.537778,-25.990872,-29.846259,-34.65748,-28.622767,-23.452961,-19.919571,-30.488618,-34.082275,-34.85326,-8.746915,-17.894961,-24.318578,-28.502138,2.826131,2.697598,1.074488,-0.69003,24.415112,32.770271,38.324318,43.482113,12.627583,14.222603,24.187374,28.890495,-3.502178,6.789207,19.063454,23.219662,-12.253819,-5.042439,1.671181,3.063526,-17.419567,-11.001778,-5.555706,-4.900017,10.3473,26.188195,45.891054,61.85829,2.651933,24.971064,39.768377,48.705452,1.773348,27.090307,46.153153,57.067106,5.527804,32.702185,49.667431,57.275051,12.254524,33.203197,48.370425,57.135804,101.941481,64.336457,-87.762995,-9.402982
55,-0.685959,6.263777,38.823223,-13.063114,-24.733658,-40.791779,-58.302612,-72.702942,-20.831337,-26.93367,-35.909729,-44.475288,-3.0653,2.518959,-3.9394,-12.083588,11.39019,23.820419,23.394699,19.131546,22.985916,39.023895,43.607941,44.203491,-13.472736,-24.367824,-25.079899,-26.361714,-33.465698,-46.484537,-40.214153,-31.715691,-25.357868,-42.546806,-42.506421,-36.264689,-13.239844,-25.503044,-28.405992,-27.301247,1.755564,-1.454685,-1.926366,-1.289781,16.670952,18.107014,12.438126,6.361485,-11.294231,-16.861897,-6.491261,-0.040283,-30.862999,-28.614006,-14.884586,-12.170105,-40.701027,-44.454288,-34.625988,-31.241798,-46.869621,-52.05368,-47.051353,-47.585163,10.489388,33.525812,59.902994,82.622514,12.749206,42.420372,58.490916,67.825418,11.621428,44.77757,62.058824,74.555965,13.033968,48.079303,63.682644,73.856611,17.711068,43.001227,53.64178,61.162579,101.693516,70.88901,-48.501778,-22.177321
56,2.798653,11.092474,-14.518547,2.54177,13.815765,21.500244,20.048676,10.41275,-4.36203,-14.222031,-27.401962,-39.057884,-20.875969,-38.628044,-52.844925,-63.667603,-33.463783,-51.231995,-65.939026,-77.754822,-42.30423,-62.351875,-78.28125,-91.327972,1.099343,-3.53305,-6.411329,-7.19698,-41.018915,-51.928299,-50.607118,-44.799739,-43.75767,-56.139306,-50.48655,-42.987302,-40.519725,-50.700485,-45.443332,-37.576145,-32.853133,-38.24978,-34.419464,-28.130308,20.754147,26.399059,24.831333,22.260876,4.701347,-0.636749,8.763199,15.701408,-13.632317,-10.561752,2.272053,6.041737,-25.061646,-25.630188,-15.090466,-10.320396,-33.910847,-36.171913,-30.196095,-28.731709,12.76415,38.537074,64.603837,85.981922,18.463003,51.956704,69.555695,79.266472,14.188053,53.595066,74.890838,89.567738,13.640543,52.95811,75.991416,90.279349,15.962327,42.962818,58.712539,70.569544,104.524498,82.003713,-62.987995,-19.61332
57,7.558937,0.055328,10.085964,-2.484744,-2.492867,-10.542984,-18.653641,-26.27037,-29.629898,-51.365776,-69.363785,-84.756317,-34.008636,-58.168602,-76.249237,-91.100235,-36.172943,-58.566628,-76.05114,-89.737015,-36.749039,-54.541512,-69.973412,-83.238831,-0.353799,-5.772953,-7.031056,-5.640591,-39.556727,-43.374848,-40.659559,-36.332677,-40.2144,-43.27827,-38.716335,-34.342955,-34.592334,-37.721073,-33.809956,-30.073253,-25.857892,-27.355957,-25.811549,-24.032025,44.779358,67.788277,86.974754,102.95208,27.680397,20.185032,25.866623,32.566624,-2.039967,-6.888084,2.44669,7.319126,-24.17038,-33.624115,-26.903172,-22.002525,-41.890125,-51.244869,-45.31517,-41.445522,10.302933,33.648818,56.137269,73.544741,27.272224,63.099411,78.395112,86.010574,24.058115,63.946102,80.673363,92.50573,20.888991,57.580561,72.692091,83.893832,18.738193,42.997769,56.342064,69.497835,112.135077,82.04629,-52.850389,-22.110816
58,-14.473457,6.170595,14.45137,-1.561297,-13.918991,-27.712898,-38.62484,-48.628922,-31.099777,-40.500069,-55.408974,-70.794067,-24.067955,-38.297768,-53.671989,-69.663734,-16.251526,-30.158272,-46.574936,-62.375793,-8.891029,-19.518242,-31.420441,-42.781792,-15.290297,-28.87934,-33.679508,-34.912047,-44.858988,-55.617546,-54.780365,-50.02512,-40.087688,-51.953586,-50.255758,-45.962098,-31.599693,-41.542837,-41.399915,-38.519907,-20.106644,-26.338249,-24.824345,-21.372775,41.986542,64.505653,84.524231,111.483994,21.368122,15.198269,29.224434,38.454666,-7.520027,-16.838951,-8.876495,-2.016277,-30.471325,-44.220715,-33.645058,-25.701141,-49.578438,-65.096169,-56.705933,-47.954578,22.793065,48.589886,64.481694,78.781639,35.563699,55.934048,71.784669,81.764863,25.950827,44.238829,60.434171,71.89724,18.008767,35.562278,54.704042,66.873103,10.76214,23.457932,45.884879,65.594591,98.285437,89.030694,-37.775202,-22.858304
59,-8.0896,-0.21625,-1.686058,17.358133,-22.83062,-41.320496,-57.538376,-72.757187,-31.320534,-36.405487,-46.365051,-56.852531,-15.962219,-19.281464,-29.136658,-39.724388,-0.126801,0.95787,-4.769554,-12.025223,14.851456,23.932457,29.025421,31.425934,-13.117053,-28.365206,-36.888739,-41.290185,-40.020195,-55.550979,-59.334273,-56.988776,-35.354797,-50.623605,-56.14437,-55.29876,-24.934322,-38.158852,-48.86341,-54.324585,-11.715937,-19.323834,-29.491101,-37.833922,39.829216,65.26783,90.726357,116.449471,14.575253,-0.029812,6.379566,13.859024,-13.645306,-33.275356,-22.837887,-13.88752,-32.111664,-54.066868,-43.710995,-31.58638,-44.116745,-61.553249,-56.686707,-48.859062,18.223812,29.124211,31.491382,30.55892,-1.390496,-14.299975,-16.001693,-15.247443,-4.607167,-6.34998,0.443862,6.718568,-0.749743,8.245378,23.234642,34.095552,7.889819,19.863934,37.120025,51.965689,90.188026,89.280104,-39.46907,-5.034511
60,-0.219612,-8.439089,-63.093052,19.038023,-23.326149,-39.434395,-55.503159,-72.750206,-22.918968,-23.144417,-30.834274,-39.50386,-7.64431,-2.30793,-5.546265,-10.316734,5.01091,13.399086,13.800774,12.344398,14.327316,26.027756,31.951103,34.971428,-14.780671,-28.927907,-34.579582,-37.682757,-40.606731,-55.601584,-59.354095,-56.351388,-32.580073,-49.06802,-55.189462,-54.740721,-19.617859,-33.234844,-43.69243,-49.869139,-5.022099,-11.064871,-19.436776,-27.627381,51.602325,90.298519,124.521732,150.031872,60.747299,71.379662,73.497791,73.601017,34.011612,30.479164,35.264626,36.930428,10.680141,7.199249,15.147228,20.345707,-6.988678,-2.767525,6.112061,11.746788,2.01612,-0.364914,2.568848,4.639957,-31.860094,-46.227779,-39.21287,-32.010364,-33.790042,-33.22697,-23.547593,-15.370017,-26.745832,-7.279324,7.050168,16.765978,-12.853194,4.507657,19.268907,30.813672,90.205421,81.710476,-102.325115,14.872973
61,4.39991,-7.021114,14.971333,15.342229,-23.712616,-40.588646,-56.704674,-67.917938,-20.136337,-28.51181,-40.748634,-52.641792,-6.068687,-2.569084,-6.111832,-10.45784,5.467758,14.625092,17.889748,18.809738,14.327431,23.529282,32.782173,40.25322,-14.578161,-26.810176,-32.003757,-37.062844,-42.717854,-51.32157,-46.34001,-37.559256,-35.634001,-49.632696,-52.977284,-50.190272,-23.160264,-35.776645,-42.961151,-46.648361,-7.695275,-12.651116,-21.735775,-31.419474,32.908459,50.519199,57.682858,49.537811,40.971336,54.385185,64.270363,73.956814,21.554031,19.60104,20.658989,21.636314,3.162632,1.763763,5.85577,11.263733,-11.242847,-9.969006,-2.263985,6.228905,-3.231492,-11.592868,-14.201298,-16.115437,-39.680074,-56.178672,-65.699845,-71.863308,-40.299091,-54.803182,-54.365835,-49.331509,-33.154753,-30.495503,-19.895056,-10.665871,-19.584298,-13.06577,-2.221193,7.596721,94.689531,74.855208,-87.269583,30.381048
62,2.19223,-2.678054,-14.555225,-8.362333,-23.16925,-41.072502,-56.629944,-63.13591,-23.073463,-30.686417,-42.053604,-52.326164,-7.880402,-5.517311,-12.099609,-19.885139,5.258217,10.89695,8.792038,4.604073,15.417023,21.430664,29.150047,35.079689,-11.839777,-26.794492,-32.366108,-35.0889,-43.693202,-49.041714,-41.828803,-33.376283,-38.147583,-51.226042,-54.550839,-53.128171,-27.900936,-41.786658,-48.723545,-53.075127,-14.432986,-23.517274,-33.845864,-45.683017,23.92765,40.318623,47.904167,45.369816,38.914433,57.149162,69.145031,81.224957,24.391079,33.097744,39.003353,45.464687,9.26445,16.96043,21.448803,24.834423,-2.783146,4.641094,12.083416,18.188896,-1.321521,-5.926527,-6.69322,-5.964935,-40.358495,-51.304002,-56.550472,-60.513767,-39.685786,-49.785745,-47.895781,-44.10727,-31.202174,-28.131666,-16.599622,-6.699642,-16.914395,-7.472973,3.62691,13.43689,97.034054,72.348697,-101.672516,22.190258
63,3.004417,5.682119,-12.243748,-1.751365,-24.257698,-40.812378,-56.457939,-64.402885,-20.836372,-30.311623,-43.340607,-55.972939,-5.057487,-3.342705,-15.423546,-28.386497,7.512589,14.401474,6.712646,-4.199753,16.140633,25.989418,32.172546,33.812027,-11.918169,-27.456117,-36.065606,-41.229793,-51.277789,-57.500594,-50.937637,-42.513399,-43.954499,-55.349457,-53.063765,-44.672502,-29.185159,-39.824292,-42.172567,-40.94287,-10.073561,-13.420248,-18.711517,-24.052897,27.342854,48.086014,57.67971,51.299915,48.108444,69.768848,82.91708,95.071621,30.326157,43.94577,51.634026,56.681328,12.822075,27.342453,33.930073,35.769997,-0.912495,14.315586,24.864807,31.063099,-2.292638,-2.42429,4.0834,8.303609,-38.793369,-46.766242,-51.229439,-56.655509,-40.993196,-45.275958,-42.617325,-41.609928,-34.137141,-15.721902,-2.80668,1.166373,-16.835231,2.126653,14.259652,20.762557,100.919237,78.172224,-113.035498,20.580301
64,-3.336754,8.444091,-8.374844,20.234128,-23.478928,-39.548035,-51.352043,-57.077751,-21.513863,-26.899109,-39.672775,-51.462936,-7.425842,-6.250534,-18.498573,-30.289536,5.360298,10.962524,4.062996,-5.043411,15.854073,26.670456,29.683571,28.236923,-12.120093,-31.068207,-43.091815,-51.975384,-52.659794,-66.678743,-63.887007,-56.142734,-47.628741,-66.1396,-65.041308,-57.705019,-35.966219,-52.697771,-55.456347,-53.342877,-20.178892,-30.032992,-35.823174,-38.585548,42.223892,62.612572,74.776154,74.818211,61.496944,79.061337,84.129066,82.315636,43.703556,60.361748,68.465023,69.000721,27.23093,48.372459,53.600235,50.70425,14.204235,33.148956,43.782005,46.293411,-13.198471,-32.852578,-45.008208,-51.91916,-63.531356,-88.245075,-80.661754,-71.759722,-60.289058,-78.301591,-66.488737,-54.007466,-48.843279,-38.244469,-23.054455,-11.843389,-30.238899,-16.432804,-5.847085,1.837075,98.511915,87.029086,-120.480909,41.227199
65,-16.678047,8.0793,12.445793,16.068877,-22.349854,-36.148453,-40.366173,-37.466469,-11.635208,-13.98571,-19.735794,-23.751297,3.484612,3.417778,1.43486,-0.040627,18.091164,21.941986,23.742142,24.657326,32.036705,42.136688,47.951317,52.160454,-12.913555,-37.736943,-56.9533,-71.061633,-54.453489,-73.298171,-79.977528,-79.20077,-52.834517,-74.670265,-90.978981,-105.470414,-45.040164,-67.506847,-84.130429,-99.431471,-32.585939,-49.276304,-61.303216,-73.444057,31.599026,56.527176,65.985146,61.917343,53.451519,59.31118,60.910378,60.746384,36.839676,43.384838,48.051281,48.544979,20.581284,25.823936,33.539944,36.914692,4.562302,9.23584,16.364136,20.557709,-3.878852,-15.440382,-26.493489,-34.165361,-58.391776,-86.672137,-97.400407,-101.847579,-63.409893,-93.038419,-102.884801,-106.069856,-60.674473,-78.48394,-73.213975,-66.528319,-51.060736,-60.274979,-55.992433,-51.399499,82.189207,95.54246,-107.679777,57.730151
66,-0.698891,1.125772,12.936687,12.465926,-28.379402,-41.075592,-44.761162,-54.086952,-22.573586,-24.900398,-25.892143,-26.732941,-5.372887,-6.426086,-6.545563,-7.001381,10.635338,12.957687,13.978157,12.981033,26.042976,33.714294,37.896538,39.942055,-9.453031,-32.804289,-52.888857,-71.40549,-58.012814,-81.633674,-97.800704,-112.848507,-59.590506,-84.696989,-102.62866,-119.876569,-55.906229,-80.778277,-98.66098,-116.230269,-47.297666,-69.968126,-84.97008,-100.826752,29.029312,53.540955,63.792744,62.909374,47.36824,53.430862,55.896778,57.231731,31.589985,38.279171,42.677708,46.439953,15.264072,20.202141,25.360737,30.953236,-2.246704,-2.077503,0.575924,4.625301,-5.408996,-17.902463,-30.976014,-40.55165,-58.732978,-87.733472,-104.956064,-120.13626,-63.245606,-93.504326,-113.129194,-128.42193,-61.817936,-88.296574,-104.937137,-116.435249,-54.834551,-76.860028,-89.125913,-97.767822,81.136837,97.228509,-95.096569,70.756355
67,-5.454597,-5.044947,7.164688,-0.147522,-29.457893,-42.571678,-46.657562,-56.652374,-25.717163,-30.494156,-31.633644,-31.714096,-8.963013,-13.620415,-15.127602,-16.132164,7.185173,5.696182,4.532547,1.73481,23.268356,28.349533,31.204376,31.673126,-8.481635,-31.699234,-51.655331,-70.860666,-58.712353,-80.805786,-96.558193,-112.406374,-62.393697,-84.857663,-102.938894,-121.522619,-61.707588,-85.258145,-103.229368,-121.021298,-56.455283,-79.415599,-95.733979,-113.172265,29.755554,53.5849,65.424557,69.03265,47.317028,54.069843,58.163395,62.179241,31.894455,39.544945,45.895557,51.541042,15.956097,22.219734,29.073544,36.438332,-0.771332,-0.744896,2.070637,6.564903,-5.918808,-19.422758,-33.174853,-45.630776,-57.696467,-87.497771,-105.24734,-120.873251,-61.355333,-91.440257,-111.891036,-129.633134,-59.438291,-87.329316,-105.520524,-120.834194,-52.04899,-74.975559,-88.947547,-101.846745,75.523682,92.325665,-88.090439,70.750936
68,-6.832237,-6.384097,7.31432,-2.825822,-29.455719,-43.045921,-47.086372,-56.099052,-27.771263,-33.827705,-36.377678,-37.788963,-11.822205,-17.328987,-19.969711,-22.82959,3.84201,1.420212,0.442772,-2.27829,19.342003,22.864494,25.039673,24.583511,-9.413171,-32.955917,-52.351598,-69.991406,-58.900291,-79.019193,-93.794152,-109.003062,-63.808275,-84.39543,-100.794179,-117.619437,-64.591116,-87.1273,-104.505039,-120.898939,-61.401368,-85.008458,-101.490662,-118.756385,28.591175,51.552658,62.950516,66.985016,49.41433,58.717461,62.465687,64.972858,33.882408,43.662758,50.060806,54.253693,17.455502,25.002708,31.78688,37.874107,-0.00555,-1.415806,0.06918,2.749386,-4.63653,-18.588943,-34.152547,-48.073992,-57.635951,-85.749493,-104.032555,-121.608081,-62.338492,-92.129639,-113.027337,-132.417954,-61.260052,-89.008835,-107.249875,-123.464638,-54.368737,-76.182348,-89.870068,-102.820673,68.972511,86.146919,-80.495052,68.130465
69,-3.137856,-11.431205,4.844456,-6.074018,-30.379143,-50.838203,-56.891098,-61.796036,-46.711121,-58.005295,-64.748611,-70.237083,-26.284904,-37.74868,-44.402504,-49.799881,-6.158524,-13.984451,-20.089188,-27.221603,14.501495,16.216278,14.678879,10.647125,-8.3795,-32.813397,-56.543185,-75.301324,-71.149072,-110.360305,-130.313129,-146.670381,-74.016359,-115.051608,-136.067465,-153.231857,-71.021681,-109.796679,-131.503029,-150.683047,-62.840554,-89.48493,-106.644042,-124.28984,28.921738,52.586288,65.241108,69.047813,48.408337,58.072758,63.536282,66.6049,33.928356,45.2104,53.15443,58.886032,17.829666,26.449528,34.044285,40.894547,0.421314,0.813961,3.926525,8.711414,-4.185999,-18.229617,-34.001568,-48.498743,-58.073792,-86.766862,-105.52426,-123.406346,-63.265057,-94.043284,-116.151105,-136.488109,-62.569531,-91.823326,-112.35824,-130.88781,-56.01633,-78.996036,-92.854681,-105.995323,66.526709,74.985223,-74.958544,62.325957
70,4.612999,-3.517674,4.264297,-6.334419,-31.909103,-52.038231,-58.595581,-62.208595,-47.841797,-60.451469,-66.44886,-70.034065,-30.313568,-44.583893,-51.328125,-56.355286,-11.793823,-22.952499,-29.50367,-36.537323,7.763786,7.203941,4.881935,0.421028,-10.077729,-31.02915,-55.651447,-73.83648,-71.688616,-105.894238,-126.436655,-143.110316,-76.761968,-114.432961,-137.251406,-156.786519,-75.708753,-112.09861,-134.481838,-153.661547,-68.664235,-95.984624,-113.450883,-130.354595,29.339676,51.678772,62.803574,67.3423,47.105942,58.430386,64.703407,69.067841,33.352547,45.998211,54.546947,60.584335,17.681465,27.490768,35.710201,42.830429,0.318775,1.288719,4.969254,9.571495,-5.314333,-21.785978,-39.905864,-56.295504,-58.931104,-86.673681,-105.444232,-122.53971,-64.475952,-94.418881,-116.068977,-135.596248,-64.094983,-93.613347,-114.37399,-133.120952,-57.766368,-81.410755,-96.631676,-111.110511,71.844692,73.861412,-69.989262,58.3854
71,-1.913452,-6.336302,1.077118,-7.581901,-30.934753,-51.372185,-58.374596,-62.797966,-47.326355,-60.132523,-65.574875,-68.501816,-30.462685,-44.206581,-50.05497,-54.10183,-12.641716,-23.21949,-28.468094,-34.290619,6.612625,3.973045,1.459579,-3.125496,-8.866526,-29.495486,-52.688601,-68.252422,-71.578453,-105.130293,-125.945986,-143.245858,-76.70525,-113.548664,-136.247004,-156.073487,-76.403569,-112.04285,-134.500641,-154.104575,-70.513444,-97.838495,-115.003473,-132.053781,28.711224,50.700932,61.508904,64.058647,47.82795,60.078049,66.64444,70.312729,34.142361,48.468361,57.258568,62.264442,18.593616,29.570446,37.936306,44.097691,1.32082,3.56432,7.385216,11.178417,-3.710181,-17.883599,-35.856828,-51.978656,-57.742347,-85.71411,-104.871157,-122.397282,-64.047002,-95.116846,-117.621876,-138.673024,-64.543445,-95.165629,-116.321906,-136.203254,-59.537926,-83.861289,-98.713344,-113.568394,70.496264,69.495288,-68.34712,52.773677
72,0.231514,-8.88857,-0.235691,-7.993097,-31.372375,-52.037544,-59.365311,-65.929871,-49.561272,-63.128471,-69.287682,-72.400589,-32.850266,-48.424301,-55.21225,-59.611702,-14.656448,-27.646866,-33.506927,-39.874992,5.168266,0.93956,-2.088547,-7.32811,-7.589187,-28.826636,-52.759737,-69.596049,-69.478013,-102.359706,-123.618736,-141.110776,-75.190297,-110.951504,-134.092934,-154.039737,-75.886687,-110.63034,-133.716534,-153.580129,-71.283595,-98.988319,-116.605711,-133.663336,28.615093,50.919571,62.526913,64.834499,47.569714,60.772762,67.170925,70.383396,34.105167,50.188122,59.049511,63.940029,18.482437,30.766811,39.136333,45.242844,0.551205,3.830223,7.755489,11.196785,-2.563723,-16.191205,-33.912647,-50.144669,-58.19578,-86.089707,-104.3594,-120.707266,-64.788718,-96.459392,-118.320613,-138.425497,-65.29751,-96.46353,-117.699218,-137.38738,-59.957396,-85.225171,-100.449889,-114.854778,71.218758,61.375865,-68.091831,45.549728
73,1.906471,-7.95194,-2.972431,-5.278363,-31.697845,-52.79892,-61.11557,-67.961998,-48.581429,-62.301292,-68.711243,-72.370491,-32.705498,-49.390755,-56.595268,-62.158928,-14.818497,-29.00013,-35.924492,-42.843933,4.705009,-0.000572,-3.450851,-8.47744,-6.27307,-26.278691,-49.256112,-64.656942,-66.598962,-101.688479,-123.023833,-140.034342,-72.423724,-110.065138,-133.859054,-154.436947,-73.499478,-110.076624,-133.444925,-152.950367,-69.677065,-98.50293,-116.769504,-133.747996,29.171619,52.410736,64.257889,68.040962,47.519932,61.599598,68.843307,73.863716,33.568726,49.390125,58.625793,65.496712,17.888718,30.748329,39.521942,46.71587,-0.105801,3.306084,7.054367,10.770607,-4.04351,-18.772063,-36.818344,-52.340081,-58.114486,-85.218255,-97.817315,-107.987422,-65.3864,-98.026216,-118.66166,-137.414952,-66.564906,-97.384228,-117.77017,-136.395267,-62.120328,-87.23527,-102.396818,-116.855152,73.441057,54.121627,-70.748434,40.969067
74,1.676102,-5.865209,-7.324677,-6.822093,-31.916885,-51.929398,-60.157928,-72.670441,-43.41568,-55.022163,-61.512337,-66.23909,-27.68795,-41.082916,-48.786163,-55.342941,-10.736618,-21.365318,-28.576584,-35.984001,8.466797,5.434227,2.096329,-2.609138,-11.186242,-36.937985,-62.415464,-79.894813,-72.455556,-104.859301,-124.248251,-140.917157,-77.978606,-113.40315,-135.521252,-155.040897,-78.42043,-112.133839,-133.824042,-152.893989,-73.265011,-101.524007,-119.515576,-136.673916,29.757843,55.125046,67.51585,66.659317,50.759354,60.452099,65.37672,68.570423,36.46431,48.811855,56.248398,61.127357,20.190697,31.131134,38.79221,44.910679,1.494827,3.228321,5.38084,7.320957,-2.683364,-17.655493,-36.436325,-50.519494,-60.022821,-89.682532,-105.188708,-117.95116,-66.87477,-101.016264,-122.903883,-142.623352,-66.705481,-97.992223,-119.729942,-139.433387,-60.341082,-84.955445,-100.441522,-115.13954,75.33102,49.655899,-77.859249,35.546455
75,9.418602,-8.302744,-9.842434,-3.005887,-32.026176,-52.648659,-59.433975,-66.35891,-42.578201,-52.781982,-58.849754,-63.30368,-26.405754,-37.785072,-44.80751,-51.140442,-9.185715,-18.223686,-25.155373,-32.150459,10.393753,8.257256,5.905266,2.414131,-12.288239,-38.166602,-61.924116,-75.474873,-74.799077,-106.162142,-123.90566,-138.080065,-79.832322,-115.686772,-137.429617,-156.759534,-79.590538,-113.711531,-135.028731,-153.692978,-73.676423,-102.315863,-120.615073,-137.98849,30.211372,55.90416,63.686199,55.697021,49.079533,55.115948,59.565868,62.92511,33.219395,42.340908,48.838062,53.610134,16.12421,25.186329,32.315083,38.62587,-2.76598,-1.534653,-0.038967,1.190186,-5.842886,-21.530207,-39.731327,-49.788091,-67.202665,-98.573943,-117.127626,-133.043733,-71.973501,-105.65656,-126.871408,-146.502605,-70.270394,-100.165282,-120.719678,-138.336453,-62.670401,-85.535034,-102.414293,-119.046242,85.119209,44.726997,-87.332096,35.91441
76,15.360947,-8.084704,-15.299034,-2.837339,-31.990585,-51.284409,-56.829872,-61.766968,-39.9757,-44.694214,-47.61898,-48.939056,-23.468628,-29.850769,-35.594788,-39.663391,-5.876427,-11.169662,-16.137428,-20.795517,13.676033,14.81987,14.542809,13.985596,-15.42374,-44.398484,-67.710068,-83.428789,-79.681929,-112.294606,-133.993639,-152.940734,-83.125008,-118.377701,-142.249361,-164.438198,-81.215222,-117.043367,-139.571492,-160.049102,-73.085626,-102.977797,-122.180971,-140.94479,32.286873,57.169647,61.898346,52.720528,46.543751,51.468601,55.539494,58.878651,31.046963,37.856255,43.616009,48.384647,13.751678,21.155148,27.004395,32.25071,-4.598522,-4.541931,-4.671764,-4.445229,-8.813575,-29.446147,-49.273124,-58.316225,-72.646241,-104.33294,-123.873982,-140.644467,-77.728485,-110.102281,-132.275897,-152.113804,-75.30929,-104.799557,-125.371861,-142.206074,-66.176342,-89.326726,-106.73182,-123.272564,104.026022,36.632027,-99.085264,33.066805
77,19.870605,-7.316806,-20.410309,-3.469138,-31.163177,-47.77359,-53.387375,-58.742523,-31.260109,-33.987694,-34.127541,-33.466187,-15.119476,-18.979912,-23.182297,-26.172752,1.529961,-0.003777,-2.828522,-5.984459,19.382629,24.080086,25.361938,25.692787,-18.447472,-47.636059,-70.104224,-88.150195,-83.336936,-115.537182,-137.450273,-157.793545,-85.377725,-120.789641,-144.258163,-166.049575,-81.714073,-118.038321,-140.83225,-161.987571,-71.442294,-100.589569,-119.610764,-139.163631,32.656689,54.549465,59.828053,53.130913,45.233231,47.778568,45.93996,41.516991,27.56979,30.459194,30.629196,30.165882,9.463921,14.225407,16.631584,18.491535,-9.067268,-8.269615,-11.043835,-13.847351,-10.109098,-32.336776,-50.295155,-59.007644,-76.653226,-106.931768,-127.290817,-145.613647,-80.433771,-113.343499,-135.597328,-156.255435,-76.386001,-107.66808,-127.400115,-143.932708,-65.705186,-89.697074,-107.378038,-125.341635,127.613783,29.461384,-115.778418,29.74383
78,22.642365,-3.17286,-23.645954,-0.639487,-28.384094,-42.440643,-45.063858,-46.479034,-24.242477,-22.836914,-19.70787,-16.069794,-7.954674,-6.545677,-7.417717,-7.12532,7.980652,11.348534,9.7015,8.018875,24.12529,31.476173,33.746223,35.167351,-21.801662,-52.414707,-74.990133,-92.644328,-87.151814,-119.418288,-141.031828,-161.376921,-86.461383,-122.746666,-147.12684,-169.838333,-80.861176,-117.137629,-140.712208,-162.163529,-69.036096,-97.891724,-116.882847,-136.060364,28.739834,46.373634,48.800869,42.175255,36.900101,34.352531,31.794548,28.564625,21.17878,19.50491,16.839695,15.909748,5.33947,6.896667,6.434784,7.54406,-10.231304,-7.473679,-7.620564,-7.120972,-16.048129,-41.682825,-62.052402,-74.548432,-83.520273,-113.863159,-137.222507,-157.071682,-84.801748,-117.292283,-140.84389,-160.525661,-79.073162,-109.961799,-129.956428,-145.59262,-67.896894,-90.16718,-106.290645,-121.13674,152.365465,26.797826,-137.315054,29.613645
79,21.847115,0.612255,-22.730141,-0.604228,-27.283173,-38.683662,-39.399147,-40.298996,-16.214561,-12.884331,-8.518753,-3.916626,0.182991,3.030167,3.802757,5.389938,15.448494,20.038033,19.91375,19.405403,30.818939,40.390663,44.155998,46.874657,-23.648123,-54.726303,-78.970996,-96.669282,-87.577306,-120.645269,-141.673661,-161.348856,-86.111721,-123.106856,-147.187047,-169.07939,-79.305375,-115.308088,-138.656104,-159.223067,-66.419206,-94.231067,-112.684035,-131.649686,28.338318,42.188759,40.334988,31.098404,29.764938,23.223038,16.865273,10.109539,13.717861,7.976933,1.391659,-3.940144,-1.872025,-4.040394,-8.282204,-10.90313,-17.151489,-18.206005,-23.119984,-28.07024,-16.997912,-42.577403,-63.940112,-78.94043,-85.107258,-115.903362,-138.895665,-158.101494,-85.80263,-119.429619,-142.456008,-163.002316,-78.916409,-111.078154,-130.500665,-147.296067,-66.614307,-89.935708,-106.669267,-123.640781,176.938448,25.228671,-157.319326,26.828007
80,16.773376,2.743077,-20.603313,-1.593315,-25.821304,-36.555634,-34.776421,-34.819679,-13.763924,-9.592094,-4.78157,1.154823,3.207664,5.723534,7.908897,10.875778,19.050636,21.934319,23.205643,24.007187,35.151329,41.912727,45.278778,48.064613,-22.275813,-53.002138,-78.082346,-96.800378,-86.896137,-121.854774,-142.933463,-160.569288,-85.788489,-123.936844,-147.950406,-168.452777,-78.976492,-115.874555,-139.157703,-159.168696,-65.846255,-94.482144,-112.450495,-130.069123,28.927231,41.319809,34.957638,21.395645,20.603771,13.644104,8.436012,2.199039,2.577724,-4.0341,-9.368134,-14.568958,-13.109722,-17.394047,-21.181698,-24.337177,-28.073158,-34.330616,-40.752697,-47.823772,-16.928165,-43.029848,-63.5061,-75.899377,-87.649029,-118.341237,-139.521567,-157.883021,-86.668062,-121.475904,-143.454265,-163.239221,-78.81733,-111.823605,-131.825428,-149.621248,-65.679683,-89.396905,-104.977862,-121.495788,193.697176,24.110032,-177.937288,21.372975
81,4.333763,0.804083,-9.507637,-2.648352,-25.544243,-35.96283,-34.952774,-37.867813,-12.766571,-9.345016,-6.306725,-2.035561,3.969955,5.654411,7.662964,10.619659,19.438477,21.658401,23.95546,26.00132,35.190125,41.102028,44.493942,46.758499,-20.202388,-49.445253,-75.718232,-96.318663,-84.855595,-120.008499,-141.500544,-159.282563,-84.359553,-123.16132,-147.559803,-167.866457,-77.696437,-114.736835,-138.000809,-157.638736,-64.765036,-92.990347,-110.663037,-127.583823,26.590576,38.842106,32.398796,22.723274,16.168041,11.244278,6.163731,0.425034,-2.90451,-7.050362,-10.476437,-14.094257,-18.756866,-23.396358,-25.473862,-26.65844,-33.753948,-42.927818,-48.849564,-53.839817,-16.272623,-41.224482,-63.894355,-79.296822,-83.961449,-117.389077,-137.043739,-154.140637,-83.347248,-120.533655,-142.347142,-161.471615,-75.930283,-109.398666,-130.407268,-148.961013,-62.59593,-86.641386,-102.016713,-118.068331,197.919989,21.962815,-187.555876,15.773325
82,-6.904678,2.056752,-0.02203,-0.237369,-24.470215,-34.69986,-32.939301,-35.705338,-12.005539,-8.676567,-4.604988,-0.224648,5.197449,6.901474,9.797287,12.989502,21.00666,23.400536,25.366859,26.636467,36.966019,43.883057,47.308846,49.463081,-20.136315,-50.116696,-76.061224,-94.624541,-84.737651,-119.664055,-141.040071,-158.888904,-83.962282,-122.282735,-146.69079,-167.563788,-77.301512,-113.768619,-136.513674,-156.151107,-64.729468,-92.377721,-109.874577,-127.274762,24.77726,36.23291,30.659409,24.232922,17.112637,11.533985,6.703892,0.780945,-1.496773,-6.454639,-9.635067,-13.36441,-17.670765,-22.112904,-23.876038,-24.870815,-33.541031,-43.992176,-49.146996,-53.645039,-16.738252,-41.865575,-64.161025,-77.131359,-83.426258,-116.006423,-136.233327,-153.514704,-82.469898,-119.261535,-143.093458,-162.25989,-75.281872,-109.091273,-131.453227,-150.544448,-61.372005,-86.104126,-101.836834,-117.522087,190.978832,22.938132,-187.614384,14.454521
83,-5.94429,3.589984,4.364204,-1.010885,-24.376717,-35.182114,-34.239693,-37.591438,-13.760948,-11.519737,-7.707596,-3.016777,3.429337,4.445114,7.192726,10.418472,19.580498,21.172943,22.724648,23.93383,36.542358,43.36956,46.57505,48.827362,-20.234776,-49.813162,-75.318521,-93.841082,-84.630082,-120.149259,-141.696046,-159.699749,-83.870614,-122.254979,-146.678903,-167.357016,-77.110981,-113.484413,-136.602841,-156.588331,-64.573919,-92.709413,-110.244493,-127.6758,25.215225,37.778721,35.474796,28.489437,18.204002,13.197784,8.73436,4.346981,-0.786953,-5.673466,-8.287926,-10.096092,-17.360287,-21.894951,-23.046227,-22.668228,-33.115597,-43.942966,-48.925781,-52.281876,-16.636981,-41.019162,-63.485135,-77.30074,-82.024801,-115.591121,-136.274576,-153.70752,-81.70444,-118.267168,-142.727463,-162.05914,-75.049691,-108.490997,-131.875415,-151.437822,-61.626201,-86.670964,-102.665926,-118.813628,185.144606,26.526572,-183.140116,13.442092
84,-5.865211,6.256984,6.718082,-0.264477,-24.620018,-35.852051,-35.158195,-37.877655,-13.843689,-12.270012,-8.79364,-4.300003,3.280792,3.325195,5.773773,8.769264,19.207191,20.056229,21.061134,21.700859,35.57785,42.206726,44.894829,46.228867,-19.400899,-49.758204,-75.509454,-94.962254,-83.072243,-119.390593,-140.986997,-158.863,-82.787697,-122.172943,-146.789374,-167.52226,-76.60469,-113.215367,-136.872629,-157.017219,-64.703842,-93.107796,-110.790644,-128.098698,24.799404,36.548367,35.18343,31.317444,16.609383,12.365341,8.396244,4.231567,-1.879921,-6.060047,-8.313446,-9.86412,-18.159657,-22.076283,-22.835598,-22.271347,-33.672352,-44.197025,-49.017105,-52.278557,-17.12308,-41.713083,-63.657265,-78.422097,-81.650933,-114.955462,-135.929453,-153.337357,-81.052881,-117.174371,-141.847149,-161.403906,-74.249529,-107.655668,-131.059321,-150.130782,-60.859292,-86.058091,-102.485862,-118.827306,180.14205,33.410508,-175.559378,13.804567
85,-7.238846,11.352412,2.437363,2.887171,-26.442604,-38.2584,-37.306252,-39.848442,-14.793777,-12.060471,-9.151955,-5.684853,2.004433,3.707771,5.742416,8.474808,17.651825,20.376205,21.527252,21.728439,33.297729,41.583023,45.165024,46.87088,-17.1513,-48.286229,-74.013704,-93.843305,-82.05475,-118.686175,-139.86141,-157.095827,-82.056078,-121.753287,-145.31533,-165.389895,-75.872268,-112.102192,-135.170386,-155.242851,-63.449197,-90.382689,-107.400423,-124.588527,25.8922,39.165573,39.142399,38.315105,21.026287,16.843586,12.954369,8.291645,2.520275,-1.220741,-3.356037,-5.245628,-14.26815,-17.920418,-18.264313,-17.788467,-30.520477,-40.504303,-45.049267,-48.120289,-15.043049,-38.973927,-61.451139,-77.182488,-79.691253,-113.211662,-134.526113,-152.279573,-80.077286,-116.787751,-141.881544,-162.135618,-73.948681,-107.715412,-131.078248,-150.161194,-60.991993,-86.658089,-102.887425,-118.56641,172.842493,48.75848,-173.182726,20.687299
86,-9.99836,13.821595,9.204712,7.194077,-28.809929,-43.069954,-44.731865,-47.187195,-20.350456,-17.009239,-13.178101,-9.006271,-3.064156,0.792389,2.997894,6.515007,12.923355,17.511635,18.82473,19.538956,29.803276,37.788506,40.096779,41.197128,-14.071283,-39.545828,-61.579456,-82.700752,-77.759392,-114.946045,-133.872886,-147.327066,-77.360453,-115.984873,-135.215711,-148.438326,-70.778044,-103.604471,-122.86217,-137.994726,-58.378068,-82.906288,-97.11336,-109.018315,24.705563,38.67239,40.806541,39.757633,19.579697,15.839481,11.847954,6.426716,1.676273,-1.838207,-4.848747,-8.045998,-14.614906,-18.565521,-19.779797,-20.316925,-30.537186,-40.713615,-45.886745,-49.101734,-14.924581,-37.498308,-57.617426,-71.872632,-79.135839,-113.263007,-134.547046,-151.977397,-78.337375,-115.01993,-139.060014,-158.884891,-71.862104,-105.355465,-128.357587,-147.048109,-59.138864,-84.4829,-100.373041,-115.492073,161.178646,65.469701,-165.643501,30.771002
87,-10.009117,9.581194,9.487324,8.621346,-30.406837,-46.524124,-54.111671,-54.605942,-28.924713,-20.998077,-22.116623,-22.855339,-7.83371,-1.315613,-5.792542,-8.588333,11.026268,17.3283,10.928192,7.768822,27.549477,33.299561,26.936874,22.449188,-12.903212,-26.809744,-40.973035,-52.43317,-70.476301,-101.886914,-94.064433,-82.310243,-69.823877,-97.584423,-87.763051,-75.80814,-62.812704,-85.485356,-74.318257,-61.648771,-53.97656,-71.588024,-62.438188,-51.881029,27.951908,44.632645,51.354275,52.099457,22.102776,18.539028,15.354366,11.258984,4.726753,2.109032,-0.630512,-4.968681,-10.434837,-15.028439,-15.269451,-16.055603,-24.660702,-36.101704,-39.247112,-40.811405,-14.705521,-35.904468,-52.750382,-61.065075,-74.93289,-107.275564,-125.025503,-138.605129,-73.483361,-109.615318,-130.054611,-145.144127,-67.053167,-98.815572,-118.345282,-133.28283,-55.026595,-77.873352,-91.330527,-103.397144,149.705629,75.6305,-157.620077,39.971952
88,-15.363922,65.88877,4.650707,2.447848,-35.306854,-62.172203,-76.719131,-80.571213,-58.936501,-69.201851,-68.975487,-66.194,-43.123055,-52.474365,-51.969337,-48.767967,-25.960579,-32.411041,-32.58625,-29.361076,-8.171768,-10.55294,-12.896004,-13.115158,-5.860238,-23.808118,-42.362573,-55.794585,-56.73986,-83.359536,-71.528374,-58.644829,-63.883364,-93.109988,-78.001762,-64.393731,-66.443505,-94.027229,-79.637716,-65.86373,-65.076166,-87.751164,-78.00769,-65.935207,27.15992,45.764179,57.373295,71.337891,33.616848,36.127968,35.142288,32.884941,18.973846,24.716721,25.773869,23.366718,5.194016,8.401108,9.850903,10.407772,-6.618919,-9.23893,-9.64777,-9.667282,-12.915099,-29.154994,-40.037269,-48.744911,-60.848794,-88.850383,-100.496634,-108.528294,-58.783397,-83.544911,-96.418822,-103.376179,-50.478245,-66.892307,-74.405727,-78.382793,-38.302731,-46.996973,-47.449294,-46.16609,133.736658,139.215918,-153.574419,40.116448
89,-15.601845,35.608499,49.83839,-3.456047,-36.467628,-67.989578,-89.082069,-100.77095,-76.315613,-109.001427,-110.833855,-104.766655,-68.947449,-101.321983,-102.269096,-95.859146,-59.190331,-89.056892,-88.813591,-81.040993,-49.200554,-75.270309,-77.300835,-71.306763,6.296875,-1.036295,-5.547287,-6.260627,-33.626187,-30.051826,-13.90539,-4.519389,-42.772349,-35.808199,-18.972073,-10.309972,-44.534088,-38.307362,-23.294108,-15.324661,-41.871225,-37.878135,-27.780461,-21.583375,21.132717,36.841965,48.991127,57.495003,74.092026,75.590343,71.096306,66.644211,70.763054,72.102814,64.937782,58.633575,60.458336,60.802002,56.148891,52.775345,47.486916,46.771889,44.141693,42.068481,-19.575683,-38.865462,-54.747761,-66.913611,-63.562787,-99.394636,-119.724447,-132.868423,-64.074944,-98.890413,-110.190337,-113.162416,-59.830777,-84.523223,-86.353567,-82.480427,-52.62154,-71.277451,-74.059616,-71.119617,117.36208,169.935189,-104.508762,31.771174
90,-20.360298,24.174484,-9.541512,0.366458,-42.273903,-79.083366,-102.852287,-115.737534,-79.431725,-113.988018,-124.395218,-126.928883,-66.989708,-102.548618,-113.581867,-116.576328,-52.941284,-86.121826,-98.664837,-103.323154,-37.464638,-62.870636,-74.905586,-81.608849,-9.943854,1.945323,18.216989,35.951275,4.572927,26.907619,39.117713,45.273611,17.388175,43.390038,55.921729,61.690329,29.708741,53.479068,62.866489,64.425255,39.977217,60.429632,68.564261,69.252037,40.704174,62.697601,78.091564,93.894539,54.432621,80.619392,97.956104,105.758972,46.332951,78.9081,95.188465,100.352268,40.411434,72.525501,88.306274,94.041595,37.940712,62.203217,77.600327,86.366673,-17.527577,-35.893291,-45.115005,-48.244177,-68.959618,-88.177396,-86.182364,-80.351303,-66.688222,-87.404806,-78.530747,-68.177981,-57.89768,-73.727522,-66.173347,-57.813051,-41.833064,-51.940309,-49.933822,-46.534369,97.0786,189.5011,-113.973455,27.529059
91,-32.852325,49.170927,7.175217,4.671233,-40.491943,-75.50972,-96.938667,-109.459362,-84.350567,-114.322472,-125.877914,-132.118893,-71.488152,-102.49506,-115.596542,-120.362778,-55.630531,-85.977402,-98.664494,-102.489395,-39.143829,-63.140945,-75.571632,-82.212811,-6.037708,5.299667,17.458756,29.67027,25.641056,58.21341,74.294391,83.778698,39.198853,73.021776,85.709201,91.524114,48.860507,78.62927,87.740975,88.614805,54.368706,77.317506,85.124178,86.050619,39.148464,64.162159,82.677898,101.168747,48.04287,76.678047,95.798721,107.220039,40.774784,71.900539,91.7272,104.197769,36.651592,66.102161,84.038486,95.257015,35.830364,57.792206,72.987328,83.181152,-16.888089,-40.804425,-54.428326,-62.205513,-69.289705,-84.729099,-88.444868,-89.023469,-66.991818,-86.093783,-89.722052,-91.784948,-59.850722,-78.880933,-84.935592,-88.646298,-47.27874,-64.252137,-72.319149,-78.346669,64.46557,236.795941,-106.558943,30.324207
92,4.956093,21.95468,0.341206,-3.434373,-50.630035,-86.558762,-110.97908,-129.085007,-87.11832,-116.343212,-132.810459,-145.243664,-74.431629,-109.08268,-129.203281,-145.422363,-60.649796,-94.590054,-115.622292,-130.644722,-45.154839,-70.405312,-85.696392,-98.008804,-2.625195,9.56236,24.294341,34.589493,25.953389,53.314812,73.628474,92.182312,37.953717,64.611,85.529446,105.902883,48.50007,74.810933,93.038049,108.511097,56.578877,75.711439,89.624918,101.710647,23.894749,48.657188,69.767818,84.145432,45.165424,72.902756,90.181847,104.615707,44.780388,74.669437,94.062881,109.877529,45.999355,74.501839,93.445702,108.318787,48.485355,69.992695,84.289455,95.543232,-33.248707,-55.269552,-65.530587,-72.192252,-65.275897,-81.814078,-92.872805,-102.257849,-57.276471,-74.800343,-85.433578,-96.109514,-45.523917,-62.672747,-72.30964,-81.125221,-29.650819,-43.854649,-52.912199,-61.080544,69.539137,258.325547,-106.100264,26.46476
93,-24.202881,36.126523,8.946924,-15.478412,-38.778648,-71.603909,-92.960701,-109.915981,-82.226715,-111.198807,-122.942791,-130.343742,-70.305862,-100.978775,-115.707035,-123.399582,-55.119324,-84.813538,-99.754829,-108.127441,-38.636169,-60.027237,-73.60405,-84.195042,-1.585689,12.976293,29.280193,37.864056,36.814855,68.764024,85.614538,96.281242,48.219229,80.860497,97.58572,106.827719,56.827854,86.11379,100.295204,106.718544,62.756388,86.574448,96.892201,101.239368,21.080909,43.076563,62.072063,75.14894,41.587267,67.511316,82.771569,95.458522,41.399961,69.756708,86.881671,101.038666,42.353669,69.081998,85.111814,97.931238,44.233761,64.632283,76.778784,86.324015,-32.439648,-52.880123,-61.846266,-68.112544,-58.107063,-71.081414,-80.968069,-89.447072,-48.572741,-61.919127,-71.649502,-81.549805,-36.382661,-49.647365,-58.987375,-67.683361,-21.142696,-32.250514,-40.73351,-48.688029,44.969444,294.225029,-97.520151,10.759307
94,0.669708,15.289402,8.946924,-15.478413,-42.02013,-72.932625,-96.006088,-114.089813,-80.570297,-109.945679,-122.128773,-130.494232,-69.738579,-102.96032,-118.406181,-129.045353,-55.930595,-87.82814,-104.03801,-114.507179,-39.669228,-65.897369,-78.066959,-88.348846,-1.08162,10.665099,24.751232,32.68579,30.07208,61.315504,79.50242,93.953931,43.065046,75.626162,95.207526,109.833852,54.411437,84.22892,101.460929,111.546932,64.072289,86.530729,98.840982,107.32234,18.267069,37.495938,54.376307,66.152449,38.00911,62.119875,75.36129,86.301337,38.019534,64.843979,79.700461,92.199803,38.707982,63.662158,76.777926,87.543688,39.982167,59.27187,69.268113,77.104798,-31.630588,-50.490692,-58.161943,-64.032835,-50.938228,-60.348749,-69.063333,-76.636295,-39.869009,-49.037911,-57.865426,-66.990094,-27.241405,-36.621982,-45.665109,-54.2415,-12.634571,-20.646379,-28.554821,-36.295513,45.225649,309.647981,-88.986731,-4.585555
95,-5.740356,13.967449,8.946925,-15.478412,-42.472057,-74.271812,-98.339767,-116.04229,-79.392586,-108.528328,-120.711994,-129.707851,-67.043324,-100.613365,-117.083874,-128.87146,-52.284908,-84.59095,-102.210732,-114.848557,-35.779095,-62.078533,-74.984264,-86.537075,-0.76657,11.064871,25.464203,35.433992,28.995276,59.667509,77.729319,91.871337,42.401106,74.405294,94.074344,108.319794,54.288801,84.125921,101.027194,110.84199,64.477372,87.515771,99.925813,108.613788,15.453229,31.915312,46.68055,57.155957,34.430952,56.728434,67.951011,77.14415,34.639106,59.931249,72.51925,83.360939,35.062294,58.242316,68.444037,77.156138,35.730571,53.911457,61.75744,67.88558,-30.821529,-48.101263,-54.477622,-59.953128,-43.769394,-49.616085,-57.158597,-63.825519,-31.165278,-36.156695,-44.08135,-52.430384,-18.100149,-23.5966,-32.342843,-40.799639,-4.126448,-9.042244,-16.376132,-23.902998,39.019318,323.701541,-80.505781,-19.977856
96,-5.888214,11.389184,8.946924,-15.478412,-40.061817,-71.675835,-95.224686,-112.396774,-76.677303,-105.772018,-118.375912,-127.106209,-64.208736,-97.587547,-114.106865,-125.521545,-49.579296,-82.066383,-99.47073,-112.02095,-33.289375,-59.398727,-72.118034,-83.753815,-1.768594,9.190746,23.634353,32.638798,28.299411,58.638438,76.371798,89.854753,42.053327,74.267035,93.471228,107.191799,54.241871,83.49829,100.312124,110.295437,64.71894,87.29631,99.177769,107.818319,12.639389,26.334686,38.984795,48.159466,30.852795,51.336994,60.540733,67.986965,31.258678,55.01852,65.338039,74.522076,31.416607,52.822475,60.110149,66.768589,31.478977,48.551044,54.246769,58.666363,-30.012471,-45.711834,-50.793301,-55.87342,-36.60056,-38.883422,-45.253862,-51.014743,-22.461548,-23.27548,-30.297274,-37.870674,-8.958894,-10.571218,-19.020578,-27.357779,4.381675,2.561891,-4.197443,-11.510483,32.711163,335.479444,-71.978798,-35.067549
97,-2.615776,6.204311,8.946924,-15.478413,-37.761555,-69.093132,-92.199554,-110.763073,-74.437408,-102.704372,-116.352997,-126.309185,-62.437191,-94.332218,-111.697311,-124.021854,-48.273811,-79.232826,-97.124805,-110.22543,-32.182674,-56.65329,-69.825153,-82.262535,-4.031129,8.172729,24.747898,32.429896,30.268199,59.364129,76.308195,89.853395,44.15315,74.573688,92.446604,105.569616,55.393392,83.49582,98.970967,108.940139,64.209252,87.058386,98.441272,107.136718,9.825549,20.754061,31.289039,39.162974,27.274637,45.945554,53.130455,58.82978,27.878251,50.105791,58.156829,65.683212,27.77092,47.402635,51.776261,56.38104,27.227383,43.190632,46.736097,49.447146,-29.203411,-43.322403,-47.108978,-51.793711,-29.431725,-28.150757,-33.349125,-38.203966,-13.757816,-10.394264,-16.513197,-23.310963,0.182362,2.454165,-5.698312,-13.915918,12.889799,14.166026,7.981246,0.882033,29.935255,341.741276,-63.192005,-50.488442
98,-3.682365,4.618869,8.946924,-15.478412,-35.261021,-65.586205,-88.721237,-108.144035,-73.012104,-100.895691,-114.32024,-123.905067,-61.210899,-92.653999,-109.950142,-121.483669,-46.603947,-77.288589,-95.241623,-108.667431,-30.092182,-54.20002,-67.556076,-79.964275,-4.102203,7.372011,23.473308,30.945601,28.707087,58.78491,75.719467,88.555957,42.339108,74.096789,92.317669,105.145885,53.560455,82.974584,98.65147,108.78638,62.174946,86.438906,98.030817,106.945786,7.01171,15.173436,23.593283,30.166483,23.69648,40.554114,45.720177,49.672594,24.497824,45.193062,50.975619,56.844349,24.125233,41.982794,43.442374,45.993491,22.975788,37.83022,39.225426,40.227928,-28.394352,-40.932974,-43.424657,-47.714003,-22.262891,-17.418093,-21.44439,-25.393189,-5.054086,2.486952,-2.729121,-8.751253,9.323618,15.479547,7.623953,-0.474058,21.397923,25.770161,20.159935,13.274548,26.191921,346.643085,-54.30605,-65.683913
99,-1.746025,4.487279,8.946925,-15.478412,-34.661465,-65.026188,-88.03791,-107.525139,-72.649212,-100.436153,-113.905048,-123.519917,-61.281109,-92.200184,-109.507828,-121.308861,-46.771374,-77.107315,-95.0354,-108.437748,-30.221329,-53.86322,-67.351055,-79.699116,-4.954791,6.278782,22.203843,29.176267,29.127484,57.811353,73.958407,86.607917,43.07684,73.170842,90.801449,103.987323,54.209328,82.158059,97.240165,107.607194,62.42695,85.94657,97.252515,106.183168,4.197869,9.592809,15.897526,21.169991,20.118322,35.162673,38.309898,40.515408,21.117396,40.280332,43.794407,48.005485,20.479545,36.562953,35.108485,35.60594,18.724193,32.469806,31.714754,31.00871,-27.585293,-38.543545,-39.740336,-43.634295,-15.094057,-6.685429,-9.539654,-12.582413,3.649645,15.368167,11.054955,5.808457,18.464873,28.504929,20.946218,12.967803,29.906046,37.374295,32.338624,25.667063,24.581623,351.780256,-45.223398,-80.512433
100,-1.091309,4.000747,8.946924,-15.478412,-34.63995,-65.411682,-88.710938,-108.033199,-71.773167,-99.865551,-113.636971,-123.507614,-60.472183,-91.893253,-109.608936,-121.910648,-46.322365,-77.110405,-95.31229,-108.662052,-30.437508,-53.953171,-67.713661,-80.136566,-6.766116,4.764847,21.151183,28.208638,29.018742,56.995013,72.536233,84.23738,43.724726,73.327317,90.053096,102.21558,54.956014,82.430131,96.909676,106.688039,62.638877,85.579402,96.724919,105.378313,1.384029,4.012184,8.201771,12.1735,16.540165,29.771232,30.89962,31.358223,17.736969,35.367603,36.613197,39.166622,16.833858,31.143112,26.774597,25.218391,14.472599,27.109394,24.204082,21.789493,-26.776235,-36.154115,-36.056015,-39.554587,-7.925223,4.047235,2.365082,0.228363,12.353375,28.249383,24.839031,20.368167,27.606128,41.530311,34.268483,26.409663,38.414169,48.97843,44.517312,38.059578,23.537807,356.13806,-36.228981,-95.633789
101,0.521049,3.979258,8.946924,-15.478413,-35.242538,-66.222267,-89.614334,-108.998852,-71.021576,-100.040874,-114.373226,-124.683094,-59.26775,-91.913795,-109.67514,-122.371445,-45.335026,-77.014103,-95.049877,-108.303967,-30.304413,-54.758205,-68.52499,-80.708885,-8.464932,2.792971,20.622476,28.863872,29.547572,56.657732,71.629613,83.15471,44.912433,73.008624,88.930412,100.812673,56.252958,82.264022,96.191025,105.890471,63.579521,85.535559,96.366273,104.6483,-1.429811,-1.568441,0.506015,3.177009,12.962007,24.379792,23.489342,22.201037,14.356542,30.454874,29.431987,30.327759,13.188171,25.723271,18.440709,14.830842,10.221004,21.748981,16.693411,12.570276,-25.967175,-33.764685,-32.371692,-35.474878,-0.756388,14.7799,14.269818,13.03914,21.057107,41.130599,38.623108,34.927878,36.747385,54.555694,47.590749,39.851524,46.922294,60.582565,56.696002,50.452094,23.81072,360.325742,-27.530193,-110.903779
102,0.098419,3.276045,8.946924,-15.478412,-34.12056,-64.875355,-88.413677,-109.059563,-72.054691,-100.274105,-114.28545,-124.431095,-60.788212,-93.088989,-110.86853,-123.595276,-46.71999,-78.259449,-96.394901,-110.203114,-31.266632,-55.92905,-69.706936,-82.173615,-10.142073,-0.089168,18.027168,27.08441,28.600691,55.53054,69.744744,80.711493,43.925662,71.256826,86.970268,98.662709,55.381845,80.928237,94.464545,104.047839,63.125223,84.782513,94.861168,102.695443,-4.24365,-7.149067,-7.189741,-5.819483,9.38385,18.988352,16.079064,13.043852,10.976114,25.542145,22.250776,21.488896,9.542484,20.303431,10.106821,4.443293,5.96941,16.388569,9.182739,3.351059,-25.158116,-31.375256,-28.687371,-31.39517,6.412446,25.512563,26.174554,25.849916,29.760837,54.011814,52.407184,49.487588,45.88864,67.581076,60.913015,53.293384,55.430417,72.1867,68.874691,62.844609,23.58264,363.494788,-18.909769,-126.489189
103,0.243645,3.056892,8.946924,-15.478412,-34.128056,-64.952087,-88.780289,-109.654884,-70.756359,-100.139694,-115.072632,-125.834427,-59.728146,-93.398781,-111.720715,-125.202427,-46.399841,-79.059849,-97.577362,-111.491718,-32.106285,-57.394638,-71.459198,-83.994598,-11.08284,-1.555122,16.700275,25.631546,28.821202,53.826661,67.295414,77.793231,45.05273,70.382749,84.860442,95.865971,56.493105,80.483634,92.836249,101.809448,63.535925,84.194587,93.84031,101.259005,-7.05749,-12.729692,-14.885497,-14.815974,5.805693,13.596912,8.668785,3.886667,7.595687,20.629416,15.069566,12.650032,5.896798,14.88359,1.772933,-5.944256,1.717816,11.028157,1.672068,-5.868158,-24.349057,-28.985826,-25.00305,-27.315462,13.58128,36.245227,38.079289,38.660692,38.464568,66.89303,66.191259,64.047298,55.029896,80.606458,74.23528,66.735245,63.93854,83.790834,81.053379,75.237124,23.728094,366.088799,-10.061036,-142.430482
104,-0.551949,2.177937,8.946925,-15.478413,-32.856216,-64.102592,-88.405781,-108.747997,-71.727562,-101.169949,-116.193466,-126.87418,-61.054401,-94.960384,-113.915691,-127.65707,-47.83287,-80.136909,-98.720913,-112.421265,-33.855286,-59.050312,-73.182163,-85.436954,-11.928327,-2.53998,15.768647,24.267912,27.959599,52.807409,66.374159,76.962441,44.479254,68.978915,82.900793,93.056451,56.269013,79.534839,91.14719,99.228404,63.63275,83.531697,91.930555,97.997533,-9.87133,-18.310318,-22.581253,-23.812466,2.227535,8.205471,1.258507,-5.270519,4.21526,15.716686,7.888355,3.811169,2.25111,9.463749,-6.560955,-16.331806,-2.533779,5.667744,-5.838604,-15.087376,-23.539998,-26.596396,-21.318728,-23.235754,20.750114,46.977892,49.984025,51.471469,47.168299,79.774246,79.975336,78.607009,64.171152,93.631841,87.557546,80.177105,72.446664,95.39497,93.232069,87.629639,23.072548,368.097371,-1.217709,-158.07826
105,0.583992,1.091006,-5.104065,7.59562,-33.109417,-64.241123,-88.597755,-109.083252,-72.690754,-101.731625,-116.603508,-127.488098,-62.560387,-96.181698,-115.292072,-129.828243,-49.712906,-81.884193,-100.493031,-114.536705,-35.607548,-60.506401,-74.68832,-87.411804,-12.138031,-2.676448,15.328861,23.389883,28.414329,51.869235,64.21024,73.486695,44.663023,67.930331,81.063903,90.442988,56.377756,78.904244,89.42176,96.585919,63.90723,83.450371,91.242471,96.701948,-10.52208,-16.355687,-17.846527,-17.144528,8.657398,14.436016,4.758968,-3.291226,10.700893,23.281421,15.103092,10.57806,7.861309,15.142536,-1.868496,-12.297097,1.667156,9.824829,-2.188626,-11.174794,-27.375434,-33.595193,-29.947097,-32.039304,3.859077,28.495345,32.723344,34.303898,32.875662,63.645481,61.873892,57.92729,53.102308,82.893588,77.055036,68.452843,65.618057,87.926587,87.091762,81.940337,23.684835,369.176212,-6.293478,-150.494806
106,0.471725,0.766693,-5.104065,7.59562,-33.524551,-64.807777,-89.43758,-109.775505,-73.026066,-102.302799,-117.389946,-128.527794,-62.768097,-96.613655,-115.848312,-130.685177,-49.859562,-82.289658,-101.116676,-115.336304,-35.797119,-61.092567,-75.618896,-88.718376,-11.975072,-2.839654,14.576864,22.326973,28.065006,51.087351,63.303805,72.381239,44.476969,67.094169,80.114923,89.300173,56.339779,78.093276,88.359591,95.095634,63.917481,83.26617,90.995716,96.253949,-11.172829,-14.401055,-13.111801,-10.476589,15.087261,20.666561,8.25943,-1.311932,17.186527,30.846157,22.317829,17.344951,13.471508,20.821323,2.823963,-8.262387,5.868091,13.981914,1.461353,-7.262211,-31.210871,-40.59399,-38.575467,-40.842855,-13.031962,10.012798,15.462663,17.136326,18.583025,47.516715,43.772448,37.24757,42.033464,72.155336,66.552525,56.72858,58.789449,80.458203,80.951455,76.251035,24.186172,370.02264,-11.367931,-142.81945
107,0.8741,1.576735,-5.104065,7.59562,-33.44593,-64.814358,-89.722996,-109.938354,-73.368702,-103.271885,-118.400631,-129.266338,-63.298359,-97.906609,-117.300911,-132.054291,-50.525723,-83.673248,-102.482986,-116.483574,-36.690044,-62.408009,-77.006721,-89.977341,-12.852175,-4.507471,12.698108,21.02546,26.891502,49.254352,61.035836,69.557517,43.509402,65.110314,77.673003,86.586983,55.576297,76.335057,86.159115,92.575538,63.446325,82.063581,89.412065,94.373896,-11.823578,-12.446423,-8.377075,-3.808651,21.517124,26.897106,11.759892,0.667362,23.672161,38.410892,29.532566,24.111843,19.081707,26.500111,7.516422,-4.227676,10.069027,18.139,5.111332,-3.349628,-35.046307,-47.592787,-47.203837,-49.646405,-29.922999,-8.469748,-1.798018,-0.031246,4.290388,31.387951,25.671005,16.567852,30.964621,61.417083,56.050015,45.004318,51.960841,72.989821,74.811149,70.561733,25.115261,371.616233,-16.417007,-135.206973
108,-0.143509,1.259153,-0.960045,-4.666124,-32.943535,-64.088573,-89.20126,-109.79805,-72.445393,-104.076233,-119.654789,-130.542698,-62.161503,-98.458958,-117.954025,-132.141552,-49.465256,-84.038544,-102.957802,-116.441002,-36.060505,-62.779999,-77.305984,-89.592304,-13.14623,-5.509001,11.520898,20.113653,26.180075,48.708848,60.503795,69.200167,42.910547,64.256614,76.470969,85.308379,54.952865,75.226698,84.969802,91.569439,62.742494,80.948553,88.041144,92.907323,-11.320839,-13.446064,-12.204266,-11.296492,13.892727,25.587101,14.190473,7.344246,18.124323,43.828983,39.636497,38.549995,16.611929,32.649135,13.383751,0.904856,11.67223,24.805841,11.458797,2.125854,-40.477658,-51.9443,-45.286154,-36.367704,-18.310147,-0.7911,5.343417,7.175089,21.570638,41.53853,32.485749,22.651502,50.549798,71.441892,60.914728,49.731296,71.009006,84.87253,80.984754,74.896673,24.866638,372.956634,-17.482166,-139.791849
109,1.014748,1.601867,-0.960045,-4.666124,-33.192387,-64.853325,-90.706558,-111.242409,-72.671413,-105.002403,-121.043072,-132.400246,-62.35239,-99.252491,-119.167385,-133.567886,-49.941273,-85.279026,-104.600716,-118.140965,-37.582397,-64.963188,-79.816074,-91.776066,-14.513632,-7.10068,10.074827,18.459483,25.687122,47.512002,58.142335,65.40122,43.164032,63.72519,74.422029,81.505295,55.298544,74.636056,83.11729,88.262396,62.596269,80.440533,86.992684,91.034372,-10.8181,-14.445705,-16.031456,-18.784332,6.26833,24.277096,16.621056,14.02113,12.576485,49.247074,49.740429,52.988148,14.142151,38.798161,19.25108,6.037388,13.275433,31.472683,17.806263,7.601337,-45.909008,-56.295813,-43.368472,-23.089004,-6.697295,6.887548,12.484853,14.381424,38.850889,51.689109,39.300494,28.735153,70.134976,81.466701,65.779441,54.458275,90.057171,96.755239,87.15836,79.231614,25.784769,374.933774,-18.538828,-144.082699
110,0.707817,0.858516,-27.659626,106.060254,-32.798595,-64.702435,-90.610714,-111.001682,-73.165512,-105.920792,-122.457848,-134.751778,-63.22031,-100.161209,-120.233059,-134.859009,-51.027431,-86.48386,-106.072712,-120.004349,-38.783169,-66.321945,-81.276569,-93.48959,-14.922111,-7.816799,9.049152,16.782527,24.829285,45.801763,55.757288,62.710137,42.73956,62.465111,72.094903,78.411785,55.183379,73.938029,81.600576,86.030365,62.704456,80.172968,85.999922,89.396874,21.956234,44.232445,60.703583,68.572197,34.101791,70.425797,79.88102,80.704651,28.968487,73.951607,69.460258,58.69812,26.857738,69.786415,60.353966,49.021683,28.223133,66.123276,60.360947,50.541573,-46.126508,-80.944756,-107.911161,-126.972525,-65.748875,-82.735209,-94.555843,-103.142485,-43.957587,-51.819803,-49.166666,-46.431586,-20.459795,-21.969098,-17.552863,-15.201593,2.204459,-1.329208,-1.163625,-1.618602,26.584911,376.032901,-46.106129,-37.781835
111,1.924667,2.067157,2.248936,13.457792,-32.242985,-64.888687,-91.596394,-112.424412,-74.833145,-107.683697,-124.085541,-136.433029,-65.551186,-102.465019,-122.481422,-137.381229,-53.57563,-88.877563,-108.405132,-122.453384,-41.046066,-68.265896,-83.163586,-95.628834,-15.51158,-9.55038,6.1764,13.467271,23.949342,42.778833,51.737397,58.069779,41.536785,59.175729,68.418962,74.902323,53.734776,70.922262,78.261916,82.707884,61.244182,77.837074,83.57486,87.037947,6.635685,21.436958,37.059174,45.164795,27.717018,63.898029,75.351963,78.565006,33.198338,70.838871,64.927082,54.50243,38.542843,70.729237,62.358456,53.437786,44.042759,70.507107,64.840565,57.363796,-38.180125,-63.008608,-75.757165,-82.082939,-59.44919,-81.37423,-91.544862,-96.78917,-41.113918,-59.745129,-57.310835,-51.613433,-21.552191,-38.580268,-34.971173,-28.865878,-1.696747,-14.977315,-15.710756,-13.170097,28.747416,378.006459,-43.619356,-24.417641
112,0.959702,1.023019,19.590454,-3.731948,-32.561989,-65.288715,-92.370586,-113.981609,-74.697762,-108.088646,-124.528027,-136.779442,-65.49099,-102.935429,-122.970829,-137.845058,-53.754845,-89.648552,-109.185505,-123.170872,-41.721497,-69.73114,-84.871387,-97.250175,-15.881033,-10.016967,5.605208,12.767515,23.594277,42.461127,50.580689,55.884679,41.564573,58.908596,66.937385,72.052851,53.826846,70.971601,77.306514,80.66129,61.095858,77.376786,82.547765,85.295165,-6.373959,-2.385578,6.50219,13.598099,4.211025,23.249989,26.40295,26.821346,14.165382,31.428394,27.251186,21.09581,23.00251,38.479671,31.3064,24.342213,30.759945,40.988216,35.105152,28.239269,-28.713139,-50.179002,-63.829579,-75.22321,-39.658615,-55.484196,-61.884534,-65.893988,-23.019504,-39.932448,-43.801975,-41.877617,-7.085119,-22.440717,-25.711019,-23.534348,8.315557,-1.795918,-5.412609,-4.843888,30.691395,378.423089,-23.044624,-28.755978
113,1.459465,0.671042,-56.363926,60.311689,-33.205147,-65.706367,-92.780972,-114.064922,-75.298462,-108.886013,-125.418262,-137.75568,-66.16848,-103.336945,-123.357353,-138.476601,-54.487038,-89.991417,-109.406605,-123.21785,-42.370205,-69.710712,-84.603939,-96.68375,-15.902398,-10.677511,4.34408,11.328113,23.310719,40.835609,48.776589,54.346229,41.421991,57.3276,65.172867,70.706074,53.800232,69.505831,75.781341,79.325752,61.186754,76.503079,81.530057,84.370144,9.71426,26.709766,42.597828,52.502575,44.515114,68.795242,73.148518,71.280212,46.072311,76.227379,84.174271,84.999504,44.778614,71.953182,68.79982,61.224861,42.522984,60.898705,57.616196,52.621822,-37.985457,-71.068889,-92.280804,-103.393223,-84.97644,-122.632521,-135.895614,-142.033543,-77.409514,-116.114456,-129.099981,-134.8943,-65.168544,-98.764288,-99.803301,-95.713015,-50.65377,-80.199737,-82.917403,-79.652597,32.768583,379.096277,-78.790827,31.557857
114,0.210571,-0.500364,5.9618,7.170087,-33.127041,-65.355034,-92.22599,-113.151913,-74.968128,-108.736954,-125.509129,-138.183861,-66.023884,-103.299065,-123.462639,-139.080391,-54.557934,-90.268307,-109.945793,-124.368553,-42.389259,-69.83757,-84.824181,-97.379494,-15.83719,-10.668804,4.621648,12.024719,23.167211,40.03378,48.098878,53.828884,40.983748,56.019603,63.895436,69.852622,53.341735,68.062724,74.173175,78.058758,61.007122,75.775351,80.817581,84.106655,-30.595093,-34.279175,-27.855492,-20.679817,0.867863,18.4865,22.52243,22.536678,30.344982,56.660328,58.726788,56.881828,51.473751,74.134312,72.534828,69.082489,65.606174,82.640762,77.829666,71.250057,-24.84287,-52.143962,-78.472177,-98.185409,-70.438201,-110.345146,-123.611697,-128.335665,-66.177299,-112.107966,-123.989301,-125.498265,-57.415657,-97.636324,-106.618786,-107.044802,-46.791004,-76.022599,-84.549374,-85.644981,33.830824,377.87439,-71.977358,38.006421
115,0.53524,0.690678,-17.022229,20.039043,-33.040295,-65.192814,-92.361603,-113.488255,-74.477177,-108.37698,-125.138855,-137.674942,-65.819321,-103.195438,-123.541832,-139.244328,-54.719753,-90.657463,-110.500603,-125.068359,-42.852459,-70.721626,-85.827999,-98.421993,-16.464512,-11.801245,3.125312,10.570127,21.744914,38.018247,46.007268,51.602782,39.932942,54.323196,61.913001,67.400883,52.582267,66.826296,72.638615,76.129242,60.47718,74.906276,79.738678,82.709552,-28.911323,-32.896127,-27.611131,-19.958095,-5.212211,3.168755,5.583458,5.81892,23.177977,47.263613,49.686699,48.340645,44.508734,68.162585,68.185158,66.100645,59.19076,78.753147,76.451712,71.685248,-25.678307,-55.625188,-81.734528,-100.301904,-66.798122,-108.425573,-126.015085,-135.48874,-64.140585,-112.430797,-126.946744,-128.741674,-56.772557,-99.114151,-111.223314,-113.658874,-47.742393,-78.890196,-89.525933,-92.676485,34.443026,378.441753,-88.922625,57.922149
116,-0.819283,-0.11782,-17.022228,20.039043,-32.729759,-64.638577,-91.768227,-112.960567,-73.628998,-107.957783,-124.770184,-137.138844,-64.83902,-102.880611,-123.069878,-138.327141,-53.767891,-89.991703,-109.637489,-124.025173,-42.089825,-70.566673,-85.911713,-98.566647,-16.685764,-11.787166,3.187618,10.590813,21.722807,37.673062,45.404522,50.851156,40.268308,54.347217,61.387258,66.30858,52.984385,66.874955,72.45818,75.56824,60.685279,74.798768,79.471113,82.246238,-27.227554,-31.513081,-27.366772,-19.236374,-11.292286,-12.148991,-11.355515,-10.898838,16.010971,37.866898,40.64661,39.799461,37.543716,62.190857,63.835487,63.118801,52.775345,74.865532,75.073757,72.120438,-26.513744,-59.106414,-84.996879,-102.4184,-63.158044,-106.505999,-128.418472,-142.641815,-62.103871,-112.753628,-129.904187,-131.985084,-56.129457,-100.591977,-115.827841,-120.272945,-48.693781,-81.757792,-94.502491,-99.707989,33.809795,378.127459,-105.758801,77.764718
117,0.323982,-0.355868,-3.585091,5.893398,-33.029194,-65.102062,-92.080708,-112.917194,-73.279266,-107.424774,-124.274254,-136.859608,-64.598637,-102.035809,-122.337799,-137.845688,-53.625698,-89.434547,-109.200726,-123.529987,-41.935272,-69.776802,-84.746246,-97.007275,-16.556767,-11.950804,2.443464,9.800655,22.163643,37.776679,45.277378,50.382902,40.559338,54.195187,61.43462,66.424918,53.130487,66.890022,72.48955,75.460362,60.685464,74.770178,79.318404,81.983552,-25.765285,-27.886448,-21.535149,-13.253231,-9.896107,-11.849384,-14.121094,-14.814606,15.883255,31.372032,31.203804,29.48101,33.791885,51.846313,51.075439,48.920975,44.680367,60.148487,57.459869,52.628117,-16.748317,-45.143534,-69.855524,-84.499449,-59.351501,-103.051527,-123.408816,-136.087781,-60.344262,-107.954849,-124.995987,-126.715828,-56.660634,-97.925471,-114.524753,-119.532866,-51.133077,-84.474841,-99.169958,-106.618724,34.276285,377.955824,-109.201384,83.842347
118,-0.080223,-0.376739,-6.981983,7.653655,-32.467518,-64.75605,-91.800613,-112.897053,-72.360592,-106.176968,-123.137856,-135.94368,-63.830338,-101.341667,-121.862354,-137.496758,-53.06385,-89.000187,-109.051723,-123.800526,-41.535244,-69.686737,-84.943829,-97.597046,-16.49193,-11.735172,2.859415,10.475649,22.170312,38.047516,45.502397,50.586246,40.580456,54.273549,61.203859,65.918935,53.06003,67.117758,72.682828,75.675439,60.568818,74.945919,79.804195,82.823913,23.588161,33.530045,33.849277,29.940605,41.83073,47.437763,46.310978,46.525555,25.549164,35.013371,36.495209,38.023109,6.772556,15.398998,19.359283,22.903461,-12.09074,-13.380375,-15.211658,-15.547886,-16.850854,-43.314672,-66.293946,-80.829128,-51.549367,-89.740546,-103.123003,-106.703631,-58.735355,-101.00166,-114.143444,-115.686402,-63.910534,-103.231714,-118.64082,-125.053785,-65.86512,-98.504442,-115.339797,-128.895988,34.321232,377.912645,-116.058197,91.829563
119,0.473328,0.500672,-1.225891,7.962932,-32.06583,-64.593143,-91.643429,-113.028202,-72.210159,-105.811501,-122.883568,-135.637779,-63.766136,-101.334801,-121.93222,-137.627964,-53.110085,-88.892441,-108.771687,-123.363304,-41.75354,-69.856682,-84.965343,-97.420177,-17.059972,-12.397568,2.464274,10.11904,21.692611,37.163744,44.881805,50.304541,40.200568,53.519761,60.586478,65.467787,52.767827,66.552989,72.179686,75.171123,60.377206,74.442036,79.345574,82.355475,-22.708111,-27.767086,-19.87627,-7.721615,-18.981571,-22.509499,-23.641834,-23.213425,3.336353,8.877583,11.897278,14.888191,22.834339,38.325233,47.644501,55.28944,37.84235,52.975674,57.812634,60.883312,-25.24857,-54.302818,-78.48888,-86.778224,-65.690613,-105.505519,-127.146784,-142.458386,-65.183735,-105.062583,-124.308581,-133.42498,-60.591388,-95.040985,-114.714358,-127.195475,-53.379557,-79.756647,-90.637563,-98.019547,34.741001,379.264902,-117.337646,100.644079
120,0.428925,-0.042423,-2.695141,3.505015,-31.958771,-64.195747,-90.960732,-112.15147,-71.612091,-105.164223,-122.261696,-135.29274,-63.317127,-100.726204,-121.386967,-137.326069,-52.877483,-88.440456,-108.413086,-123.131905,-41.773338,-69.653492,-84.779606,-97.27129,-17.010942,-12.471607,2.273835,9.986956,21.692858,37.038515,44.564964,49.752986,40.053046,53.51408,60.467424,65.179227,52.566952,66.43381,72.093544,75.089736,60.255496,74.299578,79.085296,81.950022,20.473022,21.328983,15.963478,11.545029,24.759521,26.908665,27.245922,29.020443,11.900425,15.562477,16.151848,15.988426,-1.697617,4.707813,8.988934,11.732941,-14.586067,-8.072319,-3.516369,-0.565281,-19.230622,-45.39668,-67.349198,-78.536953,-57.171125,-95.762724,-117.352582,-131.63783,-59.89546,-104.149603,-128.13371,-143.659802,-60.46872,-99.553551,-121.864592,-137.680046,-59.56278,-86.390679,-91.338307,-93.567219,35.177307,379.455849,-120.025406,104.382464
121,0.590515,0.370441,-1.56601,-0.682774,-31.796322,-64.242725,-91.302452,-112.051163,-70.813694,-105.594234,-122.91378,-135.492325,-61.923523,-101.154613,-121.906242,-137.257462,-51.108513,-88.523941,-108.710346,-123.110046,-40.004883,-69.543514,-85.254707,-97.644825,-17.661976,-13.019086,2.04962,11.355283,21.230841,37.37209,44.73947,50.107804,40.126159,53.836294,60.675152,65.581408,52.968083,66.58621,72.373768,75.772202,60.559061,74.316497,79.039292,81.94996,24.985027,34.03513,32.29414,27.030945,37.321072,48.38665,51.796188,54.436398,20.811424,29.349403,31.125469,31.576366,1.341877,6.213398,7.959023,8.929024,-18.44696,-18.972988,-20.772228,-22.900314,-17.163373,-40.646282,-62.14086,-76.200842,-53.484224,-91.144874,-112.483902,-128.047414,-57.008876,-100.592378,-127.073024,-145.890844,-59.031572,-100.811345,-127.960994,-147.278438,-58.891059,-94.255921,-113.993854,-129.681268,35.823498,379.863279,-121.53574,103.736678
122,1.055946,-0.417618,-0.898933,-0.284052,-32.212372,-64.535236,-91.443958,-112.220192,-71.084976,-106.283855,-123.393459,-135.860481,-62.081108,-101.156044,-121.619167,-136.880722,-51.217747,-88.49865,-108.729343,-123.210526,-40.248013,-69.19899,-84.899998,-97.312775,-17.88681,-12.723549,2.596296,11.124584,21.543792,37.610694,44.714647,49.529635,40.808192,54.286454,60.780992,65.41147,53.787388,67.145545,72.488932,75.418742,61.337425,75.117462,79.668467,82.402158,25.923786,35.364017,31.316757,23.737507,39.044437,38.800392,32.404861,27.083874,21.040077,22.581139,17.492695,13.720951,0.824203,3.228035,1.469135,0.388355,-19.252796,-19.505768,-21.212654,-22.823524,-18.771106,-45.432866,-69.12514,-84.416611,-53.368102,-94.09713,-115.563642,-128.296083,-54.210995,-101.867061,-128.44061,-145.364298,-53.780039,-98.643196,-123.943729,-140.72922,-52.061834,-86.747071,-104.377524,-118.115015,36.898813,379.20556,-122.415304,103.212525
123,0.695686,-0.584962,0.125713,5.460589,-32.473698,-64.678802,-91.400242,-112.020378,-70.798702,-106.049767,-123.256531,-135.937157,-61.718388,-100.943069,-121.385365,-136.787567,-50.832367,-88.22073,-108.404102,-123.055687,-39.982166,-69.093132,-84.856911,-97.446556,-17.724962,-12.550709,2.598087,11.397459,21.671925,37.776247,44.787512,49.3492,41.056799,54.748533,61.084187,65.354907,54.217356,67.587246,72.819914,75.527114,61.994141,75.571266,79.986544,82.387955,-19.134293,-23.889084,-20.416317,-14.765282,-12.187099,-9.570923,-11.846752,-14.062042,8.784084,8.056011,-0.131149,-6.653709,25.083904,25.584698,17.346096,10.767689,35.913277,39.180622,33.362103,26.377773,-21.069117,-49.741408,-74.570415,-90.477877,-50.947147,-98.227554,-111.402467,-111.732708,-50.957798,-104.723666,-118.203966,-116.310915,-50.895832,-101.171319,-113.53582,-113.784397,-50.221116,-86.252265,-100.516611,-106.017924,37.565231,376.369641,-122.318859,106.422157
124,0.352592,-0.084969,0.9799,3.485379,-32.42363,-64.675941,-91.341591,-112.208691,-71.094532,-105.858879,-122.840881,-135.537128,-62.122765,-100.859356,-121.162376,-136.651039,-51.354218,-88.271885,-108.309174,-123.01712,-40.595512,-69.228573,-84.783611,-97.374229,-17.491298,-12.353417,2.639645,11.075492,21.124569,37.872022,45.108491,49.686172,40.383658,54.684559,61.036701,65.181944,53.596394,67.32493,72.635342,75.395462,61.60536,75.428252,80.075773,82.685839,23.813438,26.921139,18.019581,8.431091,34.639091,29.712925,15.237865,7.914162,19.939556,13.946743,1.393661,-1.749001,2.482338,-0.295773,-9.605999,-12.468739,-15.631828,-17.244759,-20.853939,-22.286854,-19.752598,-49.320239,-73.640701,-84.670621,-48.625115,-99.646331,-104.86881,-97.39204,-48.402289,-103.967779,-105.92113,-95.619247,-48.978049,-100.438033,-99.49671,-88.087117,-49.938608,-90.082921,-91.533871,-82.918546,37.920141,374.70627,-121.336641,108.329134
125,0.543137,0.0494,1.979542,5.542902,-31.814003,-64.161701,-90.894527,-112.303562,-71.682758,-106.066418,-122.980614,-135.489063,-62.750931,-100.95171,-120.980129,-136.222458,-51.978092,-88.360519,-108.11697,-122.502823,-40.961723,-69.386787,-84.702587,-97.175674,-17.891564,-12.645867,3.196634,11.612721,20.952903,37.604828,45.215134,50.361969,39.967645,54.314613,61.098204,65.942647,52.945668,66.86032,72.597428,76.015807,60.80384,74.781478,79.769182,82.983476,-23.441563,-34.577179,-33.321648,-26.415882,-16.84021,-17.137756,-22.781982,-25.804939,7.332573,2.628078,-8.591995,-13.347301,25.947247,22.605972,10.116463,4.695911,37.859116,37.577419,27.090282,20.058517,-20.229126,-46.65327,-73.224472,-89.331542,-45.826555,-94.137237,-100.020508,-93.73024,-49.799546,-103.640873,-107.012075,-97.27564,-54.060541,-103.584587,-106.59387,-99.30374,-57.102952,-94.212634,-101.488222,-99.036453,38.542042,374.032017,-119.278336,113.148383
126,0.626907,0.226192,-0.895329,1.04,-31.896629,-64.238434,-91.126385,-112.323475,-71.723385,-106.218338,-123.282795,-135.613461,-62.79562,-101.079483,-121.289978,-136.391602,-51.933517,-88.396683,-108.272552,-122.57,-40.710354,-69.277725,-84.698753,-97.21447,-17.755899,-12.673222,2.987053,11.64199,21.3331,37.853744,45.639791,51.092661,40.316535,54.337893,61.27234,66.243248,53.151173,67.019142,72.756929,76.181669,60.801185,74.791296,79.619623,82.681764,-24.431362,-32.792587,-27.766571,-18.335152,-9.253063,-10.234509,-18.276672,-21.098957,12.904415,7.248459,-4.486198,-7.764645,28.477192,24.601479,11.512012,6.737652,38.222008,34.836502,24.255753,18.667488,-22.524296,-50.32146,-75.221079,-86.533322,-47.97794,-99.092028,-99.557997,-88.995929,-49.29168,-104.80811,-105.91937,-95.394136,-51.515189,-103.428729,-103.916743,-94.391896,-53.357389,-92.392819,-95.963567,-89.64295,39.20085,373.730351,-120.141764,113.660525
127,0.163307,-0.703399,-1.412601,1.384444,-32.358284,-64.300575,-90.755539,-111.81015,-71.710224,-105.848064,-122.695484,-135.340519,-62.652054,-100.679684,-120.782089,-136.291866,-51.769638,-88.102341,-107.913551,-122.539158,-40.556545,-68.948364,-84.459057,-97.290573,-17.17668,-12.014716,3.542806,12.193669,22.02489,38.498356,45.891671,50.867643,40.815293,54.938354,61.527369,66.099741,53.628504,67.580701,73.133977,76.433487,61.384603,75.443566,80.147403,83.145386,-22.986374,-30.38126,-26.094761,-17.87447,-8.721886,-7.555847,-16.24752,-19.749813,13.188457,9.061031,-4.028492,-7.83474,29.295673,26.589661,12.478867,7.593899,39.943085,38.385315,27.055378,20.858517,-21.80969,-49.145609,-73.760713,-83.56955,-49.235734,-98.316906,-101.112039,-91.294001,-50.777734,-105.916622,-107.995697,-96.674345,-52.261658,-104.198108,-105.350649,-95.544714,-52.989912,-91.781799,-97.03364,-92.285003,39.341869,372.663258,-121.576653,114.681275
128,0.268364,-0.053538,0.540161,-0.094849,-32.129059,-64.087143,-90.745983,-112.014256,-71.31609,-105.795479,-122.885284,-135.607338,-62.335567,-100.819817,-121.095943,-136.551933,-51.506767,-88.061543,-107.878304,-122.393417,-40.482674,-69.0798,-84.613953,-97.351627,-17.253312,-12.056397,3.388122,12.089804,22.045885,38.444263,45.796143,50.798853,41.011351,55.071117,61.604558,66.089181,53.901132,67.967876,73.434269,76.508452,61.578931,75.630978,80.321787,83.209298,-12.92181,-19.057674,-19.254913,-15.719604,4.923363,4.801369,-6.938496,-11.426296,17.447262,13.085289,-1.520004,-6.035786,24.18932,21.182728,6.637974,1.286373,26.61478,23.947048,13.174438,7.706966,-21.151122,-48.938035,-73.013101,-83.154309,-48.023635,-98.784295,-102.775749,-93.928675,-49.446118,-106.28802,-108.246064,-96.420243,-51.339416,-104.190297,-104.311328,-93.727245,-52.671187,-91.402867,-95.064574,-89.418549,39.68751,372.254794,-120.959215,114.231501
129,0.153351,-0.033345,-0.393791,-1.014806,-32.303352,-64.150314,-90.72773,-111.991253,-71.003323,-105.413361,-122.581615,-135.605621,-62.026405,-100.55666,-120.981731,-136.836376,-51.273594,-87.840157,-107.792587,-122.532692,-40.377789,-68.965359,-84.522228,-97.301044,-16.84471,-11.818226,3.422578,12.142972,22.067621,38.53201,45.861166,50.611687,40.867534,55.182823,61.836492,66.327414,53.697294,67.842708,73.276559,76.292943,61.519465,75.617023,80.235151,83.030098,-20.020237,-25.764713,-22.917252,-17.189884,-5.874195,-4.160042,-13.290768,-17.427006,13.397427,10.685062,-2.959385,-8.267097,27.155342,25.720482,11.160908,5.140457,35.57848,34.569569,23.020592,15.859737,-22.717946,-48.790297,-72.511749,-83.602895,-48.515076,-96.514782,-101.257461,-92.776783,-50.102185,-105.155981,-108.667943,-97.675659,-51.852994,-104.049969,-106.042994,-96.938699,-52.968546,-91.497191,-97.606344,-93.757843,39.984198,372.130182,-121.209669,113.125427
130,-0.234032,-0.228662,-0.541592,-0.254535,-32.40097,-64.105282,-90.47287,-111.633453,-70.664749,-104.974022,-122.253284,-135.428352,-61.695786,-100.331326,-120.921707,-136.885757,-50.944977,-87.545185,-107.589569,-122.483997,-39.984341,-68.512516,-84.039516,-96.828747,-16.584926,-11.432163,4.045208,12.957645,22.242745,38.612409,46.083715,50.995898,41.025986,55.494354,62.312464,66.870015,53.834874,68.202095,73.845218,76.903099,61.610856,75.712612,80.353465,83.106854,-2.968025,-7.278442,-9.750767,-9.321213,10.561409,9.776001,-1.699848,-6.493034,16.842442,13.265705,-0.11095,-4.90757,18.464012,16.685944,4.595947,-0.254631,17.056961,15.876045,7.963085,3.50996,-20.530345,-48.40692,-72.629106,-83.596195,-47.157308,-97.897251,-102.985917,-94.618335,-48.649167,-105.294302,-108.389603,-96.701145,-50.49961,-102.885109,-104.132993,-93.883011,-51.634861,-89.745177,-95.093905,-91.042801,39.892073,371.763261,-121.609354,112.732633
131,0.050583,0.456644,0.589886,-0.794666,-32.077675,-64.104309,-90.737286,-112.021637,-70.757904,-105.560188,-122.863197,-135.959358,-61.75106,-100.869484,-121.500664,-137.367725,-50.980167,-88.041973,-108.185692,-123.105011,-40.09449,-68.879986,-84.438286,-97.133617,-17.161798,-12.051457,3.314083,12.391702,21.652905,38.337743,45.900378,50.856898,40.654619,55.326023,62.090472,66.589421,53.588304,68.018573,73.495896,76.447442,61.372252,75.378357,79.800428,82.449829,-21.659203,-28.968201,-26.130009,-19.599838,-9.330482,-9.047184,-17.203159,-21.012497,12.622604,8.197403,-4.751987,-10.140953,28.862114,25.987873,12.218113,6.128883,39.082546,38.38068,27.317162,19.887085,-22.170621,-48.100514,-72.358608,-83.356819,-47.186824,-95.21824,-99.844396,-91.160806,-49.100964,-104.046912,-108.285183,-97.894534,-51.259048,-103.139027,-106.248006,-97.991821,-52.580167,-90.771438,-98.538066,-96.217392,40.093374,372.075085,-120.86875,111.793147
132,0.374222,0.221313,0.094242,2.456925,-32.391701,-64.396305,-91.21582,-112.394199,-71.142254,-106.311264,-123.737698,-136.687717,-61.941833,-101.195354,-121.654358,-137.239723,-51.102676,-88.303413,-108.376408,-123.044357,-40.182781,-69.18766,-84.779949,-97.313633,-17.153956,-12.37503,3.125621,12.423689,22.202175,38.663971,46.050246,51.058081,41.304604,55.428034,61.945543,66.537057,54.118432,68.112063,73.474592,76.44559,61.686933,75.457213,79.831303,82.497254,-23.600063,-32.163563,-28.823318,-20.007877,-10.979462,-10.249157,-18.58263,-22.486496,12.494774,8.42514,-4.484711,-9.119225,29.855518,26.954498,13.250427,7.652493,40.938206,39.552727,28.486347,21.81839,-21.807714,-48.61048,-73.841575,-85.236996,-48.606806,-97.631724,-101.435055,-92.157797,-51.137245,-105.823811,-109.556624,-98.896712,-53.311632,-104.969741,-107.600062,-98.610406,-54.475287,-93.479966,-100.403515,-96.757523,40.691128,372.264535,-120.550976,114.218209
133,0.118217,0.130108,0.810356,1.459286,-32.678032,-64.769325,-91.38382,-112.765617,-72.105846,-106.497974,-123.375034,-136.262512,-63.133564,-101.6082,-122.119617,-137.778568,-52.118397,-88.608284,-108.774147,-123.848362,-40.678139,-69.207573,-84.914818,-97.991295,-17.478392,-12.335077,3.160139,11.942406,21.558983,38.131065,45.633369,50.627063,40.398478,55.055494,61.934552,66.569229,53.165129,67.702472,73.508308,76.701051,60.858119,75.00662,79.634566,82.452793,-24.085751,-31.87912,-27.686577,-18.849735,-11.391964,-10.81398,-18.610439,-21.370583,12.340221,7.5947,-4.493465,-7.680016,30.058193,26.473618,13.083,8.705349,41.634464,38.876953,27.763996,22.345905,-23.830595,-51.221133,-76.296308,-87.787411,-49.588576,-100.231077,-102.141233,-91.668826,-51.375911,-108.068285,-109.48734,-97.894348,-53.405924,-106.856402,-107.207175,-96.842523,-54.747329,-95.207989,-99.518106,-93.671361,41.218929,372.39645,-119.331036,115.679301
134,0.161018,0.0021,-0.381889,1.273787,-32.441025,-64.299831,-90.982304,-112.378006,-72.374496,-106.821327,-123.720303,-136.348915,-63.534565,-101.761036,-122.214203,-137.624016,-52.537136,-89.067593,-109.06477,-123.66766,-41.00647,-69.628487,-85.170135,-97.865524,-17.097763,-12.019162,3.623885,12.402138,22.045576,38.444818,46.119345,51.478354,40.63103,54.849989,61.876568,66.771091,53.230522,67.388472,73.41278,76.961638,60.820327,75.070902,79.916889,82.895235,-24.592323,-32.415047,-27.169762,-16.725254,-12.007599,-10.258713,-16.808968,-19.287815,12.643375,8.936405,-2.351589,-5.627232,30.877361,27.617168,14.78857,10.230045,42.515602,39.763641,28.733826,22.839947,-24.791061,-52.772736,-77.921703,-88.820403,-51.23725,-102.116348,-104.542336,-94.321037,-52.543395,-109.640543,-111.488146,-100.202363,-54.115622,-107.883188,-108.676958,-98.643597,-55.030732,-95.425073,-100.667652,-95.456411,41.544027,372.439536,-119.548845,116.994075
135,-0.157127,-0.321596,-0.034161,1.129662,-32.387352,-64.346008,-90.988998,-112.469788,-72.356071,-106.926498,-123.81918,-136.470566,-63.42865,-101.80069,-122.384262,-138.039379,-52.25893,-88.893585,-109.058132,-123.936367,-40.514488,-69.278412,-84.940395,-97.940712,-17.002914,-11.591787,4.303757,12.905033,22.345745,38.7264,46.459898,51.92092,40.778058,55.03135,62.294001,67.469241,53.357913,67.591136,73.655397,77.232475,60.938085,75.246459,80.115787,83.126305,-24.215183,-32.026348,-26.92915,-16.700249,-11.39225,-10.334702,-17.318001,-19.730473,12.824535,8.448715,-3.051968,-6.352558,30.664215,27.093544,14.237137,9.793625,41.9133,39.500828,28.645821,22.796574,-25.495819,-52.98738,-77.916515,-89.269823,-51.751384,-102.425748,-105.192877,-95.426678,-53.296472,-110.151002,-111.928828,-100.695347,-55.090815,-108.742445,-109.310147,-99.296361,-56.258793,-96.589377,-101.602553,-96.479585,41.559048,372.169872,-119.410858,118.175669
136,0.072327,-0.126959,0.036221,0.580207,-32.257805,-64.263153,-91.024132,-112.503777,-72.203865,-106.84988,-123.899231,-136.638451,-63.2757,-101.876621,-122.569427,-138.25573,-52.177219,-88.972893,-109.249763,-124.191628,-40.568676,-69.412136,-85.076237,-98.080502,-16.868545,-11.530531,4.383662,13.288874,22.542729,39.049479,46.791128,52.289261,40.89384,55.32769,62.61498,67.84845,53.397002,67.739214,73.800387,77.385493,60.93932,75.22077,80.061138,83.128343,-24.299297,-32.24144,-27.07655,-16.927185,-11.600189,-10.10994,-17.138271,-19.585705,12.69865,8.44162,-3.063011,-6.252766,30.559387,26.957016,14.12384,9.802608,41.815109,39.103317,28.136044,22.43969,-25.878301,-53.905053,-79.131023,-90.153934,-52.564081,-103.799726,-106.205707,-96.21659,-54.00759,-111.384683,-112.585729,-100.954699,-55.794091,-109.950005,-110.144796,-99.791074,-57.186563,-97.782796,-102.427786,-96.799884,41.832333,372.08918,-119.173679,118.802143
137,0.186081,0.137703,-1.129932,0.448308,-32.353477,-64.457474,-91.322651,-112.377319,-72.642746,-107.406521,-124.496498,-137.163792,-63.71315,-102.132969,-122.747955,-138.255215,-52.535248,-89.04213,-109.126625,-123.885956,-40.913429,-69.617558,-85.198174,-98.053951,-16.863791,-11.702753,4.053791,13.45523,22.45634,39.183106,46.731786,51.961304,40.8868,55.402037,62.618993,67.68722,53.456529,67.86043,73.917528,77.354062,61.040838,75.16007,79.954248,82.810822,-18.396721,-23.742542,-20.454025,-13.78561,-0.998211,-0.669765,-10.110455,-13.11779,16.382275,11.831932,-1.146526,-4.415646,27.899551,24.884491,11.033249,6.320229,34.417934,32.013073,20.952072,15.116844,-25.53608,-52.882281,-76.619602,-87.584592,-51.408731,-103.25626,-107.229776,-98.37347,-53.267295,-110.823372,-112.156903,-100.231818,-55.676796,-109.92654,-109.907953,-99.046827,-57.753123,-98.649679,-102.566199,-96.262902,42.301025,372.255149,-120.021,119.278717
138,0.144539,-0.118746,-2.171288,-0.904705,-32.441597,-64.724236,-91.626263,-112.746449,-72.799358,-107.56731,-124.586506,-137.230625,-63.844585,-102.159519,-122.630482,-138.092594,-52.644081,-89.258652,-109.22596,-123.878918,-40.999718,-69.82996,-85.350094,-98.088741,-16.821985,-11.575732,4.179268,13.506976,22.300112,39.144821,46.838428,52.20139,40.764781,55.247167,62.566135,67.686973,53.436275,67.603981,73.695165,77.174615,61.157793,75.182053,79.995621,82.784949,-14.107246,-17.506256,-14.434376,-9.278469,3.986835,5.557652,-5.555763,-10.826626,19.000511,15.579987,1.296215,-3.431168,28.418713,26.953869,12.083187,6.291676,33.03154,31.7589,20.942001,15.149117,-24.619581,-51.6373,-74.024264,-84.225061,-50.936865,-101.266415,-106.877304,-98.819925,-52.506684,-109.296747,-112.466797,-101.099967,-54.223593,-108.648584,-109.865839,-99.573589,-55.806842,-96.782934,-102.159511,-97.040062,42.82239,372.136866,-121.815462,118.374475
139,-0.163994,-0.107569,1.376152,-0.207296,-32.50843,-64.624901,-91.416836,-112.374458,-72.771721,-107.352276,-124.384117,-137.027721,-63.786964,-102.027512,-122.386551,-137.795391,-52.567577,-89.030514,-108.876801,-123.556995,-40.84053,-69.488583,-84.967518,-97.773113,-16.794136,-11.627726,4.089483,13.577187,22.536492,39.313832,47.05863,52.440364,41.09459,55.472803,62.708284,67.771448,53.776396,67.926441,73.98638,77.470955,61.445056,75.449741,80.244969,83.050846,-23.051319,-30.2104,-25.018559,-15.9482,-13.18634,-9.889526,-15.992603,-19.009609,11.054535,8.461533,-0.957985,-4.094925,29.901924,27.666149,16.025848,11.868725,42.884159,41.462688,30.71497,25.255966,-26.276838,-52.636977,-76.37362,-85.52006,-52.289631,-102.170348,-104.895487,-95.444154,-53.978042,-111.131259,-112.070205,-100.44322,-55.985486,-110.090611,-109.819619,-99.873789,-57.411427,-98.268525,-102.512816,-97.131916,43.195953,372.041601,-119.901752,118.179482
140,-0.447578,-0.008522,-0.938702,-0.116955,-32.402458,-64.498959,-91.411457,-112.521343,-72.435951,-107.461624,-124.48019,-137.06995,-63.372574,-102.141323,-122.578239,-138.02021,-52.201881,-88.861027,-108.801899,-123.587379,-40.662689,-69.499454,-85.038586,-97.830849,-16.653716,-11.50157,4.312772,13.76676,22.601515,39.373298,47.170522,52.741212,41.076312,55.66707,62.899958,68.172825,53.719586,68.036233,74.097716,77.757663,61.382688,75.448012,80.128323,83.046524,15.086174,17.304783,16.008911,15.417938,26.288109,22.43969,10.634823,5.73,21.015301,16.77887,4.545708,1.584606,11.874905,11.461544,1.292439,-2.216949,0.534782,-0.320091,-5.079689,-6.7313,-23.570132,-50.869681,-73.34541,-85.539974,-49.830174,-101.461361,-107.495519,-100.326851,-51.671757,-109.56178,-111.105139,-99.640835,-54.940669,-108.424831,-108.207717,-96.47977,-58.434507,-99.308525,-102.790045,-95.663213,43.140993,372.048687,-120.447836,118.078134
141,-0.196152,0.070828,1.585464,-2.717759,-32.772675,-65.198765,-92.273312,-113.149109,-72.323627,-107.66098,-124.686527,-137.163963,-63.063526,-102.196198,-122.62207,-137.946682,-51.995087,-89.004364,-108.929214,-123.56226,-40.773468,-69.704876,-85.243378,-97.778435,-16.83625,-11.528678,4.362173,14.056617,22.877169,39.681556,47.245796,52.45117,41.560806,56.097409,63.042601,67.973989,54.226063,68.309788,74.043746,77.370302,61.798454,75.638574,80.324689,83.28241,-24.288025,-31.44453,-25.272903,-14.943523,-13.75843,-8.811607,-14.90839,-18.457947,10.408573,10.448341,0.43396,-3.798237,29.286118,29.472713,17.256145,12.172852,42.052975,42.163811,31.179142,25.091629,-26.240838,-53.318054,-77.565681,-86.278201,-52.104504,-101.188177,-104.491732,-95.164085,-52.71855,-108.791567,-111.5038,-100.487125,-53.786153,-106.538171,-107.593578,-98.40947,-54.476244,-94.031737,-99.094931,-94.370592,43.185282,372.140942,-118.621931,115.381803
