YashyHoby/handMotion-similar-search/workspace/NewProject/handData/tgt/d4_feature_d2/11.csv
,vel_0x_L,vel_0y_L,vel_0x_R,vel_0y_R,posFromWrist_1x_L,posFromWrist_2x_L,posFromWrist_3x_L,posFromWrist_4x_L,posFromWrist_5x_L,posFromWrist_6x_L,posFromWrist_7x_L,posFromWrist_8x_L,posFromWrist_9x_L,posFromWrist_10x_L,posFromWrist_11x_L,posFromWrist_12x_L,posFromWrist_13x_L,posFromWrist_14x_L,posFromWrist_15x_L,posFromWrist_16x_L,posFromWrist_17x_L,posFromWrist_18x_L,posFromWrist_19x_L,posFromWrist_20x_L,posFromWrist_1y_L,posFromWrist_2y_L,posFromWrist_3y_L,posFromWrist_4y_L,posFromWrist_5y_L,posFromWrist_6y_L,posFromWrist_7y_L,posFromWrist_8y_L,posFromWrist_9y_L,posFromWrist_10y_L,posFromWrist_11y_L,posFromWrist_12y_L,posFromWrist_13y_L,posFromWrist_14y_L,posFromWrist_15y_L,posFromWrist_16y_L,posFromWrist_17y_L,posFromWrist_18y_L,posFromWrist_19y_L,posFromWrist_20y_L,posFromWrist_1x_R,posFromWrist_2x_R,posFromWrist_3x_R,posFromWrist_4x_R,posFromWrist_5x_R,posFromWrist_6x_R,posFromWrist_7x_R,posFromWrist_8x_R,posFromWrist_9x_R,posFromWrist_10x_R,posFromWrist_11x_R,posFromWrist_12x_R,posFromWrist_13x_R,posFromWrist_14x_R,posFromWrist_15x_R,posFromWrist_16x_R,posFromWrist_17x_R,posFromWrist_18x_R,posFromWrist_19x_R,posFromWrist_20x_R,posFromWrist_1y_R,posFromWrist_2y_R,posFromWrist_3y_R,posFromWrist_4y_R,posFromWrist_5y_R,posFromWrist_6y_R,posFromWrist_7y_R,posFromWrist_8y_R,posFromWrist_9y_R,posFromWrist_10y_R,posFromWrist_11y_R,posFromWrist_12y_R,posFromWrist_13y_R,posFromWrist_14y_R,posFromWrist_15y_R,posFromWrist_16y_R,posFromWrist_17y_R,posFromWrist_18y_R,posFromWrist_19y_R,posFromWrist_20y_R,posFromBody_0x_L,posFromBody_0y_L,posFromBody_0x_R,posFromBody_0y_R
39,1.477776,-10.006407,2.352562,-7.951909,-29.105186,-54.290314,-70.232449,-78.650494,-53.899841,-80.745907,-96.218262,-107.148685,-40.913315,-71.585083,-89.212246,-100.585499,-27.883415,-56.55304,-72.112885,-81.236801,-16.671867,-38.853149,-50.851707,-57.86356,-14.933781,-11.445439,-3.578375,2.592035,25.586036,50.321831,59.065936,62.884273,41.51616,65.380472,71.582251,72.536233,50.823121,71.174142,73.05753,69.745855,55.314228,70.847915,71.159569,67.806954,39.910297,62.397766,70.678596,68.002968,59.685116,80.995159,77.830524,67.844696,44.628925,68.693047,69.311485,61.019726,31.390743,53.854351,55.196743,47.695713,20.809593,40.855522,44.338703,39.411736,-7.496994,8.77955,27.38569,36.314676,48.557313,63.303682,55.993483,50.399143,62.717979,77.90537,71.132955,64.132434,69.524974,82.896902,76.937123,69.358371,71.031437,81.783172,74.566092,65.171138,44.115801,463.214293,-94.720144,431.776047
40,5.196648,-9.428485,-0.840454,-12.666245,-27.982979,-53.300171,-71.00338,-82.520599,-53.472633,-81.363316,-97.238674,-108.995018,-40.207558,-72.275562,-90.874043,-103.525829,-26.956329,-56.77906,-74.671955,-86.607285,-15.773849,-39.463921,-52.404099,-60.786324,-17.24053,-14.979662,-5.231557,3.711262,21.705702,48.818764,61.709286,69.129401,39.178166,68.157264,78.080123,81.121825,50.0752,76.665421,82.650148,82.466131,56.290564,78.570113,82.04876,80.168152,34.356594,54.275093,65.480633,72.314587,48.012486,70.02903,71.830044,66.894093,32.281151,57.276134,61.145439,56.001205,17.804489,41.807041,47.04958,42.782135,5.323105,26.954556,34.391441,32.568283,-8.850872,6.109154,25.526879,35.684205,35.375823,58.748601,54.719757,50.162515,48.911205,75.213175,70.759365,66.034347,55.745678,79.931524,72.63102,65.874104,58.406998,76.208468,71.011183,64.420376,49.241409,454.365027,-95.631638,419.689022
41,3.632698,-13.988568,-3.265171,-7.446297,-28.41259,-54.646454,-74.379272,-88.317661,-55.385513,-82.525177,-97.43391,-108.542976,-41.826782,-71.071415,-89.222145,-101.786213,-27.42897,-54.596786,-72.82362,-85.850544,-13.754654,-33.688545,-46.436462,-56.913643,-16.232825,-15.109832,-3.010147,10.219076,23.081254,49.889455,65.323661,75.855997,40.48215,68.809904,82.389561,90.886912,51.229439,77.049385,88.964807,96.186332,56.823964,79.392505,88.007428,93.316976,26.816769,47.994976,61.356239,66.210995,41.268311,65.263767,73.321609,74.104958,28.073616,54.101601,62.314625,62.522793,16.419811,40.170708,49.082623,50.712833,6.238289,25.042248,34.276829,37.683392,-7.875215,3.666925,22.343337,37.16924,24.177015,54.861721,59.944459,60.824526,37.251986,68.265636,73.506641,73.672811,44.878964,70.801293,73.144722,72.922976,48.228245,65.087651,65.092653,63.561243,52.899771,441.832997,-98.871145,413.699262
42,0.299835,-17.618689,-18.680134,-55.731136,-29.247665,-53.459702,-68.870029,-83.264236,-55.932083,-81.60181,-94.569454,-103.055191,-42.689781,-70.432091,-85.604839,-96.429234,-26.83445,-50.961571,-65.845013,-77.329788,-9.511414,-25.505104,-35.195961,-43.781891,-10.483182,-4.591884,11.376278,22.99857,22.486227,50.766249,67.093737,78.826377,35.995488,63.353453,80.191864,93.774361,45.239834,68.741176,83.736955,96.641062,51.020846,72.323318,84.233675,94.41286,17.934323,40.89778,60.473957,71.688395,52.354431,80.384446,81.597262,77.001028,50.021525,77.601643,77.008438,71.453219,45.571976,69.152155,68.942929,63.7395,40.363226,58.545199,59.76923,56.329766,17.783131,37.324172,54.52972,66.408956,50.183016,79.753775,84.459064,83.255147,47.826219,77.907809,82.516026,81.297845,43.212166,68.120924,71.534518,69.832399,37.388948,55.124747,58.178583,56.423729,53.310843,426.23049,-117.440043,359.984308
43,-0.257034,-13.948739,-18.680133,-55.731136,-32.670593,-55.189018,-68.413296,-77.701435,-51.991997,-77.164478,-86.815109,-92.428665,-38.965874,-65.618477,-77.309132,-84.090214,-22.701988,-45.757599,-59.415436,-69.989319,-4.66198,-18.473167,-27.33696,-35.609093,4.213045,19.435633,35.756638,48.157294,19.266808,43.833653,60.101182,72.759893,25.515023,47.587276,65.490326,78.806432,30.207375,48.95795,63.90723,75.821602,34.963083,51.162563,62.218974,71.98721,9.051876,33.800583,59.591675,77.165794,63.440552,95.505123,89.872913,79.897099,71.969433,101.101685,91.702251,80.383644,74.72414,98.133602,88.803234,76.766167,74.488163,92.048149,85.261631,74.976139,43.441477,70.981419,86.716104,95.648671,76.189017,104.64583,108.973669,105.685768,58.400452,87.549981,91.525411,88.922878,41.545368,65.440555,69.924314,66.741821,26.549651,45.161843,51.264513,49.286215,53.182726,413.673281,-135.991259,305.644702
44,15.693569,-44.473172,-9.290028,-45.72087,-37.72459,-63.843841,-79.040022,-89.473228,-62.528515,-88.325071,-98.114805,-103.440742,-48.026733,-76.080265,-86.48858,-91.570844,-30.99575,-55.927162,-66.866627,-73.993892,-12.651901,-29.571533,-39.396915,-47.499103,9.651219,28.808173,47.099015,61.060691,27.16941,54.109972,68.784371,77.746362,33.151882,58.170062,72.683909,80.495182,37.94146,59.652936,70.618265,76.370748,41.507238,59.72682,69.223138,74.681597,29.448853,60.22562,81.362801,93.1283,86.4608,102.637882,98.276939,90.658894,80.067215,94.326725,89.038754,79.244728,69.034195,81.026173,76.776466,68.100872,57.524586,70.999146,69.43531,62.603989,44.311169,63.856533,72.028398,80.513275,49.706612,68.033146,77.575067,81.777676,31.49623,49.767806,59.957057,65.947896,16.065172,32.939399,42.25945,46.59859,2.815078,15.429452,25.299391,30.512052,68.92416,370.202565,-145.233421,260.926289
45,15.693569,-44.473171,-13.698235,-43.693295,-42.778587,-72.498665,-89.666748,-101.245022,-73.065033,-99.485664,-109.414501,-114.45282,-57.087593,-86.542053,-95.66803,-99.051476,-39.289513,-66.096725,-74.317818,-77.998466,-20.641823,-40.669899,-51.456871,-59.389114,15.089392,38.180712,58.441393,73.964088,35.072011,64.38629,77.467559,82.732831,40.788741,68.752847,79.877492,82.183932,45.675545,70.347922,77.3293,76.919895,48.051392,68.291077,76.227302,77.375983,31.31012,61.603317,86.024437,99.360123,47.740459,81.802311,94.92897,100.21265,43.470955,77.679863,82.71143,78.116112,39.826813,68.375359,63.658333,52.085152,37.442837,60.051842,57.351723,47.382088,27.874753,40.393476,42.097788,40.853332,26.875323,29.418884,34.006384,40.966335,6.959642,11.64903,18.873396,24.767967,-12.001501,-6.223824,-1.746549,1.218706,-27.22446,-20.56159,-15.047773,-12.171809,85.056725,326.608566,-158.492661,218.112165
46,-3.916168,-8.308394,-37.185631,-54.288245,-38.86013,-69.390335,-90.949059,-110.849819,-61.091423,-76.637764,-88.48629,-96.633511,-45.90477,-59.834633,-64.309273,-64.947968,-31.711006,-46.498604,-50.308685,-50.773201,-18.780441,-31.506958,-38.804626,-41.906776,13.844751,33.354053,50.394079,59.677327,41.897593,53.469126,56.242152,55.960693,40.056813,53.728478,52.777027,50.104408,36.499187,47.267841,46.79156,46.143551,30.882987,39.523598,45.211058,48.779738,25.613308,56.853848,80.433826,91.248837,59.398499,105.976925,127.397003,143.092232,59.61525,108.219738,130.622635,146.126919,58.076534,103.174095,112.179623,114.343357,56.084518,89.757671,94.984188,93.771343,-14.043217,-21.420662,-23.681036,-19.463668,16.537254,18.036987,21.78783,27.661468,23.115526,27.292941,30.181811,35.269118,23.091073,19.112617,13.942008,12.986729,19.876037,14.186293,7.715158,5.42076,80.958624,319.214324,-195.860224,164.738073
47,-0.616436,-33.480487,-2.645645,-21.330445,-39.574241,-71.036739,-92.542877,-111.33276,-69.934959,-90.729046,-103.862057,-113.097181,-59.01741,-79.240751,-88.850584,-93.940372,-47.384205,-66.744232,-75.902452,-81.195059,-35.196075,-50.238762,-60.46875,-66.645126,16.861537,33.150061,45.839338,54.505422,36.616636,51.218447,55.998115,57.447335,34.108458,49.540689,53.087663,53.75676,31.231259,44.019584,47.776788,49.256575,27.088579,37.192057,43.263049,46.675809,17.504311,42.158546,62.885914,81.604385,63.413601,103.625164,126.290188,142.179108,64.430752,106.939659,129.993153,142.247028,63.299904,101.187401,123.213387,135.616035,60.359917,89.695244,106.816063,117.847595,-28.699677,-38.076354,-39.290182,-39.327973,-6.834906,-4.73286,-3.37676,-0.414716,10.405315,11.963154,11.217703,11.645942,21.090174,22.617015,19.183815,17.2677,27.694813,28.065624,24.28866,21.915345,80.622282,287.139863,-198.225775,144.813654
48,-0.616436,-33.480486,-2.989655,-21.903736,-40.288353,-72.683144,-94.136696,-111.815701,-78.778496,-104.820328,-119.237823,-129.560852,-72.130051,-98.64687,-113.391895,-122.932777,-63.057404,-86.989861,-101.49622,-111.616917,-51.61171,-68.970566,-82.132874,-91.383476,19.878322,32.946068,41.284596,49.333516,31.335679,48.967768,55.754076,58.933976,28.160102,45.352899,53.398298,57.409111,25.963331,40.771327,48.762016,52.369598,23.29417,34.860516,41.315039,44.57188,14.611073,39.220047,64.727554,85.520325,55.136433,98.753986,123.104496,144.037628,58.768845,105.804234,132.458038,151.963291,61.44865,103.390217,126.924019,142.585316,62.124939,93.06015,109.972572,120.814304,-30.084677,-41.300158,-42.230119,-46.107211,-13.77769,-14.121763,-10.009248,-3.922386,6.246239,6.066175,6.461934,7.076782,19.461136,18.669743,13.76392,10.456938,27.092314,23.42823,18.712968,15.168989,80.404816,254.961832,-200.81646,124.212374
49,1.799469,-14.343509,9.064693,-11.564988,-42.013664,-73.530006,-95.392456,-115.277081,-75.938644,-103.609486,-121.667118,-137.708302,-66.029663,-94.667931,-114.176731,-132.022591,-54.238472,-79.678345,-97.877712,-114.288025,-39.604454,-56.980705,-70.496635,-83.135719,11.430928,24.625015,35.268933,43.254373,26.964491,41.260699,46.012146,47.779443,26.058859,40.711429,46.338868,49.071879,23.719074,36.93076,41.53061,44.070775,20.394864,29.011579,34.236096,38.223073,14.841385,39.706192,66.802197,89.850025,56.271572,100.016327,124.507656,143.648243,57.524872,104.527588,132.307377,152.808266,56.858311,99.055309,124.601898,142.754345,54.194183,85.952511,103.85582,116.429615,-34.935419,-49.817731,-52.659702,-54.7883,-20.788338,-15.340964,-9.873273,-3.895339,1.429769,2.648105,4.835737,7.609071,16.775364,16.510393,15.971497,14.894261,26.006186,21.188975,17.877979,14.832325,82.900801,242.068793,-191.05525,114.097857
50,-0.572777,-11.349293,9.288425,-1.978483,-38.151741,-66.448288,-86.320381,-104.254131,-76.006279,-103.239441,-120.807381,-136.331177,-69.281044,-99.113388,-119.840183,-138.699646,-59.996452,-85.40554,-103.801346,-120.50251,-47.377625,-63.983345,-77.223358,-89.398842,9.128193,18.461829,26.895021,32.194565,21.869155,32.654235,37.089273,40.412742,20.293655,30.866684,35.10054,36.938788,18.307268,28.958288,32.197653,34.139889,16.194972,23.151032,27.097007,30.344832,16.070709,42.660084,70.997658,94.326553,58.606567,100.12991,124.924679,144.783268,60.96817,105.873871,133.688278,153.972988,60.648594,101.174126,125.519886,143.003769,58.900509,89.557858,106.993561,120.107059,-34.378585,-49.21162,-51.613711,-53.534211,-19.858377,-13.829375,-7.991924,-0.659988,2.377823,4.882852,8.497227,12.943072,17.499943,18.366178,18.183767,17.090785,26.112088,23.162271,20.029425,16.939435,83.146877,231.608675,-180.947971,113.008549
51,-9.070587,-12.233004,9.788303,7.088886,-43.523254,-73.212891,-94.479847,-116.685505,-72.119293,-96.634769,-117.135143,-136.071911,-61.70414,-86.480083,-108.70182,-130.83292,-49.611511,-71.167831,-91.742077,-111.742115,-35.546265,-49.397964,-63.551331,-76.368484,7.92054,16.694286,23.844675,29.679965,19.709249,28.017212,30.986851,32.683011,18.033652,26.13685,29.110009,30.506618,15.078524,23.464663,25.463276,27.143443,10.782672,16.18114,19.614524,23.264097,21.219463,49.906368,77.681293,100.917664,63.33395,102.593708,127.369308,148.242989,65.920658,108.546753,135.350418,155.888615,65.41357,104.075089,128.589764,147.602005,62.847919,92.336025,109.862366,124.358196,-35.138918,-48.081866,-49.93799,-50.555525,-20.636926,-13.834624,-8.058367,-1.696099,0.864876,4.111775,8.177113,12.266658,16.721888,18.653564,19.758897,19.689798,27.319617,24.594078,21.748186,18.546736,74.347973,219.932475,-170.887985,120.654238
52,-7.672119,-9.422804,9.844952,11.49416,-39.227943,-67.832108,-88.298435,-110.475769,-72.29908,-97.475624,-119.923096,-139.645557,-64.103966,-91.23333,-115.027256,-137.80386,-52.680931,-76.799698,-98.524017,-119.524612,-38.08857,-53.638573,-68.110313,-82.417145,8.105236,15.76593,22.079601,27.542228,14.253662,18.969912,21.049172,23.413039,12.232633,16.038064,19.084706,21.845999,10.5198,15.540479,16.829828,19.178011,8.45147,12.240661,14.624165,18.126586,24.934158,55.935917,83.479099,106.085587,69.634266,107.966652,132.461815,152.839622,70.20853,111.452122,138.79034,161.28891,68.111458,105.751991,131.005611,151.352119,63.544979,93.017578,110.610409,125.520344,-36.002034,-46.099245,-45.184135,-44.632889,-19.122559,-9.940087,-2.080001,6.630944,1.128921,7.078079,13.01816,18.808064,16.324833,20.786362,24.088403,26.693777,27.141591,24.83546,23.477383,22.249044,67.00799,211.33583,-160.710897,132.974557
53,-4.273224,-9.861356,11.201134,10.765629,-37.322044,-66.189766,-86.4921,-106.709347,-70.381622,-95.92947,-119.510307,-140.764618,-61.60984,-88.650284,-113.417931,-137.447376,-50.539398,-74.837379,-98.653221,-121.429024,-36.22467,-52.717094,-69.125061,-85.313187,10.375922,15.675836,18.577735,23.162086,16.750355,20.981925,22.008835,21.783631,13.735391,17.132899,17.679266,17.516925,10.30954,14.102991,14.112624,14.480286,5.270768,9.432561,11.394248,13.620041,26.604939,59.863186,87.782421,109.816761,74.645119,112.312775,135.094872,151.996193,72.37999,114.249973,139.347782,156.351242,67.984829,105.333595,127.227802,142.558479,61.703968,89.730263,105.041199,115.537949,-34.801729,-43.962712,-42.412653,-40.442444,-12.935723,-2.700284,5.982256,15.644961,7.807352,14.325231,18.675795,23.861965,22.457699,27.700432,28.098105,28.843617,31.997087,29.891337,26.055957,22.812084,62.84749,202.616826,-149.397039,144.882537
54,-3.322563,-6.265629,8.215485,3.368423,-31.496658,-59.219742,-78.126812,-93.70142,-68.398705,-95.569153,-118.444462,-139.684582,-61.938629,-91.489792,-115.861359,-139.908943,-53.752213,-81.431293,-104.695702,-126.377277,-43.390732,-62.998352,-79.559669,-95.112934,7.396588,10.665778,12.267275,14.647568,8.443381,13.659562,16.671376,18.303625,8.557804,13.115047,15.82027,17.332785,9.048597,13.037797,14.309979,15.255748,8.928677,13.119554,14.933596,16.848044,20.5723,51.108742,81.692104,104.917088,67.454109,111.810665,135.140648,152.145538,67.358952,115.577374,141.177063,158.07415,64.287586,105.744839,126.521072,140.103607,59.585896,90.25795,105.364723,114.641418,-32.862211,-41.642131,-38.847184,-38.244068,-12.738369,-3.042628,4.012789,12.244242,9.659987,14.932855,17.44622,20.68503,24.692508,27.796083,26.681118,25.012992,33.076855,32.964531,28.409821,24.144041,59.625206,196.848673,-141.081276,148.748437
55,-2.52285,-2.752216,-6.009521,-9.578786,-29.858093,-57.26017,-75.492668,-90.514355,-67.189178,-92.758484,-115.090656,-135.852127,-61.938515,-90.771103,-115.810375,-139.463825,-54.209061,-81.966591,-104.508476,-124.487,-43.767815,-64.712906,-82.022781,-97.480488,5.447745,7.11834,9.218596,12.149764,4.92404,11.394495,15.978907,18.794726,6.120516,13.686547,17.508588,20.510585,7.68805,13.072439,15.433651,17.920031,8.611465,13.033968,14.368024,15.700907,18.11182,49.240322,79.689331,101.519909,66.176949,109.912548,132.26635,148.711967,66.727695,114.27475,138.88195,155.711517,63.813744,106.283741,126.207447,137.034302,58.620014,89.838867,103.974438,110.850849,-33.399316,-43.016819,-39.653521,-40.498575,-12.862981,-4.215145,3.558367,11.368868,11.279577,15.306507,18.717847,22.035635,29.178058,32.30584,30.436284,28.306142,40.865373,42.986808,39.297221,35.251519,57.203236,194.276645,-146.989918,139.349839
56,-1.47068,-3.960548,-10.612335,-9.887352,-29.260597,-54.027901,-70.414581,-82.692261,-63.99662,-91.853313,-113.801594,-134.09935,-58.439026,-89.315872,-114.87299,-137.554607,-49.875526,-79.147224,-102.591648,-122.15435,-38.837929,-61.907043,-79.905567,-95.030708,0.342715,4.760648,9.732297,14.680975,1.671213,10.795701,17.385643,22.680679,4.569716,15.466502,21.856003,26.526371,9.348951,17.376257,22.355316,25.99328,15.259577,20.451119,22.315549,23.335419,16.059952,46.711178,75.59206,97.792511,62.074585,108.902149,133.144112,150.502281,63.728371,113.304005,140.205803,156.929512,62.860565,107.892952,132.626495,147.128334,60.046806,94.943104,114.022121,125.553703,-35.372087,-46.226791,-44.254328,-46.239326,-17.816908,-9.04977,-2.373748,5.661957,6.514421,11.315948,14.504184,17.785786,24.152006,27.566866,27.079408,26.769112,36.46757,38.710901,38.332,37.478425,56.074648,190.307607,-157.26016,129.453996
57,1.034203,3.291173,-11.843548,-14.641825,-27.504272,-51.786232,-68.422337,-81.760483,-63.34877,-91.734924,-113.307838,-132.661915,-57.925529,-89.170418,-114.10223,-136.297817,-49.346352,-78.366795,-101.35334,-120.361061,-38.492889,-61.342163,-79.113522,-94.277515,0.479554,3.721265,7.487052,11.472609,2.853487,12.454008,18.785772,23.738093,5.193333,15.622113,22.03724,25.869409,9.64986,17.175507,22.904833,26.455544,15.219254,20.118284,23.322513,24.946796,15.73225,45.193062,72.577343,93.695354,60.949688,105.39196,128.422794,145.355816,63.102322,110.767994,136.42828,153.579597,62.365322,105.717487,128.972797,143.03278,59.067478,93.144894,110.79998,121.034088,-35.670002,-46.735861,-46.380549,-50.135468,-20.077467,-13.338274,-7.321314,0.024206,2.736964,6.483917,8.638883,11.725353,19.806815,20.92845,18.170861,16.678539,32.40606,28.134599,23.083601,20.026585,57.365484,193.356533,-168.847075,114.569924
58,4.869804,4.282391,-10.694275,-8.377555,-27.964325,-51.248703,-66.589851,-78.252754,-64.271393,-91.930733,-111.589336,-129.348621,-58.633575,-89.635563,-112.939739,-133.328133,-50.022469,-78.800697,-100.543613,-118.416767,-39.241791,-61.468163,-78.103466,-92.285213,-2.264079,1.740559,6.805575,12.528047,0.702781,12.496184,20.152247,26.197118,3.724723,15.402035,22.734526,27.758292,9.023711,17.551258,23.191046,26.908483,15.599883,21.325073,24.073275,25.812598,12.78883,41.212978,69.719353,92.237663,54.647827,102.415524,125.524006,143.657856,58.341408,108.763046,134.607811,152.76598,59.42688,105.253315,129.017544,144.237614,58.101311,94.110203,112.424469,123.978138,-35.345442,-49.675459,-52.287192,-59.443602,-22.862318,-17.986506,-12.187988,-5.57847,0.490298,0.968185,3.153038,6.111932,16.89695,16.240235,13.614546,11.367201,27.644363,21.51866,16.088761,11.849101,62.635031,196.709997,-179.141607,105.263442
59,5.819435,2.610993,-6.153717,-3.546203,-29.199028,-54.702988,-72.566986,-86.9133,-64.759369,-92.30444,-111.879787,-130.019131,-58.154411,-89.046535,-111.750584,-132.174683,-48.073425,-76.41964,-97.479744,-115.479069,-35.272636,-57.467194,-73.811302,-87.84977,-0.092626,4.136413,8.78838,14.388587,1.041235,12.601715,20.51182,27.104294,3.478771,15.056232,22.402864,27.670174,8.152536,16.355461,22.216872,26.454185,14.486523,19.316517,22.52476,24.866026,13.357658,40.155373,69.370995,92.289047,52.885265,101.181965,124.797363,142.926636,57.615395,108.870792,135.759201,154.232998,59.695759,106.366367,130.875549,147.17308,59.28503,94.94791,113.077354,125.233326,-35.559685,-51.909125,-56.753383,-63.169529,-22.729339,-18.004074,-12.946468,-7.038806,1.367463,1.395498,2.965749,5.805033,18.037357,16.321313,14.330912,12.74053,28.427852,22.365505,17.150806,12.950914,68.78334,198.46709,-184.96645,100.863339
60,-1.583061,-1.029997,0.147285,4.290048,-31.207352,-57.144356,-75.306015,-88.800144,-63.794632,-90.855389,-112.120113,-132.275391,-54.635696,-85.677624,-109.552746,-131.837883,-42.125816,-70.378304,-92.920074,-112.481804,-27.499695,-48.962517,-65.999794,-80.536594,-0.060515,5.513447,10.973974,17.619369,2.087967,14.863509,23.219143,29.554488,4.87359,18.067368,25.490694,30.841737,9.796765,19.148803,24.830335,29.022385,15.931483,21.500258,24.634277,26.45011,17.221355,45.708046,75.422688,96.76466,55.568104,101.076794,125.650635,144.144402,58.829041,108.060436,136.077976,156.037846,60.275803,105.170403,130.3442,147.537861,60.16737,94.906998,113.608761,127.465839,-35.964737,-52.096785,-56.730474,-63.296364,-27.797041,-19.669235,-12.581801,-4.740332,-4.524576,-0.313507,4.075589,8.989131,12.790486,14.13115,14.064953,13.925212,24.262354,19.83343,16.397266,13.787076,67.756348,196.949188,-184.263096,104.665482
61,0.601273,1.415196,7.983856,9.794109,-32.862968,-60.962448,-80.449047,-97.590809,-64.29554,-90.157986,-112.76825,-134.525757,-54.943542,-83.231735,-107.362747,-130.193367,-42.12719,-67.834969,-90.061855,-109.774818,-26.513443,-45.18116,-61.508217,-75.792446,2.439821,7.867311,11.387085,15.452547,5.95453,14.628611,21.410535,26.782512,7.10951,16.69867,22.23657,26.346987,8.592817,15.223206,19.717833,23.480594,10.849547,15.49713,18.402981,20.371152,20.701962,50.878658,78.167839,99.407272,64.740543,105.015049,129.184742,148.122196,64.884853,108.698158,136.558685,157.721615,63.017235,104.024563,131.047325,150.784664,59.411888,92.561188,111.844311,127.267628,-37.349891,-52.022252,-55.620016,-60.001239,-27.441142,-17.835557,-10.00968,-1.323805,-6.151638,0.133196,6.357946,12.004651,11.514661,14.758287,17.8907,19.758403,24.446988,21.635121,19.923338,17.316977,68.996572,198.330622,-175.640287,114.425829
62,0.321808,0.083425,9.321842,13.191864,-30.596237,-57.403793,-75.280495,-89.280567,-63.45211,-89.244404,-111.31588,-131.713886,-57.161179,-85.129967,-109.694252,-131.850929,-48.283081,-74.404793,-96.135578,-114.572926,-36.66378,-57.359848,-73.96019,-87.558861,-2.072529,1.274837,5.662019,10.376045,-0.455656,7.142547,13.071451,17.795913,2.94179,11.341698,16.118525,19.746855,7.28377,13.03792,15.998667,18.709078,12.239611,16.787344,18.052177,19.071491,25.952854,58.561535,84.938908,107.028294,71.92749,108.591843,131.579704,150.920849,70.534458,110.424786,137.651653,159.565487,67.413998,104.945297,130.652847,149.609699,62.646503,92.873726,111.868114,127.609863,-38.968246,-51.59074,-52.98173,-55.483641,-25.648898,-15.788531,-7.384547,1.894564,-6.324539,1.354125,8.044288,14.563402,10.209134,15.253587,19.836764,23.454968,23.168508,22.863399,23.006351,22.333519,69.695148,198.389531,-165.941677,127.593178
63,1.722336,-4.052062,9.693775,10.277368,-32.94857,-60.506058,-79.539013,-96.857128,-63.048706,-88.479595,-110.338783,-130.711098,-56.004181,-82.885494,-106.366196,-128.274765,-46.614532,-71.399345,-92.216148,-110.712376,-34.605675,-53.430862,-68.733444,-81.696396,-3.536014,-0.640661,3.165697,7.371949,1.819846,8.014401,11.588268,13.486413,5.474174,11.442043,13.49512,14.588103,9.1976,13.012356,13.341177,13.425898,12.613077,15.769882,16.052452,16.066901,28.545284,62.211399,89.140778,111.793556,75.07679,111.105366,133.64851,152.515812,72.412434,112.037029,138.506355,159.287281,67.648201,104.798126,128.969307,146.317692,60.842171,88.705502,105.913754,119.182606,-37.327939,-47.879139,-47.797783,-49.408697,-21.603876,-9.780771,-0.85938,8.643267,-2.531026,7.256908,14.251501,20.869848,13.320737,20.350713,24.876339,27.994611,25.123896,25.902692,25.799137,24.456374,71.806068,195.029861,-155.859318,138.562938
64,-55.486679,-7.079314,9.823093,9.721676,-28.025608,-52.733574,-68.22916,-78.049564,-64.802799,-55.87944,-34.607563,-16.384964,-59.792347,-51.269016,-35.214672,-19.321632,-54.362984,-55.527363,-44.278336,-32.820225,-45.930519,-61.143837,-71.727448,-80.10498,-25.701386,-49.528153,-71.693587,-87.92882,-37.661329,-49.343025,-46.622734,-40.372481,-21.376819,-29.708185,-26.568238,-25.384421,-5.529441,-11.738321,-11.738815,-11.174108,12.100734,16.747576,17.961898,18.475847,26.270828,60.455132,89.042931,110.231781,74.381561,112.793083,135.647392,152.320404,72.021332,114.698753,140.695496,158.387604,67.268772,107.215805,129.617786,144.072075,60.583076,91.316013,107.619839,118.492985,-35.688033,-46.396419,-44.439425,-44.884645,-20.212515,-8.432389,-0.023897,9.078607,1.086128,8.265848,11.938639,16.488657,18.176234,23.472628,24.092479,24.49503,30.658586,30.601343,28.287987,25.383989,16.699877,188.845095,-145.655737,149.179162
65,-24.805813,-5.018394,6.839447,1.336464,-11.507492,-32.082539,-40.100384,-42.166214,-50.060692,-19.897499,1.754608,18.660107,-48.356323,-22.306938,-2.238922,16.330776,-41.399975,-22.312088,-1.478348,13.410473,-30.552292,-43.416767,-56.368389,-67.71452,-28.049569,-50.894937,-70.242205,-87.044986,-36.838814,-39.857791,-34.920969,-29.569061,-16.60555,-21.591402,-19.423345,-16.965061,0.238171,-3.591836,-8.30895,-10.825032,16.657421,20.919866,23.462007,25.632102,21.250534,52.812195,84.250717,107.07058,66.011124,111.185532,134.300652,150.464859,65.254326,113.881931,140.419807,157.507324,62.397652,105.464745,128.006516,141.800194,58.49081,90.846977,107.51564,118.501911,-32.643553,-43.888117,-44.102329,-48.05627,-18.445651,-6.170966,2.554862,10.753711,5.4236,13.060706,18.684687,23.242732,23.260145,27.51586,27.916867,26.730271,34.702805,34.315198,30.973204,27.144555,-7.870388,184.262149,-138.580742,150.951074
66,-55.161781,-26.00915,2.115555,-1.600015,3.509445,10.570679,19.029408,27.243805,9.282589,42.030373,61.024876,76.578655,10.857582,41.925888,61.01469,78.493252,13.210602,40.184269,59.771061,75.049496,18.32365,27.888165,29.3466,31.382446,-21.848778,-35.245097,-45.994115,-58.153759,-13.751323,-8.243001,-1.264278,3.587884,7.829767,12.744668,16.303714,18.886611,22.430528,27.974419,25.06406,22.703033,32.283486,43.529533,46.886038,49.751195,22.493191,54.669285,86.520538,109.647617,63.290348,108.653927,131.02581,146.295891,62.817135,112.007847,138.546066,156.006889,60.785866,105.047951,128.306694,142.71492,57.493172,91.273556,108.624458,119.676933,-32.441505,-43.8875,-43.520702,-46.237782,-16.615863,-3.111233,5.783297,13.556253,7.587335,16.757456,23.098606,28.76081,25.201702,31.154441,32.897902,32.88759,36.129302,37.376907,35.33056,32.792556,-62.954578,158.303773,-136.387596,149.401834
67,14.472542,8.854083,-1.686001,-8.754479,6.002827,5.776634,-3.051567,-14.270954,11.67778,27.855721,34.856586,43.390388,6.801853,20.681477,31.838036,43.210888,-0.831757,9.136333,24.21999,40.169678,-9.282818,-2.102909,10.388031,25.904732,40.305173,58.880191,66.30963,74.46828,25.388003,24.976313,28.901478,34.763629,3.056831,-2.591727,3.429865,8.420904,-18.449232,-26.467338,-22.538653,-18.124857,-38.152739,-50.549567,-52.426285,-50.402415,26.844749,62.275829,94.540501,117.231731,63.499546,107.511864,129.373913,144.991436,62.231827,109.537411,135.705357,153.356037,60.747471,105.250511,130.256882,146.819172,58.387985,93.440552,112.438889,126.155491,-29.489033,-39.013108,-38.904921,-46.027769,-17.998454,-3.500199,6.523869,15.829162,5.179007,16.857677,24.382706,30.530577,23.18518,32.315164,36.323815,38.513547,36.137267,39.609864,39.18959,37.987557,-48.404531,167.17757,-137.996092,140.667068
68,115.848141,61.607151,0.029411,-11.17948,-52.594872,-91.118259,-117.845592,-139.727554,-92.025204,-122.530746,-137.512207,-146.074963,-79.366951,-112.677555,-126.908627,-134.179745,-64.104424,-96.000652,-112.193584,-122.838421,-46.434288,-71.575584,-88.288021,-100.594311,5.58798,14.478249,21.85131,30.783939,7.37831,22.365073,29.70201,33.257166,11.106861,25.247767,32.370616,34.976483,16.754431,27.654922,33.560299,35.367178,22.282327,30.137659,33.76951,35.049163,32.335796,67.754688,96.541271,116.538963,75.04818,106.939259,124.64653,137.250195,69.266796,103.104572,122.868176,137.956066,61.665688,95.367336,114.807014,129.630661,52.439003,80.4669,96.485195,109.746552,-24.859234,-35.363566,-37.713879,-47.076106,-22.398912,-8.042929,1.189004,8.987525,-5.834982,7.318659,15.328675,22.313141,10.35468,21.863598,27.142949,29.941231,26.01798,34.017746,36.099847,37.061856,67.49445,228.610662,-137.91584,129.313529
69,6.993027,17.773621,25.555687,-20.232337,-50.058861,-90.937672,-118.801918,-140.857658,-88.380375,-117.368202,-137.390785,-154.152317,-77.274628,-110.1408,-131.2393,-148.411503,-63.363647,-95.943317,-117.871227,-134.617882,-47.777939,-72.566757,-90.441399,-104.055977,-5.505914,-0.316718,6.026223,12.425418,3.449872,20.261113,31.242374,40.852652,10.7618,27.360126,39.907995,48.653705,20.451428,33.795815,43.061341,49.515247,31.292207,40.840426,45.407424,47.500578,14.847565,38.609905,59.828053,74.659081,51.250248,71.380806,81.530514,88.770905,51.55838,73.047466,84.74968,93.217621,49.446087,71.91164,84.852333,94.644871,44.379444,62.677975,74.802303,85.791149,-28.130091,-39.981848,-42.406447,-45.494709,-30.30633,-30.106907,-31.290231,-32.710305,-15.987213,-11.700839,-10.605572,-10.038826,-2.466064,2.862317,4.970352,5.211117,10.726849,15.267357,17.062009,17.705325,74.522209,245.928132,-112.32542,108.625042
70,2.344208,18.840421,2.660122,-2.603706,-44.729919,-82.291088,-107.253857,-127.115593,-85.175056,-114.354401,-135.967026,-156.206932,-75.304985,-109.207306,-133.272972,-155.816174,-63.896027,-98.079357,-122.176609,-143.116608,-49.548569,-77.137871,-95.551414,-112.951241,-10.371105,-7.654396,-1.776189,3.017125,10.13596,28.348997,41.981018,53.639125,21.947825,37.472497,52.232142,65.568563,33.151388,45.308006,56.997853,67.555445,42.959823,52.409427,60.237095,67.336663,17.681293,35.892162,48.651581,58.141994,40.010204,55.158749,58.885403,58.853245,36.559525,53.287067,55.574112,52.534618,30.858307,46.228008,49.525623,48.915195,24.241734,34.131889,38.318882,40.680714,-16.268239,-26.237071,-33.223914,-41.023238,-28.798818,-29.350774,-30.099312,-30.865666,-22.832956,-22.127828,-22.700038,-22.386408,-14.18796,-12.086964,-13.387613,-14.913713,-2.815881,0.087624,-2.58549,-5.250144,76.943235,263.887252,-109.58848,105.140034
71,-27.26429,34.732631,-17.015247,-3.300498,-40.593681,-73.011646,-93.325367,-107.960529,-90.362206,-124.62038,-136.688404,-141.825085,-78.590584,-115.500469,-126.246643,-126.971798,-63.829193,-97.688427,-108.413486,-109.21257,-47.594376,-75.435047,-87.86705,-92.362289,-6.648049,0.900753,9.311468,15.893074,22.087381,51.586973,63.333754,68.776312,36.483008,64.259702,69.815325,70.319208,47.842614,71.207117,72.028953,68.084399,55.303916,73.389685,74.329527,70.735406,28.285675,41.959362,50.61842,49.63892,8.680344,10.017071,13.371334,15.842743,-5.771084,22.190323,42.937088,54.225426,-13.469124,17.275314,35.025158,44.329834,-16.578655,8.639431,24.288197,33.931618,-25.768076,-48.991418,-65.843168,-78.085742,-82.126041,-108.459319,-124.560739,-138.888286,-75.574384,-80.140858,-66.56293,-53.137959,-61.489516,-60.589195,-47.277814,-34.359473,-43.091815,-42.705319,-37.104526,-30.671244,50.125036,297.778332,-126.157637,100.997986
72,10.896492,20.287542,-1.141148,-10.311423,-45.491524,-78.089275,-102.694073,-121.21233,-90.272484,-124.160385,-140.80061,-151.974106,-80.703964,-116.827583,-136.4217,-149.578114,-68.28867,-103.359776,-124.130344,-136.947784,-53.477669,-80.601597,-96.17672,-108.557281,-12.195027,-6.1764,5.553956,12.510942,18.622627,42.450259,56.644085,69.397027,34.345023,58.400576,72.21933,82.910117,46.835279,68.313555,79.107094,85.864936,56.752704,73.3895,81.052171,85.760207,24.782524,36.632423,40.89592,35.324306,0.795879,-0.921135,-1.877174,-0.742321,-15.043945,6.563759,26.26997,38.177891,-24.752598,2.028408,19.149513,29.362736,-29.199543,-7.150326,9.395084,20.239277,-27.513822,-53.708779,-72.436568,-85.990166,-81.140998,-108.459103,-130.603789,-148.960858,-74.511011,-85.870185,-73.831293,-58.474831,-62.171828,-67.00355,-56.477328,-42.888965,-46.119036,-52.877001,-48.770043,-39.149638,61.322708,317.817345,-126.997604,90.438032
73,-1.828308,17.938803,5.251465,-9.121122,-44.123497,-77.572689,-102.184868,-121.190701,-88.59684,-120.10437,-136.605492,-148.513985,-80.003529,-115.811348,-136.270866,-152.136326,-68.583126,-102.073402,-122.702236,-138.189583,-53.86322,-78.828564,-93.59848,-106.783047,-10.323372,-4.397988,8.040274,14.535491,22.202422,44.758613,60.022512,75.142039,37.974342,59.255078,73.58883,86.612363,50.05544,69.883559,81.327763,89.968807,59.305651,74.768696,83.910721,90.492573,23.041821,31.899662,31.822071,24.734001,-5.87677,-5.690746,-7.20314,-8.549309,-22.85162,2.548771,21.038933,30.353966,-32.152176,-3.491135,12.852974,21.288414,-35.793114,-12.558346,4.457188,14.223175,-24.37403,-52.674151,-71.913912,-82.712948,-79.066586,-107.680554,-130.130657,-150.437589,-71.529948,-81.406309,-67.924342,-52.648679,-58.097474,-61.373333,-50.639135,-38.888063,-41.374567,-46.144107,-41.914636,-33.856609,59.525127,335.896738,-121.715412,81.4575
74,-3.27507,19.105701,10.231247,0.900599,-41.037483,-74.191132,-99.430904,-119.387341,-84.707623,-118.088493,-135.235119,-147.499466,-76.109676,-113.225441,-134.415951,-150.219269,-64.976292,-99.173813,-120.057392,-135.735054,-51.260262,-76.962547,-91.992188,-105.550117,-13.153147,-8.2204,5.328875,14.057975,21.929733,43.755971,57.242261,69.707323,38.724239,60.005839,72.766871,83.855392,51.120881,70.940232,82.249449,90.17178,60.353,76.037173,84.311728,90.150414,25.103302,31.57299,29.496861,23.729439,-0.917015,-0.275574,-0.388927,-1.337128,-17.643585,6.314621,22.732258,32.759686,-26.61684,0.745125,15.661068,23.645439,-31.142521,-8.878212,7.748508,17.737999,-24.191125,-51.667002,-70.087644,-82.559683,-80.573512,-111.211411,-133.339424,-152.627567,-74.020589,-81.306243,-69.554614,-56.572486,-60.528804,-62.869885,-51.082503,-40.063606,-43.506716,-47.604041,-42.696149,-37.485094,56.526718,354.95977,-111.207504,82.31543
75,-3.936882,11.509104,4.827805,6.702976,-37.538567,-70.026569,-95.828991,-116.848412,-79.069805,-114.284763,-131.704559,-143.695107,-69.956703,-109.815273,-131.389046,-146.51619,-58.707733,-96.189423,-117.469425,-132.622833,-45.730362,-74.844933,-90.329189,-103.670254,-13.409781,-8.186993,6.34609,16.390535,22.750457,45.475288,57.992961,68.932664,40.403171,62.582993,74.126059,83.372689,53.629368,74.361081,84.662902,90.943352,63.516597,80.796215,88.482536,93.413677,29.923611,42.213707,47.268276,48.474197,11.698208,13.885632,17.41991,19.431038,-4.427261,21.833839,39.177303,47.268276,-13.190231,15.011959,30.346527,35.821838,-18.711834,5.353432,22.637215,31.36425,-22.117207,-46.192241,-63.946565,-75.551969,-83.224859,-115.363694,-136.739464,-154.740357,-77.737933,-82.838888,-69.668945,-57.107182,-65.139398,-66.92522,-53.5758,-43.16678,-48.751024,-52.474543,-45.304178,-39.632804,52.985716,366.321892,-105.98382,88.871424
76,-0.872154,8.675624,12.279625,2.697443,-34.878159,-68.142586,-95.23922,-116.116791,-77.338371,-112.837601,-131.289139,-144.045124,-68.209248,-108.487072,-130.336246,-145.622864,-57.072716,-95.053253,-116.390305,-131.314831,-44.590645,-73.2938,-88.972378,-102.25153,-13.506482,-8.449124,5.977934,14.944341,23.809045,45.674248,57.326365,66.8074,41.473553,63.482326,74.701079,83.58085,54.361172,74.912204,84.112521,90.631327,62.922435,80.415709,88.024965,93.72916,30.447063,40.971336,41.586514,39.815426,13.158073,15.133438,16.476974,17.083511,-3.53548,23.933659,41.568947,50.088387,-13.743095,15.862713,31.219311,38.021679,-19.325066,5.49242,22.156792,31.495228,-21.96138,-48.12787,-67.371428,-80.025107,-84.326517,-113.296599,-135.663772,-156.022605,-80.50605,-85.212975,-72.300223,-57.262022,-68.693844,-66.165999,-51.884734,-39.156615,-52.742385,-52.561518,-44.853091,-37.40488,52.273722,374.836023,-93.544035,91.407375
77,0.153122,3.758501,-1.117973,-3.422455,-34.854813,-67.160339,-94.494381,-116.540337,-75.81356,-110.542831,-128.780594,-141.7939,-67.21447,-107.412186,-129.065094,-145.025425,-56.65226,-94.941959,-115.510368,-130.213509,-44.757614,-73.759174,-89.195995,-102.416382,-13.343585,-7.555657,7.773698,14.895187,25.327734,45.692032,56.345151,64.468603,43.080113,62.780841,72.954962,81.390625,55.716964,74.71065,82.755309,89.201187,63.772614,80.959854,87.925918,93.713475,28.886547,41.762466,44.871597,44.409943,13.003178,15.036221,16.734123,18.565578,-4.299603,25.233021,41.75766,48.975334,-14.297447,16.211071,30.543766,37.012825,-19.876099,5.214901,21.464653,30.346642,-20.752955,-45.072243,-62.869793,-73.502658,-81.35308,-111.743576,-134.505952,-154.785435,-77.168811,-82.866737,-67.949752,-51.87507,-66.056299,-64.635021,-50.232787,-36.777773,-50.342672,-50.603289,-42.878189,-33.793994,52.468443,378.484979,-94.620409,87.875375
78,0.264816,3.225162,-5.299702,-2.820357,-33.862495,-66.660805,-94.438477,-116.63475,-75.513611,-109.600811,-127.653751,-141.164646,-67.523403,-106.714153,-128.524647,-145.515633,-57.353497,-94.080162,-114.792137,-130.239487,-45.720177,-73.646965,-89.155998,-102.786026,-13.598923,-8.219659,6.546038,13.485549,25.630744,44.453257,54.68283,62.505064,43.192869,61.946655,71.612076,79.299879,55.763277,74.284881,81.912354,87.413574,63.951629,80.862906,87.191829,91.849107,24.489727,35.198479,38.440647,37.029762,4.348583,5.464783,7.379093,9.802551,-11.413708,16.884327,31.925354,37.992039,-20.690575,9.34536,22.603397,28.504829,-25.465107,-1.608582,13.785496,22.096081,-22.567213,-49.237,-66.515197,-78.233758,-80.715075,-112.327365,-135.351809,-155.352921,-74.87858,-83.232022,-69.602965,-56.472018,-63.516134,-67.323942,-55.608284,-43.670447,-48.312658,-53.792081,-48.073035,-39.330999,52.862177,381.774577,-99.791193,85.119454
79,1.434174,2.491012,-6.814728,-4.328179,-33.300476,-66.550541,-94.284096,-116.167145,-75.273113,-109.328041,-127.514935,-141.200581,-67.287827,-106.07769,-128.273621,-145.431004,-57.001305,-93.67218,-114.659386,-130.152283,-45.22831,-73.123226,-88.712425,-102.172852,-14.335914,-8.691988,6.157936,13.181737,25.415296,43.075235,52.675942,60.054499,43.352988,60.962044,70.399977,77.926303,55.970203,73.749752,80.86272,85.842891,63.986394,80.333396,86.462556,90.89179,22.641792,32.476215,33.071651,25.93317,-1.570244,-1.842613,-1.310635,0.047321,-17.765751,7.139969,22.691975,29.828625,-26.832848,1.155281,15.450611,22.621651,-30.605164,-8.174686,8.191166,17.968597,-22.457143,-50.113547,-67.627754,-74.801856,-80.606271,-111.959116,-134.212575,-153.8183,-73.600934,-83.653901,-69.058234,-54.912171,-61.60922,-66.266621,-54.396926,-42.374646,-46.380518,-52.968299,-48.110271,-39.900986,54.438229,384.350141,-106.464043,80.875827
80,1.639023,3.11889,-7.693748,-3.047383,-33.447189,-67.19902,-95.038147,-117.001133,-75.147972,-110.218163,-128.939724,-142.700901,-66.658459,-106.386852,-128.673363,-145.942783,-56.105804,-93.72448,-115.180779,-131.002693,-44.48204,-72.901096,-88.5993,-102.012463,-15.437418,-10.275701,4.455786,11.99403,24.636809,42.029553,50.894998,57.117526,42.624827,59.621011,68.468363,75.063554,54.831896,71.96251,78.840209,83.216955,62.241266,78.400855,84.396388,88.628576,20.600739,29.596481,30.675259,24.534531,-7.312202,-7.172012,-6.697083,-6.265926,-23.489513,0.483398,16.828537,24.550438,-32.223186,-3.788509,10.835838,17.888489,-35.432796,-13.039913,3.302994,12.821674,-23.147451,-51.469061,-69.629425,-76.555382,-79.561886,-111.935497,-134.018741,-153.777514,-71.844165,-82.88906,-67.598948,-53.297799,-59.348908,-65.03893,-52.851097,-40.857438,-43.722564,-50.110645,-44.689452,-36.976795,56.125259,387.584813,-114.109783,77.944226
81,0.66124,2.110876,-3.726826,-0.146101,-33.108673,-66.34964,-94.054756,-115.893116,-73.709393,-110.407391,-129.331169,-143.265553,-65.169868,-106.532364,-128.930225,-146.040516,-54.955101,-94.052467,-115.622978,-131.083775,-44.075775,-73.795052,-89.69101,-102.513943,-16.359228,-11.628714,3.113209,10.59742,23.864743,40.701055,49.206619,55.360232,42.214434,58.1319,66.460486,72.905747,54.533394,70.660749,77.156955,81.35061,61.910222,77.611993,83.291055,87.387763,20.757809,29.604435,29.774666,23.125763,-7.373371,-10.177574,-12.245407,-14.262257,-24.084663,0.294113,17.68301,26.665363,-33.830338,-5.351429,10.280857,18.473568,-38.830662,-16.801987,1.03569,11.912498,-22.494162,-49.988965,-69.053664,-79.743278,-77.53885,-110.495755,-133.010017,-153.357488,-70.376852,-81.89213,-66.237104,-51.562212,-58.301497,-64.256738,-51.599848,-39.885178,-42.631095,-49.447322,-43.97923,-36.803462,56.610231,389.998852,-118.012877,78.101288
82,1.415749,2.335462,3.265114,3.544906,-32.833443,-65.963516,-93.978138,-116.033077,-74.024506,-111.105194,-130.024567,-143.93383,-65.804443,-107.483311,-129.931812,-146.894302,-55.557289,-95.129299,-117.072086,-132.783165,-44.514999,-74.710751,-90.827465,-103.882084,-17.149139,-13.355811,1.028577,8.77356,21.924978,37.875109,45.839863,51.680217,40.393785,55.101128,62.77868,68.87042,52.820561,67.795654,73.902214,77.83059,60.329782,75.420348,80.757065,84.696865,21.535378,29.51992,30.098705,24.792252,-8.584328,-10.761967,-13.360691,-16.937828,-25.284576,0.111866,16.694412,25.608501,-34.796906,-4.815331,9.914818,17.658691,-40.040188,-14.595222,2.97266,13.595295,-23.170638,-52.770729,-72.467072,-83.383063,-79.50523,-111.840555,-134.012813,-153.395958,-71.856083,-81.888178,-68.526655,-55.648113,-59.196322,-63.145601,-51.448035,-40.158392,-43.293739,-48.512482,-42.81823,-35.988171,58.18697,392.449757,-114.586773,81.761636
83,0.146942,-0.448987,5.72216,7.482915,-32.604904,-65.23859,-93.153877,-115.345802,-72.974453,-110.047016,-128.756218,-142.870102,-64.886971,-106.61087,-128.85973,-146.002579,-54.709053,-94.651222,-116.418228,-132.224751,-43.707504,-74.465389,-90.675831,-103.91573,-16.781786,-12.53237,2.29693,10.330412,22.689942,38.54047,46.140958,51.642672,41.16937,55.324294,62.691982,68.304477,53.535199,67.931999,73.785629,77.51838,61.164154,75.868779,80.994125,84.657345,21.831894,29.415894,31.100235,27.36763,-6.763916,-8.752785,-9.427128,-11.457996,-23.548164,5.55233,22.013054,29.611073,-31.941433,0.402489,15.56076,22.155762,-35.695267,-9.177532,7.720184,16.982403,-24.404627,-52.14495,-70.641545,-81.577605,-82.991597,-115.211387,-137.117068,-156.657492,-76.036061,-82.616988,-68.27706,-55.440354,-62.788159,-65.621638,-53.455572,-42.778462,-46.497288,-51.447417,-45.635777,-39.667785,59.779043,391.676225,-107.419481,88.920007
84,0.611229,-0.05749,4.020596,6.972918,-33.16452,-66.337452,-94.229794,-116.129723,-73.351021,-110.393772,-129.20311,-143.249016,-64.755249,-106.228065,-128.509483,-145.67585,-54.286766,-93.71212,-115.600719,-131.52729,-43.059998,-73.088894,-89.41864,-102.704659,-17.364216,-12.687487,2.639954,10.946372,23.898336,39.244486,46.58624,51.756046,42.593211,55.96903,62.795908,68.081064,54.716978,68.527087,74.184104,77.735185,61.735777,75.970853,80.924162,84.599855,24.341068,33.887901,35.545406,28.198242,-1.201973,-3.122635,-3.119488,-4.434643,-18.532104,12.172222,27.622147,33.606148,-26.662617,7.885895,20.808907,24.648685,-29.43861,-0.142479,15.264244,21.913834,-25.702003,-54.619691,-74.109016,-83.477294,-86.389289,-117.617708,-138.719151,-157.288426,-79.656611,-83.721919,-68.888142,-55.872421,-66.129751,-66.033482,-53.236944,-42.335465,-49.399218,-51.17269,-44.59306,-38.053197,61.639881,390.621266,-102.149277,94.895455
85,1.121063,2.348615,-1.860695,2.943951,-32.983475,-66.647987,-95.211697,-117.588501,-72.828484,-112.040462,-131.183281,-145.073204,-63.591099,-107.611885,-129.964771,-146.633148,-53.161125,-94.852352,-116.897736,-132.516403,-42.685318,-74.524956,-91.222401,-104.160748,-19.52017,-15.427538,-0.580454,8.2719,21.908243,38.019173,45.308871,50.187647,41.67949,55.245438,61.624688,66.283695,54.12084,67.748044,73.507443,77.008507,60.770495,74.712009,79.574607,83.374665,25.601406,37.29332,38.636971,34.843884,3.946838,1.406136,1.585464,1.373806,-13.798656,13.576527,29.017353,35.780411,-23.454208,8.177319,21.010838,25.910053,-28.16637,-1.660023,13.820686,21.402569,-24.409351,-52.211208,-71.588611,-82.074294,-84.574661,-116.176978,-137.61561,-156.717081,-77.770507,-85.622102,-71.999035,-58.435557,-65.737821,-66.668338,-55.228704,-44.587688,-50.211637,-52.959932,-46.79792,-39.768192,63.312464,391.821632,-103.458452,96.691157
86,0.300407,-0.056687,-3.308945,0.561435,-33.217964,-66.67963,-95.248146,-116.736374,-74.028568,-112.561569,-131.300926,-144.550838,-64.661522,-107.699089,-129.574585,-145.606213,-53.831291,-94.694481,-116.338806,-131.425095,-43.030586,-73.971004,-90.318661,-103.038082,-19.136885,-15.246238,-0.743228,8.5746,22.310424,38.960126,46.063523,50.658371,41.899631,55.592784,61.859401,66.350077,54.560071,68.114471,73.511889,76.500795,61.541819,75.646416,80.385698,83.700337,24.474964,33.799381,34.423599,32.440853,-1.430626,-3.251953,-2.937641,-2.826176,-17.784176,8.893948,25.844707,33.996849,-26.207142,5.128212,19.571686,26.053791,-29.484215,-2.985249,13.521194,22.337952,-25.090983,-51.901345,-70.531815,-82.399842,-81.756897,-111.942845,-133.293328,-152.444539,-74.965278,-84.67482,-71.258185,-57.427327,-63.160297,-66.34103,-54.166443,-41.843901,-47.687188,-51.204615,-45.785399,-37.970297,64.191542,391.639916,-106.188726,97.127563
87,1.419067,0.331044,-4.289875,-3.331064,-33.78994,-67.357292,-95.606003,-116.97361,-75.471783,-112.932415,-131.272087,-144.344559,-66.046715,-107.914581,-129.196701,-144.99836,-55.061874,-94.965305,-116.121712,-130.867538,-43.995094,-74.367542,-90.239868,-102.43721,-19.465335,-15.471627,-0.602993,8.394351,21.791103,38.313043,45.774531,51.021957,41.140224,54.632689,61.229115,66.391202,53.963994,67.38137,72.601565,75.867174,61.300992,75.417013,80.062064,83.455435,22.106552,29.838581,29.553509,25.423336,-7.892246,-10.549278,-10.891685,-10.966587,-24.423351,2.315483,19.869289,28.090267,-32.371445,-1.695671,14.155769,21.894665,-34.364719,-10.453491,6.655426,16.385422,-25.361882,-53.09813,-70.440146,-79.401181,-78.708434,-109.837496,-131.300519,-150.783453,-70.709378,-81.108425,-67.20816,-53.602908,-57.455084,-62.192545,-51.262012,-40.63103,-40.82505,-46.3393,-42.166176,-35.692448,66.646929,392.255382,-109.442282,94.080921
88,-0.027122,-0.90452,-3.840408,-3.917323,-33.644028,-67.213097,-95.274639,-116.656265,-74.477291,-112.036228,-130.350208,-143.304863,-65.134907,-107.052383,-128.188705,-143.969593,-54.270973,-94.406033,-115.493374,-130.421047,-43.214607,-73.631287,-89.44931,-101.84063,-18.73631,-14.002338,1.576426,10.94841,22.997768,39.585225,46.843492,51.903691,42.176025,55.674851,62.077566,67.211371,54.805343,68.274467,73.491574,76.922859,62.017915,76.257128,81.178759,84.972889,20.839005,24.856796,20.519428,13.660698,-12.64492,-15.951977,-17.866058,-19.497128,-28.648109,-1.604061,16.760445,26.483631,-36.566677,-5.505409,10.662346,19.548855,-38.89967,-14.878063,2.326412,12.901382,-26.301507,-56.696172,-75.38339,-86.198295,-76.548929,-107.237093,-128.639632,-148.745751,-67.523026,-78.080926,-64.791712,-51.720416,-53.604699,-59.51057,-48.542369,-37.748181,-36.573287,-43.411065,-39.510384,-32.960919,67.344503,392.039441,-112.557993,90.852177
89,0.511208,-0.172531,-2.201157,-0.620314,-33.744164,-67.438259,-95.821438,-117.287636,-73.852272,-112.045898,-130.756817,-144.170837,-64.284897,-106.828251,-128.43441,-144.455338,-53.315964,-93.867302,-115.328808,-130.602379,-42.393837,-73.136444,-89.321136,-102.001362,-18.809793,-13.958804,1.511341,11.024239,23.417053,40.252191,47.644704,52.685513,42.999467,56.568132,62.765651,67.474613,55.694487,69.332498,74.674773,77.823365,62.653697,76.956945,81.768105,85.266698,19.242554,27.137775,27.476406,20.933876,-13.418541,-17.781715,-21.027889,-24.036999,-30.503597,-3.373775,15.008812,25.512314,-38.78437,-7.373657,8.600464,17.792072,-41.47768,-17.82629,-0.076275,11.3451,-23.765541,-50.617245,-69.079939,-78.943857,-76.330703,-107.550137,-129.049592,-147.724553,-67.653937,-77.907531,-65.23579,-51.932745,-53.732924,-58.244965,-48.171558,-37.549746,-36.444815,-43.521382,-40.350838,-34.413443,68.289642,392.195037,-114.325218,90.55999
90,0.276031,-0.157464,1.142349,1.556203,-33.881264,-67.426472,-95.753002,-117.710724,-72.59285,-111.201038,-130.207844,-143.956947,-62.925453,-106.060238,-128.104248,-144.310856,-52.227859,-93.436432,-115.292988,-130.743942,-41.867638,-73.215866,-89.765282,-102.585812,-18.583786,-13.625784,1.958229,11.930674,23.583841,40.947995,48.363293,53.018595,43.463521,57.692854,63.743962,67.668942,56.059741,70.349157,75.764606,78.397582,62.807085,77.379503,82.125516,85.181421,19.671421,26.872101,27.450886,21.862507,-12.860012,-16.485329,-20.234299,-24.573612,-29.892139,-1.741905,16.142063,25.637627,-37.960224,-5.229836,10.324287,18.210354,-40.689011,-14.813805,2.554264,12.695503,-23.974505,-51.65246,-70.46639,-80.793467,-78.080031,-108.652783,-129.711032,-148.053838,-69.765677,-79.377901,-65.866911,-53.171582,-55.691369,-60.350623,-49.746379,-39.064947,-38.208129,-44.403641,-40.352258,-34.121549,69.021807,392.090848,-112.726736,92.169468
91,-0.262642,-0.108989,2.125282,1.768347,-33.632355,-67.197247,-95.656986,-117.463932,-72.377987,-111.225643,-130.28698,-144.139767,-62.703896,-106.122322,-128.153915,-144.279842,-52.093849,-93.35186,-115.050774,-130.493774,-41.819572,-73.539219,-90.246735,-103.226852,-18.749278,-14.093544,1.016041,10.470523,23.815837,40.758298,48.261096,53.251703,43.705768,57.553483,63.514313,67.468315,56.46964,70.389048,75.819935,78.434015,63.425207,77.415318,81.869684,84.797024,20.883694,28.137531,28.782005,24.199219,-12.281456,-15.275517,-18.591213,-22.812996,-29.309578,-1.319618,16.572762,26.157532,-37.358322,-4.543018,11.015511,18.669376,-40.156059,-13.563366,4.033298,14.117374,-24.22234,-52.094407,-70.502607,-80.682347,-78.867904,-110.093328,-131.155621,-149.415372,-70.799348,-80.026249,-66.656914,-53.840339,-57.038763,-61.283116,-50.296791,-39.313369,-39.841983,-45.819207,-41.306672,-34.971574,69.26199,391.979883,-110.098629,93.935838
92,-0.375481,-0.476157,2.047176,2.093154,-33.581314,-67.024384,-95.461864,-117.435608,-72.46027,-111.259804,-130.277767,-144.289513,-62.876015,-106.226578,-128.297997,-144.624882,-52.254639,-93.418522,-115.097866,-130.633507,-41.928406,-73.519135,-90.226078,-103.238468,-18.326905,-13.505371,1.610389,10.996452,23.935448,40.731251,48.353351,53.513772,43.640128,57.718295,63.952308,68.132626,56.384425,70.551698,76.089969,78.916656,63.377721,77.506585,81.932237,84.891749,20.931015,28.852444,30.450439,26.327534,-10.690899,-14.141178,-17.00655,-21.025429,-28.059711,0.904312,17.999783,26.143856,-36.230221,-2.186279,12.273903,18.296871,-38.958492,-11.374798,5.657673,14.50716,-24.840523,-52.812379,-70.930722,-80.058699,-80.381376,-111.733017,-132.52895,-150.466735,-72.246469,-79.938811,-65.850825,-52.814695,-58.221314,-61.142757,-50.040342,-39.109809,-40.918725,-45.819485,-40.809273,-34.316309,69.129982,391.468975,-107.80798,95.994242
93,-0.461082,-0.355003,-1.373405,1.801939,-33.835487,-67.203541,-95.359097,-117.130051,-72.617912,-111.1619,-130.078697,-143.898468,-63.001328,-106.171188,-128.263435,-144.667168,-52.251549,-93.208179,-114.840145,-130.366688,-41.791077,-73.260441,-89.958057,-103.046665,-17.998763,-12.970489,2.392458,11.683857,23.887159,41.198949,48.981538,54.020619,43.56331,58.079535,64.430009,68.620701,56.384548,70.854337,76.440403,79.259124,63.557353,77.688008,82.128665,85.018029,21.516895,30.756512,32.771931,28.270969,-8.390522,-11.339951,-13.612289,-16.885529,-25.382881,3.024387,19.840221,28.052959,-33.857632,-0.649509,13.769131,20.269318,-37.154331,-10.371838,6.752987,16.223488,-25.42601,-53.422196,-72.286175,-81.674954,-81.045471,-112.782959,-133.448754,-151.934727,-72.875335,-81.730777,-67.801921,-55.066671,-59.104685,-62.60689,-51.433369,-40.221285,-41.873541,-47.258331,-42.062652,-35.06315,69.077797,390.918856,-108.772488,97.601065
94,-0.011787,0.40039,-1.054859,0.628681,-34.007034,-67.421093,-95.565491,-117.376957,-73.137989,-111.395988,-130.149021,-144.108868,-63.585777,-106.433659,-128.376045,-144.920197,-52.820892,-93.478546,-115.103302,-130.85392,-42.259026,-73.490639,-90.178242,-103.459969,-18.179321,-13.389774,1.775942,10.877335,23.516595,40.553286,48.163222,53.15037,43.262462,57.636291,63.802872,67.977509,56.156627,70.595479,75.994194,78.70726,63.394084,77.539128,81.776441,84.483394,22.042122,31.287804,32.35611,27.137947,-8.156261,-11.232147,-13.479996,-16.438923,-25.242805,3.500061,20.833225,29.071827,-33.651695,-0.106602,14.501953,20.919571,-36.616631,-9.785099,7.272835,16.585407,-25.83242,-53.273995,-72.578161,-82.11082,-80.677994,-111.920738,-133.021811,-152.074036,-72.442959,-82.746015,-68.892156,-55.192673,-58.867687,-63.273054,-52.096476,-40.575362,-41.840474,-47.464392,-42.762469,-35.629185,69.803495,391.112382,-109.089861,98.022882
95,-0.395279,0.059219,-1.368256,-0.866482,-34.0345,-67.436485,-95.578365,-117.407684,-73.142509,-111.126423,-129.727592,-143.501472,-63.664513,-106.208897,-128.07169,-144.512157,-52.895164,-93.263512,-114.715519,-130.330124,-42.194481,-73.176556,-89.72929,-102.956772,-17.937445,-13.055704,2.684167,12.24418,23.921801,41.338072,49.006609,54.086198,43.463954,58.133505,64.369062,68.690047,56.089011,70.719104,76.237429,79.123335,63.148997,77.437425,81.943476,84.931887,22.079773,31.405392,32.326069,27.202835,-7.914562,-12.07655,-14.461327,-17.216492,-24.983025,3.792171,21.474953,29.74823,-33.25058,0.334053,15.201244,21.764545,-35.88747,-9.639874,7.383957,16.928787,-25.311154,-51.709702,-70.812995,-80.715816,-79.718207,-111.028754,-132.473653,-151.517665,-71.458966,-81.728183,-67.790343,-53.99913,-58.000062,-62.257506,-51.302952,-40.076758,-41.230688,-47.085893,-42.90678,-36.16277,70.266924,391.370422,-109.599409,97.355221
96,-0.015335,-0.072248,-0.673141,-0.628619,-34.283752,-67.508469,-95.60463,-117.271271,-73.298264,-111.181068,-129.736176,-143.430977,-63.601913,-105.922451,-127.636242,-143.958435,-52.626686,-92.788467,-114.199791,-129.726562,-41.85482,-72.509537,-88.884716,-101.960793,-17.772263,-12.901575,2.905233,12.65797,24.243582,41.73698,49.317152,54.250392,43.783759,58.581628,64.881281,69.115198,56.306866,71.087877,76.696173,79.533049,63.22106,77.73994,82.291254,85.139307,21.50631,30.895329,32.316227,26.961536,-8.431664,-12.226582,-14.913712,-17.830238,-25.334587,3.62812,21.529427,30.337944,-33.654385,-0.709591,14.887848,22.51442,-36.504936,-11.377258,6.256428,16.809483,-24.708841,-51.18538,-70.76554,-81.777398,-79.566826,-110.840662,-132.546364,-151.722831,-71.666262,-81.527741,-67.57116,-53.871893,-58.301127,-62.506021,-51.892514,-40.863798,-41.289042,-47.026119,-43.383678,-37.209471,70.979118,391.26137,-109.545021,96.689799
97,0.441399,0.470415,-0.014305,-1.217039,-34.105682,-67.867584,-95.606289,-117.535114,-73.990288,-111.728268,-130.158863,-143.382854,-64.289417,-106.252499,-127.754574,-143.899212,-53.177834,-92.968254,-114.11356,-129.45282,-42.257996,-73.337917,-89.891682,-103.007298,-19.067416,-13.788682,2.848485,12.538174,24.204865,41.365613,49.050884,54.213342,44.068305,57.988083,64.322996,68.865418,56.76456,70.810679,76.369884,79.036143,63.578101,77.418715,82.336703,85.547354,21.417503,30.291653,31.390285,25.89386,-9.714031,-13.550491,-16.296616,-19.069405,-26.584854,2.349243,20.271721,29.562206,-34.727383,-1.371689,13.817081,21.63414,-37.3106,-11.452103,6.003456,16.773148,-25.562448,-52.215747,-71.261396,-81.183977,-79.322325,-110.663685,-132.222576,-151.245222,-71.09751,-81.180827,-67.340862,-53.231943,-57.611869,-61.775452,-50.953569,-39.716321,-40.70405,-46.44761,-42.848981,-36.790463,71.64485,391.926376,-109.334993,95.667351
98,-0.577126,-0.577181,-0.3162,-0.402736,-34.187737,-67.709942,-95.08049,-116.798058,-73.100567,-111.589279,-130.191536,-143.482304,-63.33252,-106.128502,-127.849617,-144.045582,-52.265396,-92.838936,-114.104462,-129.498253,-41.492386,-73.120937,-89.701939,-102.803307,-18.552973,-12.64951,4.84926,15.3091,25.137913,42.235121,50.099962,55.382957,44.908049,58.752553,65.074869,69.568879,57.402071,71.393727,77.075814,79.954125,63.884938,77.697518,82.492684,85.766197,21.067429,29.884815,31.03981,25.622234,-9.596672,-13.061485,-15.934753,-19.07032,-26.56929,3.101177,20.321846,29.733181,-34.790211,-0.883942,13.832245,22.018375,-37.652721,-11.542625,5.949383,17.334194,-25.94987,-53.006708,-72.156468,-82.241051,-80.219837,-111.000997,-132.054645,-150.797655,-72.159864,-80.786736,-66.976874,-53.226416,-58.519013,-61.407821,-50.505662,-39.344244,-41.264311,-46.45536,-42.744932,-36.667086,71.489553,391.497072,-109.229364,95.412491
99,0.00309,0.288189,-0.70467,0.419841,-34.533119,-68.070316,-95.058403,-116.504517,-73.994923,-111.73851,-130.130882,-143.651218,-64.306068,-106.180973,-127.68671,-144.21936,-53.175087,-92.812099,-113.969135,-129.519768,-42.146301,-72.76886,-89.178829,-102.316704,-18.616391,-12.863599,4.399038,14.570318,24.998605,41.631881,49.347348,54.568407,44.386814,58.088489,64.498244,69.044185,56.904363,70.855448,76.485419,79.320627,63.736923,77.781375,82.610442,85.872593,21.161842,29.798355,30.636349,25.076065,-9.740295,-12.424679,-15.026836,-18.065701,-26.593723,3.411827,20.740585,30.355568,-34.682064,-0.28656,14.698505,23.176746,-37.252979,-10.709839,6.873493,18.543491,-26.264519,-53.63931,-73.10304,-83.006478,-80.361863,-111.52004,-132.814422,-151.924075,-72.235045,-81.599341,-67.995046,-54.029017,-58.638685,-62.12709,-51.092353,-39.504548,-41.515913,-47.059341,-43.403346,-37.12231,71.948147,391.877809,-109.478531,95.924881
100,-0.220184,0.836718,0.097675,1.211049,-34.308701,-67.911987,-95.211124,-116.838627,-74.202633,-111.631794,-130.17374,-143.901329,-64.853268,-106.383648,-127.950268,-144.734116,-53.8694,-93.187237,-114.284878,-130.129395,-42.707748,-73.417511,-89.731865,-103.140507,-18.612933,-13.105969,4.260223,14.718581,24.417286,41.622742,49.535686,55.012578,43.679648,57.590472,64.050368,68.799716,56.095495,69.955127,75.791159,78.959202,62.813816,76.671288,81.827694,85.560877,20.98978,29.44479,30.828438,26.36055,-10.271587,-12.761135,-15.012646,-17.783318,-27.031517,3.498859,21.058903,30.751877,-34.965649,-0.184937,15.094929,23.592682,-37.411366,-10.353069,7.383327,18.962402,-26.518251,-53.724865,-72.957309,-83.897444,-80.811714,-111.878717,-133.317318,-152.62942,-72.607833,-82.159294,-69.176486,-55.850747,-58.979764,-63.008824,-52.144024,-40.760644,-41.713824,-47.69574,-44.098532,-37.997128,72.264833,392.81004,-108.843985,97.231442
101,-0.74707,0.425275,-0.061054,2.119768,-34.718399,-67.742386,-94.974117,-116.246109,-74.366055,-111.832523,-130.1437,-143.761196,-65.02367,-106.622086,-128.114777,-144.841175,-54.00444,-93.518658,-114.532013,-130.3549,-42.650757,-73.3465,-89.563408,-103.070984,-18.443428,-13.112268,4.002909,14.520671,24.1412,41.457992,49.308383,54.475349,43.474204,57.658336,64.166891,68.780882,55.909008,69.895044,75.893603,79.24276,62.520069,76.534016,81.807131,85.650415,20.891476,29.473801,31.414318,27.042618,-8.751583,-11.577358,-13.438282,-15.871296,-25.527592,3.007679,19.960155,29.175682,-33.61948,-0.359116,14.542294,22.418976,-36.480961,-10.064049,7.462807,18.309746,-26.902678,-54.284664,-73.475982,-84.052561,-81.846929,-112.675421,-132.942153,-151.164576,-73.637984,-82.093221,-69.132241,-56.856198,-59.898054,-63.076502,-52.373458,-41.5165,-42.530998,-47.954722,-43.814603,-37.48849,72.172451,393.164889,-108.250351,99.280784
102,-0.949402,-0.046992,-0.710163,5.328134,-34.221268,-67.439175,-94.842625,-115.88316,-72.879696,-111.008148,-129.626026,-143.213997,-63.249779,-106.096916,-127.812195,-144.334888,-52.517052,-93.186951,-114.480686,-130.18919,-41.9244,-73.334026,-89.97242,-103.42947,-17.415469,-11.725539,5.194877,15.94019,25.449568,42.661445,50.199256,55.126569,44.976345,59.097985,65.201025,69.356025,57.276286,71.191371,76.902666,79.848531,63.716607,77.656701,82.84003,86.480587,21.318283,30.525398,32.680607,28.720837,-6.580124,-9.372082,-9.045753,-8.756733,-23.081245,5.617104,21.66172,30.245705,-30.92474,2.660179,16.564522,23.492718,-33.69072,-6.71093,9.913216,19.982185,-27.585144,-54.860548,-73.886128,-84.115485,-82.358686,-112.883335,-132.729269,-150.532499,-74.047482,-82.403764,-70.847761,-59.45342,-60.384555,-64.007143,-54.195712,-43.942766,-43.342892,-49.481037,-45.641736,-39.394849,71.896162,392.851598,-108.287401,104.34262
103,0.502052,1.552529,-6.129227,12.456046,-34.031296,-67.772312,-94.895039,-115.595226,-73.855247,-110.501919,-129.260502,-143.325806,-64.605103,-105.733337,-127.417831,-144.125862,-53.920555,-92.687531,-113.780651,-129.45282,-43.131065,-72.645721,-88.926888,-102.452774,-16.507429,-10.659974,5.715186,15.164172,27.220878,43.873791,51.687997,57.190021,45.635901,59.800828,66.681121,71.931079,57.262763,71.43652,77.392965,80.866549,63.544261,77.466015,82.222711,85.644363,24.760609,37.018261,43.042774,44.446793,4.536438,1.575279,4.397163,8.487625,-11.080742,17.428093,35.123806,45.140247,-18.625145,12.954025,29.465218,39.425583,-21.715565,2.131691,19.974403,32.836018,-28.854146,-55.650305,-74.650166,-87.081759,-85.237953,-115.166093,-132.686043,-147.118226,-78.432131,-84.319694,-72.100337,-60.545723,-64.764357,-66.523225,-56.769068,-46.86566,-47.272534,-51.348555,-48.336679,-43.324552,72.470112,394.143602,-114.34473,116.538141
104,1.515656,4.387305,-6.927738,11.798713,-33.946037,-67.509556,-94.651451,-115.594883,-71.986485,-108.507614,-128.224983,-142.698555,-63.146095,-104.451027,-126.869087,-143.368492,-53.606415,-92.17495,-113.701401,-128.764858,-44.107704,-73.659325,-90.078106,-102.723255,-16.932889,-11.63952,4.298199,14.100336,27.204391,45.030315,53.045889,58.794235,45.276267,60.992426,68.139727,73.85306,56.18034,71.855558,77.966688,81.761189,61.716326,76.368464,81.234272,84.624864,29.270725,43.896389,54.421234,58.246307,15.12085,17.096272,20.247631,22.846355,1.160488,33.926468,54.551067,64.101677,-3.929672,30.069351,48.148613,56.359749,-4.766579,21.817417,38.740425,47.9076,-32.205433,-55.712642,-72.484671,-83.10321,-85.79312,-115.353567,-131.283537,-143.463899,-76.092285,-82.800572,-71.80764,-59.985029,-59.326091,-62.618993,-52.635557,-42.776209,-39.155226,-44.451528,-42.499999,-39.680166,74.492598,397.826798,-120.765638,127.632745
105,0.922508,3.363298,-7.424183,7.135013,-34.641037,-67.816715,-94.023685,-114.183083,-71.225681,-104.944096,-124.623699,-139.513664,-61.948814,-101.110325,-123.802986,-140.946865,-52.373543,-88.80352,-110.06773,-125.276985,-43.035851,-70.502243,-86.54789,-99.091015,-14.173202,-8.513715,7.115006,16.965308,28.38722,48.579667,57.848589,64.422352,46.512757,65.509901,73.984342,80.465974,57.732868,75.990798,83.080239,87.695095,63.542656,79.453082,85.017164,88.662724,32.256546,53.140011,68.405571,74.197712,30.056477,43.416195,59.523354,67.055111,19.214458,59.031944,74.065018,73.708706,17.115841,57.204437,68.385487,66.783772,18.615932,50.764503,62.852955,64.245701,-26.104184,-48.695325,-59.887618,-60.413948,-78.451274,-108.252609,-100.00473,-88.756275,-66.351003,-65.777712,-53.995733,-45.563776,-47.391187,-43.826182,-36.034082,-29.788646,-25.894171,-25.565906,-23.227664,-21.279192,75.681839,401.00344,-127.923088,134.581102
106,1.112938,3.880828,5.439148,19.186286,-35.157394,-69.141941,-94.251823,-113.074608,-70.246754,-102.733669,-121.824875,-136.680965,-59.614906,-96.90033,-119.431801,-137.026062,-49.169655,-83.646126,-105.051041,-121.161861,-38.707581,-64.586678,-80.253639,-93.305798,-11.573756,-4.287146,12.969439,25.292722,33.087415,55.147564,65.973337,74.40548,50.176038,71.605037,81.249834,88.973019,60.536028,80.910145,89.741812,95.954768,65.46649,83.670388,91.464648,97.431344,27.896261,52.277727,71.061773,80.163202,42.696533,66.864395,76.6115,78.170414,35.687341,73.867006,83.49226,81.076612,32.732162,70.529938,78.685856,76.151876,31.717815,62.344923,71.217756,71.252603,-25.607124,-40.295046,-41.989277,-35.949608,-57.438273,-67.434785,-58.005342,-49.562116,-42.704331,-36.922146,-25.595731,-18.615465,-23.549276,-16.884199,-8.858591,-3.789901,-3.221087,-0.552759,1.978421,3.223248,76.8958,404.283344,-122.382917,153.166463
107,2.686386,4.652647,5.439148,19.186285,-36.101761,-69.101486,-93.567867,-111.775188,-68.03112,-99.871559,-117.954025,-132.106133,-56.174126,-92.453098,-114.089127,-130.949936,-44.623947,-78.206234,-98.897324,-114.556503,-33.182716,-58.331108,-73.61372,-86.635265,-10.137195,-1.815586,16.625125,30.557994,36.329249,61.161807,73.786864,84.15834,53.29993,77.08378,88.943317,98.685001,63.658438,85.927242,96.992051,105.292171,68.422174,88.181132,97.197495,104.420194,23.535976,51.415443,73.717976,86.128693,55.33659,90.312595,93.699646,89.285717,52.160225,88.702068,92.919502,88.444519,48.348484,83.855438,88.986225,85.519981,44.819698,73.925343,79.582558,78.259506,-25.110064,-31.894767,-24.090935,-11.485268,-36.425271,-26.616959,-16.005954,-10.367956,-19.057659,-8.06658,2.804271,8.332848,0.292635,10.057784,18.316901,22.208844,19.451997,24.460388,27.184507,27.725688,80.018578,409.17129,-116.507378,172.588048
108,2.704811,4.37514,3.406849,26.760591,-35.684395,-68.714104,-92.581158,-111.076012,-66.025887,-96.542988,-114.517536,-128.245811,-53.263206,-88.620987,-109.983902,-125.917912,-41.274033,-73.61681,-93.930702,-108.824158,-29.874229,-54.11087,-68.91552,-81.010036,-8.063492,2.191646,21.289998,34.591408,40.311286,67.060762,80.88742,92.187622,55.895238,82.046784,95.301325,105.972414,65.041709,89.984121,102.471227,111.820301,68.901418,90.505047,100.536587,108.710118,33.557339,65.856628,86.380119,95.660763,82.318325,110.567608,110.149899,104.649296,73.376369,102.956429,102.319279,95.43932,60.604134,89.07011,88.83379,82.030621,45.802174,70.536747,75.114212,71.963768,-12.099746,-1.659481,19.330966,34.975125,1.419827,28.743705,43.113705,48.215586,17.188536,45.891486,56.360774,58.848945,33.166455,57.714776,64.29879,64.181958,47.473408,63.866784,65.475629,62.666109,82.425842,412.677803,-113.398075,198.480011
109,2.106857,2.550786,-6.531029,8.754541,-35.208092,-68.032722,-90.922623,-110.35635,-62.713509,-90.706329,-108.665371,-123.394375,-51.153831,-83.179951,-103.937073,-120.825405,-39.910469,-69.357033,-88.874989,-104.518433,-28.476791,-49.819679,-63.651009,-75.89407,-5.531293,7.162801,26.864578,38.962596,45.047852,72.982256,87.996066,100.864173,59.002148,86.743829,101.759492,115.24288,67.258178,93.399474,107.315485,119.094068,70.805431,93.171368,104.020175,113.623537,39.836025,71.917191,90.798454,103.512268,74.9893,101.665821,115.209503,127.46418,57.953625,86.108437,102.850456,119.302368,39.584484,64.009209,81.335506,99.358292,20.741615,38.955917,52.837601,67.396145,-0.026244,12.407881,28.203019,42.198256,19.468855,49.840301,71.918791,90.752481,24.904867,61.435979,87.820386,110.827478,30.762758,65.415422,89.546557,108.480654,37.225618,62.824252,78.666196,90.957678,83.920813,414.103898,-120.540991,206.109861
110,1.962662,5.32869,23.15197,60.088091,-34.293022,-67.354889,-91.11969,-111.57835,-59.558144,-87.638054,-105.356712,-119.388885,-46.469193,-79.271736,-100.213623,-115.989132,-35.021667,-65.107841,-84.817486,-99.601707,-24.574127,-46.69693,-61.112366,-73.127747,-6.65231,6.426798,26.891502,39.058,44.80295,75.201319,91.710847,105.57542,59.210371,89.507407,105.396653,118.749686,67.595274,95.910061,111.014705,123.150452,71.009639,94.87747,106.388241,116.517655,30.40638,54.820175,67.99942,74.779186,74.068851,94.563904,92.911148,87.295704,64.561615,88.765411,86.798,81.147594,49.977493,72.673645,73.972664,71.288223,31.310577,53.369179,60.956097,63.400726,25.443022,52.376329,74.528919,89.942439,57.516495,91.920552,108.048524,114.117108,56.595055,93.37885,109.8186,115.668155,56.301309,91.303974,106.158591,111.29672,55.752409,80.585337,92.534783,97.77974,84.224424,417.830041,-99.048071,264.595406
111,0.599098,2.803283,-10.791321,5.297444,-34.184189,-66.180496,-89.945297,-111.663265,-56.063919,-83.033924,-100.113201,-113.718224,-41.954269,-73.655434,-93.994961,-109.271221,-30.769501,-60.671425,-80.552216,-94.893951,-21.926308,-44.785995,-59.509048,-71.412163,-7.249622,7.028864,28.32936,40.384831,44.394779,76.4509,94.109542,108.812933,59.679241,92.990748,108.505663,119.820499,68.832814,99.836831,113.727463,123.354228,72.531663,99.413717,110.422766,118.86343,40.947189,65.651379,76.568584,82.880459,71.973896,90.555553,97.563171,103.412647,55.7024,76.081696,86.975727,97.021351,38.201008,58.44492,70.281715,80.85022,19.790668,37.913876,49.560242,59.550419,17.807893,42.248953,65.293589,83.121921,50.336775,91.549988,115.747874,136.144591,54.324678,99.696905,126.638239,149.868003,59.752724,103.220321,129.362729,149.318795,65.306001,97.697118,114.906772,126.750995,84.269714,419.812553,-110.3932,269.072079
112,-0.648422,0.244902,6.794643,44.976592,-35.808678,-65.284424,-86.035423,-100.222492,-56.571693,-80.288544,-95.205975,-107.680378,-41.300354,-69.894562,-88.606682,-103.246651,-28.248253,-55.425224,-73.878822,-88.221016,-18.069305,-39.679184,-54.12117,-66.730499,-4.969858,9.401253,29.198435,42.771238,47.264198,81.676035,98.608862,110.366697,61.630863,97.050961,112.569396,121.812691,70.136859,102.332906,115.876439,123.555658,73.527327,100.378135,111.008839,117.406552,35.972271,58.886032,69.218788,78.91531,54.456139,77.983418,90.129375,95.383129,45.322895,68.058186,81.843967,88.29134,34.397907,53.992825,67.54097,76.640396,20.57848,39.100971,51.045513,59.729919,26.615971,57.921022,82.842068,100.455261,74.708859,121.410881,138.27177,144.580253,73.707824,124.001558,144.931922,151.293635,69.315208,117.107063,137.641607,146.625118,62.12641,98.465293,116.010067,126.380801,83.171425,419.378185,-104.048424,313.369401
113,-1.167641,2.487801,-6.410522,4.80869,-36.092148,-65.597534,-86.484146,-95.365791,-57.184525,-81.429691,-95.734463,-107.154179,-40.939064,-69.850502,-88.416252,-102.565727,-26.705933,-54.586372,-72.645264,-86.459827,-15.845146,-37.728081,-52.50309,-65.107155,-5.432616,7.66761,27.61744,46.533999,45.173267,81.754087,99.009499,108.947549,60.188682,98.217056,113.365297,119.390408,68.772978,104.082419,116.815107,120.962326,72.100769,101.534967,111.241453,114.294023,3.468304,17.244415,32.275085,45.89098,24.236069,42.743111,54.143085,61.354408,35.611382,55.157318,68.750725,78.280277,47.710934,66.513348,77.199955,83.924332,60.483055,75.261555,83.269501,89.994221,40.187045,68.808855,87.573385,98.603367,88.253195,126.853192,146.684337,161.152767,84.069728,129.825301,153.944148,172.270682,76.834309,120.127275,145.51077,164.115552,65.751468,101.548182,122.027521,138.313142,81.708469,421.523457,-110.754261,317.835561
114,-2.833672,-1.42699,12.901611,35.707855,-35.60051,-64.269447,-84.591007,-93.986378,-57.19883,-81.496124,-94.997463,-105.399513,-40.838699,-70.609932,-88.713398,-102.338333,-25.985298,-55.497665,-73.552723,-87.154255,-14.388542,-37.949409,-52.650833,-65.286942,-4.472459,8.965295,27.992326,44.72959,44.6248,82.24241,100.357449,111.106961,59.673993,98.520745,114.106672,121.105958,68.780943,104.548141,117.824973,122.909873,72.919456,102.438932,112.534321,116.928419,12.893486,26.010818,33.581543,43.895874,28.382778,52.74456,64.611855,68.63966,30.652313,54.076195,66.48983,71.907406,32.945194,51.203442,63.442097,70.490856,34.835243,51.471634,60.953407,67.380867,29.991434,60.018869,82.637859,97.228247,76.871853,124.141917,145.004293,158.919872,74.779749,129.096646,154.548005,168.829084,69.325829,121.852088,146.056891,160.515935,61.128771,102.132526,123.177437,138.992335,78.770514,420.172466,-97.956934,353.619415
115,-2.99572,0.455718,-2.480392,7.3554,-35.297356,-62.873497,-81.652565,-89.07692,-57.837868,-81.646614,-95.025387,-105.430584,-41.794395,-70.961895,-88.257465,-102.028141,-27.078896,-55.524445,-72.550163,-85.785656,-15.297089,-37.410851,-51.487656,-63.837776,-4.091768,9.178766,28.987743,46.812926,46.234139,81.580569,98.908599,109.423953,60.926106,97.411028,112.435644,119.891451,69.67052,103.17759,116.182536,121.752855,73.450695,101.722812,111.512475,115.995,41.426182,61.463642,65.133305,63.498116,62.239494,76.356125,80.285053,80.625057,42.457409,62.125854,69.716835,73.128262,22.147694,41.942253,52.025185,57.575741,3.0867,21.736965,32.03104,40.198574,14.565378,42.852748,70.36657,86.461507,66.047932,109.693864,132.104077,145.704605,76.76274,122.230371,148.543457,165.546926,82.623595,124.169149,146.256221,159.243753,84.454927,117.154611,132.945673,143.6661,75.699091,421.156319,-100.513029,361.502951
116,-4.573059,4.446771,-1.682911,12.918124,-37.402496,-64.126682,-79.890289,-85.033665,-59.99897,-86.033363,-99.854393,-109.519615,-43.070183,-73.637581,-91.457005,-104.630013,-27.655334,-56.643677,-74.473457,-87.969532,-15.441856,-38.301773,-52.877769,-65.349884,-3.616969,11.377822,34.281853,52.740903,42.386656,78.286617,95.831885,106.652595,58.426943,95.059016,108.087983,113.951864,67.899395,100.99107,111.859019,115.578123,72.325849,100.303911,109.249323,112.957559,37.575817,56.741695,64.604874,66.723576,53.46159,73.256149,80.616474,81.6255,41.689682,65.542259,74.042759,76.458836,29.641228,53.14064,62.437134,66.369953,18.214645,40.623951,50.88192,56.734085,13.901685,41.102865,66.116104,82.049748,65.359971,106.363911,125.655852,136.101057,73.739193,116.595399,136.625442,146.593564,78.079691,118.364178,134.912115,141.970434,79.122717,108.9042,122.648854,129.969859,70.891571,425.655022,-102.430401,374.473008
117,-3.533249,1.201046,0.110607,8.768559,-37.120857,-63.044357,-76.905155,-82.403641,-60.335655,-86.89579,-100.471745,-110.076313,-43.410301,-73.766956,-91.263943,-104.895458,-27.564011,-56.56105,-74.120121,-87.058697,-14.665146,-37.587433,-51.886711,-63.787537,-2.870283,13.482832,36.202105,51.798222,40.751073,75.872484,94.015805,105.781296,56.978464,93.492162,107.446458,113.396913,67.192846,100.49472,111.651476,114.577025,72.431381,100.453903,108.898272,111.52038,34.381714,53.578377,61.745338,63.59127,51.080647,69.957104,75.881538,75.70507,42.710381,63.728199,69.903774,70.083618,34.534893,55.087681,62.299976,64.041481,26.527863,47.935982,55.77673,58.401089,14.147946,40.319438,62.635481,76.96102,65.66897,102.797702,116.705006,122.838674,72.760943,113.995398,129.346365,135.862701,76.012596,113.195792,127.143419,133.024899,75.991724,101.676932,110.415603,114.297357,66.601667,426.742617,-103.076448,383.128116
118,-1.340218,3.371325,2.955437,4.791585,-36.051064,-61.627636,-75.844402,-82.640991,-60.286446,-88.37574,-103.266449,-113.659115,-43.454361,-73.960934,-91.739788,-104.529934,-27.704086,-56.205597,-73.362637,-85.111256,-15.12394,-37.098541,-50.592613,-60.956097,-3.202623,13.029831,35.630543,51.367574,40.067002,73.553077,91.612417,104.02919,56.893927,92.170209,104.899253,109.945868,67.412616,99.786196,109.798655,111.912742,72.409953,99.827939,107.177905,108.544751,40.393009,63.706341,71.133556,65.842438,64.907284,80.859661,83.261662,80.449677,47.83453,66.943474,70.967216,69.336662,29.907074,49.35648,55.778332,56.753597,12.582893,33.363762,44.697361,51.246643,9.392732,33.308666,57.719036,73.91197,56.976426,91.503489,100.582591,101.073754,69.05141,107.193713,119.176319,122.035425,76.814363,113.845468,127.57703,133.253869,80.458934,109.012387,119.843779,125.824492,64.321232,429.65631,-101.06123,387.462068
119,-1.5065,3.853534,0.808697,5.635343,-35.273094,-60.769157,-75.448265,-82.719841,-59.450569,-88.288536,-103.908463,-114.821606,-42.791634,-74.605408,-93.002644,-106.10733,-27.479782,-56.731911,-74.849167,-87.510853,-15.26001,-37.517967,-52.050934,-63.452396,-3.367373,12.298397,34.538549,50.864926,39.429985,71.528466,88.748248,100.813723,57.093319,90.397107,101.791849,106.25733,67.713341,98.720631,106.733055,107.328329,72.39044,98.969608,105.081479,104.719621,39.591751,61.20575,68.803711,65.1614,61.125755,79.166908,81.441307,77.190742,45.829582,66.121216,70.507793,68.250561,30.523281,51.382999,57.070312,55.792408,15.969429,38.014584,47.459164,50.340729,9.509193,32.677454,55.297741,70.828217,55.894312,85.745325,91.688617,90.741983,67.985289,102.058796,108.799162,108.511467,75.480493,108.51474,116.551741,118.28841,78.825451,105.040353,109.518122,109.38468,61.859236,433.056566,-101.208029,392.644132
120,-0.791359,3.996178,0.194607,7.031334,-35.157394,-61.150646,-74.507046,-79.647732,-59.914398,-88.441429,-104.469795,-116.087093,-43.661728,-75.2631,-93.903351,-107.173004,-28.6092,-57.690182,-76.149044,-88.668137,-16.32946,-37.863922,-52.244225,-62.509918,-5.131459,8.935532,28.668308,42.230366,38.451364,69.023993,84.981411,95.949272,56.155763,87.728255,98.614976,103.110406,66.706562,95.803665,103.125288,103.157212,71.250219,95.712459,100.357017,98.600341,20.083237,38.324032,49.684582,57.716503,35.893993,59.299049,64.929428,63.421326,40.035324,62.826633,65.621281,62.270679,45.629082,68.580608,68.923645,63.155251,50.604572,72.378845,72.932968,67.566261,23.364627,46.825893,64.211289,73.991567,72.338014,95.095449,93.850499,90.356476,72.723213,99.941498,99.214757,96.050419,68.478799,93.100664,89.471839,83.054366,61.378366,79.818089,77.00122,70.568433,59.86948,436.482139,-102.211819,399.104861
121,-0.623131,3.048865,0.529518,1.268353,-34.523849,-60.321465,-74.08865,-77.71368,-59.073257,-88.579845,-105.947971,-119.221745,-43.684845,-76.498718,-96.604099,-111.381741,-29.535255,-59.788742,-78.992729,-91.7589,-18.057518,-41.00441,-55.876122,-66.277313,-5.614903,6.145339,23.076993,35.682784,37.07575,66.257636,81.033028,91.039806,54.717287,84.654196,95.124719,99.497945,65.418633,92.904359,99.80892,99.490411,70.088076,93.581638,98.103991,96.814951,42.552109,65.358295,74.110222,70.999889,65.871277,82.15971,82.141571,75.644531,51.294022,70.898495,72.153625,67.37978,36.76363,56.684647,58.509521,52.897739,23.515606,42.397499,47.666073,45.046577,7.737203,29.691142,52.209479,64.301816,57.945105,78.61482,70.021262,60.905852,70.806851,91.042893,80.711061,71.781087,78.576658,98.639429,90.057665,81.441383,82.514606,100.358437,94.223472,86.795576,58.387413,439.1802,-102.541237,400.022411
122,-1.399269,3.180825,1.730404,5.297259,-34.223328,-60.680294,-74.96418,-80.699444,-59.346943,-91.246834,-110.562916,-125.191612,-45.107803,-80.52309,-102.564011,-118.93507,-31.872253,-64.396248,-85.698051,-100.752697,-20.786362,-44.722137,-60.63343,-72.553825,-9.371551,1.666582,16.778513,26.764049,35.357668,62.446463,75.453014,83.221462,52.680079,81.183328,91.028691,95.070193,63.020371,89.33216,96.744494,97.591401,67.534388,89.963619,94.824921,95.006961,43.035851,63.711319,69.511528,65.504723,73.773937,85.808144,79.860935,69.991436,60.530033,75.407925,72.303772,64.62038,44.755554,59.346313,56.81757,47.659264,28.708076,41.947174,42.454777,36.584301,6.570985,27.012594,46.97076,56.673664,57.790482,65.488411,59.143742,53.97338,74.30353,79.348724,72.056432,66.267022,83.496128,90.230011,84.088377,78.718128,87.834651,99.150661,93.76868,86.947976,56.276007,441.788336,-101.52297,404.746981
123,-3.149986,2.893871,1.002216,6.128358,-34.64138,-62.349415,-77.549801,-81.793327,-59.520321,-93.953476,-113.838158,-129.30788,-47.050209,-85.491028,-109.336338,-127.66737,-35.423126,-70.812263,-94.012871,-111.27285,-26.078682,-51.499157,-67.774544,-80.503578,-10.945137,-1.418592,13.656721,23.93872,33.516333,58.826592,69.291558,74.487114,51.263525,78.075307,86.711411,90.512704,61.785733,85.782684,92.715465,94.202538,66.546628,86.40235,90.772797,91.525843,39.322872,58.621216,62.944736,59.10387,74.369774,78.808422,71.340179,60.680695,64.213371,68.53981,61.024933,51.386776,50.702248,54.471073,46.910362,36.287155,35.654011,40.299625,35.531445,27.762394,7.550161,28.548327,47.445682,55.757226,55.849728,62.328025,60.931293,58.456645,70.535705,72.474915,69.828663,67.425954,78.414008,82.318918,80.58756,78.260311,82.025419,88.75115,86.413403,82.804832,52.436056,444.133895,-101.210718,410.327026
124,1.014633,-0.04551,1.846504,5.773911,-35.275726,-63.5285,-78.223114,-82.35981,-61.521835,-96.417503,-116.512871,-132.818069,-50.091591,-87.959003,-110.964603,-128.879414,-38.925133,-74.361649,-96.571827,-113.237171,-28.995667,-53.516521,-68.527508,-79.65889,-9.682403,-0.665793,14.062792,23.430329,33.616245,56.074314,65.601538,70.622526,51.64718,75.200022,83.27358,86.900058,62.64147,84.540945,91.069508,92.433574,68.227721,87.087718,90.17814,89.523092,30.407925,47.348442,54.151382,55.048027,62.805176,67.048073,61.372833,52.221565,59.404907,61.085129,54.615097,46.881752,52.169151,53.948021,46.687546,37.014656,42.797413,45.579014,38.792095,29.448566,10.135774,28.259026,42.851575,49.633561,57.062691,59.505414,55.5637,51.990512,67.204455,61.532557,54.908158,50.191229,70.32563,63.370681,55.52912,49.726495,69.477982,67.109854,60.478539,54.489119,52.921972,443.636449,-99.892931,415.649001
125,1.927299,3.032007,0.935326,5.85363,-34.87072,-63.315239,-79.23769,-84.913445,-60.132179,-95.101948,-115.536919,-131.539135,-49.462624,-88.01302,-111.111488,-128.606472,-39.246826,-75.853786,-98.164215,-114.689541,-30.484657,-57.091827,-73.527546,-86.074448,-9.558285,-0.37464,14.390131,23.18376,34.185893,56.937585,65.194109,69.009605,52.055597,73.691892,79.556884,81.90939,62.568234,82.894,88.11296,89.319563,67.381,84.35378,87.03665,86.887708,36.54768,55.311928,63.731003,64.355392,65.037117,74.63625,68.343887,59.140034,56.059914,63.963318,59.527016,51.754932,43.824177,51.946907,47.123737,38.527451,30.289078,38.043823,33.673153,26.066551,4.099795,19.477438,33.662558,39.322724,55.453475,45.97948,36.33598,31.492154,68.759454,51.448714,42.39598,36.63794,73.211906,56.251908,45.730194,39.420105,73.161641,61.417701,51.885166,47.245734,54.310827,446.416452,-99.49605,421.250628
126,1.685829,6.759694,0.298061,5.294172,-34.24736,-64.668846,-82.108269,-88.197556,-59.449196,-96.430149,-116.96434,-131.675549,-48.126068,-89.32045,-111.212368,-126.557636,-38.517838,-76.073742,-96.385288,-110.071907,-31.255875,-58.924599,-75.096531,-86.514988,-10.95619,-1.07526,14.39964,24.521336,35.055153,55.384624,61.187742,63.62429,52.922017,71.341918,73.482435,73.761423,62.751633,79.868662,81.669551,79.950173,66.66241,80.763426,81.932978,80.152961,39.231834,61.013145,71.372795,71.200218,74.325485,79.50983,71.78587,62.43782,62.186852,65.740871,60.541248,52.962799,45.96302,50.035114,45.019283,36.833954,29.039726,33.242283,29.396839,22.087212,0.093552,12.304264,28.069638,36.035811,46.576669,41.69394,34.566707,28.972985,62.609484,51.715723,44.561876,38.292418,70.376821,61.134452,52.765912,46.192334,73.570799,71.715261,63.14523,56.010464,55.313902,452.652302,-99.880743,426.020955
127,0.160446,3.850756,2.495384,5.281204,-34.515495,-64.163074,-81.629219,-89.871483,-59.630871,-95.413799,-114.585743,-128.677425,-47.946625,-87.901497,-108.529358,-123.467445,-37.649803,-74.695644,-93.5186,-105.780029,-29.428024,-56.64505,-72.455349,-82.92944,-10.661826,0.188648,15.692817,25.437094,36.287074,55.534924,60.548811,62.058979,53.583982,70.56905,71.787694,71.047739,62.855003,78.606854,78.741285,74.98334,65.982785,78.675706,78.933576,75.787207,38.418617,59.404106,67.78204,65.327625,71.852016,75.736885,67.55682,58.257465,59.496403,62.991028,57.321568,49.427376,43.714828,48.553276,43.476448,35.622997,27.129192,32.708759,28.79076,22.163315,-0.196922,12.031759,28.134414,36.56952,45.792438,38.650509,31.680678,27.627937,61.867244,48.59603,40.84975,34.9164,69.230178,58.432809,49.575886,42.87998,71.960102,68.096378,59.529558,52.875211,54.83305,456.126859,-98.026657,430.92596
128,-0.489006,4.521736,1.188583,5.624598,-33.450737,-62.415047,-79.390411,-86.567402,-57.827396,-93.922577,-112.817173,-126.707039,-46.791916,-87.102413,-107.787094,-123.682022,-37.390594,-74.911308,-93.298702,-105.777283,-30.043716,-58.349533,-73.64994,-84.103203,-10.809657,-0.079226,16.187809,26.567991,36.37797,54.854867,59.75291,61.504275,53.883286,68.990833,70.150691,69.67052,62.605285,76.359448,76.096453,72.5153,64.999966,74.896148,74.543801,72.065386,36.155033,57.659168,68.544044,68.303318,68.869286,76.234474,68.796787,59.450912,57.197342,64.258633,59.030056,50.312805,42.317734,50.693378,46.430225,38.21394,26.634808,34.997349,31.904755,24.640217,-0.905755,10.357273,25.925663,34.48038,45.319368,37.715484,30.125371,26.680501,60.527075,47.538246,39.433072,34.117905,66.710143,56.79982,48.283635,42.591112,67.911992,65.235482,57.340939,51.781672,54.045095,460.360298,-97.137022,436.262261
129,1.06636,3.522243,0.719776,6.243769,-33.610954,-63.247948,-78.539715,-82.555618,-59.590816,-93.298416,-111.360397,-125.704994,-48.1287,-85.667782,-105.591202,-121.577454,-38.09864,-72.65007,-89.471512,-100.307522,-29.549675,-56.61747,-71.139164,-80.61882,-10.293423,1.591246,17.152782,25.887502,38.51756,55.899066,60.881584,64.017702,54.472755,67.788738,68.732408,69.228634,61.827106,73.38351,72.072611,68.046422,63.047047,70.585784,69.443896,66.754665,35.928783,57.707119,68.691616,69.453793,64.806519,75.557156,69.464779,60.530205,52.694721,62.89278,59.088707,50.32671,38.124561,49.373188,46.35561,38.176575,23.281116,34.364033,32.406235,25.570335,0.264107,10.826391,25.289881,33.082968,46.230619,37.101809,28.78162,25.261291,60.367882,46.478979,37.672815,32.39828,65.547013,54.738097,45.761563,40.103435,65.772463,60.243146,52.280369,47.551214,54.915733,463.444947,-96.612968,442.068436
130,0.529747,3.79975,3.410454,5.721917,-33.321075,-62.712021,-78.218136,-81.133747,-58.777885,-92.504539,-110.497169,-125.08112,-47.172318,-84.566803,-104.409142,-120.059509,-37.124405,-70.909309,-86.44289,-95.29232,-28.852959,-55.841331,-69.468098,-77.910976,-10.14232,1.515479,16.674402,25.184103,39.920468,55.892583,59.882215,62.40509,55.497133,65.877563,65.484212,65.146252,61.954621,69.598581,65.294268,59.104283,61.918744,67.173395,63.924026,59.471884,35.923462,58.396225,68.3111,64.554749,67.415199,72.888222,64.813271,56.295547,53.690815,59.836693,54.608459,46.187611,37.151413,45.183907,41.971722,34.55143,20.299244,28.645763,26.994896,21.774673,-4.750521,4.015691,19.945136,30.306732,42.578638,34.114571,27.150853,23.574455,57.515075,45.554082,37.700911,31.806217,63.846159,55.471013,47.395479,41.500538,65.479828,62.229225,54.076997,47.932337,55.174456,467.00106,-93.473539,447.546717
131,0.376282,3.030648,2.584476,4.553352,-33.453598,-62.754993,-78.684368,-82.861462,-58.360691,-90.838566,-108.532848,-122.598495,-46.609612,-82.384872,-101.753368,-116.295319,-36.122017,-67.661819,-80.65876,-86.895733,-27.783394,-53.442192,-65.668659,-72.103214,-9.460904,3.046457,18.363646,25.653468,41.408159,55.931547,58.901186,60.139467,56.336506,65.679838,64.898016,63.719386,61.387567,66.416582,60.500522,53.271895,59.683811,63.274968,59.146459,53.696182,34.176292,55.805283,64.906082,61.132793,61.724339,70.130024,63.829708,56.555557,47.570171,57.716961,54.21587,46.471996,31.509876,43.148174,40.939808,33.926468,15.602474,26.893559,26.283875,21.340084,-4.171734,4.29542,19.552403,29.556896,42.856021,34.295623,26.1111,22.52019,56.802845,45.568593,37.094213,31.946637,62.569963,54.81757,46.325344,40.903843,63.442497,60.483047,52.371945,46.379808,54.969807,469.887568,-91.469994,451.955927
132,-1.136742,2.313726,-0.405447,-0.239561,-33.966408,-62.009983,-77.669849,-83.84943,-57.237682,-89.780617,-107.551289,-121.92215,-44.982719,-80.057945,-98.652248,-112.335033,-34.255371,-64.800167,-77.233429,-82.890301,-25.673676,-50.788422,-62.689934,-68.640175,-8.902433,4.317774,20.507497,28.888016,42.80094,56.762955,59.693691,61.056029,56.498416,64.509112,62.493887,60.834221,60.372205,65.120749,58.479369,50.850168,58.108064,62.267448,57.267147,50.824109,35.188076,57.46764,66.7607,63.166094,61.616146,72.818865,67.682516,60.733005,47.326973,60.626627,57.94713,50.180197,31.566851,45.694244,44.225458,37.181797,16.204365,29.299141,29.130998,23.965902,-3.91321,5.778739,21.233639,30.710264,45.325179,37.115628,27.655737,23.3565,58.799174,47.818988,38.073093,32.187421,64.082447,56.437697,46.737392,40.623966,64.504036,61.190817,52.289465,45.946147,53.211823,472.106306,-92.496683,451.621379
133,1.234589,2.684352,-0.405447,-0.239561,-34.405975,-62.605591,-75.976753,-77.822628,-60.026207,-92.044773,-109.089375,-122.178326,-47.328644,-80.786877,-96.082306,-106.011086,-36.074638,-64.627247,-74.586983,-77.664356,-26.499481,-50.331116,-60.222588,-64.00629,-10.26051,2.10254,15.008499,19.610511,43.33471,56.922394,58.458065,58.412246,55.571481,61.364842,55.595193,50.917475,57.995863,60.545908,52.076098,43.679463,54.843814,57.133889,50.253103,42.820144,36.199859,59.129997,68.615318,65.199394,61.507954,75.507706,71.535324,64.910454,47.083774,63.536293,61.67839,53.888397,31.623825,48.240314,47.511108,40.437126,16.806255,31.704723,31.978123,26.59172,-3.654686,7.262059,22.914874,31.863633,47.794337,39.935634,29.200374,24.192811,60.795504,50.069383,39.051973,32.428204,65.594931,58.057824,47.149441,40.344088,65.565575,61.898588,52.206985,45.512487,53.785944,474.693572,-93.562597,451.284731
134,2.629852,-0.25046,-0.405447,-0.239561,-34.843941,-64.090004,-78.021927,-80.0877,-61.442471,-93.099918,-110.234528,-123.155079,-47.920532,-81.219807,-98.241291,-110.205975,-35.905609,-64.662952,-77.122593,-82.594185,-25.78537,-49.663925,-61.512794,-67.217674,-10.224571,2.836135,16.024541,20.349725,43.723182,57.174027,58.683825,58.588544,55.603899,61.782152,58.365934,55.93624,57.823209,61.204785,54.127941,46.197953,54.411437,56.921036,50.963294,44.218359,37.211643,60.792354,70.469936,67.232694,61.399761,78.196546,75.388132,69.087902,46.840576,66.445959,65.409651,57.596598,31.680799,50.786384,50.796759,43.692455,17.408146,34.110306,34.825247,29.217539,-3.396161,8.745378,24.59611,33.017001,50.263496,42.75564,30.745012,25.029122,62.791833,52.319778,40.030854,32.668988,67.107415,59.677951,47.561489,40.064211,66.627114,62.60636,52.124505,45.078826,55.717077,474.429079,-94.666763,451.031137
135,1.900406,-0.745574,-0.405447,-0.23956,-35.677414,-65.320759,-79.28381,-81.346264,-60.815506,-92.825432,-110.368881,-123.82616,-47.475929,-81.392269,-99.246197,-112.123146,-35.740356,-64.97057,-77.860565,-83.663292,-26.001205,-50.077057,-62.50946,-68.790207,-9.342405,4.562306,19.260139,23.998186,44.496544,57.475122,59.343443,59.542032,56.421969,63.044083,60.544797,58.611515,58.611453,62.262138,55.507137,47.665143,54.97491,57.817713,52.567817,46.310092,38.223427,62.454712,72.324554,69.265995,61.291569,80.885387,79.24094,73.26535,46.597378,69.355625,69.140911,61.304798,31.737774,53.332455,54.082409,46.947784,18.010036,36.515888,37.672371,31.843357,-3.137637,10.228696,26.277344,34.170368,52.732653,45.575645,32.289648,25.865432,64.788162,54.570173,41.009733,32.909771,68.619898,61.298078,47.973537,39.784333,67.688652,63.31413,52.042024,44.645165,57.12676,473.707325,-95.562933,450.815398
136,0.523796,1.550244,-0.405447,-0.239561,-35.772629,-64.922905,-79.836159,-84.350338,-62.795506,-94.227047,-110.902691,-123.999138,-49.561043,-82.277813,-98.959408,-111.063194,-37.76722,-65.764503,-78.353462,-84.663563,-27.824936,-51.282234,-62.866745,-69.229717,-9.956019,3.445549,17.357979,23.01444,44.08084,56.838846,58.17741,58.262378,55.786001,61.473708,58.036248,55.630514,57.526005,60.579871,53.374524,45.663812,53.542424,55.682076,49.899582,43.340144,39.23521,64.117069,74.179172,71.299295,61.183376,83.574228,83.093748,77.442798,46.354179,72.265291,72.872171,65.012998,31.794748,55.878525,57.368059,50.203113,18.611927,38.92147,40.519495,34.469175,-2.879113,11.712015,27.95858,35.323737,55.201812,48.39565,33.834286,26.701743,66.784491,56.820568,41.988613,33.150554,70.132382,62.918205,48.385585,39.504456,68.750192,64.021901,51.959545,44.211504,57.174997,475.251672,-96.443939,450.569939
137,0.581017,-1.856773,-0.405447,-0.239561,-35.493622,-64.589252,-79.224529,-82.781181,-61.395607,-92.721519,-109.837532,-123.287487,-48.293724,-81.495152,-99.046669,-111.99749,-36.73954,-65.263596,-77.48497,-82.939968,-27.161636,-50.618477,-62.320175,-68.1003,-8.136234,5.188825,18.512403,22.690683,44.673768,57.295676,59.434895,60.091858,56.403567,62.52538,59.953043,57.893914,58.580887,61.34465,54.450155,46.576051,55.050492,56.786173,51.18751,44.597074,40.246994,65.779426,76.03379,73.332596,61.075184,86.263069,86.946556,81.620247,46.110981,75.174957,76.603432,68.721199,31.851723,58.424595,60.653709,53.458443,19.213817,41.327053,43.366619,37.094993,-2.620588,13.195335,29.639815,36.477105,57.67097,51.215656,35.378923,27.538053,68.78082,59.070963,42.967493,33.391338,71.644866,64.538332,48.797634,39.224578,69.811731,64.729672,51.877065,43.777844,57.294645,473.384509,-97.310755,450.319989
138,0.090752,0.617566,-0.405447,-0.23956,-35.53196,-64.433041,-78.931904,-82.828789,-60.882339,-92.343464,-109.372272,-122.761345,-47.698631,-80.996246,-98.466225,-111.543903,-36.181183,-64.662266,-78.371258,-85.680943,-26.550407,-50.264854,-62.770844,-69.922886,-8.568425,4.78189,18.215878,22.069412,44.739902,57.624929,59.550554,59.796382,56.232148,62.40157,59.682329,57.797336,58.101086,62.00118,56.056839,48.971782,54.229644,57.170137,52.888857,47.549855,41.258777,67.441784,77.888408,75.365896,60.966991,88.95191,90.799364,85.797695,45.867782,78.084623,80.334692,72.429399,31.908697,60.970665,63.93936,56.713772,19.815708,43.732635,46.213743,39.720812,-2.362065,14.678653,31.32105,37.630472,60.140128,54.035661,36.92356,28.374363,70.777149,61.321357,43.946372,33.632121,73.157349,66.158459,49.209681,38.9447,70.873269,65.437442,51.794584,43.344182,56.910381,474.0049,-98.191217,450.083254
139,0.589027,1.874928,-0.405447,-0.239561,-35.347939,-64.852638,-79.969883,-84.422493,-62.494011,-94.249535,-111.202984,-124.469719,-49.087944,-82.485867,-99.622536,-112.033482,-37.279472,-65.940914,-78.629208,-84.796543,-27.464333,-51.778679,-63.302422,-69.432278,-10.609215,2.621799,15.669352,19.702889,43.347678,56.34404,57.989997,58.273926,55.210673,60.537757,57.23726,54.748224,57.123207,59.648737,52.562198,44.968873,53.317343,54.952927,49.103063,42.6415,42.270561,69.104141,79.743027,77.399196,60.858799,91.640751,94.652172,89.975143,45.624584,80.994289,84.065952,76.1376,31.965671,63.516735,67.22501,59.969101,20.417599,46.138218,49.060867,42.34663,-2.10354,16.161972,33.002285,38.78384,62.609286,56.855667,38.468197,29.210674,72.773478,63.571753,44.925252,33.872904,74.669833,67.778586,49.621729,38.664823,71.934808,66.145213,51.712104,42.910522,57.027512,475.888627,-99.068561,449.852492
140,0.985222,-2.577215,-0.405447,-0.239561,-35.298271,-65.196533,-79.693108,-82.317181,-60.838509,-92.249508,-109.629993,-123.070965,-47.462311,-80.985489,-99.303417,-112.482662,-35.727539,-64.576721,-77.818508,-83.897781,-25.971336,-49.847946,-62.103882,-68.06242,-8.131356,4.917926,18.915386,23.004128,44.414848,57.701931,60.305391,61.008049,56.330023,62.853213,60.620935,58.464673,58.573786,62.095782,56.128963,48.59356,54.946999,57.397934,52.93128,47.158234,43.282345,70.766498,81.597645,79.432497,60.750606,94.329592,98.50498,94.152592,45.381386,83.903955,87.797212,79.8458,32.022646,66.062805,70.51066,63.22443,21.019489,48.5438,51.907991,44.972448,-1.845016,17.645292,34.683521,39.937209,65.078444,59.675672,40.012834,30.046985,74.769807,65.822148,45.904133,34.113688,76.182317,69.398713,50.033778,38.384945,72.996348,66.852985,51.629625,42.476861,57.484703,473.281201,-100.002039,449.58272
141,0.745583,0.391189,-0.405447,-0.239561,-35.658875,-65.538139,-79.316711,-80.57373,-59.613876,-91.846333,-109.520531,-123.059978,-46.16478,-80.601883,-99.110756,-112.173328,-34.633598,-64.039307,-78.038521,-84.757004,-25.314789,-49.678802,-62.37236,-68.779507,-8.406207,4.852162,19.457308,23.803549,44.712856,57.609862,59.700237,59.877522,56.106424,63.234583,61.644448,60.105875,57.803017,62.593676,57.712491,51.08661,53.76349,57.251462,53.69575,48.76146,44.294128,72.428856,83.452263,81.465797,60.642414,97.018433,102.357788,98.33004,45.138187,86.813622,91.528473,83.554001,32.07962,68.608875,73.79631,66.479759,21.62138,50.949383,54.755116,47.598267,-1.586492,19.12861,36.364756,41.090577,67.547602,62.495678,41.557472,30.883295,76.766136,68.072543,46.883012,34.354471,77.694801,71.01884,50.445826,38.105068,74.057887,67.560755,51.547144,42.0432,57.807026,473.592392,-100.830746,449.263162
142,-0.190315,2.510031,-2.387524,0.904273,-35.886726,-65.127869,-78.22546,-79.466114,-61.742592,-93.626118,-110.831566,-123.835659,-48.245544,-81.711559,-98.700142,-110.060062,-36.477242,-64.707184,-76.322308,-81.02869,-26.807899,-50.648232,-61.791573,-66.872234,-9.87173,2.724428,17.077138,21.715582,43.694221,56.162864,57.136359,56.460625,55.313858,61.128153,57.648332,54.598541,56.933448,59.923156,52.900837,45.293063,52.845262,55.005414,49.544579,43.34212,42.974396,69.573212,80.656872,74.514771,64.21463,88.443146,88.587914,82.133617,48.344707,77.072926,80.054684,74.506645,34.113979,60.433903,63.642769,57.622204,21.98204,44.846935,48.128872,42.97823,-2.573942,10.893205,27.502522,36.585205,60.138603,56.611481,42.301687,35.492284,72.212784,66.843586,53.682535,45.898649,74.721271,72.170547,60.716278,53.113999,72.125037,73.931545,63.349377,54.816643,57.264891,476.072134,-103.570089,450.137146
143,0.737457,-1.907717,3.636932,1.402228,-35.944519,-65.393372,-79.105568,-81.56908,-60.150375,-91.947441,-109.57346,-122.825832,-46.455231,-80.512733,-98.770866,-111.666012,-34.633598,-63.866043,-77.694511,-84.152756,-24.885635,-49.083481,-61.700134,-67.869816,-7.759742,5.05742,18.801086,22.485239,44.575646,57.772759,59.207345,58.340122,55.690968,62.352293,59.641635,56.90566,57.382311,61.741335,56.073882,48.709775,53.571323,57.201568,53.150556,47.71936,41.349564,66.057301,76.064129,70.336533,65.305481,83.01424,81.804943,76.28706,48.809566,69.888153,71.951523,67.339954,33.213043,53.126049,55.892715,50.910015,19.351444,37.039146,40.074692,36.550999,-2.507375,10.692578,27.113,36.956572,56.526142,51.916535,39.416214,33.504106,68.395744,61.456851,50.522705,44.01909,71.324752,68.402599,58.256697,51.317124,69.103157,71.365754,61.953139,53.979184,57.729721,474.10614,-100.205784,451.481098
144,1.029854,-0.629237,3.503265,2.42006,-35.798149,-65.081635,-78.619137,-81.010494,-59.397926,-91.516914,-109.934235,-123.995476,-46.189728,-80.51405,-99.687653,-113.711128,-34.955177,-64.821968,-80.43869,-88.633003,-25.899239,-50.89016,-64.741402,-72.24678,-8.199343,5.208956,19.839543,23.331467,44.044963,57.17483,59.145903,59.036914,55.456378,63.507767,62.140304,60.578698,57.517606,63.353453,58.906929,52.40634,53.715572,57.369653,54.482327,50.423657,39.480801,62.916698,72.048397,67.172813,64.630909,77.932491,74.271183,67.820549,47.996292,64.254341,63.34465,56.915016,31.659966,47.797508,48.191814,41.824322,17.15229,32.581387,34.006462,29.476891,-3.136612,9.151164,25.376023,33.916167,54.173822,46.181219,34.819637,29.783273,66.461289,55.956494,45.421627,38.796919,69.797479,63.579274,54.354256,48.01323,67.881672,68.125339,59.195303,52.058808,58.541679,473.470867,-96.920414,453.895122
145,-0.884514,-0.725691,4.090805,3.909851,-35.464211,-64.638062,-78.156223,-80.442123,-56.604195,-88.512039,-107.130203,-121.230812,-43.806839,-78.281307,-97.816315,-112.060261,-33.061638,-63.218651,-79.24593,-87.812805,-24.805641,-50.057945,-64.2976,-72.175713,-8.173532,5.710987,22.050269,26.563792,43.780919,57.714405,59.914202,59.53209,55.140648,65.093085,64.364183,62.811346,57.271222,65.111796,60.931972,54.377228,53.557738,58.924651,56.691571,52.774125,36.388435,58.589458,66.718884,61.16003,63.904381,73.58408,67.866497,60.761433,47.623272,59.323997,56.752567,49.697914,30.931549,42.739964,42.172852,36.006031,15.613575,27.438927,28.142738,24.190578,-4.801156,5.64195,20.701208,28.90722,49.4275,40.347657,30.112774,25.752454,61.656613,52.469572,42.825948,36.026981,65.128098,60.162253,51.90295,46.031598,63.64053,64.868005,57.093937,50.423163,57.212248,472.6693,-93.274527,457.729097
