YashyHoby/handMotion-similar-search/workspace/NewProject/handData/tgt/d4_feature_d2/13.csv
,vel_0x_L,vel_0y_L,vel_0x_R,vel_0y_R,posFromWrist_1x_L,posFromWrist_2x_L,posFromWrist_3x_L,posFromWrist_4x_L,posFromWrist_5x_L,posFromWrist_6x_L,posFromWrist_7x_L,posFromWrist_8x_L,posFromWrist_9x_L,posFromWrist_10x_L,posFromWrist_11x_L,posFromWrist_12x_L,posFromWrist_13x_L,posFromWrist_14x_L,posFromWrist_15x_L,posFromWrist_16x_L,posFromWrist_17x_L,posFromWrist_18x_L,posFromWrist_19x_L,posFromWrist_20x_L,posFromWrist_1y_L,posFromWrist_2y_L,posFromWrist_3y_L,posFromWrist_4y_L,posFromWrist_5y_L,posFromWrist_6y_L,posFromWrist_7y_L,posFromWrist_8y_L,posFromWrist_9y_L,posFromWrist_10y_L,posFromWrist_11y_L,posFromWrist_12y_L,posFromWrist_13y_L,posFromWrist_14y_L,posFromWrist_15y_L,posFromWrist_16y_L,posFromWrist_17y_L,posFromWrist_18y_L,posFromWrist_19y_L,posFromWrist_20y_L,posFromWrist_1x_R,posFromWrist_2x_R,posFromWrist_3x_R,posFromWrist_4x_R,posFromWrist_5x_R,posFromWrist_6x_R,posFromWrist_7x_R,posFromWrist_8x_R,posFromWrist_9x_R,posFromWrist_10x_R,posFromWrist_11x_R,posFromWrist_12x_R,posFromWrist_13x_R,posFromWrist_14x_R,posFromWrist_15x_R,posFromWrist_16x_R,posFromWrist_17x_R,posFromWrist_18x_R,posFromWrist_19x_R,posFromWrist_20x_R,posFromWrist_1y_R,posFromWrist_2y_R,posFromWrist_3y_R,posFromWrist_4y_R,posFromWrist_5y_R,posFromWrist_6y_R,posFromWrist_7y_R,posFromWrist_8y_R,posFromWrist_9y_R,posFromWrist_10y_R,posFromWrist_11y_R,posFromWrist_12y_R,posFromWrist_13y_R,posFromWrist_14y_R,posFromWrist_15y_R,posFromWrist_16y_R,posFromWrist_17y_R,posFromWrist_18y_R,posFromWrist_19y_R,posFromWrist_20y_R,posFromBody_0x_L,posFromBody_0y_L,posFromBody_0x_R,posFromBody_0y_R
3,4.685783,-0.852032,-1.916714,-1.98225,-40.474434,-74.477291,-89.494629,-88.773537,-72.630386,-104.793205,-119.650898,-127.053909,-59.031143,-90.349216,-104.387054,-111.109715,-46.848679,-72.638683,-84.831963,-88.345013,-36.957092,-56.366844,-67.271004,-72.123699,-9.130786,4.313946,16.654148,21.165756,50.550431,66.53224,63.3784,59.202899,61.065291,72.480905,65.254377,58.087563,62.174082,68.106011,59.652442,50.665596,57.383855,61.592022,55.33547,48.183538,43.50935,70.388832,81.37888,74.064903,70.086536,90.557899,87.201576,78.445187,53.83873,76.718445,76.249695,69.104061,39.004555,60.749645,61.324425,54.306164,26.717663,47.635574,49.45364,43.47147,-4.193347,8.733731,25.591532,35.10338,57.255044,59.190981,45.692094,37.468791,69.765739,69.704544,57.043857,47.373743,72.755015,72.842762,62.453255,53.818386,71.156482,75.965666,66.410963,56.765054,66.752644,475.49855,-99.681301,456.369816
4,-0.659294,-0.751688,0.756683,2.84163,-38.970451,-71.492786,-87.385883,-89.691639,-68.980865,-101.111584,-117.518921,-127.892303,-55.671387,-87.728519,-102.590847,-110.800552,-44.546242,-71.986084,-85.496635,-90.769615,-35.742302,-57.336502,-69.92672,-76.537628,-6.573887,7.556707,18.632755,20.272043,52.725898,67.05928,65.829335,63.234892,61.948754,71.387243,65.437159,60.445255,61.775297,66.576021,58.619049,50.95996,56.22585,59.241802,53.60016,47.596477,41.645451,67.166061,77.911091,70.338192,71.147804,88.847694,84.806213,75.664272,56.115589,75.152378,74.285774,66.42786,41.137791,59.075203,58.990459,51.255741,27.950535,45.122452,45.728016,39.31715,-3.940726,6.461378,21.307288,29.55066,53.654748,50.755751,37.702085,30.893052,66.962888,60.808224,48.38645,40.599043,70.488095,66.893357,56.374792,49.249226,68.909878,71.69192,62.013098,53.823882,65.264568,473.996409,-99.753399,458.460994
5,-1.606064,0.492768,4.362373,0.551308,-38.518066,-69.570637,-84.921513,-87.350006,-67.403069,-99.545288,-116.269398,-127.24205,-54.618301,-87.352295,-103.301411,-113.297653,-43.984795,-72.078552,-86.133156,-92.543449,-35.538025,-57.494316,-70.030231,-76.615791,-7.00861,6.703933,17.783192,18.980224,51.159599,65.393686,65.30174,63.598231,60.734865,70.18064,65.964198,62.718967,61.063624,66.999074,60.451183,53.85451,56.09957,60.072406,55.383204,50.243902,39.0798,63.140316,73.594208,67.207661,65.92495,83.372612,79.913521,71.702957,50.770168,69.101143,68.526249,60.78804,35.506382,53.010521,53.26292,45.374222,22.12801,38.441219,39.419174,33.320217,-4.23472,5.978551,19.973109,27.950645,52.413997,48.238557,35.937443,29.789078,65.706576,57.588928,45.429408,38.163237,68.961316,63.828622,53.371622,46.456317,66.887244,68.496459,59.106383,51.32614,63.166466,473.871674,-95.883064,458.394797
6,-0.702896,1.21778,4.794788,2.098526,-37.974358,-68.914604,-84.598675,-87.245922,-67.34436,-99.016342,-115.215225,-126.751499,-54.805069,-86.987801,-102.704659,-113.015385,-44.28257,-71.766186,-84.820118,-91.006794,-35.951157,-57.650757,-69.361725,-75.910492,-6.990023,6.489166,17.308517,18.979483,51.046349,64.559129,64.709615,63.159248,60.24327,67.589284,63.201423,59.491026,60.154905,63.586499,56.38251,49.005127,54.847642,57.424672,52.217692,46.279279,36.002483,58.706532,68.852177,61.401787,66.992168,77.004318,71.036625,62.477417,52.094765,62.09507,59.261742,52.168121,35.486298,45.231113,44.059925,37.266197,20.440178,31.095428,31.621799,27.070656,-4.596639,3.892375,17.536932,26.710696,46.993731,47.604936,38.782902,32.291019,60.470573,57.853776,49.483322,42.329846,64.921666,64.061792,56.76666,49.501971,64.444953,69.771544,62.040268,53.62554,62.144251,474.303139,-91.407595,459.707009
7,-0.650826,0.770275,1.791515,2.582402,-37.608032,-68.285522,-83.672676,-86.749821,-67.327881,-98.586445,-114.647598,-125.785446,-54.674263,-86.294804,-101.075249,-110.425129,-44.045334,-70.882645,-83.682919,-89.513054,-35.605888,-56.875191,-68.578262,-75.085316,-7.889109,5.510113,15.87424,17.246396,50.641142,64.102423,63.758412,61.746151,59.785452,67.092625,62.041195,57.879032,59.694432,63.4659,56.103646,48.648889,54.31276,57.387745,52.04016,45.966389,34.580612,56.295891,66.393127,61.184177,62.443657,75.427094,70.56776,62.547283,48.512993,62.383404,60.079708,52.301617,33.13797,47.08683,46.137428,38.276424,18.774834,32.378197,32.768383,26.817055,-7.783639,-0.377357,12.355393,20.160892,44.167167,40.376063,30.081343,24.706155,58.657272,51.842435,41.554384,35.655491,64.118973,59.852637,50.570315,44.541869,64.341274,66.579294,58.236258,51.141321,61.192789,474.161329,-89.916716,461.377327
8,0.047607,-0.284793,3.120232,1.881967,-37.387848,-68.024654,-84.01474,-88.300037,-66.463966,-97.670803,-113.975372,-125.379124,-53.59211,-85.014553,-100.010147,-109.462967,-42.706032,-69.600391,-82.46109,-88.380547,-33.949013,-54.915161,-67.014542,-73.694515,-8.376937,5.174067,16.724976,19.923585,49.143139,63.71142,64.055678,62.450291,58.821343,67.620221,63.174623,59.223029,59.591,64.876218,57.981599,50.476516,55.081861,59.648675,54.982011,48.913428,32.528114,52.16383,61.059322,57.818985,59.5471,69.497509,64.409523,56.76939,46.482067,57.404594,55.06691,47.900105,31.581974,43.345585,42.39893,35.08976,17.294884,29.40794,30.306816,25.490284,-8.402687,-0.871545,12.305437,20.32805,40.588916,38.029609,29.030659,24.022392,54.769775,49.483816,40.276953,34.282594,60.640881,58.016056,49.44584,43.110865,61.25221,64.981132,57.632401,50.375616,60.817795,473.075788,-87.219086,462.458546
9,-1.275787,1.08304,3.456802,1.680784,-36.592827,-66.591053,-82.041378,-85.972481,-65.742188,-96.840763,-113.115177,-124.515495,-52.993469,-85.098667,-100.45372,-110.406761,-42.336617,-69.663792,-83.172626,-89.82296,-33.934021,-55.847397,-68.253822,-75.368843,-8.641538,4.260778,15.198629,17.248496,48.67186,63.135103,63.150664,61.10864,58.278248,66.215461,61.596777,57.514025,58.78985,63.910503,57.105114,49.633808,54.122445,58.372109,53.739284,47.932028,30.06855,48.177795,57.307606,55.153198,57.186985,63.974876,58.347359,51.544933,45.101566,51.729755,48.972073,42.687092,30.586224,38.626156,37.247028,30.944595,16.008739,24.864349,25.200462,21.075668,-9.223103,-2.796306,9.505797,17.389163,37.260199,32.871288,25.61228,21.625859,51.670707,45.526047,37.559626,32.21661,58.011363,54.806578,47.605554,42.568202,59.216607,62.587315,56.249438,50.112003,59.381475,473.663837,-83.922815,463.644339
10,-0.316772,-0.088118,-9.326477,-2.209924,-36.474953,-66.748695,-82.159824,-85.91732,-64.252853,-95.803986,-112.74044,-124.551315,-51.580925,-84.077053,-100.571594,-111.411953,-41.138306,-69.04644,-82.847214,-89.57531,-32.955551,-55.044823,-67.668858,-74.711895,-8.488706,4.701182,15.918021,17.608253,48.608751,62.917001,63.314982,61.735345,58.057552,66.440294,62.500494,59.116263,58.553531,64.167014,57.781034,50.702461,53.884892,58.594657,54.374572,48.991542,42.28363,68.667755,79.277973,76.279907,63.357296,91.162834,93.042984,86.337147,47.892838,79.919415,83.097267,74.103413,34.099617,62.983017,65.793972,57.380047,22.413197,46.084213,48.43483,41.596069,-8.353225,7.32471,24.694546,30.626908,54.652326,54.615461,37.260322,29.468223,66.150191,65.200469,47.543927,37.0274,69.831565,70.61209,53.358222,42.906162,67.774288,69.783585,55.595687,45.750448,59.052458,473.475761,-93.261538,461.334457
11,-0.293884,0.148201,-3.078346,-3.312601,-36.10096,-66.498985,-81.582012,-84.404297,-63.686028,-95.468388,-112.369251,-124.340515,-51.098213,-84.059887,-100.69685,-111.834469,-40.619087,-69.014568,-83.180065,-90.301838,-32.3172,-55.016098,-67.83205,-74.937172,-8.597078,4.576941,16.346631,18.426508,47.788212,62.278625,63.331346,62.408671,57.982278,66.066766,62.453934,59.393028,59.027898,64.99731,58.984858,51.913695,54.724327,59.950511,56.110315,50.868816,39.642105,63.785305,74.522552,69.2696,65.828762,84.879856,82.081318,74.151134,50.513363,70.009003,69.942455,62.795677,35.740013,54.062347,54.66013,47.961102,23.154602,41.145172,42.40551,36.646729,-9.246692,2.435189,18.407304,27.647141,48.128642,51.577773,38.501752,30.821298,61.770357,62.93849,50.379568,42.110014,66.196195,67.702658,57.17835,49.471528,66.350941,72.321465,63.000487,54.054705,58.775053,473.57257,-96.323404,457.970464
12,-0.183105,-0.201615,1.167984,-0.718281,-35.931129,-66.020336,-80.891933,-84.203911,-63.391342,-94.623928,-111.037159,-122.618523,-50.800896,-83.482418,-99.3857,-109.868889,-40.245552,-68.384972,-81.94479,-88.640442,-31.928902,-54.672089,-67.413769,-74.296474,-8.964801,4.239969,16.417644,19.243775,47.015282,61.583439,62.560639,61.551267,57.774179,66.507602,62.922929,59.815216,59.171962,65.643899,59.703324,52.576956,54.909948,60.124524,56.60333,51.45878,37.541885,60.182076,71.094475,66.366177,66.58247,80.135937,75.404835,67.503548,51.62962,66.62859,65.318356,58.300381,36.079445,50.113564,50.265026,43.780918,22.018776,36.260147,37.441864,32.255802,-7.79741,1.118176,14.004191,21.941836,48.072449,43.523419,32.564636,27.520553,62.186185,56.630006,45.962314,39.628389,66.809561,63.978367,55.02888,48.975425,66.211632,69.852992,61.565964,53.725328,58.617096,473.305947,-95.130272,457.187175
13,-1.301422,1.437364,3.870335,1.854921,-35.836143,-65.722218,-80.840092,-83.299713,-62.983246,-93.722248,-109.970055,-121.975822,-50.274353,-82.801952,-99.228916,-110.482635,-39.629173,-67.367935,-81.126823,-88.398743,-31.253014,-53.566475,-65.977306,-73.167629,-8.935346,4.081764,15.967545,18.980348,46.950197,61.500879,62.391752,61.064488,57.041881,65.443766,61.863909,58.582739,58.001112,63.732909,57.701314,50.622308,53.663949,58.364699,54.412364,49.110288,35.387135,57.026596,65.85537,60.948887,63.08773,74.342537,69.458027,61.924438,48.610325,62.050838,59.872513,52.348938,33.133335,46.787682,46.022758,38.50605,18.881092,32.425289,33.172474,27.952023,-6.727954,2.308971,16.477109,24.598771,45.619784,40.477519,30.229914,25.520643,59.234144,51.639585,41.614158,35.890513,63.812999,59.23822,50.364068,44.519145,63.161409,64.521523,56.334407,49.535625,57.308865,474.754612,-91.266747,459.053396
14,0.667763,-0.265095,3.422127,2.794515,-35.601768,-65.823612,-81.637745,-85.0494,-62.185822,-93.324051,-109.826946,-122.048206,-49.701576,-82.550125,-98.939266,-109.995918,-39.249458,-67.546005,-81.080761,-88.085575,-31.103325,-53.992996,-66.646671,-73.76049,-8.984129,3.490998,15.30521,19.833059,46.041416,60.770124,61.893673,60.827737,56.363244,65.144956,61.676929,58.127762,57.63098,63.598849,57.329576,49.548963,53.44282,58.621086,54.492948,48.481051,33.195705,53.9217,63.076172,59.557228,61.113052,69.990807,63.845787,55.933342,47.950687,57.902985,54.508781,46.948185,33.032742,43.847866,42.271614,35.068417,18.568439,29.869366,30.217266,25.426712,-8.860937,-1.320286,12.769923,21.448265,39.852913,35.618008,27.067182,22.541185,54.10145,48.120861,39.106227,33.053699,60.1759,57.128702,49.106027,43.227264,61.410291,64.748086,57.70224,50.916055,57.971048,474.502037,-87.850199,461.860431
15,-0.853386,0.613676,3.879204,0.471526,-34.850349,-64.796276,-80.863609,-84.333458,-61.109047,-92.120934,-108.702564,-121.072483,-48.766708,-81.933804,-98.498726,-109.541645,-38.410835,-66.915321,-80.51651,-87.553024,-30.417023,-53.252678,-65.84444,-72.927532,-9.765087,2.546463,15.326267,20.276427,45.51203,60.752093,61.949248,60.780375,56.348301,65.475567,62.099858,58.576997,57.894099,64.393515,58.139804,50.385434,53.762934,59.385495,55.457922,49.548716,30.160103,48.533421,57.185555,54.821835,57.032318,62.697544,57.205067,51.063251,44.37109,51.092319,48.294811,41.927319,29.626179,38.109341,36.827431,30.896015,14.860497,24.048214,24.497166,20.7728,-8.841053,-1.995032,9.98288,17.633201,39.03929,31.69803,24.635697,21.827536,52.828589,44.890574,36.721488,31.891124,58.482518,53.962574,46.680656,42.190784,59.152449,61.680202,55.5009,49.856727,57.128277,475.071932,-83.960381,462.288176
16,-0.240784,0.662088,-0.197694,-1.418145,-34.991455,-64.892635,-80.492992,-82.79068,-60.523453,-92.054043,-108.574734,-120.951748,-48.204231,-82.067928,-98.935719,-110.52475,-37.998734,-66.991711,-80.836372,-88.244019,-30.182419,-53.362656,-66.245785,-73.430099,-9.721182,1.731296,14.649606,20.212577,44.016929,59.504611,60.397399,59.00326,55.05006,64.623844,61.412205,57.958998,56.938449,64.109031,58.447444,50.862024,53.215826,59.408528,55.845899,50.053834,30.453262,49.054497,57.590662,55.039899,57.636283,63.478571,58.007933,51.764442,44.912107,51.901188,49.0758,42.645057,30.185168,38.81361,37.41221,31.481863,15.431769,24.664263,25.119727,21.458062,-8.351331,-0.933978,11.437123,19.213953,40.038203,33.667963,26.594221,23.610282,53.974856,46.986424,38.819741,33.628889,59.751981,56.015019,48.69319,43.86849,60.431897,63.347669,57.01452,51.132352,56.870356,475.643416,-84.175212,460.779428
17,-0.220757,0.212298,-0.197694,-1.418145,-34.624786,-64.372845,-79.870892,-81.915665,-60.160675,-91.231899,-107.733421,-120.278206,-47.844315,-81.462765,-98.822823,-110.877686,-37.378578,-66.170425,-80.238247,-87.853088,-29.205666,-52.374115,-65.296154,-72.658653,-9.868827,1.392842,14.451017,20.5196,43.576648,58.868644,60.363436,59.575748,54.848136,64.227098,61.441969,58.275716,57.042993,64.051047,58.665917,51.131502,53.391012,59.304787,55.829288,50.168505,30.746422,49.575574,57.995769,55.257964,58.240248,64.259597,58.810798,52.465632,45.453124,52.710056,49.856788,43.362795,30.744158,39.51788,37.99699,32.067711,16.003042,25.280312,25.742289,22.143323,-7.86161,0.127076,12.891366,20.794704,41.037115,35.637895,28.552743,25.393028,55.121123,49.082274,40.917993,35.366654,61.021442,58.067464,50.705724,45.546195,61.711344,65.015136,58.52814,52.407977,56.649113,475.848104,-84.373393,459.353672
18,-0.836678,0.624791,-0.197694,-1.418145,-34.612999,-64.060421,-79.294739,-81.356621,-59.437294,-90.502281,-106.752033,-119.120293,-47.385864,-80.815773,-97.942085,-110.145721,-37.219048,-65.746193,-79.84314,-87.67004,-29.228439,-52.132301,-64.977551,-72.504845,-9.960959,1.344553,14.581866,20.60568,42.999529,58.163145,59.636757,58.960405,54.206549,63.998497,61.399423,58.631707,56.483349,63.996398,58.963925,51.92518,53.082507,59.192031,56.128901,51.111248,31.039582,50.096651,58.400876,55.476028,58.844212,65.040624,59.613664,53.166823,45.99414,53.518925,50.637777,44.080533,31.303147,40.222149,38.581769,32.653558,16.574315,25.896361,26.36485,22.828585,-7.371888,1.188131,14.345608,22.375456,42.036028,37.607827,30.511266,27.175774,56.26739,51.178124,43.016245,37.10442,62.290904,60.11991,52.718258,47.223901,62.990792,66.682602,60.04176,53.683602,55.818672,476.496946,-84.56485,457.959579
19,-0.475502,0.282817,-0.197694,-1.418146,-34.062996,-62.941875,-78.264198,-81.291504,-58.903198,-89.788399,-106.162033,-118.775654,-47.066574,-80.467186,-97.830048,-110.536594,-36.93409,-65.534019,-79.563217,-87.464561,-28.929291,-51.990852,-64.707813,-72.174339,-10.570744,0.35241,12.844518,18.392545,41.753838,57.100174,59.325535,59.340293,53.411019,63.224703,61.079679,58.625594,56.238014,63.722905,58.911005,51.980756,53.311724,59.178631,56.229802,51.445071,31.332741,50.617728,58.805984,55.694093,59.448177,65.821651,60.41653,53.868013,46.535157,54.327793,51.418765,44.798271,31.862137,40.926419,39.166549,33.239406,17.145588,26.512411,26.987411,23.513846,-6.882165,2.249186,15.799852,23.956208,43.034942,39.57776,32.46979,28.958521,57.413657,53.273974,45.114499,38.842186,63.560367,62.172356,54.730793,48.901607,64.270241,68.35007,61.555381,54.959229,55.352211,476.779284,-84.753503,456.540954
20,-1.017609,0.0113,-0.197694,-1.418145,-33.460808,-62.398682,-77.362976,-80.078716,-57.812691,-88.359203,-104.8522,-117.307148,-45.76767,-78.831482,-95.61882,-107.149143,-35.449791,-64.17572,-77.813587,-84.891815,-27.339134,-50.764389,-63.158741,-69.928894,-10.433288,0.753417,13.63128,19.382652,41.711724,57.536749,59.166898,58.286337,53.346798,63.444658,60.938765,57.989935,55.93729,63.02704,57.459746,50.070877,52.683784,58.124984,54.4948,49.069162,31.625901,51.138805,59.211091,55.912157,60.052142,66.602677,61.219396,54.569204,47.076174,55.136662,52.199754,45.516009,32.421126,41.630688,39.751328,33.825253,17.71686,27.12846,27.609973,24.199107,-6.392444,3.31024,17.254094,25.536959,44.033854,41.547692,34.428313,30.741267,58.559924,55.369824,47.212751,40.579951,64.829829,64.224801,56.743327,50.579313,65.549689,70.017537,63.069001,56.234854,54.387875,476.808029,-84.897924,455.140253
21,0.089493,0.33901,-0.197694,-1.418145,-33.546066,-62.078075,-76.918831,-79.359398,-57.889023,-88.158016,-104.622402,-117.509193,-46.143951,-79.357281,-96.94828,-109.584446,-35.934677,-64.711933,-78.496056,-85.871544,-27.789459,-51.472092,-63.929272,-70.867596,-10.506524,-0.033407,12.238932,18.293621,40.769722,56.281363,58.828938,59.045744,52.673904,62.1705,59.938284,57.317226,55.703812,62.564591,57.522423,50.459534,52.829206,58.051068,54.784842,49.886429,31.91906,51.659881,59.616198,56.130222,60.656106,67.383704,62.022261,55.270394,47.617191,55.94553,52.980742,46.233747,32.980115,42.334957,40.336108,34.411101,18.288133,27.744509,28.232534,24.884369,-5.902722,4.371294,18.708337,27.117711,45.032767,43.517624,36.386836,32.524012,59.706191,57.465674,49.311003,42.317716,66.09929,66.277246,58.755861,52.257018,66.829136,71.685003,64.582621,57.510479,54.500914,477.164283,-85.072072,453.739352
22,-1.251411,0.197848,-0.197694,-1.418145,-33.089676,-61.07111,-75.305386,-78.271751,-57.212105,-86.682014,-102.579174,-114.774113,-45.583305,-77.546196,-93.909645,-105.372448,-35.47863,-63.260136,-76.632156,-83.835983,-27.332954,-50.046158,-62.140732,-69.011936,-11.128412,-0.310419,12.300003,17.712797,40.741872,56.853728,59.029195,58.761877,52.641794,62.686425,60.019795,57.162665,55.653917,63.051678,57.769795,50.756122,52.901825,58.618431,55.143241,50.044757,32.21222,52.180958,60.021305,56.348286,61.260071,68.16473,62.825127,55.971585,48.158207,56.754399,53.761731,46.951485,33.539105,43.039227,40.920887,34.996949,18.859406,28.360558,28.855095,25.56963,-5.413,5.432348,20.162579,28.698462,46.03168,45.487556,38.345359,34.306758,60.852458,59.561524,51.409255,44.055481,67.368752,68.329692,60.768395,53.934724,68.108584,73.35247,66.096241,58.786104,53.291817,477.4025,-85.227452,452.361577
23,0.420113,0.200627,-0.197694,-1.418146,-33.19828,-61.55983,-76.136341,-78.62011,-57.639427,-87.085991,-103.212547,-115.639057,-45.794449,-78.000069,-95.176277,-107.352047,-35.257301,-63.394032,-77.251339,-84.906521,-26.650887,-49.868317,-62.197666,-69.170551,-11.210911,-1.00048,11.325149,17.57355,39.373359,55.65472,58.202295,58.176977,51.530101,62.015877,59.954031,57.476604,54.993064,62.821226,58.083426,51.307244,52.660257,58.489434,55.4092,50.632127,32.505379,52.702035,60.426413,56.566351,61.864036,68.945757,63.627993,56.672775,48.699224,57.563267,54.542719,47.669223,34.098094,43.743496,41.505667,35.582796,19.430679,28.976607,29.477657,26.254891,-4.923278,6.493403,21.616823,30.279215,47.030593,47.457488,40.303883,36.089505,61.998725,61.657375,53.507509,45.793247,68.638215,70.382138,62.78093,55.61243,69.388033,75.019938,67.609862,60.06173,53.725491,477.657468,-85.411584,450.997771
24,-0.203018,0.345864,-0.197694,-1.418145,-33.130417,-61.326714,-75.402489,-78.169441,-56.571922,-86.085892,-102.663116,-115.421848,-44.990044,-77.575493,-95.061207,-107.686958,-34.912376,-63.395004,-77.367783,-85.078812,-26.810532,-50.25959,-63.020496,-70.256195,-11.576411,-0.930455,11.351887,16.325203,38.945306,55.423156,58.148757,58.152215,50.6446,61.490875,59.469228,57.080846,53.772012,62.161176,57.421276,50.697706,51.267786,57.545271,54.699379,50.235195,32.798539,53.223112,60.83152,56.784415,62.468001,69.726784,64.430859,57.373966,49.240241,58.372136,55.323708,48.386961,34.657084,44.447766,42.090446,36.168644,20.001951,29.592656,30.100218,26.940153,-4.433556,7.554457,23.071066,31.859966,48.029506,49.42742,42.262405,37.872251,63.144992,63.753225,55.605761,47.531012,69.907677,72.434583,64.793464,57.290136,70.66748,76.687404,69.123482,61.337355,53.567162,478.021101,-85.564589,449.597395
25,-1.228752,0.248175,-0.197693,-1.418145,-32.66716,-60.074902,-74.109993,-76.634445,-56.03714,-85.530682,-102.087822,-114.989777,-44.488106,-76.560688,-92.901649,-104.090252,-34.552574,-62.935352,-74.675617,-79.757309,-26.567802,-49.99958,-60.934467,-66.112747,-10.911174,-0.576996,11.430063,16.734053,39.58047,55.671578,58.304307,58.192168,51.593148,60.346578,56.672861,53.023782,54.821892,60.18436,53.082692,45.011296,52.531755,57.128641,51.937222,45.495789,33.091697,53.744188,61.236626,57.002479,63.071964,70.507809,65.233723,58.075155,49.781257,59.181003,56.104695,49.104698,35.216072,45.152034,42.675225,36.75449,20.573223,30.208704,30.722778,27.625413,-3.943834,8.615511,24.525308,33.440718,49.028418,51.397352,44.220928,39.654997,64.291259,65.849075,57.704013,49.268778,71.177139,74.487028,66.805997,58.967841,71.946928,78.354871,70.637102,62.61298,52.333775,478.278291,-85.766917,448.188265
26,0.141792,0.130417,-0.197694,-1.418145,-32.192459,-59.322395,-73.160648,-76.268463,-56.738663,-85.923157,-102.215309,-114.868927,-45.217667,-77.167454,-94.446774,-107.101822,-34.966621,-62.982502,-76.583633,-84.121342,-26.647224,-50.026588,-62.072353,-68.671074,-11.753573,-1.734013,9.574031,14.495909,39.01848,54.792808,57.620112,57.88181,50.801755,60.519788,58.405886,55.918147,54.039515,61.059919,56.095371,49.304802,51.646748,57.236766,53.835182,48.96925,33.384857,54.265264,61.641734,57.220543,63.675929,71.288836,66.036589,58.776345,50.322273,59.989872,56.885683,49.822436,35.775062,45.856304,43.260004,37.340338,21.144496,30.824753,31.34534,28.310674,-3.454113,9.676566,25.979551,35.021469,50.027331,53.367284,46.179451,41.437743,65.437526,67.944925,59.802265,51.006543,72.4466,76.539474,68.818531,60.645547,73.226376,80.022338,72.150722,63.888605,52.543631,478.428206,-85.896547,446.789618
27,-0.257149,0.246075,-0.197694,-1.418146,-32.366753,-59.491482,-73.181477,-76.2216,-56.172066,-85.569649,-102.076893,-114.915619,-44.675102,-76.459293,-92.608852,-103.763351,-34.746323,-62.699089,-74.498749,-79.800797,-26.839485,-49.915237,-60.835133,-65.968609,-11.548006,-1.543452,9.551677,14.321958,39.016813,55.173005,57.787456,57.711071,50.876103,60.075617,56.506629,52.897379,54.069896,59.974902,53.343279,45.550068,51.829344,56.817357,52.053189,45.954348,33.678016,54.786341,62.046841,57.438607,64.279894,72.069862,66.839455,59.477536,50.86329,60.79874,57.666672,50.540174,36.334051,46.560573,43.844784,37.926186,21.715769,31.440803,31.967901,28.995936,-2.96439,10.737621,27.433794,36.602222,51.026245,55.337217,48.137975,43.22049,66.583793,70.040776,61.900519,52.744309,73.716063,78.59192,70.831066,62.323253,74.505824,81.689806,73.664343,65.164231,52.311602,478.698286,-86.069122,445.395477
28,-0.318604,-0.648812,-0.197694,-1.418145,-32.260323,-59.258823,-72.846279,-76.112537,-56.478996,-85.158978,-101.306477,-114.023724,-44.838982,-75.851841,-92.431126,-104.5364,-34.51664,-61.844158,-74.952564,-82.073822,-26.042633,-48.707542,-60.210857,-66.313763,-10.955202,-0.780031,10.305032,14.981576,39.933806,55.49633,58.424288,58.72563,51.298043,60.876891,58.758605,56.381028,54.290653,60.818598,55.629094,48.74349,51.871211,57.159392,53.40083,48.125369,33.971176,55.307418,62.451948,57.656672,64.883858,72.850889,67.642321,60.178726,51.404307,61.607608,58.44766,51.257912,36.89304,47.264843,44.429563,38.512033,22.287041,32.056852,32.590462,29.681197,-2.474668,11.798675,28.888037,38.182973,52.025157,57.307149,50.096498,45.003236,67.73006,72.136626,63.998771,54.482074,74.985525,80.644365,72.8436,64.000959,75.785272,83.357272,75.177963,66.439856,52.024641,478.079331,-86.235173,444.007189
29,-0.343552,-0.846475,-0.197694,-1.418145,-31.907501,-58.443317,-72.391148,-76.71896,-55.226326,-84.242764,-100.478668,-113.101101,-43.947716,-75.354996,-91.637421,-103.165627,-34.146538,-62.08952,-75.249882,-82.294235,-26.029358,-48.893967,-60.426178,-66.435871,-10.344306,-0.57891,10.183137,14.910131,39.896262,56.125011,59.175914,59.682267,51.420988,61.261781,58.519816,55.846208,54.802688,62.151049,56.574122,49.584284,52.745349,58.870373,54.989483,49.558534,34.264335,55.828495,62.857055,57.874736,65.487823,73.631916,68.445186,60.879917,51.945324,62.416477,59.228649,51.97565,37.45203,47.969112,45.014343,39.097881,22.858314,32.672901,33.213024,30.366459,-1.984947,12.859729,30.342279,39.763725,53.02407,59.277081,52.055021,46.785982,68.876327,74.232475,66.097023,56.219839,76.254987,82.69681,74.856134,65.678664,77.06472,85.024739,76.691583,67.715481,51.681776,477.249653,-86.43218,442.60584
30,-0.30899,-0.180805,-0.197694,-1.418145,-31.915054,-58.340034,-72.166328,-75.615234,-54.299583,-83.523331,-100.262089,-113.500957,-43.065834,-75.382519,-92.350731,-104.072571,-33.362732,-61.96867,-75.214348,-81.906967,-25.337563,-48.675385,-60.232658,-66.129169,-10.329856,-0.180929,10.798233,15.490276,38.771416,55.855718,58.949352,59.237849,50.769892,60.840273,57.638452,54.248663,54.549882,62.123693,56.366641,49.160306,52.833776,59.068345,54.887039,49.246571,34.557495,56.349571,63.262163,58.092801,66.091788,74.412942,69.248052,61.581107,52.48634,63.225345,60.009637,52.693389,38.011019,48.673382,45.599122,39.683729,23.429587,33.28895,33.835585,31.05172,-1.495225,13.920783,31.796522,41.344476,54.022983,61.247013,54.013544,48.568728,70.022594,76.328325,68.195276,57.957604,77.524448,84.749255,76.868668,67.35637,78.344167,86.692206,78.205203,68.991106,51.3832,477.068925,-86.61946,441.187772
31,-0.276833,0.185189,-0.197694,-1.418146,-32.160645,-58.232861,-71.638412,-75.638695,-54.481773,-82.714634,-99.092903,-112.092419,-43.511467,-75.004349,-92.023945,-104.143066,-33.806534,-61.766682,-75.157127,-82.402554,-25.692787,-48.478889,-60.091496,-66.291103,-10.487319,-0.329253,10.846954,15.291996,38.072217,54.956385,58.433365,59.228896,49.871485,60.854414,58.165862,55.193753,53.659503,62.159879,57.043734,50.259587,52.039727,58.936137,55.503246,50.414951,34.850654,56.870648,63.66727,58.310865,66.695753,75.193969,70.050918,62.282298,53.027357,64.034214,60.790626,53.411127,38.570009,49.377651,46.183902,40.269576,24.00086,33.904999,34.458147,31.736981,-1.005502,14.981838,33.250765,42.925229,55.021896,63.216946,55.972067,50.351474,71.168862,78.424176,70.293529,59.69537,78.793911,86.801702,78.881203,69.034076,79.623616,88.359673,79.718824,70.266732,51.118984,477.23934,-86.804537,439.754852
32,-0.089607,0.979362,-0.197694,-1.418145,-32.467575,-58.666534,-71.756115,-75.219383,-55.29911,-84.205227,-100.458584,-112.971611,-44.042473,-75.982647,-92.930832,-105.093899,-34.11644,-62.025089,-74.901581,-81.468773,-25.768089,-48.890076,-60.39156,-66.168995,-10.385925,-0.101579,10.969405,14.225875,38.602776,53.472955,55.812986,55.809899,50.317817,59.335415,56.487177,53.875629,53.785473,60.590554,55.281624,48.773686,51.951177,57.588372,53.977949,49.151105,35.143814,57.391725,64.072377,58.52893,67.299717,75.974996,70.853784,62.983488,53.568374,64.843082,61.571614,54.128865,39.128998,50.08192,46.768681,40.855424,24.572132,34.521048,35.080708,32.422243,-0.515781,16.042892,34.705008,44.50598,56.020809,65.186878,57.93059,52.13422,72.315128,80.520026,72.391781,61.433135,80.063373,88.854147,80.893737,70.711782,80.903064,90.02714,81.232444,71.542357,51.032782,478.206012,-86.998826,438.324018
33,0.235176,0.205505,-0.197694,-1.418145,-32.242241,-58.879738,-70.460644,-71.164856,-55.303574,-84.824867,-101.554985,-113.883419,-43.883629,-76.534824,-93.874226,-105.912552,-33.806305,-62.474613,-76.097889,-83.177433,-25.368347,-49.121704,-61.0425,-66.964016,-12.396025,-2.348553,9.143816,12.328593,36.070762,52.768382,54.387169,53.566074,48.369777,59.204628,57.190885,54.957496,52.372994,61.196943,56.849158,50.703449,50.689308,58.21199,55.245068,50.738646,35.436973,57.912802,64.477484,58.746994,67.903682,76.756022,71.656649,63.684679,54.109391,65.651951,62.352603,54.846603,39.687988,50.78619,47.353461,41.441271,25.143405,35.137097,35.703269,33.107504,-0.026059,17.103946,36.15925,46.086732,57.019722,67.15681,59.889113,53.916966,73.461395,82.615876,74.490033,63.170901,81.332835,90.906592,82.90627,72.389487,82.182512,91.694607,82.746063,72.817982,51.281404,478.215892,-87.183073,436.710247
34,-1.456604,0.435526,-0.197694,-1.418146,-30.961304,-57.496891,-70.693016,-74.437122,-56.534615,-87.017727,-102.70237,-113.702488,-45.409355,-78.034172,-93.683109,-103.867435,-35.44384,-63.981056,-77.059479,-83.865452,-27.14447,-50.951385,-62.324467,-68.492546,-13.774726,-4.424602,6.595129,10.844916,34.657913,50.144607,50.414086,48.725521,48.071399,59.151646,55.063707,50.848191,53.14012,61.99729,56.471246,49.463315,52.566273,59.894442,56.253823,50.943164,35.730133,58.433879,64.882592,58.965059,68.507647,77.537049,72.459515,64.385869,54.650407,66.460819,63.133591,55.564341,40.246977,51.490459,47.93824,42.027119,25.714678,35.753146,36.325831,33.792765,0.463664,18.165002,37.613494,47.667484,58.018635,69.126743,61.847637,55.699713,74.607663,84.711727,76.588287,64.908667,82.602297,92.959038,84.918805,74.067194,83.46196,93.362074,84.259684,74.093608,49.734278,478.375826,-87.47129,435.016509
35,-2.162819,-5.409645,-0.197694,-1.418145,-31.025505,-56.979733,-70.575371,-75.635891,-54.265881,-84.210606,-99.53104,-109.185619,-43.169289,-76.81921,-93.01918,-102.838955,-32.811584,-63.210583,-77.048492,-84.823952,-23.930397,-48.290749,-60.430241,-67.535648,-12.69749,-2.997488,8.871311,15.423153,33.412963,51.778338,52.5764,50.449778,47.920357,63.143563,61.312663,57.834448,54.775147,67.865247,64.807798,59.261809,56.192628,66.572069,64.37289,60.088461,36.023292,58.954955,65.287699,59.183123,69.111611,78.318075,73.262381,65.087059,55.191424,67.269688,63.91458,56.282079,40.805966,52.194729,48.52302,42.612967,26.285951,36.369196,36.948392,34.478027,0.953385,19.226056,39.067736,49.248236,59.017548,71.096675,63.80616,57.482459,75.75393,86.807577,78.686539,66.646432,83.871759,95.011484,86.931339,75.744899,84.741408,95.029541,85.773304,75.369233,47.332935,472.534067,-87.907508,433.16625
36,2.265587,-6.931484,-0.197694,-1.418145,-30.413475,-57.627697,-73.714199,-79.436531,-54.118309,-84.1745,-100.05249,-110.174675,-41.926117,-76.246204,-93.509102,-104.339619,-30.020485,-61.845245,-77.121677,-85.892887,-19.515724,-44.190674,-57.627182,-65.826988,-13.457947,-5.843009,8.110917,19.984286,29.163176,52.00138,57.468824,57.92238,45.85493,66.738857,69.477735,67.858454,55.334729,72.854618,73.385795,69.375909,58.922984,72.214575,72.147699,68.763468,36.316452,59.476032,65.692806,59.401188,69.715576,79.099102,74.065247,65.78825,55.732441,68.078556,64.695568,56.999817,41.364956,52.898998,49.1078,43.198814,26.857224,36.985245,37.570953,35.163288,1.443107,20.28711,40.521979,50.828987,60.01646,73.066607,65.764683,59.265205,76.900196,88.903427,80.784791,68.384197,85.141221,97.063929,88.943873,77.422605,86.020856,96.697008,87.286924,76.644858,49.253597,465.625431,-88.450127,431.770953
37,2.612915,-10.906234,0.563965,-13.013961,-29.168587,-55.152626,-72.788086,-84.461918,-53.508224,-81.917725,-96.964245,-108.195705,-40.920181,-73.814507,-91.379242,-104.247093,-28.354454,-58.131294,-75.614834,-88.51244,-17.172318,-39.010506,-52.367821,-62.361889,-10.857081,-3.872924,11.1068,25.008917,26.498831,52.803889,63.577174,68.302625,43.262771,70.661058,78.044431,79.705518,54.006231,78.607966,84.522173,84.728296,59.627371,80.263124,84.370514,83.549172,13.526459,30.417023,42.212563,49.122047,21.207104,43.669052,52.344646,53.240032,19.831467,42.78574,50.735321,49.551945,18.986778,39.277725,46.384335,46.07048,18.34116,34.855328,39.681416,39.193268,14.648618,36.700431,52.857056,62.337164,59.849734,91.111251,96.031894,94.638496,60.06265,95.058646,99.020738,95.27082,56.180401,88.664576,92.850142,90.897039,47.875094,72.810775,74.513728,72.121147,51.29817,455.654993,-88.454504,419.692788
38,4.621124,-12.348786,-10.992966,-5.124049,-30.918388,-58.555756,-76.695328,-91.063271,-52.262306,-80.033627,-94.89315,-106.180801,-36.674995,-68.323288,-86.912785,-99.850044,-21.957664,-51.014557,-70.659027,-84.468269,-9.138565,-31.47068,-46.342278,-58.447266,-8.9577,0.052241,18.792997,33.106372,21.821175,50.95644,67.177964,76.824552,37.774765,68.997317,82.615444,90.223774,49.248424,77.484046,90.143498,97.076526,56.258577,80.999436,90.667265,96.830759,31.855602,49.062881,60.394135,70.703602,40.623779,55.421448,61.7276,64.320087,26.718979,43.740063,51.744976,54.941196,13.966599,28.274231,37.828331,43.650055,2.113609,15.770702,24.705849,30.070095,-0.795901,14.88506,31.776824,44.070652,41.66078,73.96841,88.107711,96.791116,50.754269,85.132946,101.61092,108.956873,54.700614,86.28101,101.353915,108.625397,54.191112,78.681819,89.654682,95.640088,56.185312,444.928823,-99.181452,416.191355
39,3.733292,-11.141195,7.669201,-3.536323,-31.256447,-56.158447,-73.09124,-87.244034,-52.633324,-77.504997,-89.177284,-97.599049,-38.503418,-64.773102,-78.673668,-89.101753,-22.590752,-45.312538,-59.406395,-70.538864,-6.111145,-20.32402,-29.630241,-38.629761,-3.658156,5.203028,18.779103,28.346588,21.377869,50.269343,65.701574,75.818082,32.762916,61.132352,77.470523,89.116342,40.744095,63.39427,78.848669,90.462378,45.903836,66.04929,77.971813,87.045851,21.040821,30.203705,35.669117,38.899155,39.328594,41.091785,34.475155,30.164223,33.793659,34.673996,28.301296,24.246712,25.230789,27.583923,22.115421,19.134579,15.610771,18.496342,16.123009,15.27626,8.372985,21.597145,34.730037,41.050748,44.76979,66.056824,69.780991,68.659789,53.030142,75.565893,76.874076,72.004624,57.418806,77.592851,77.766616,73.365541,58.476343,73.284895,73.197333,69.031588,60.360718,434.993197,-91.070137,413.860601
40,-0.100021,-9.720812,-51.860332,-122.409509,-29.682198,-52.148323,-67.361469,-80.969296,-46.253586,-70.372982,-80.06813,-85.75367,-34.322891,-59.314384,-70.478325,-76.75684,-19.700432,-41.06266,-53.533058,-63.503952,-3.832626,-15.370216,-23.245811,-31.668549,-1.880671,6.760003,18.943544,27.101453,17.475243,42.753947,56.737081,66.461598,25.855947,48.970732,63.67721,73.852381,30.91874,50.192649,63.06372,72.812072,34.092588,49.557423,59.473921,67.243296,32.878075,58.531666,75.420341,91.285744,54.504719,75.055389,82.864666,86.519737,42.748947,64.111519,73.182049,78.395576,30.878334,49.083481,59.950047,67.610836,19.05304,33.539143,44.90593,53.861732,5.271633,24.335158,42.074322,57.56818,57.829384,90.455709,109.125328,123.295319,63.523452,96.749804,115.286228,128.766343,63.798982,93.359892,108.627867,119.754365,60.555727,81.062792,91.950068,100.723197,60.301294,425.799503,-142.889872,291.978209
41,18.503266,-47.453555,-11.870355,-50.109749,-33.80579,-60.682526,-77.585192,-90.351534,-61.817093,-88.255577,-96.339512,-100.105047,-50.074139,-76.661797,-84.674664,-87.773009,-35.498772,-58.656121,-66.63065,-70.676079,-19.335137,-34.867401,-41.274777,-45.3582,2.986311,18.504283,34.989821,48.205119,26.883165,53.650425,66.026072,73.598525,34.957402,59.576828,69.55622,75.258438,40.673144,60.906068,67.130015,69.925147,44.207428,59.996391,64.570213,66.149326,32.674885,61.530447,82.183399,97.556076,51.742058,81.253624,94.160871,100.401306,43.895616,75.131264,89.562292,96.872949,36.740198,65.780125,79.074783,85.763454,29.992332,52.382297,64.356537,71.436138,13.614823,30.310221,42.122117,54.271233,50.249552,74.522064,89.755551,101.209759,47.334006,74.78154,90.952738,102.242473,40.406969,64.955629,78.538188,88.073439,31.125758,46.914443,55.833858,62.661478,78.874169,379.417564,-154.690618,242.940076
42,18.503265,-47.453555,-11.870356,-50.109749,-37.929382,-69.216728,-87.808914,-99.733772,-77.3806,-106.138172,-112.610893,-114.456425,-65.825386,-94.009209,-98.871002,-98.789177,-51.297112,-76.24958,-79.728241,-77.848206,-34.837646,-54.364586,-59.303741,-59.047852,7.853294,30.248563,51.036098,69.308786,36.291088,64.546903,75.315063,80.735453,44.058857,70.182925,75.43523,76.664495,50.427548,71.619486,71.196311,67.038223,54.32227,70.43536,69.666506,65.055356,32.471695,64.529228,88.946457,103.826408,48.979397,87.451859,105.457077,114.282875,45.042286,86.151009,105.942535,115.350323,42.602062,82.476768,98.19952,103.916073,40.931625,71.225452,83.807144,89.010544,21.958014,36.285283,42.169912,50.974286,42.66972,58.58842,70.385775,79.124199,31.144561,52.813275,66.619247,75.718602,17.014956,36.551366,48.448509,56.392514,1.69579,12.766095,19.717648,24.599759,97.861462,333.777866,-166.076946,194.644184
43,-3.49617,-16.560781,-14.000187,-43.014843,-39.235382,-68.596802,-88.681755,-103.285789,-69.285851,-97.588577,-106.225891,-106.477547,-56.546288,-83.933144,-91.184235,-90.301781,-43.443031,-67.386246,-75.232773,-75.898933,-30.915756,-49.1922,-58.019371,-60.115013,13.30178,33.032642,51.071728,61.220223,49.297762,64.64274,64.007081,60.959883,47.028126,61.23634,55.25538,47.182131,42.140025,52.402943,47.074192,42.26334,35.442328,43.789193,42.920118,40.428921,31.669235,59.467793,81.925621,97.568321,72.22126,107.922535,126.19606,138.948154,67.891331,105.331764,125.576763,139.694424,61.564579,96.942902,116.192265,128.974628,53.50771,81.870174,98.727036,110.324135,-20.18059,-23.611258,-20.895722,-15.454523,11.640076,28.184617,38.656437,47.856508,26.997589,44.029155,54.648929,64.578766,37.309784,51.816623,60.162438,65.770611,43.071406,53.876061,58.818935,61.820869,94.792671,319.199473,-179.649754,153.61173
44,-9.693146,-6.928705,-0.951347,-19.456382,-41.790276,-67.633438,-84.098511,-99.752827,-59.600716,-83.663979,-95.831566,-102.843647,-46.443214,-71.243935,-85.778961,-96.043282,-35.277328,-58.282013,-74.126015,-84.38633,-25.982094,-41.926003,-54.804382,-62.789955,15.55919,27.309058,38.030782,46.023879,37.680101,48.279251,51.439946,52.716944,33.754195,40.737673,40.930396,39.996421,26.820242,31.999249,32.059826,33.71097,17.875509,19.812743,21.573494,24.265442,23.960323,52.357578,76.221142,96.386776,64.453011,105.871525,126.894836,142.669315,61.018353,104.883671,128.673706,145.104218,57.072258,96.243782,117.092915,129.886322,52.205486,81.612282,96.721458,106.063728,-27.039579,-34.054549,-30.267458,-26.181866,-1.973852,9.379085,18.04909,26.159451,19.717277,30.189591,35.831171,39.297592,34.954562,44.108319,44.150063,42.540538,44.919102,49.268678,46.726969,43.360213,86.69589,314.717474,-179.004736,136.602054
45,4.164619,-61.895958,2.623329,-13.549337,-41.470642,-78.468819,-104.479179,-125.828133,-81.730156,-103.314171,-116.00687,-125.98423,-68.675652,-91.551476,-102.929993,-110.626945,-53.219604,-75.273857,-85.553856,-92.422943,-36.057701,-51.963387,-60.403519,-65.339355,19.502756,34.172307,44.748609,58.176236,14.872463,37.051173,50.271381,59.053154,13.610285,35.474253,50.245013,59.960144,16.522372,34.056834,45.773851,52.381207,20.995325,35.070158,43.894416,48.693658,24.723644,55.142441,82.144947,103.615265,62.602043,105.346756,127.996788,146.928692,60.034103,105.743809,132.802334,153.222599,57.557316,99.651031,125.465698,144.304447,53.785458,86.163368,105.118389,119.659367,-30.489945,-38.713309,-35.877452,-36.016391,-16.064246,-5.136214,4.686795,14.933843,5.894818,15.615753,23.036794,28.29021,22.694573,31.579778,34.500449,36.053904,34.856996,39.881071,41.569822,42.600127,92.502823,254.709798,-174.739094,124.940998
46,-2.863426,-13.871057,9.022636,-8.238246,-46.008797,-78.260765,-102.260113,-123.68597,-74.793663,-99.062462,-115.612564,-131.146774,-63.949127,-89.482841,-107.531261,-123.361931,-51.46431,-73.841171,-89.813461,-104.26054,-37.661934,-52.563515,-64.798851,-75.039024,11.139651,22.640171,33.199553,42.146694,21.049419,35.703409,42.48274,47.799882,21.298211,33.456003,40.006795,45.003824,21.07628,30.830807,35.157227,38.412832,21.171685,27.848139,31.686421,34.794566,26.511497,57.899437,87.09343,110.699043,68.792267,107.069836,132.80611,154.302177,67.053909,108.336411,137.089748,159.366817,63.149185,102.603149,128.98613,149.201431,58.046608,89.109592,108.372288,124.375877,-33.074323,-43.266445,-41.77119,-44.093839,-18.184817,-4.922311,4.976342,15.219254,4.513338,15.931792,24.75926,32.098976,22.032238,30.735341,35.521739,38.410485,34.622591,38.190963,39.861435,40.609294,90.649652,242.847435,-164.706202,118.711447
47,-5.379639,-12.21559,9.905033,0.552728,-38.98098,-65.370026,-85.287437,-105.097847,-65.728455,-93.983231,-113.929825,-131.55098,-58.140678,-88.416595,-110.885868,-130.4916,-49.168854,-74.560661,-95.45929,-114.47216,-39.221992,-55.746346,-69.434738,-82.181854,6.11854,13.396134,21.295988,27.238662,17.062133,27.116644,32.322142,37.236054,17.836298,27.482268,32.875672,36.293187,17.818328,27.136219,29.687499,30.719163,17.977521,24.301936,27.70636,29.67626,26.361637,58.879223,88.13261,110.872478,67.614098,107.427635,132.922783,153.821754,66.55529,110.326996,139.869576,161.766701,63.301163,104.305515,131.739407,152.106514,59.021301,90.602245,109.436245,124.050751,-33.246082,-44.132433,-44.025728,-46.029838,-19.242231,-5.038154,5.558031,16.627533,4.626279,16.454694,26.336427,34.678723,22.858088,32.198085,38.049431,41.264281,35.221323,37.923707,38.161569,36.850423,85.983238,231.857159,-154.087944,120.489488
48,-19.781113,-18.601447,9.378719,6.115637,-30.838508,-57.526474,-75.360632,-90.037107,-73.910265,-90.380287,-88.973093,-88.583164,-70.106277,-85.407686,-85.452747,-85.326977,-63.736181,-78.92518,-79.832153,-80.37981,-55.501728,-72.066421,-81.9001,-89.300966,-1.130249,1.007087,4.070216,8.24791,-5.650688,-9.325023,-5.490847,0.35031,-2.429416,-6.950256,-0.356949,3.523633,1.955697,-1.212717,2.400856,4.622234,8.233522,10.354401,12.946776,14.268667,29.058037,64.069004,93.503208,115.782452,75.594292,112.600536,136.709347,156.007061,72.285233,113.447914,140.165634,160.132885,66.665096,105.137501,129.661961,147.919407,59.390087,89.697418,107.843456,122.558041,-33.504662,-41.935538,-39.139202,-37.874183,-14.00981,0.374331,10.76637,22.007168,7.371023,20.363557,29.930548,37.626379,24.228824,34.956167,40.7725,43.999824,35.949052,40.265344,41.509924,40.840055,66.192169,214.011938,-144.719181,127.361352
49,-19.781112,-18.601447,10.53257,9.543403,-22.696037,-49.682922,-65.433826,-74.976368,-82.092075,-86.777344,-64.016361,-45.615349,-82.071877,-82.398777,-60.019627,-40.162354,-78.303509,-83.2897,-64.205017,-46.28746,-71.781464,-88.386497,-94.365463,-96.420078,-8.379037,-11.381959,-13.155555,-10.742843,-28.363508,-45.766688,-43.303835,-36.535434,-22.695129,-41.38278,-33.589569,-29.245921,-13.906934,-29.561651,-24.885787,-21.474694,-1.510477,-3.593133,-1.812807,-1.138925,30.828724,66.919498,95.912876,117.290382,79.171543,116.311684,139.360714,156.559696,74.253159,115.536003,140.759983,158.827801,67.296467,105.547829,126.56599,140.537624,59.064274,89.243431,104.992962,115.754013,-31.522289,-38.186887,-33.899247,-30.269558,-10.185113,4.729464,15.524362,25.807473,11.653785,24.565425,31.960963,38.065671,28.447056,37.819843,38.871946,38.703861,39.692547,43.434746,41.340851,37.537705,46.326914,196.361293,-134.270754,137.855556
50,-0.369644,-6.234445,7.569294,2.296189,-24.206429,-47.930889,-62.399311,-72.041187,-64.146137,-74.489422,-67.551727,-63.958168,-59.514942,-66.77187,-58.556671,-53.159981,-52.676296,-67.467442,-70.666409,-75.509663,-42.720795,-57.39212,-70.508766,-85.177002,-11.313972,-13.940958,-15.587718,-14.139301,-7.732572,-13.018901,-12.578682,-9.138629,-2.515033,-9.056192,-6.781801,-3.750844,3.365336,-1.003506,1.35888,4.424417,9.106395,10.316765,11.644831,12.879592,25.533314,58.661671,89.403763,112.396889,72.03661,115.417042,137.102051,152.575378,68.21331,115.670986,139.366608,154.475784,62.335854,104.151478,123.369713,134.356956,55.698795,87.2612,101.900425,109.59383,-30.326615,-35.726133,-29.994522,-27.670915,-5.714198,8.001742,15.698437,22.979243,17.761456,26.862849,29.458343,31.474555,34.277098,40.116464,38.049122,34.710092,43.607029,45.374326,40.10961,34.552073,45.8957,190.365282,-126.763029,140.390179
51,-8.949623,2.389494,-2.352219,-2.706829,-15.921135,-41.819401,-64.650822,-85.853291,-67.383728,-57.991848,-47.329388,-42.265491,-71.120281,-53.172798,-37.984657,-29.588585,-66.882362,-59.192104,-44.631214,-35.118484,-57.192135,-66.757908,-68.240948,-68.596115,17.585221,28.387158,32.44484,39.173226,9.382234,-5.361047,-2.449577,5.211364,-10.400128,-28.823549,-22.209585,-17.04404,-28.62428,-48.190083,-40.89242,-34.196637,-44.300919,-65.259194,-68.888698,-69.279887,23.454037,56.693573,87.198601,109.655743,68.813553,113.358536,136.032486,152.021828,66.05547,114.936619,139.062424,155.231895,61.281509,103.896847,121.86533,131.201248,55.791149,88.682785,103.287964,110.737381,-30.939488,-37.480586,-32.385312,-32.421128,-8.425905,5.892039,15.201593,23.750937,16.141558,26.344455,30.688226,33.510467,33.822615,39.634255,35.933861,31.419412,44.537732,47.795189,42.72863,37.309661,36.892862,192.7888,-129.168463,137.717374
52,12.030487,-4.055582,-5.238762,-6.281746,-26.581078,-51.490002,-69.89645,-82.510586,-57.927876,-82.231064,-94.447346,-105.809612,-49.78466,-77.437134,-95.037289,-108.846588,-39.544258,-66.521702,-84.066353,-97.884064,-28.954468,-49.690475,-65.406189,-79.02729,-10.468486,-11.955436,-11.894241,-7.525955,-12.852051,1.115953,14.682581,25.075793,-5.162705,10.388642,23.557597,33.465204,4.808628,18.921932,30.383673,39.210153,16.562263,26.631285,33.139779,38.290751,22.930355,54.775429,85.081215,106.608639,68.029404,112.301216,134.102097,150.361633,66.135063,113.814125,138.438606,155.935936,61.95591,104.44931,126.055984,139.601326,56.764698,89.484787,106.937714,118.367901,-31.603706,-40.200846,-36.157336,-35.030885,-8.664941,4.636159,12.882371,20.492306,14.668625,24.595745,30.029781,34.396708,30.875268,38.157988,39.110117,38.227581,40.535996,44.540387,43.59116,40.969608,48.966408,188.677813,-134.364166,131.380223
53,2.357712,10.982434,-6.431751,-6.966002,-26.147346,-51.204071,-68.431206,-78.514366,-59.0518,-84.171581,-100.187244,-114.737206,-51.517067,-79.311562,-97.510014,-113.362885,-41.142998,-67.595387,-86.0919,-101.470642,-29.942665,-49.498329,-62.929344,-75.859451,-4.214157,-0.539143,4.381871,11.309588,0.398475,15.572281,29.009911,38.225111,4.427752,20.337066,33.893751,44.587811,9.303379,22.8324,33.368811,41.93489,15.526524,23.485596,29.688425,35.067627,23.156376,55.587559,86.766071,108.649178,63.822556,110.084667,132.223492,149.399014,62.17226,112.693863,138.63493,156.920872,58.631859,104.997482,128.279285,142.986889,54.094677,89.859924,108.119717,119.863472,-31.39323,-41.411895,-38.799451,-36.87926,-9.351235,3.445611,11.198437,18.19093,14.314425,23.005486,28.011963,32.732041,30.444806,37.466939,37.606865,36.502212,40.151229,42.533066,39.340446,35.563915,51.537981,199.301848,-140.582056,124.055821
54,4.106827,6.535602,-5.400124,-4.047246,-29.53022,-53.666382,-70.613251,-83.586845,-58.614407,-83.816528,-99.361382,-113.409233,-49.554062,-78.314838,-96.137466,-111.243954,-38.005829,-64.403572,-82.149239,-97.437859,-24.118881,-43.610115,-57.486706,-70.446625,-0.986031,4.200016,9.866728,18.001233,0.157217,17.443009,30.025582,40.285537,3.204846,19.718883,33.385237,44.968873,7.723001,20.422776,31.502343,40.780528,13.72619,21.68483,27.264474,31.485053,23.979435,56.295433,87.248211,108.747768,63.223515,109.984417,132.337017,148.939991,61.446018,112.254124,138.138027,155.684566,58.303299,104.978886,128.898296,143.891087,54.431019,90.850811,109.531345,121.801414,-32.045037,-42.962479,-41.527924,-41.611874,-13.615966,-0.03563,8.056823,14.98102,10.541536,20.364051,25.599127,29.901278,27.542042,35.061452,36.083236,35.14957,38.29001,40.174942,37.806751,34.567387,55.902271,205.479729,-145.724716,119.650856
55,3.734207,2.255804,-1.313095,-2.663357,-30.738258,-55.176315,-72.241516,-85.667439,-59.535713,-84.369564,-100.562897,-114.918995,-49.600868,-78.669662,-97.816429,-114.102631,-36.819534,-63.527355,-82.142658,-98.023567,-22.081261,-42.37896,-56.792564,-69.802723,-0.481406,4.87007,10.800271,19.273168,0.539266,17.375454,29.810999,40.270778,3.444314,19.597172,32.561177,43.941902,7.969014,20.572026,30.837538,39.638886,14.212845,21.680323,27.194202,31.341298,24.811878,55.935631,85.860386,106.95179,63.134766,107.71368,130.073261,146.84721,61.45998,109.377308,135.854473,154.06271,58.332767,102.720165,127.107983,143.306522,54.47176,89.075661,107.522335,120.503483,-32.41344,-42.807362,-41.535118,-43.503721,-16.000952,-0.428486,9.008397,16.74665,7.884107,20.258087,26.612699,31.435714,25.659457,35.119682,38.23919,39.195086,37.194558,41.368886,40.978191,39.147723,60.113354,207.082507,-146.560936,116.334473
56,0.767784,0.312704,2.907658,3.192682,-28.651657,-53.793297,-71.00132,-84.494019,-59.027252,-83.310528,-100.341454,-116.352196,-50.077629,-78.356152,-97.726078,-115.720253,-38.175087,-64.208622,-83.111687,-99.787846,-24.02092,-43.926315,-58.567772,-71.554642,-2.349541,0.953118,5.701292,12.01873,-1.487506,15.039436,26.690566,36.140108,1.741423,17.407318,29.130942,39.317846,6.355105,18.057179,26.462522,34.191697,12.583869,19.278046,23.469356,26.986412,23.76812,54.337006,83.996143,106.427994,63.213558,107.957783,130.567074,146.037712,60.194721,108.962402,135.581245,152.983589,55.952454,101.28994,124.974918,139.538498,51.280804,86.296177,103.302555,114.196987,-32.258137,-42.446585,-41.159274,-42.434111,-16.14446,0.803373,10.924883,19.415935,8.052995,21.316119,27.775706,33.143237,26.508896,36.219889,38.113095,38.306559,38.203807,41.030679,38.611051,35.622392,61.269035,207.310042,-143.265381,119.441985
57,-1.809196,-4.386441,5.328598,6.598279,-28.419571,-54.293518,-71.814365,-85.088539,-57.266808,-80.771141,-98.966618,-116.538677,-48.20652,-75.674343,-96.373615,-115.83807,-37.004242,-62.400341,-82.103634,-99.740353,-24.205971,-43.587914,-58.93364,-72.48991,-1.295524,2.32725,8.360882,15.120206,-1.913398,13.819619,25.287473,34.731766,1.884684,17.519271,28.581796,37.626008,7.186945,18.699198,26.409601,33.401477,13.721127,20.550043,24.280138,27.166167,25.710983,57.532139,86.176758,107.914295,66.576462,108.577824,131.212063,147.182579,61.569328,107.975063,134.179802,151.209297,55.225525,98.710785,122.502766,137.744408,48.653412,82.566433,99.955902,112.092018,-30.231211,-39.143216,-37.723265,-39.351778,-13.731933,4.055335,14.237731,22.952319,9.105778,24.744625,32.508134,38.308474,26.89391,39.257207,42.053513,42.288782,38.470815,43.879596,42.210729,38.661562,59.967642,202.873877,-137.42898,125.990539
58,-1.938629,-1.347517,5.592899,9.991278,-28.035164,-52.638016,-69.627228,-84.115963,-56.867523,-78.973103,-97.407188,-114.990463,-48.002472,-73.460369,-93.457775,-112.459087,-36.400337,-59.1576,-77.347355,-94.789867,-22.647171,-38.486366,-52.270088,-65.323734,-0.057428,2.085497,6.156701,11.577585,-0.858331,9.231193,18.457692,26.967949,1.940815,13.059162,21.50631,29.105686,5.363826,13.837403,19.465582,25.49514,9.62905,14.602429,17.388113,20.015038,27.501297,60.406208,89.094486,110.241852,67.477856,108.37389,130.716419,146.66708,61.846676,107.437992,132.338505,148.337803,54.852047,97.497139,120.671654,134.87772,47.710419,81.521301,99.914932,113.103333,-29.732329,-37.807523,-35.438994,-34.856132,-12.72676,4.934475,15.309224,24.410185,9.822885,25.107038,32.73766,38.284514,27.72365,39.815122,42.2852,41.98145,39.39948,45.751868,45.411253,42.550974,58.654089,201.512821,-131.211004,135.968278
59,-4.628105,-2.439327,4.173317,7.170643,-30.704269,-54.098568,-69.96912,-84.846497,-55.719566,-76.077175,-93.16,-109.822998,-45.488434,-69.055939,-87.456951,-105.004692,-32.803574,-53.738022,-71.709023,-87.911396,-18.144608,-32.977982,-46.743965,-59.748001,2.304711,4.290233,7.752949,12.675075,-0.400884,10.830775,20.015408,28.006776,2.559802,13.13703,21.764674,29.530838,6.123047,13.531368,18.913595,24.777909,10.48627,14.703329,17.184337,20.480142,26.035366,58.484745,88.452015,110.504208,62.166138,107.072353,131.02335,147.392292,58.034649,107.137928,134.421329,151.875744,53.097782,98.693333,121.105385,133.606281,48.437233,83.913918,101.191864,111.889915,-29.887199,-37.550611,-33.929567,-33.321078,-12.477844,3.863415,13.156358,20.956237,11.944753,24.308482,29.347748,33.444208,30.516868,39.32433,38.484524,35.917436,42.490211,46.419699,43.289447,38.885099,54.384813,199.060758,-126.678858,143.126186
60,-26.192436,-4.543225,2.254486,-0.259475,-10.701828,-32.098045,-48.384991,-64.336624,-64.06414,-51.896324,-35.914822,-24.654579,-67.957363,-52.093506,-33.120861,-19.854813,-64.169483,-55.889511,-37.673664,-24.452591,-52.674694,-57.267208,-55.549164,-51.487656,19.419331,28.998858,33.567092,39.771032,6.620447,-10.0513,-7.401651,0.728223,-10.963168,-29.94648,-23.589645,-18.827639,-28.322814,-47.577581,-40.860186,-34.685206,-42.349976,-61.977777,-63.875676,-62.354949,25.504875,57.649498,87.70752,109.075871,60.002804,104.612045,127.690716,144.267483,56.405182,105.655289,133.333912,151.572247,52.679214,98.055267,121.90424,136.108875,49.188709,84.564228,102.393608,113.294849,-28.887584,-37.208699,-33.892208,-34.396832,-12.559355,3.826117,13.464677,21.502481,11.896402,24.332935,30.101844,34.91251,30.362122,39.266902,40.279238,39.870512,42.197021,47.068325,45.405819,42.537451,28.620157,194.502528,-123.996592,142.851705
61,21.529427,11.81801,-2.96236,-11.877568,-28.829785,-60.184078,-82.19121,-101.887179,-77.514181,-85.295506,-83.003683,-79.094439,-70.199204,-75.534754,-69.046412,-63.593044,-57.973337,-65.535221,-57.66326,-51.649819,-42.028685,-51.729384,-52.864838,-52.136479,18.549175,27.282474,33.328704,43.611908,8.786682,6.370635,13.086548,20.626706,-2.065644,-5.608481,4.708283,11.605835,-11.207916,-16.671778,-7.134674,-1.104221,-17.824226,-23.876137,-20.154655,-16.496252,30.12022,61.721878,88.87373,109.589252,66.017246,106.326771,127.170639,141.978607,61.899033,104.496288,129.614639,147.590561,55.683689,96.861649,121.134453,137.645874,47.897758,81.054382,100.682545,115.42757,-25.042262,-32.654791,-31.762065,-36.171508,-11.512376,3.638643,12.507114,20.223569,7.72473,21.965918,30.44073,36.497581,24.446,37.699368,42.748019,44.925709,38.223382,48.129568,50.783477,50.900185,50.403843,206.238611,-126.704693,130.892209
62,21.529426,11.81801,-2.599068,-2.813843,-46.957741,-88.270111,-115.997429,-139.437733,-90.964222,-118.694687,-130.092545,-133.534298,-72.441044,-98.976002,-104.971962,-107.331276,-51.777191,-75.180931,-77.652855,-78.847046,-31.382675,-46.191559,-50.180511,-52.785301,17.679019,25.566091,33.090317,47.452783,10.952918,22.792571,33.574749,40.52519,6.83188,18.729517,33.006213,42.03931,5.906983,14.234026,26.590839,32.476765,6.701525,14.225504,23.566365,29.362444,29.053574,57.865276,82.379379,98.202209,60.919819,102.839699,124.458904,140.397034,58.001232,101.107464,126.196861,143.816299,52.739582,92.762718,117.370663,134.01947,45.724983,73.863659,91.950474,105.828495,23.049268,29.725166,26.282149,24.325216,17.347173,15.142683,15.089331,15.67386,-2.129278,-3.388245,-1.838742,0.178953,-20.498914,-23.242052,-22.676851,-19.999353,-36.298343,-45.143565,-49.283066,-49.899026,72.154284,217.489567,-129.082747,127.511313
63,7.361298,8.091712,28.312626,-43.394021,-48.244629,-87.953796,-115.172138,-138.837433,-83.998203,-113.500328,-132.304974,-148.052273,-72.476463,-106.51577,-126.796188,-144.300098,-57.899094,-91.653214,-112.756004,-130.33041,-40.696449,-66.031609,-83.480301,-99.141026,2.004418,11.725292,19.685476,25.351014,7.855332,30.323466,46.528874,59.679303,13.188529,36.738469,54.126644,67.219584,20.59296,39.243869,52.991301,62.717609,29.488786,43.419926,50.713576,54.483438,29.656391,48.096056,57.727747,62.213316,55.664778,78.837662,88.284302,96.257286,45.114956,67.696667,78.24503,87.421274,32.17515,53.542071,65.714722,74.710179,18.193903,33.547869,43.94351,52.025128,1.181656,-7.147487,-20.444604,-29.455471,-20.656655,-39.889207,-39.488431,-35.916463,-31.156741,-48.093629,-43.256102,-36.056189,-39.609771,-54.351632,-49.531673,-41.177521,-45.491992,-60.202005,-58.749651,-53.734575,79.484024,224.74277,-100.801678,83.278782
64,-0.724525,18.004012,28.312626,-43.394021,-47.588654,-84.655323,-108.379898,-129.882259,-85.030003,-109.34166,-129.998302,-150.107574,-73.590317,-103.105145,-125.89056,-149.025078,-59.771461,-90.384636,-113.81916,-134.783192,-42.481499,-67.852364,-86.292114,-103.532581,-0.523952,7.23826,13.740825,18.659678,19.236056,38.989766,52.729233,64.358564,25.300935,43.483899,58.41978,72.54599,31.742244,47.076909,59.352026,71.201868,36.682153,47.93666,56.092839,64.343435,30.259209,38.326836,33.076115,26.224422,50.409737,54.835625,52.109699,52.117538,32.22868,34.28587,30.293198,31.026249,11.610718,14.321423,14.058781,15.400887,-9.337177,-6.767921,-4.063454,-1.77824,-20.685956,-44.02014,-67.171357,-83.236159,-58.660483,-94.921097,-94.066193,-87.506787,-60.184205,-92.799013,-84.673462,-72.291331,-58.720628,-85.461212,-76.386495,-62.35569,-54.68564,-75.260445,-68.216236,-57.570125,78.763046,242.259278,-72.485504,39.397257
65,-24.087982,35.42547,-11.764383,-11.550396,-43.76976,-77.972946,-99.491215,-113.839016,-89.622288,-120.97744,-133.323898,-138.849163,-77.817192,-111.041164,-121.785908,-124.777622,-62.536869,-92.676716,-105.002174,-111.22982,-43.882942,-66.699314,-81.80563,-93.118916,-5.01296,5.891236,15.843118,19.564692,23.177585,52.729233,64.06914,69.089201,32.545616,62.342598,69.720229,71.538223,39.750654,64.157875,70.186939,70.729416,42.960256,61.329459,68.506833,70.764305,27.743551,35.362695,31.358082,25.804813,45.180118,51.827499,51.520471,53.034553,28.933777,34.805877,33.808153,36.313928,11.024002,17.542385,19.973711,23.032888,-6.580862,-0.976319,3.285484,6.741857,-22.406292,-46.214975,-68.986245,-84.968791,-62.018022,-96.624688,-96.27303,-90.385625,-63.798999,-95.499424,-88.518495,-77.232647,-62.298981,-88.713387,-80.849747,-68.139122,-58.076454,-78.490503,-72.633657,-63.339482,54.619818,283.570736,-84.305134,33.732849
66,11.54892,14.821519,-11.764384,-11.550396,-47.388039,-81.621895,-106.096058,-125.587521,-91.229439,-120.951347,-136.813259,-150.951176,-81.374187,-112.791767,-131.268482,-146.350365,-67.530041,-97.392654,-117.239342,-132.66386,-50.109787,-73.831959,-89.973621,-104.213505,-3.545647,6.576357,16.552383,22.615965,23.94539,47.541395,62.293692,77.214753,33.780378,57.53113,75.273196,89.854506,41.209137,62.987828,78.256606,89.503579,46.961188,63.225876,72.284909,77.966132,25.227894,32.398556,29.640049,25.385205,39.950501,48.819375,50.931244,53.951569,25.638875,35.325886,37.323109,41.601609,10.437287,20.763348,25.888642,30.664891,-3.824546,4.815285,10.634423,15.261956,-24.126627,-48.40981,-70.801133,-86.701423,-65.37556,-98.328278,-98.479866,-93.264463,-67.413793,-98.199834,-92.363528,-82.173963,-65.877334,-91.965562,-85.312999,-73.922555,-61.467268,-81.72056,-77.051078,-69.108838,66.414042,299.353555,-95.824214,23.143752
67,-1.52916,16.808215,-11.764383,-11.550396,-49.915123,-83.362942,-106.839695,-127.086525,-90.324268,-117.531395,-134.150562,-148.458652,-79.291306,-112.456341,-132.079868,-149.374008,-65.700302,-96.991997,-117.551422,-134.272671,-48.942375,-72.514629,-89.19302,-104.584122,-3.306735,8.295118,20.94821,28.711719,29.353923,54.192532,71.199151,88.692919,40.07293,63.982442,82.570304,101.140135,48.939178,72.239893,87.450872,101.914238,55.119838,71.193347,81.606319,91.222093,22.712237,29.434416,27.922016,24.965595,34.720883,45.811249,50.342016,54.868584,22.343971,35.845894,40.838064,46.889288,9.850571,23.98431,31.803572,38.296892,-1.068231,10.606888,17.98336,23.782053,-25.846963,-50.604645,-72.616021,-88.434054,-68.733098,-100.031869,-100.686702,-96.143302,-71.028586,-100.900245,-96.208561,-87.115279,-69.455687,-95.217737,-89.776251,-79.705987,-64.858082,-84.950618,-81.468498,-74.878195,63.91943,315.858344,-108.554049,11.28993
68,0.257378,20.939379,-11.764383,-11.550396,-49.486656,-83.559437,-107.215691,-127.151585,-90.806122,-116.795826,-132.461758,-145.066681,-79.994888,-112.408504,-131.337948,-147.080441,-66.900158,-98.545017,-119.265232,-135.100193,-50.882263,-76.443844,-92.238579,-105.942593,-2.616797,6.849109,19.143863,27.896304,28.3456,53.84568,73.049502,92.589,40.357291,64.251921,84.236516,104.368323,51.300884,75.238616,92.117103,106.825804,59.692641,77.264832,89.757991,100.399316,20.196579,26.470276,26.203983,24.545986,29.491264,42.803123,49.752788,55.785599,19.049068,36.365902,44.35302,52.176967,9.263855,27.205273,37.718502,45.928894,1.688084,16.398491,25.332298,32.302151,-27.567299,-52.79948,-74.430909,-90.166686,-72.090636,-101.735459,-102.893539,-99.02214,-74.64338,-103.600655,-100.053594,-92.056595,-73.034041,-98.469912,-94.239503,-85.48942,-68.248896,-88.180676,-85.885919,-80.647551,63.24234,336.54626,-121.252899,-0.511929
69,-2.011528,21.035401,-11.764383,-11.550397,-46.132736,-78.613071,-103.513069,-124.624329,-87.322311,-115.244522,-131.032734,-143.385487,-77.093639,-110.161858,-129.247456,-144.328995,-64.569111,-95.873909,-115.474033,-130.25877,-49.849434,-74.252701,-88.899193,-102.79953,-6.573084,2.079013,15.954701,23.512766,27.49221,54.354812,72.083232,88.273202,42.501141,69.06481,86.602483,101.418753,54.656339,80.231014,94.951262,104.983666,63.214823,82.9455,94.416256,102.199093,17.680921,23.506135,24.48595,24.126377,24.261646,39.794998,49.16356,56.702613,15.754165,36.88591,47.867975,57.464647,8.677139,30.426235,43.633432,53.560895,4.444398,22.190094,32.681236,40.822248,-29.287633,-54.994314,-76.245796,-91.899317,-75.448173,-103.439049,-105.100374,-101.900977,-78.258172,-106.301064,-103.898626,-96.997909,-76.612393,-101.722086,-98.702753,-91.272851,-71.639709,-91.410732,-90.303339,-86.416907,60.538387,357.45566,-133.709707,-12.188328
70,-3.533707,17.649071,-11.764384,-11.550396,-42.381134,-74.938259,-100.563698,-121.893139,-82.288342,-114.834766,-129.934502,-140.266571,-71.330738,-107.759457,-126.994457,-140.671062,-58.532696,-92.522106,-111.567822,-125.049362,-44.225121,-71.120167,-85.268497,-97.847786,-8.746637,-0.546985,14.303495,23.023703,25.636116,51.204615,66.315126,79.070044,42.056106,68.191474,82.866274,94.286025,54.718337,79.317046,92.037075,99.41841,64.341336,83.091354,92.274937,98.164815,15.165264,20.541996,22.767918,23.706768,19.032028,36.786873,48.574333,57.619629,12.459263,37.405918,51.382931,62.752327,8.090424,33.647198,49.548363,61.192898,7.200714,27.981697,40.030174,49.342346,-31.007969,-57.189149,-78.060684,-93.631949,-78.805712,-105.142639,-107.30721,-104.779815,-81.872966,-109.001475,-107.743659,-101.939225,-80.190746,-104.974261,-103.166005,-97.056284,-75.030523,-94.64079,-94.72076,-92.186263,56.226082,374.962982,-146.25269,-23.880472
71,-2.387238,10.630086,-11.764383,-11.550396,-36.800537,-71.328564,-98.960152,-119.278164,-77.236519,-111.336708,-128.279171,-140.096111,-66.2887,-105.636349,-126.11681,-140.106239,-54.077339,-91.027508,-111.153717,-125.112419,-41.183739,-69.618587,-84.629631,-97.40799,-10.629284,-3.627343,10.050188,18.36976,27.704816,51.504722,64.342633,74.198986,44.668087,69.129092,80.997645,90.066928,56.789322,79.412882,89.415585,96.268584,64.540543,83.063073,90.982254,97.273571,12.649607,17.577856,21.049885,23.287159,13.80241,33.778747,47.985105,58.536644,9.16436,37.925926,54.897886,68.040007,7.503708,36.86816,55.463293,68.8249,9.957029,33.7733,47.379112,57.862444,-32.728305,-59.383984,-79.875572,-95.36458,-82.16325,-106.84623,-109.514046,-107.658653,-85.487759,-111.701885,-111.588692,-106.880541,-83.769099,-108.226436,-107.629257,-102.839716,-78.421337,-97.870847,-99.13818,-97.95562,52.599449,385.442012,-159.256468,-35.581925
72,-1.483154,3.727317,-11.764383,-11.550396,-35.676384,-68.893661,-96.237717,-117.869453,-76.516457,-108.516026,-125.375977,-137.485657,-67.362385,-104.77541,-125.405617,-140.263939,-56.285076,-91.415977,-111.034584,-125.297756,-44.102211,-71.564255,-86.720238,-99.819374,-9.734644,-2.780004,11.351887,18.499744,28.698936,50.165664,60.887697,68.072543,44.866738,67.949845,79.161373,86.881965,56.737328,79.297224,87.808221,93.2769,64.822001,83.322733,89.726807,94.292447,10.133949,14.613716,19.331852,22.867549,8.572792,30.770622,47.395877,59.453659,5.869457,38.445934,58.412841,73.327686,6.916992,40.089122,61.378223,76.456901,12.713344,39.564903,54.72805,66.382541,-34.44864,-61.57882,-81.690459,-97.097212,-85.520788,-108.54982,-111.720883,-110.537492,-89.102553,-114.402296,-115.433725,-111.821857,-87.347452,-111.478611,-112.092509,-108.623149,-81.812151,-101.100905,-103.555601,-103.724976,50.88438,389.066483,-171.252765,-47.235166
73,0.302467,5.26694,-11.764384,-11.550396,-34.760284,-68.785686,-96.845226,-118.976212,-76.818638,-109.048233,-126.040707,-137.830124,-67.618332,-105.223503,-125.693092,-140.366192,-56.728878,-91.818981,-111.331501,-125.367908,-45.133896,-73.038139,-88.364468,-101.178532,-11.88152,-5.176352,8.940225,16.396402,27.942988,48.255786,58.6004,65.988713,44.568051,65.629326,76.164193,83.972039,56.591906,77.050065,85.018461,90.333504,64.503678,81.856655,87.958645,92.25246,7.618292,11.649576,17.613819,22.447941,3.343174,27.762497,46.80665,60.370674,2.574555,38.965943,61.927798,78.615366,6.330277,43.310086,67.293154,84.088904,15.46966,45.356507,62.076988,74.90264,-36.168976,-63.773655,-83.505347,-98.829844,-88.878326,-110.25341,-113.927719,-113.41633,-92.717346,-117.102706,-119.278758,-116.763173,-90.925805,-114.730786,-116.555761,-114.406581,-85.202965,-104.330962,-107.973022,-109.494333,51.012869,394.304091,-183.191128,-58.814893
74,-0.443573,2.407155,-11.764383,-11.550396,-35.335236,-68.734703,-96.505508,-118.444462,-75.442257,-107.290249,-124.732018,-137.795506,-66.498413,-103.576469,-124.169712,-140.089931,-56.173325,-91.0215,-110.770626,-125.414772,-45.20256,-72.480125,-87.813606,-100.900841,-11.550909,-4.940156,9.249594,16.75054,29.439015,47.625499,56.844774,63.308745,46.151517,65.727509,75.134876,81.968794,57.775353,77.016596,84.036444,88.360764,65.065298,81.848998,87.733936,91.60192,5.102634,8.685436,15.895786,22.028332,-1.886444,24.754372,46.217422,61.287689,-0.720348,39.48595,65.442753,83.903046,5.743561,46.531048,73.208084,91.720905,18.225975,51.148109,69.425926,83.422737,-37.889312,-65.96849,-85.320235,-100.562476,-92.235865,-111.957001,-116.134556,-116.295168,-96.33214,-119.803117,-123.123791,-121.704489,-94.504158,-117.982962,-121.019013,-120.190014,-88.593779,-107.56102,-112.390443,-115.26369,50.639277,396.893749,-194.88553,-70.182786
75,-1.629753,3.505386,2.960987,1.535578,-34.450836,-67.121029,-94.40752,-115.635567,-73.430672,-105.575638,-122.832298,-135.62788,-64.536152,-102.368088,-123.018036,-138.537025,-54.267597,-89.853745,-109.47876,-123.870564,-43.308334,-70.736961,-85.874348,-98.717308,-11.795996,-5.671775,9.23675,18.011669,28.426987,47.413078,56.647914,62.927745,45.317269,64.933028,74.0372,80.375695,56.879786,75.738239,82.621248,86.839543,64.206535,80.713902,86.178937,89.796091,5.65424,5.328484,9.359035,11.68539,-12.947903,7.679615,27.855263,43.861313,-11.646423,20.507069,46.587353,67.329483,-4.193001,29.989471,56.930695,77.817535,9.959564,37.506695,54.814739,70.148106,-31.19603,-57.800084,-76.726338,-92.71264,-84.150065,-105.751671,-110.345269,-111.196838,-88.418362,-113.254393,-119.380852,-120.320832,-87.704944,-112.686011,-118.127921,-119.405691,-83.678693,-104.125644,-110.395611,-113.935901,49.167309,400.416425,-191.766758,-68.629917
76,0.58651,3.814014,-1.919632,-2.939628,-34.208221,-66.682606,-93.882408,-115.296993,-72.73138,-105.602188,-122.751045,-135.101051,-62.719746,-101.035767,-121.514397,-136.280937,-51.622124,-87.485733,-107.175579,-120.931664,-40.84053,-68.850117,-84.278011,-96.39782,-12.976046,-6.514915,9.039952,18.21174,28.90296,48.645431,57.749479,63.84159,46.306263,65.882811,74.734362,80.684262,57.768807,76.356978,82.776613,86.203019,64.440816,81.007525,86.634346,89.606826,7.915993,8.637886,11.498795,13.878136,-8.639145,15.097046,37.570381,56.287994,-8.84531,24.793739,51.841793,74.324341,-2.355366,31.819096,57.229042,77.903023,10.187073,38.895206,55.946159,70.924702,-31.06586,-58.504502,-77.718173,-92.698391,-82.881125,-103.451963,-109.756,-112.968133,-85.728668,-109.519589,-116.560479,-119.543796,-84.599546,-109.1171,-113.084718,-112.832082,-81.380065,-101.775979,-107.521299,-110.203521,50.168695,404.165385,-193.271513,-71.6346
77,0.94883,1.618725,1.699677,-3.809908,-34.942703,-67.798805,-94.787521,-116.010761,-72.286549,-104.528732,-121.69138,-134.647579,-62.27932,-99.336662,-119.673786,-135.254402,-51.329842,-86.38607,-106.014004,-120.408669,-40.56427,-67.920513,-83.13406,-95.66637,-12.150629,-5.60033,10.493124,20.08673,30.279006,49.600401,58.530313,64.322872,47.634947,66.27894,74.886762,80.510805,58.932185,77.074332,84.05287,87.871022,65.508604,81.66035,87.185345,90.18802,7.174015,6.979694,9.247913,10.923958,-8.597374,15.060196,37.337036,56.023464,-8.395386,25.80162,51.886311,73.734856,-1.722736,32.760658,57.215767,77.270508,10.644665,39.440975,55.602436,70.053005,-30.639474,-57.831854,-77.391019,-92.37576,-80.79532,-100.752914,-106.976414,-110.200434,-83.286455,-105.745805,-112.838226,-115.95568,-81.955703,-105.334748,-109.312061,-109.48365,-78.490949,-97.767621,-103.505392,-106.751565,51.643467,405.870638,-191.045895,-75.35798
78,0.115585,1.845843,1.730118,-2.84762,-34.170799,-66.983299,-93.491821,-114.31881,-72.171249,-105.559845,-122.534866,-135.142937,-61.900692,-100.098152,-120.373077,-135.577755,-50.388107,-86.825123,-106.707687,-121.16518,-38.914948,-67.135563,-82.55373,-95.460777,-13.389712,-6.450386,10.164488,19.913088,29.145392,49.099852,58.142891,64.387896,46.269645,64.481386,73.185477,79.354713,57.553236,74.973336,82.08507,86.372401,64.302618,80.558538,86.127252,89.663018,4.364834,3.808937,5.538311,6.957378,-8.728924,18.070621,40.670586,59.080181,-7.747421,27.816639,53.736706,75.095787,-0.928802,33.645115,58.412762,78.571873,10.713558,38.492775,54.537678,68.907108,-30.409701,-55.52526,-74.484736,-88.194223,-79.196355,-97.734137,-102.797053,-104.901507,-80.224777,-101.991797,-108.03179,-109.730405,-77.770939,-101.008005,-104.983682,-104.586688,-73.924043,-93.207739,-99.193361,-101.890187,52.804899,407.722209,-188.26993,-78.199873
79,0.619812,0.71791,1.314011,-2.470665,-33.888702,-66.83836,-93.41526,-114.017429,-72.543697,-106.40728,-123.352146,-135.921993,-62.114582,-100.247612,-120.312481,-135.288105,-50.210953,-86.7449,-106.343708,-120.272369,-38.471146,-66.605186,-81.623898,-93.699589,-13.918852,-6.587163,10.175418,19.610325,29.026028,48.638021,57.26301,63.138561,46.137438,63.854002,72.500541,78.625503,57.250845,74.488225,81.430762,85.479305,63.685608,79.84742,85.185805,88.473459,2.274284,0.900764,1.749172,1.897087,-8.441906,18.238621,40.475121,58.402176,-6.653309,28.313313,52.981853,72.87941,0.888805,34.724979,58.508091,77.431011,13.093185,40.115891,55.236053,68.696136,-27.361237,-52.116885,-71.237714,-84.419451,-74.828377,-94.55345,-99.852192,-101.663408,-76.185574,-97.965639,-103.785091,-105.22792,-74.278583,-97.347255,-101.086351,-100.854756,-70.940911,-89.583252,-95.265062,-97.965917,54.259472,408.575028,-186.121159,-80.535628
80,1.055489,0.755578,0.978355,0.064375,-34.065285,-67.053566,-93.647289,-114.435081,-72.473316,-106.757183,-123.711433,-136.035519,-61.966324,-100.488224,-120.496731,-135.268135,-50.296326,-87.133484,-106.690865,-120.48111,-39.016113,-67.413826,-82.443752,-94.147568,-15.038016,-7.794014,9.133503,18.881856,28.960264,48.354216,56.595364,62.040701,46.463974,63.574087,71.564652,77.086003,57.462402,74.030716,80.59003,84.209346,63.416623,78.937836,83.965061,86.952484,1.398182,0.745697,3.724537,4.832153,-11.104603,16.585064,38.035469,55.513744,-9.142914,27.512169,51.826229,71.912384,-1.283398,33.405819,56.997128,76.538258,10.924759,37.583542,51.788177,64.764462,-26.488673,-50.988118,-69.578604,-83.700954,-74.381829,-91.489503,-95.661052,-96.908997,-73.943185,-93.945101,-100.039928,-102.526154,-70.378921,-92.859436,-98.860449,-100.926494,-65.441049,-84.517449,-91.825163,-96.790375,55.867167,409.640732,-184.590597,-80.161128
81,0.806351,0.004631,-0.287075,1.028083,-34.321518,-67.16217,-93.73455,-114.32642,-73.014221,-106.723938,-123.350201,-135.810814,-62.57452,-100.397015,-120.005608,-134.777527,-50.926666,-87.211704,-106.522751,-120.461483,-39.573898,-67.810879,-82.879944,-94.832554,-14.791323,-7.881699,8.907929,18.827083,29.080863,48.20089,56.457043,62.124125,46.499974,63.329,71.301657,76.936691,57.540207,73.92889,80.493206,84.271219,63.653004,78.917953,83.948635,87.175588,-0.444088,-2.275314,-2.762775,-5.193844,-7.38121,21.384258,42.738991,59.694843,-5.054569,27.411804,49.358425,67.366333,1.359329,31.427422,52.704735,69.978218,11.380634,34.614716,47.704926,59.51643,-25.40483,-51.255744,-72.02744,-86.392886,-70.11395,-88.499471,-94.276191,-96.548406,-69.550354,-90.936327,-96.967583,-99.133525,-66.720703,-89.528866,-94.640271,-95.542059,-62.646966,-80.934906,-87.363773,-91.028073,57.168446,409.876047,-184.382744,-78.902361
82,0.045204,-0.429536,-1.49437,5.045348,-34.370728,-66.931,-93.352947,-114.368134,-72.156143,-106.098118,-122.757797,-135.178528,-61.805134,-99.939137,-119.855118,-135.037193,-50.144234,-86.527863,-105.972233,-120.100536,-38.716278,-66.941128,-82.074451,-94.140472,-14.41798,-7.313534,9.680612,19.640583,29.220851,48.220403,56.314461,61.807346,46.732712,63.447128,71.302521,76.970407,57.800115,74.07672,80.594168,84.42294,63.871168,79.202437,84.194772,87.257408,0.291252,0.469952,0.868893,-1.92461,-7.196674,24.406929,45.507832,62.328758,-5.458832,27.470512,48.935852,67.347679,0.94408,30.598812,50.904808,67.871132,11.191292,31.912594,43.126888,53.423882,-26.200978,-53.74549,-75.358752,-91.011725,-69.962723,-87.753356,-93.934711,-97.083967,-66.8656,-89.260205,-95.972166,-99.098883,-61.229146,-85.543093,-92.410819,-94.565538,-54.552228,-73.57577,-82.447498,-88.87337,57.841845,409.511751,-185.248919,-73.791773
83,-0.184708,-0.71754,-0.967598,6.029403,-34.225388,-66.98204,-93.363018,-114.450417,-71.55098,-105.272484,-122.037334,-134.577541,-61.14521,-99.255695,-119.455204,-134.962692,-49.510574,-85.710526,-105.280495,-119.787083,-38.062134,-65.956306,-81.177177,-93.56884,-13.908292,-6.343064,10.834666,20.903688,30.087209,48.975734,57.183784,62.633258,47.62587,64.337137,72.090951,77.48911,58.613182,75.235776,81.796263,85.464855,64.581051,80.157345,85.059155,88.003476,0.555496,0.737743,2.847176,1.560631,-11.13184,19.979897,41.556873,59.145813,-8.572025,25.15337,47.247791,66.608734,-0.936184,29.138088,50.198994,68.672276,10.705776,31.64669,43.204708,54.626884,-26.226728,-54.251041,-75.74852,-92.020155,-70.255852,-87.490515,-93.41451,-95.901292,-65.953793,-88.100887,-95.082976,-98.170558,-59.283607,-84.098071,-92.51845,-96.172083,-51.719737,-72.705769,-82.321882,-89.90227,58.567486,408.949081,-185.306168,-67.6075
84,-0.387611,0.190747,-3.896542,4.736257,-33.968697,-66.735821,-93.205433,-114.31612,-70.677738,-104.645805,-121.92461,-135.009327,-60.424404,-99.053135,-119.689236,-135.417538,-49.063568,-85.699368,-105.75016,-120.709019,-37.901344,-66.116009,-81.726208,-94.692307,-13.729278,-6.188256,10.94699,21.35249,29.881086,49.091763,57.51563,63.0468,47.392268,64.797301,72.642135,77.791255,58.370256,75.591829,82.325279,85.990907,64.49812,80.371249,85.581131,88.927756,-1.542606,-1.166725,0.193291,-1.692924,-9.17942,22.51997,43.155727,59.872341,-6.252251,26.780033,48.21888,67.34539,1.280022,31.650696,51.48262,68.977718,12.678852,34.822998,46.642227,58.136158,-26.824688,-53.880723,-75.66948,-91.780687,-67.977262,-85.052825,-91.595343,-95.219444,-63.919117,-85.400449,-93.133392,-97.568399,-57.590256,-81.081378,-89.774046,-94.73634,-50.31263,-69.124183,-78.703617,-86.802832,58.618555,409.499879,-188.764029,-62.511193
85,0.02243,0.453866,1.755981,3.898612,-33.933907,-66.619091,-93.098545,-114.659443,-70.088367,-104.764366,-122.331505,-135.653286,-59.563293,-99.0588,-119.834976,-135.508461,-48.132477,-85.635223,-105.818024,-120.623131,-37.315979,-66.21912,-81.987991,-94.818764,-13.967881,-6.458846,10.688749,20.835515,29.807727,49.489559,57.614184,62.855744,47.536023,65.215351,72.440829,76.952869,58.512467,75.83846,82.328119,85.566928,64.420376,80.384896,85.457568,88.51267,-1.209412,-1.197968,1.102924,-2.508717,-15.625076,15.170574,36.248817,54.020519,-13.080711,21.808491,43.626766,64.112434,-5.100689,26.694546,47.701149,67.289543,7.092819,29.316502,40.580463,52.099056,-26.731136,-54.553093,-76.758294,-93.761517,-67.68651,-82.149105,-90.022313,-94.566835,-62.095041,-80.766173,-90.834269,-97.666783,-54.802132,-76.826682,-86.921702,-93.542982,-46.983789,-66.324358,-75.886532,-84.19996,59.806252,410.522543,-185.842781,-58.043782
86,-1.364594,-0.066011,-1.115799,30.302841,-34.162903,-66.911945,-93.215675,-114.658928,-69.850101,-104.741535,-122.20871,-135.222015,-58.661041,-98.448887,-118.968716,-134.178429,-47.051239,-84.817371,-104.678936,-119.047909,-36.366463,-65.166664,-80.90744,-93.459148,-14.215007,-6.320834,10.744819,20.587217,30.105364,50.000544,58.501538,63.986024,48.191874,65.661807,72.823187,77.091808,59.372589,76.375688,82.79205,85.786081,65.177189,81.256873,86.387838,89.356983,7.147179,7.670517,10.213909,11.610317,-13.511353,13.451843,34.957237,50.617504,-12.7248,28.505459,54.347591,73.49287,-5.096626,34.481277,60.868263,80.245285,8.609734,37.231236,53.862591,67.478142,-38.906187,-70.610855,-94.941814,-114.244159,-88.418439,-113.370669,-122.011003,-123.652174,-86.552311,-118.318359,-123.762985,-122.920092,-80.951579,-112.428018,-118.932096,-120.339388,-73.762998,-97.570807,-107.173861,-114.640751,59.900436,411.589436,-185.499802,-26.608036
87,-0.731163,0.793308,10.239658,5.378801,-34.496155,-66.947765,-92.92511,-113.58181,-70.581379,-105.247707,-122.309189,-134.986324,-59.64283,-99.299412,-119.599457,-134.781933,-47.867661,-85.518436,-105.353909,-120.031128,-36.932602,-65.855484,-81.805687,-94.832268,-14.805155,-7.513358,8.702177,18.658196,28.606928,48.706378,57.101223,62.410524,46.682138,64.369679,71.546868,75.706067,58.300355,75.036692,81.415386,84.464622,64.762782,80.602751,85.774472,88.646792,15.449352,13.976555,12.843189,11.358318,-15.2215,12.557316,35.940742,54.020462,-15.214806,18.9184,45.175495,65.844841,-9.239788,23.169823,49.541016,70.065479,1.5382,25.452633,42.085934,57.097607,-35.916139,-66.676088,-90.036423,-110.013639,-84.899221,-108.010023,-114.371581,-115.416831,-80.505432,-109.988074,-118.142061,-120.919811,-73.81706,-104.669326,-114.128748,-117.334273,-66.99296,-92.26444,-103.172743,-111.344885,60.563793,413.234035,-173.865623,-20.377945
88,-1.221313,-0.204085,15.111866,5.357373,-33.939857,-66.707153,-92.77359,-114.031563,-70.983124,-104.639568,-122.027264,-135.285645,-60.403805,-99.102745,-119.78159,-135.387726,-48.695984,-85.843277,-105.879021,-120.592918,-37.54303,-66.143646,-81.883965,-94.994888,-13.752126,-6.149044,10.515292,20.220975,29.061164,49.246324,57.792581,63.158815,46.743827,64.727893,72.359689,76.786946,58.176607,75.350014,81.9415,85.072863,64.66886,80.935339,86.414638,89.725263,20.204201,19.606075,18.877144,18.370399,-16.591129,7.91851,28.324184,46.230183,-21.133919,10.783424,33.759785,53.263435,-18.02702,13.453045,35.988235,54.336834,-9.594097,12.04977,26.267052,38.800278,-28.432668,-57.373882,-77.831732,-90.213029,-79.117345,-102.063736,-112.231899,-117.027189,-75.821231,-104.043547,-115.274743,-120.476289,-70.664609,-100.573575,-114.278122,-122.062811,-65.143505,-88.608568,-99.798916,-108.402817,59.367857,415.587065,-158.72838,-12.463456
89,-0.844231,0.369329,14.986095,5.310381,-33.816605,-66.836243,-93.226318,-114.733429,-70.568676,-104.740562,-122.173119,-135.596237,-59.942493,-99.256268,-120.003262,-135.72567,-48.237648,-86.059513,-106.19751,-120.974522,-37.170868,-66.561871,-82.566147,-95.718498,-14.28145,-6.84738,10.183631,20.426604,29.146565,48.944303,57.318214,62.7307,47.320514,64.661573,72.255639,76.846659,58.922861,75.488582,82.053145,85.273737,65.382201,81.116947,86.39673,89.570578,21.307011,26.211319,24.734802,25.716476,3.480721,7.155018,17.722206,30.521336,-8.143787,4.779053,22.051735,38.972511,-17.365723,-2.182045,18.031254,35.401554,-24.45734,-13.827724,2.367725,17.18605,-25.357591,-54.025065,-75.318398,-91.913481,-73.753519,-98.609017,-111.267295,-120.604143,-70.570872,-96.241321,-103.471584,-104.113016,-64.172263,-89.483788,-92.772337,-90.865114,-55.379838,-76.460225,-82.733819,-84.933493,58.364267,417.641934,-143.901644,-5.467536
90,-0.89241,0.179323,15.4529,4.876523,-34.385376,-67.53891,-93.94083,-115.1124,-71.210518,-105.089436,-122.189884,-135.449982,-60.626907,-99.262905,-119.758186,-135.346584,-48.999939,-86.00235,-105.94923,-120.946541,-37.877083,-66.553745,-82.447643,-95.775375,-14.417795,-6.782665,9.920512,19.96891,28.825648,48.96678,57.645059,63.206981,46.855348,64.628599,72.070264,76.377541,58.35593,75.657963,82.242163,85.333203,64.683927,80.932066,86.375303,89.595958,19.837246,27.400646,29.321136,27.611561,2.704582,-0.245361,2.054329,4.610939,-7.635956,1.245232,19.3606,29.405479,-17.910862,-7.41497,11.954212,23.624783,-27.289009,-19.376163,-3.286629,9.397259,-19.855289,-46.528812,-67.881333,-87.14002,-67.156877,-98.86454,-119.871752,-137.528511,-63.593662,-94.220847,-87.82971,-74.975899,-57.697362,-83.766472,-76.976118,-66.098505,-49.108899,-71.221042,-73.871215,-70.386423,57.43701,417.462487,-128.483591,-0.949783
91,-1.174507,0.332958,9.770679,9.654584,-34.071579,-67.213726,-93.81712,-115.0914,-70.866222,-105.116673,-122.491207,-135.707531,-60.2845,-99.589806,-120.299091,-135.900936,-48.594189,-86.295776,-106.413803,-121.249123,-37.412796,-66.672821,-82.68322,-95.896683,-14.651767,-7.419744,9.633311,20.065673,28.410562,48.720334,57.489263,63.032227,46.739381,64.463231,72.240016,77.01814,58.366922,75.332045,81.905252,85.173825,64.777788,80.57027,85.733346,88.857484,22.694263,29.903984,29.643517,30.527287,7.827015,5.41563,4.289703,3.188953,-2.744637,10.666294,30.243816,42.773609,-12.808514,3.373318,23.886337,36.239948,-22.819405,-9.884205,8.155289,20.942516,-21.399667,-46.893201,-66.295736,-83.717812,-70.257581,-102.245437,-122.707239,-139.553924,-65.435522,-89.082132,-76.398443,-59.497448,-56.960896,-76.444108,-63.867031,-49.797045,-46.062226,-61.835288,-58.042392,-51.593087,56.223307,415.1893,-118.752108,6.098656
92,-0.999413,-0.080152,11.556187,11.771388,-34.281235,-67.243938,-93.792343,-115.104218,-71.310482,-105.417023,-122.627678,-135.910435,-60.777969,-99.803581,-120.376225,-136.052971,-49.143906,-86.474476,-106.441784,-121.310806,-37.958908,-66.879616,-82.79068,-95.985775,-14.520609,-7.238939,9.632138,19.684426,28.884311,48.843958,57.327971,62.736813,47.107969,64.478977,71.903909,76.455717,58.663571,75.413926,81.866597,85.044582,65.011328,80.790349,86.074085,89.272694,22.188606,28.78355,29.58189,33.039093,13.961792,14.737587,15.539188,14.808254,2.551804,20.226116,36.486969,46.300106,-7.336178,12.143726,29.066048,38.236427,-17.289104,-1.490135,15.099735,26.484604,-22.24219,-43.368241,-58.68682,-67.732576,-71.605037,-103.978061,-122.213174,-137.32035,-66.797613,-82.414415,-68.107246,-49.86636,-57.412384,-70.41347,-56.041154,-40.480359,-46.545454,-59.36944,-52.54111,-44.790291,55.923872,409.171691,-106.495943,11.932588
93,-0.374336,0.328759,13.591518,11.776668,-34.782372,-68.127766,-94.702778,-115.743084,-72.145672,-106.296043,-123.434143,-136.399441,-61.367111,-100.175171,-120.690937,-136.092281,-49.559326,-86.640015,-106.474342,-121.098862,-38.286209,-66.932888,-82.65564,-95.507183,-14.845602,-7.549544,9.240887,19.075196,28.35301,48.369962,56.852184,62.212737,46.82509,63.965214,71.306967,75.865692,58.558348,75.138334,81.485041,84.535573,64.928088,80.496849,85.598359,88.504828,20.112991,26.823349,29.176025,33.718243,13.4828,18.488903,23.971424,27.792091,2.773819,27.90905,43.488979,50.089588,-5.075397,18.988037,36.098614,44.622917,-12.190189,8.189278,26.626625,38.765373,-23.906394,-44.075993,-59.573031,-67.293901,-73.783777,-107.413051,-125.989582,-139.292689,-67.342437,-75.341616,-60.527661,-42.425034,-55.89391,-63.675666,-48.791131,-32.496432,-42.709148,-50.451075,-43.863911,-36.361113,56.041288,406.589783,-92.412672,20.798589
94,-1.224174,-0.531609,14.792576,14.097125,-34.389725,-67.493763,-94.024315,-115.165043,-71.809845,-105.92205,-123.078918,-136.020012,-61.011944,-99.961739,-120.527401,-136.006622,-49.050064,-86.390648,-106.282253,-120.857162,-37.591667,-66.471004,-82.12738,-94.98127,-14.304174,-6.824532,10.166711,20.002008,28.81867,48.743552,57.435293,62.80585,47.017319,64.419141,72.3495,77.172454,58.4727,75.300922,81.796633,85.036925,64.668366,80.579471,85.751933,88.974872,24.125633,31.172218,31.555252,32.294998,11.556587,20.973015,26.711082,29.759045,-0.796509,28.797741,43.995495,49.919643,-7.733459,21.867828,38.463478,45.576496,-12.388973,11.808758,30.602875,42.566128,-22.398912,-45.372443,-62.26541,-70.94017,-76.882134,-108.053495,-125.020285,-136.618124,-71.503951,-75.351805,-60.737149,-43.645932,-60.1265,-63.998652,-48.940289,-33.373257,-46.968228,-51.702632,-44.410557,-37.149171,54.842033,404.54038,-77.595177,33.377919
95,0.815163,0.696915,5.793571,12.957212,-35.22892,-68.434753,-95.089931,-115.786057,-72.297535,-107.154865,-124.398479,-136.914024,-61.173878,-100.555172,-121.004906,-136.052399,-49.118958,-86.602306,-106.334667,-120.380745,-37.930183,-66.953259,-82.568321,-94.783802,-15.166086,-8.149572,8.818082,19.117495,28.14028,48.219229,56.569614,61.716696,46.721535,63.865055,71.441028,76.101022,58.293933,74.850824,81.323934,84.336366,64.379065,79.882432,84.870322,87.608521,29.097691,42.010231,45.034618,46.670208,18.811512,24.168549,28.223248,31.372833,5.171528,32.273483,47.890034,54.343815,-5.071793,21.459446,36.8997,43.617039,-13.467178,7.025471,25.823135,38.159008,-18.719051,-40.642763,-58.420892,-68.743831,-76.305756,-107.684876,-126.731019,-142.405898,-73.049471,-79.61669,-64.29314,-47.394213,-63.006045,-69.72168,-54.63343,-40.464582,-49.624761,-57.01854,-50.262705,-44.030823,55.536947,404.648011,-71.921854,45.745848
96,-0.002518,-0.202109,0.62542,6.397374,-34.853783,-67.871017,-94.32827,-115.033264,-72.348862,-107.119446,-124.308186,-136.723194,-61.400814,-100.598087,-120.99987,-135.861511,-49.315681,-86.748905,-106.524124,-120.571632,-37.991066,-66.935806,-82.557278,-94.920559,-14.898522,-8.066209,8.975299,19.354679,27.618675,47.93314,56.386462,61.744546,46.099276,63.580015,71.391072,76.355002,57.891196,74.407517,80.955037,84.161427,64.380177,80.004513,84.965232,87.63001,27.815266,42.008514,47.24802,48.780499,15.957355,19.404659,22.035141,23.867054,1.944866,28.762321,43.495502,49.425316,-8.390293,16.521549,32.211113,40.902157,-16.586151,2.357998,20.899487,34.2449,-17.891657,-42.323887,-59.211235,-71.266675,-76.411534,-109.569468,-132.578937,-151.587042,-73.66503,-85.599965,-73.830769,-57.220186,-65.709447,-75.850131,-63.284292,-48.378206,-53.246485,-63.833439,-59.348074,-51.293011,55.519695,404.077483,-71.311169,51.774803
97,0.925369,0.202912,-10.047112,-0.268676,-34.469376,-67.609749,-94.18539,-115.067539,-73.080139,-107.161388,-124.072437,-136.82436,-62.493496,-100.721169,-120.692081,-135.710964,-50.685711,-87.457352,-106.825562,-120.638638,-39.426842,-68.039761,-83.160839,-95.187664,-15.261367,-7.98334,8.957515,18.694937,27.893093,47.669342,56.197568,61.992103,45.838628,62.657464,70.638087,76.220386,57.361625,73.532452,80.289553,84.156611,63.700737,79.092027,84.130614,87.344105,26.035652,41.583939,50.696354,54.968777,17.153378,18.456974,18.848248,19.83284,4.554462,29.412003,43.230286,49.112263,-4.916553,16.814861,31.294956,39.137993,-13.279152,3.150845,20.64045,32.587223,-18.83616,-43.263358,-60.154534,-73.577438,-77.639843,-111.581667,-134.873428,-154.940151,-73.963532,-86.45598,-72.950733,-56.830232,-65.86018,-77.800857,-66.069205,-50.377128,-53.859111,-66.740772,-62.397649,-52.830472,56.876049,404.159395,-80.927296,51.385127
98,0.312881,-0.717169,-7.636757,-2.583483,-34.376106,-67.444839,-93.985748,-115.02039,-72.290668,-106.159058,-123.03709,-135.801029,-61.911793,-99.982452,-119.92836,-135.037994,-50.326309,-87.047081,-106.583233,-120.582733,-39.138565,-67.556248,-82.598877,-94.765148,-14.699315,-7.559177,9.30801,19.08026,28.195609,47.936042,56.267902,61.754982,46.098226,62.926202,70.653525,75.827962,57.573614,73.968596,80.614298,84.344332,63.928473,79.471607,84.632645,87.946048,25.028343,41.18248,50.11385,54.776001,16.2113,13.635235,12.661171,12.106304,3.094254,25.529251,40.2911,45.627251,-7.196388,13.604679,28.613605,35.196648,-16.885815,-2.492809,14.494801,25.646152,-20.112788,-45.622748,-63.54809,-75.796315,-77.845379,-113.721473,-136.384152,-155.499857,-72.972716,-87.750392,-73.873345,-59.207376,-64.82163,-77.10351,-64.322656,-49.285875,-53.272482,-67.5916,-62.940065,-53.387708,57.276049,402.529786,-88.476934,47.889204
99,0.657005,0.265465,-3.77346,1.793973,-34.03141,-66.975117,-93.551102,-114.705505,-72.043133,-106.280136,-123.467503,-136.20409,-61.742477,-100.400906,-120.672169,-136.050568,-50.292263,-87.133942,-106.876717,-121.221657,-39.236526,-67.588921,-82.907524,-95.283966,-15.374432,-8.12938,8.879153,18.324311,28.292001,47.573382,55.732155,61.132599,46.478979,62.65098,70.041763,75.462955,57.850132,73.781307,80.288935,84.162354,63.779345,79.057385,84.487408,88.35076,23.656998,37.880001,42.289753,39.7019,14.100037,12.304974,11.234951,10.774841,1.027164,22.915306,38.139381,44.757271,-9.626026,10.432034,26.127949,34.11375,-20.076714,-5.340385,12.034092,23.820591,-21.552932,-48.569972,-67.828412,-80.382117,-79.52709,-114.70809,-137.576336,-157.509987,-74.524287,-89.751692,-75.973014,-61.448391,-66.910091,-79.212255,-65.950243,-51.282513,-55.568825,-69.518737,-64.665278,-55.619152,57.948875,402.435293,-92.234573,49.323219
100,0.397682,-0.263057,-0.330391,3.155755,-34.329529,-67.514706,-94.242554,-114.890385,-71.971207,-106.840782,-124.285412,-136.93325,-61.370544,-100.259113,-120.694942,-135.684471,-49.755707,-86.859226,-106.629353,-120.578098,-38.828659,-67.539139,-82.945805,-95.057888,-15.728324,-8.671116,8.116165,18.17432,27.72612,47.359478,56.007006,61.688353,46.203696,62.790474,70.620056,75.942694,57.863224,73.98428,80.621832,84.183163,63.975835,79.152357,84.062256,87.098956,23.814068,38.319054,43.114529,41.175957,10.234337,7.456799,5.052738,2.946339,-3.983116,18.772945,33.768368,39.931126,-15.087204,5.965405,21.779995,29.792004,-25.414009,-9.136105,8.777275,20.847073,-22.184175,-48.671428,-67.45087,-80.228019,-81.343169,-115.393458,-137.892838,-158.085902,-76.631304,-88.045034,-72.304576,-57.357241,-68.111229,-77.32047,-62.853645,-49.152031,-55.631872,-66.359,-61.050378,-53.285635,58.433046,402.200965,-92.478476,52.507703
101,0.303268,-0.579466,4.08886,4.394036,-34.367523,-67.323074,-94.017506,-114.571838,-71.839085,-106.613159,-123.804703,-136.29364,-61.350975,-100.035896,-120.218983,-135.097332,-49.857216,-86.74902,-106.296387,-120.129547,-39.05674,-67.665539,-83.139782,-95.34874,-15.50065,-8.505193,7.937892,17.789059,27.721551,47.199545,55.690165,61.314948,46.096003,62.662219,70.429679,75.896258,57.780046,73.824038,80.396258,84.043793,63.993372,79.142045,84.255164,87.48539,24.419174,36.347523,38.215599,36.524506,11.0919,8.275738,6.892948,4.573574,-2.427521,14.03183,29.943695,38.245754,-13.469353,2.725239,19.491978,29.058895,-23.933716,-9.700871,7.876797,19.671764,-21.343135,-48.692855,-67.990168,-81.048311,-80.094267,-113.406793,-135.81963,-156.496539,-74.801856,-90.395471,-76.609753,-61.834454,-66.070378,-78.742149,-65.252247,-51.535474,-54.00197,-66.529585,-60.922092,-52.689002,58.767357,401.342835,-88.358574,56.623075
102,0.448265,0.072804,2.801514,5.1657,-33.874054,-67.416115,-94.242382,-115.33596,-71.822662,-106.438751,-123.767338,-136.53574,-61.528473,-100.17477,-120.467033,-135.535698,-50.245171,-87.097549,-106.911392,-121.063786,-39.563484,-68.210335,-83.635483,-95.842781,-15.776675,-8.664324,8.012425,17.73478,27.584897,47.035598,55.378449,60.906037,45.77558,62.259668,69.792971,75.109681,57.204038,73.242411,79.872182,83.687616,63.266261,78.464581,83.717504,87.37708,27.747002,38.546333,40.863934,42.101097,15.491982,14.599571,13.962994,12.688694,2.596722,18.312664,36.516781,47.848606,-8.274364,7.486382,26.932411,39.030647,-17.997379,-3.838177,15.349903,29.175968,-20.485174,-46.078466,-64.468634,-77.95653,-79.999573,-112.724914,-134.907947,-154.978343,-74.484922,-93.870753,-81.556208,-65.342958,-65.184692,-80.248396,-68.049448,-54.010801,-52.651057,-64.781122,-58.75422,-50.168289,59.206238,401.481295,-85.566444,61.854431
103,-0.021744,-1.093662,5.522175,6.979649,-33.69278,-67.188263,-94.156208,-115.298309,-71.681156,-105.700321,-122.873325,-135.763664,-61.714439,-99.804611,-120.129662,-135.536385,-50.368652,-86.618843,-106.436462,-120.95541,-39.1222,-67.185116,-82.506008,-95.173645,-14.815035,-7.748874,9.001605,18.298685,28.546845,47.689967,55.996509,61.490505,46.278167,62.887793,70.829884,76.590456,57.432761,73.932472,80.81931,84.876868,63.385563,78.755487,84.0906,87.930364,31.03117,42.63319,44.572163,44.449825,19.108543,21.285954,22.663536,23.119068,5.866013,22.02713,38.884792,49.161644,-5.416946,10.325031,29.766655,42.296791,-14.706974,-0.57066,18.631611,33.451939,-19.943685,-43.781042,-62.145645,-76.178025,-79.377808,-112.430889,-134.852186,-153.535236,-75.483271,-93.106067,-81.674893,-64.591518,-66.846426,-80.737707,-68.973913,-54.382137,-54.655475,-66.36113,-61.338938,-52.777923,58.88546,400.438053,-80.343304,68.884499
104,-0.058022,0.19297,3.630295,2.635291,-33.648376,-67.079201,-93.920631,-114.912186,-71.02644,-105.941677,-123.408451,-136.37804,-60.535355,-100.137062,-120.581875,-135.634232,-49.048691,-86.894932,-106.879921,-121.152649,-38.164558,-67.538795,-83.113976,-95.606632,-15.444704,-8.20947,8.808202,18.937863,28.093844,48.026445,56.278646,61.688044,46.191408,63.34382,70.941652,76.150546,57.529586,74.129147,80.863153,84.842781,63.48177,78.98631,84.399413,88.394233,30.854187,41.454506,44.466419,46.802444,20.305195,23.373585,25.674248,27.207985,6.823483,27.820244,43.298435,51.616745,-3.706684,17.28281,33.979397,43.82246,-12.130737,6.886597,25.350494,38.054867,-23.183606,-45.820535,-62.464185,-75.580405,-80.101492,-112.924677,-135.295214,-153.666209,-76.250551,-90.787926,-78.897884,-61.740192,-67.804021,-79.750101,-66.945937,-51.583423,-55.978169,-66.311174,-59.682267,-49.560973,58.430128,400.643512,-77.110319,71.532279
105,0.970459,-0.500055,4.01825,5.464819,-34.512978,-67.525463,-94.150143,-114.83551,-72.062817,-106.064816,-123.033028,-135.828724,-61.604404,-99.721413,-119.804707,-135.123596,-50.111618,-86.489983,-106.141834,-120.396309,-39.109726,-67.01231,-82.201595,-94.549255,-14.541666,-7.480815,8.88749,17.956588,28.898205,48.186378,56.312362,61.598691,46.806442,63.389638,71.017049,76.353582,58.014512,74.303097,80.943305,84.669818,63.916987,79.404731,84.847227,88.553981,31.700706,42.936344,46.82951,50.173359,20.316639,23.241062,26.487808,29.416637,6.454639,33.67487,49.149685,55.727921,-3.596249,23.672047,39.824982,47.543907,-10.987244,10.842361,28.61887,40.152855,-21.828678,-45.051927,-62.967296,-77.020085,-80.157191,-113.251491,-136.277694,-155.549442,-77.07955,-87.553871,-74.075208,-57.304197,-68.866005,-76.955772,-62.780965,-47.966331,-56.821556,-64.514299,-57.534186,-48.290057,58.77986,399.950317,-73.712797,76.803958
106,0.93029,-0.311778,1.547184,1.487475,-33.801155,-66.387978,-92.648449,-113.479614,-70.92968,-105.34996,-122.681179,-135.710506,-60.733509,-99.51107,-120.054474,-135.697289,-49.456902,-86.446724,-106.361961,-120.753193,-38.692474,-67.324848,-82.856655,-95.392685,-14.405939,-7.152303,9.352717,18.167095,28.744261,48.011069,56.10346,61.404424,46.562342,63.511904,71.186431,76.479861,57.777576,74.267406,80.758053,84.437822,63.81868,79.336497,84.595533,88.175081,29.86021,41.686306,45.68779,48.43071,19.442825,21.837673,24.811192,27.723427,5.648232,33.701305,47.374821,52.293777,-4.471836,22.336063,36.858788,43.690395,-12.371464,8.014011,26.144772,38.711586,-22.284828,-44.628597,-61.222631,-74.300597,-79.769306,-113.908731,-137.012709,-156.557919,-76.015004,-87.24938,-73.578673,-57.427482,-67.891861,-77.481082,-64.270662,-49.86284,-55.576575,-65.622688,-61.051583,-53.574349,59.195423,399.46005,-72.68034,78.112944
107,1.216736,0.575699,-1.110535,1.143618,-33.940544,-66.858158,-93.415203,-114.102345,-71.311741,-105.777798,-123.067646,-136.083641,-61.084957,-100.002537,-120.49696,-136.150646,-49.810638,-86.771851,-106.735325,-121.424961,-38.98922,-67.72831,-83.230305,-95.807705,-14.811392,-7.861877,8.69452,17.842596,28.377958,47.543618,55.801069,61.185272,46.288726,62.853213,70.406955,75.828703,57.475554,73.70665,80.229779,84.049227,63.43274,78.678176,83.735535,87.318849,29.451714,42.202206,46.894226,47.186794,19.037304,21.088085,23.637028,26.104717,5.782642,32.925739,46.890163,51.690445,-4.192715,21.927338,36.075668,42.380505,-12.48024,7.344589,25.403881,37.711544,-22.784791,-45.024942,-61.79515,-74.919181,-80.39916,-114.412614,-137.658958,-157.2293,-76.879603,-88.410442,-74.199913,-57.370363,-69.056968,-78.284394,-64.511613,-49.809982,-57.089059,-67.768638,-62.75188,-54.758691,60.186653,400.052823,-74.01638,79.273635
108,0.945625,-0.886365,-0.94511,-0.281952,-33.665657,-66.129055,-92.341633,-113.095894,-70.727291,-105.056705,-122.416077,-135.560818,-60.790787,-99.390736,-120.099392,-136.037865,-49.68029,-86.512585,-106.578369,-121.329746,-38.893547,-67.130585,-82.503548,-95.238132,-14.050997,-6.704366,9.749773,18.30381,28.723019,47.64106,55.964831,61.347552,46.425627,63.10923,70.941714,76.405205,57.614246,74.024109,80.61399,84.544465,63.714507,79.197188,84.466721,88.272276,28.598671,41.47625,46.110191,45.984249,17.364292,19.307671,21.273594,23.131027,3.787994,30.682583,44.99176,50.646915,-5.973873,20.118771,34.50079,41.735401,-13.406124,6.611881,24.41431,37.043095,-23.847145,-46.273721,-62.691272,-75.48994,-80.984122,-114.991957,-138.118567,-157.702247,-77.518194,-88.572938,-75.907898,-60.531181,-69.55341,-78.361736,-65.708274,-51.551529,-57.311113,-68.09255,-63.455619,-55.307806,60.907888,399.158461,-75.185881,78.983686
109,1.298103,0.434785,-0.105057,-0.280192,-34.026031,-66.94519,-93.335552,-113.762569,-71.461601,-105.495586,-122.896442,-136.038723,-61.382046,-99.655666,-120.253773,-135.928173,-50.284538,-86.794796,-106.701164,-121.18475,-39.569664,-67.586117,-83.104591,-95.609894,-15.024307,-7.638464,8.772078,18.315049,28.585871,47.45408,55.342942,60.486628,46.460269,62.887484,70.253258,75.227131,57.623323,73.856889,80.207363,83.70151,63.63312,79.114504,84.455544,88.021137,28.246193,40.545673,45.143795,45.798397,16.108475,17.664185,19.222984,20.374489,2.189655,28.473587,43.590431,50.234928,-7.687683,17.548714,32.842484,40.969276,-15.366154,3.803043,21.86348,34.851837,-23.792989,-47.587893,-64.042371,-76.602374,-82.081334,-115.18258,-137.467223,-156.335031,-78.099729,-89.219928,-76.960928,-61.413934,-69.490641,-78.263059,-65.7226,-51.368377,-56.657269,-67.87349,-63.818989,-55.912929,62.03496,399.605642,-75.461969,78.71589
