YashyHoby/handMotion-similar-search/workspace/NewProject/handData/tgt/d4_feature_d2/14.csv
,vel_0x_L,vel_0y_L,vel_0x_R,vel_0y_R,posFromWrist_1x_L,posFromWrist_2x_L,posFromWrist_3x_L,posFromWrist_4x_L,posFromWrist_5x_L,posFromWrist_6x_L,posFromWrist_7x_L,posFromWrist_8x_L,posFromWrist_9x_L,posFromWrist_10x_L,posFromWrist_11x_L,posFromWrist_12x_L,posFromWrist_13x_L,posFromWrist_14x_L,posFromWrist_15x_L,posFromWrist_16x_L,posFromWrist_17x_L,posFromWrist_18x_L,posFromWrist_19x_L,posFromWrist_20x_L,posFromWrist_1y_L,posFromWrist_2y_L,posFromWrist_3y_L,posFromWrist_4y_L,posFromWrist_5y_L,posFromWrist_6y_L,posFromWrist_7y_L,posFromWrist_8y_L,posFromWrist_9y_L,posFromWrist_10y_L,posFromWrist_11y_L,posFromWrist_12y_L,posFromWrist_13y_L,posFromWrist_14y_L,posFromWrist_15y_L,posFromWrist_16y_L,posFromWrist_17y_L,posFromWrist_18y_L,posFromWrist_19y_L,posFromWrist_20y_L,posFromWrist_1x_R,posFromWrist_2x_R,posFromWrist_3x_R,posFromWrist_4x_R,posFromWrist_5x_R,posFromWrist_6x_R,posFromWrist_7x_R,posFromWrist_8x_R,posFromWrist_9x_R,posFromWrist_10x_R,posFromWrist_11x_R,posFromWrist_12x_R,posFromWrist_13x_R,posFromWrist_14x_R,posFromWrist_15x_R,posFromWrist_16x_R,posFromWrist_17x_R,posFromWrist_18x_R,posFromWrist_19x_R,posFromWrist_20x_R,posFromWrist_1y_R,posFromWrist_2y_R,posFromWrist_3y_R,posFromWrist_4y_R,posFromWrist_5y_R,posFromWrist_6y_R,posFromWrist_7y_R,posFromWrist_8y_R,posFromWrist_9y_R,posFromWrist_10y_R,posFromWrist_11y_R,posFromWrist_12y_R,posFromWrist_13y_R,posFromWrist_14y_R,posFromWrist_15y_R,posFromWrist_16y_R,posFromWrist_17y_R,posFromWrist_18y_R,posFromWrist_19y_R,posFromWrist_20y_R,posFromBody_0x_L,posFromBody_0y_L,posFromBody_0x_R,posFromBody_0y_R
2,-20.992699,6.921789,-4.880505,-2.533496,27.629986,49.091263,67.685051,82.018433,51.223068,81.848602,93.420296,101.701584,36.106567,64.503479,78.571587,86.130981,17.673683,33.714123,41.157761,44.829826,-1.310291,-6.97998,-13.871269,-19.753189,-11.992795,-10.978482,-6.522449,-4.871552,27.34759,40.624238,49.717171,57.863224,46.04296,67.467327,77.277368,82.563635,55.618967,80.783124,96.817359,107.901558,56.658288,82.410247,97.414301,111.15457,28.674145,56.053333,76.444302,91.25124,68.337765,100.036869,108.098202,108.374805,55.988789,90.911121,99.878712,100.881672,40.643291,73.140736,84.863834,88.927174,24.233665,50.835171,62.695827,68.200779,-17.055464,-18.326164,-14.790767,-13.819248,8.911819,37.771554,50.980029,56.094321,27.947742,58.371923,69.09587,70.539657,44.503954,72.174684,81.458179,82.555052,56.988961,81.467998,89.030941,89.102942,-50.342531,350.369507,-62.414618,355.117187
3,15.220013,4.414784,0.956097,-1.504549,-23.776531,-25.963783,-23.881702,-26.317577,-10.850544,-7.4786,-15.938644,-22.656841,6.88448,21.808033,19.981842,18.848362,24.346104,44.715214,41.093731,36.785946,38.020306,58.550549,61.764622,62.590542,28.889374,61.440425,88.430357,102.589417,53.17822,81.423352,94.574337,104.140032,42.26087,71.575458,87.941787,97.537308,31.023901,59.071494,73.038634,81.577543,21.157173,42.766051,56.971054,66.337665,28.372135,54.65538,74.470024,89.68174,66.536636,97.730942,107.99366,110.388222,55.106277,88.040428,98.864822,101.266594,40.383167,70.730209,83.650932,89.166756,24.572811,48.188725,59.496689,64.92588,-15.750986,-16.289388,-12.732256,-11.782102,11.098587,36.302944,49.368528,55.992186,29.835761,56.846812,68.348135,71.773368,45.716918,72.177093,81.595389,84.09449,57.001497,81.712653,88.705887,89.305792,-36.786547,357.378117,-63.122549,356.206464
4,-11.891441,-1.186225,0.863113,0.551555,25.310898,45.302868,61.948757,76.254215,46.611729,75.682926,87.347202,97.106037,31.297932,59.204006,71.290913,77.058735,13.247452,31.922436,39.954014,42.692585,-4.168224,-7.329483,-12.991219,-17.928371,-11.310267,-7.571218,-4.318577,-5.249464,26.578798,39.97382,48.558424,55.750618,42.204369,64.938771,75.39219,80.822829,49.546555,76.56341,91.188439,100.281743,50.251065,76.557049,91.211595,104.772912,28.849583,54.710312,74.210014,88.584137,65.749626,95.50415,106.53717,110.18177,54.159508,85.299454,96.177292,98.722229,39.368763,67.68425,80.205917,85.569077,23.314304,45.771847,56.466408,61.976852,-16.717689,-18.474797,-14.790891,-13.004699,11.631555,35.13407,48.467898,56.00892,30.589919,56.285809,67.745389,72.228284,45.956694,71.499258,81.228221,84.824812,56.675084,80.612199,88.128891,89.877416,-49.519186,357.577462,-63.100634,358.14359
5,12.697048,-2.239873,1.598854,0.972939,-16.742992,-15.983047,-14.213219,-19.04829,1.086388,19.650764,20.264397,19.997635,11.900368,34.750099,35.34977,34.021797,22.089157,43.71666,37.664108,31.00399,29.450111,47.635803,49.63623,48.663025,35.402067,70.110862,98.212487,115.469442,54.565999,80.334384,88.72503,95.771246,43.372007,70.887373,84.143211,95.069823,32.752604,60.454024,74.011142,84.683342,24.019737,46.149788,60.096365,70.325445,28.382664,53.562698,72.802391,86.977844,63.972702,93.085442,103.881226,107.389641,52.58194,83.355904,93.930588,96.380196,37.980995,65.94223,77.999611,83.300171,22.017117,44.151134,54.430389,60.063972,-16.605427,-18.879941,-15.877575,-14.746184,11.298535,34.90652,48.391698,55.903389,29.614263,55.045305,67.211371,72.266322,44.632086,69.702877,79.758499,83.811302,55.47904,78.557392,86.039751,88.146799,-37.397261,356.395343,-62.076902,360.174283
6,0.30899,0.851168,1.168785,0.981338,-13.722553,-13.188343,-12.829456,-19.366436,1.465302,22.115707,20.654182,18.243427,11.596985,38.682289,38.273964,35.370827,21.758137,48.241196,43.385468,36.540642,29.390144,50.433769,52.930298,52.256126,38.099263,72.994174,100.291252,116.906436,53.867725,77.325348,85.448368,91.805634,41.205432,66.83704,79.192186,89.682223,29.411412,55.479411,68.005543,77.623664,19.826575,41.400749,55.76513,65.28235,27.885246,52.594757,71.446152,85.727348,62.685928,91.978683,102.975197,106.649208,50.949783,82.054138,92.746925,95.009766,36.081848,64.456444,76.826019,82.167892,20.258617,42.124214,52.659874,58.65097,-17.020266,-19.368634,-16.88071,-15.883811,10.131267,33.778278,47.496873,55.04407,28.383886,54.267868,66.296786,70.934489,43.499954,68.89796,78.464828,81.950022,54.323196,77.707953,85.362658,87.544238,-37.703962,357.634767,-61.523809,361.543877
7,1.718845,1.54728,1.989326,0.268985,-12.879009,-13.277206,-13.251972,-20.004158,-0.676289,19.831867,17.810383,14.859352,9.680214,36.555119,35.916653,32.263355,20.379581,46.399441,41.355114,34.058247,28.636951,49.684353,52.310886,51.831493,37.807245,72.592735,99.076066,115.190948,52.178357,75.174087,83.597708,89.808996,39.107524,64.572591,77.26088,87.942405,27.126524,53.094239,65.978463,75.658087,17.448567,39.458452,53.458381,61.988089,26.713943,50.760956,69.313431,83.659401,61.560745,90.723267,101.295433,104.592133,49.797249,80.477486,90.963135,93.286057,34.734364,62.595634,74.856949,80.42347,18.712635,39.934273,50.270004,56.241646,-17.069111,-19.560925,-17.668707,-17.446838,10.335228,34.326313,47.984763,55.219565,28.329978,54.448673,66.46839,70.89571,43.21689,68.919758,78.637853,82.082106,53.800417,77.429027,85.392298,87.657859,-36.440763,359.365523,-59.990129,361.996337
8,-13.114929,-0.417186,0.799541,0.434229,25.455265,45.372677,62.569485,78.389912,48.689404,77.672138,88.088093,95.671749,32.704754,62.077618,74.318447,79.456272,13.786011,30.337486,36.392841,36.443195,-5.169868,-7.991238,-13.095875,-19.990482,-12.245415,-9.960588,-5.966572,-7.005399,23.658188,37.767293,47.324342,53.852287,41.751306,64.818852,74.364663,78.22147,52.029106,79.400594,96.273215,106.653336,54.048345,81.182773,96.387453,108.791258,26.133442,49.823856,68.258801,82.80756,60.535412,90.068951,100.790234,104.134083,48.820896,79.880047,90.6954,93.035488,33.765678,62.227535,74.798183,80.397549,17.81147,39.446182,50.204372,56.457424,-17.196563,-19.876284,-18.116459,-17.951339,9.872656,34.320755,47.936166,54.870552,27.586688,54.609965,66.81691,70.986421,42.407651,68.752476,78.506016,81.768352,52.994698,77.01567,85.122819,87.371893,-49.75173,359.140597,-59.386625,362.622826
9,10.874462,-0.638129,0.227509,0.37569,-11.62508,-11.283588,-11.54068,-17.499104,3.810482,25.738564,26.705246,25.856667,12.480583,37.864037,37.321587,33.80127,21.110859,44.232445,38.171768,30.666847,26.943054,46.553764,48.697815,47.8022,37.038576,71.851421,98.461402,115.077944,52.214666,75.525138,83.293402,88.997658,40.121589,65.842488,79.675322,91.327563,28.789339,55.24161,69.720661,81.306026,19.715363,41.920008,56.25092,65.634389,26.17178,50.259876,68.849888,83.378735,60.515957,90.125027,100.852947,103.885975,48.55711,79.628735,90.622387,92.981243,33.157368,61.643429,74.505444,80.250492,16.890507,38.271961,49.478245,56.309338,-17.455236,-20.134092,-18.301464,-18.429102,9.437068,34.061095,47.610247,54.574952,27.302512,54.38754,66.187673,70.265053,42.075434,68.365116,77.971504,81.430145,52.432398,76.287694,84.544959,87.127855,-38.987074,358.636173,-59.268923,363.132221
10,1.799698,0.863518,-0.19352,-0.219337,-19.291649,-19.554119,-17.539444,-22.429562,-6.228848,9.259014,4.794502,0.726986,8.71748,35.531273,36.803741,34.972343,23.224869,50.866585,48.290749,42.988815,34.477158,57.815781,63.233528,64.614258,34.839829,67.990662,94.948174,111.122336,51.51596,75.419236,87.020471,96.180898,38.834278,65.216154,78.917459,90.969781,27.035442,53.015816,66.160935,77.413713,17.64975,38.275128,51.62637,62.876863,26.028214,50.151501,68.585987,82.899113,60.804577,90.317173,100.924129,103.800602,48.824902,79.860935,90.985966,93.435345,33.432655,61.93388,75.002003,80.901318,17.229366,38.854923,50.039234,56.664333,-17.349087,-19.75476,-17.748736,-18.161043,9.765642,34.42604,47.732636,54.498938,27.633309,54.490848,66.068371,69.966922,42.447912,68.50708,78.023869,81.477322,52.835135,76.440464,84.509514,87.051285,-37.184229,359.539211,-59.459295,362.952403
11,-13.018913,1.728209,-0.180645,0.211866,24.478168,44.721336,61.287575,77.286186,46.203003,76.386108,87.909851,97.430992,31.294498,60.947456,76.401329,85.67585,14.487419,34.028893,45.174294,51.679001,-2.346668,-0.089436,-1.135883,-3.353004,-13.865993,-11.684351,-8.178225,-9.619726,19.824785,32.654482,42.206962,51.40907,38.625315,58.88581,67.926565,73.186033,50.292191,73.347448,87.167314,96.256048,54.662329,78.806493,92.786231,105.113466,26.022091,50.067215,68.800049,83.35453,60.347672,89.720192,100.688438,104.226494,48.689232,79.577408,90.57621,92.985306,33.540745,61.661682,74.595909,80.503807,17.434444,38.449745,49.349556,55.996056,-17.078991,-19.753154,-17.732248,-18.146532,9.244716,32.76588,46.554932,54.082246,27.161227,53.704333,65.94734,70.386701,41.969347,67.834804,77.767913,81.459106,52.289323,75.751762,84.286719,87.25395,-50.206976,361.355769,-59.643774,363.252618
12,12.229328,-1.352952,0.776482,-0.427992,-18.552246,-18.879776,-16.509762,-21.059132,-3.156109,11.076164,5.621567,0.275116,10.760765,32.665615,31.72308,28.581333,23.758221,46.824589,40.677395,32.16116,33.765736,51.920872,53.959408,51.882992,33.162688,65.479396,92.308777,107.775835,51.537388,76.965466,88.874342,98.006302,41.535859,69.103651,83.062393,94.036183,31.1939,59.310097,73.451251,84.920155,22.759349,44.974863,59.076063,70.414736,26.183681,49.997406,68.232651,82.389565,60.424004,89.626694,100.587616,103.991661,48.348083,79.058189,90.031815,92.586021,32.917213,60.78392,73.772964,79.738655,16.721821,37.626972,48.630066,55.467796,-17.056761,-19.377403,-17.263316,-17.375948,9.393905,33.094578,47.014849,54.478251,27.550873,54.42564,66.700263,70.956102,42.426423,68.639658,78.453651,81.78947,52.536139,76.303687,84.929973,87.857683,-37.959423,360.079033,-58.849068,362.900842
13,-14.151707,-0.835421,-0.100765,1.487876,21.299057,40.364685,57.408943,69.98394,44.790344,71.232147,83.674736,94.599838,34.349384,59.687691,72.354126,80.293236,21.097813,40.498466,51.639977,58.06675,6.556664,7.967663,8.2267,7.953358,-4.100536,3.481488,11.266054,14.171102,29.519846,46.708197,54.274722,61.154891,40.406444,64.014491,74.799324,80.358281,45.202969,71.134128,83.328846,91.373567,44.705261,69.136379,82.5109,96.271115,25.75613,50.271091,69.145603,83.940296,59.338245,90.223103,101.207943,103.983479,47.324009,79.312534,90.925426,93.118801,32.340088,61.25948,74.60638,80.447674,16.739216,38.065395,49.446201,56.770191,-17.96233,-21.158408,-19.154052,-18.484121,7.906152,31.317277,45.093177,52.489826,26.369834,53.70069,65.403443,68.77625,41.382471,68.062169,77.433782,80.236509,51.724739,75.909226,84.492903,86.965946,-52.136135,359.274317,-58.974838,364.419423
14,13.54414,1.455025,-0.546799,-0.26034,-18.188381,-17.621212,-16.011658,-21.002941,-1.874027,15.554581,10.966244,6.390324,10.765457,36.051464,35.496082,33.044643,23.403568,50.248318,45.548458,38.825855,34.00938,55.642719,58.458309,57.608356,34.687429,68.092426,95.557836,111.282764,51.930059,76.77299,87.215788,94.955893,40.401442,67.422434,80.718595,89.644802,28.783658,56.025099,67.986401,75.711563,19.158436,40.563784,54.302818,63.763969,25.926991,50.444126,69.279499,84.120083,60.342693,91.438236,102.240772,104.498234,48.282681,80.763645,92.26656,94.268932,33.009911,62.445774,75.831585,81.670132,17.05616,39.048615,50.568638,57.834606,-17.91398,-20.74783,-18.400203,-16.877561,8.252016,32.374135,46.105945,53.108071,26.662902,54.155976,65.827606,69.241046,41.856714,68.87042,78.177195,80.823756,52.413873,76.89186,85.18951,87.141564,-38.592024,360.685901,-59.521666,364.115642
15,-12.560291,-0.396993,-0.320034,0.193835,24.737091,44.746056,61.283112,75.670395,48.059692,76.981087,88.95092,99.11499,33.995647,61.219368,74.751549,82.204628,16.655731,34.930344,44.904671,49.572372,-1.506329,-2.922249,-6.15366,-9.751797,-11.631616,-7.944005,-2.964946,-2.7206,22.795844,34.98025,43.741892,51.369056,40.046192,61.287716,70.612584,75.357733,50.490348,75.662101,89.288008,97.436099,53.973936,80.288256,94.972381,107.64443,25.564671,50.365906,69.693031,84.791794,60.559731,91.474228,102.374153,105.005836,48.95359,81.175346,92.503395,94.469147,33.938713,63.000984,76.039238,81.754646,17.994862,39.995785,51.432037,58.566055,-18.211185,-21.232076,-18.958673,-18.261449,7.855702,31.434171,45.359691,52.90837,26.387557,53.39095,65.435491,69.33997,41.708081,68.259029,77.844731,80.898844,52.615488,76.663383,84.769669,86.669358,-51.177149,360.265952,-59.866533,364.286521
16,10.503445,-0.761012,0.20628,-0.002161,-7.119083,-3.056831,-1.037464,-3.869305,9.826756,29.042187,28.728275,27.204494,14.586182,32.209682,28.709049,24.597073,18.604774,34.548626,23.720627,13.616982,20.630264,32.423916,28.150692,22.450161,33.551098,64.434085,90.628671,105.331939,53.84179,77.031601,84.47549,90.685976,46.433099,73.065928,87.762341,97.489204,37.185542,65.832238,80.301903,91.567648,29.113343,50.131022,63.762858,75.399847,25.26432,50.309086,69.708538,84.696522,60.456676,92.179813,102.67931,104.465389,48.715496,81.468716,92.895412,94.792728,33.626518,63.042011,76.267376,82.096424,17.765522,39.842663,51.258488,58.348675,-17.901877,-20.605989,-18.32672,-17.527854,8.426585,32.433292,45.921003,52.764801,26.916325,53.537792,64.843367,68.156461,42.229748,68.46651,77.601743,80.273251,52.87941,77.087979,85.222793,87.074194,-40.739622,359.529609,-59.726171,364.309029
17,-11.302986,-0.447196,-0.526428,0.342159,2.109032,14.599113,27.225208,37.462292,25.411835,48.845158,59.682484,67.736835,28.552437,53.717251,68.063793,76.640797,29.806709,50.631351,62.249393,68.112888,28.459339,36.277599,42.070484,45.172291,15.338679,33.912091,50.185239,58.98634,49.168086,69.296992,76.499807,81.618113,44.239415,67.635226,78.952842,84.273257,35.809805,59.382345,70.849273,79.905218,25.328228,44.15809,54.394765,66.700819,25.297623,50.078602,69.378605,84.57922,60.539074,91.71278,102.637882,105.195179,48.886585,81.5835,93.053913,95.127697,33.819695,63.462009,76.602459,82.361469,17.851868,40.148449,51.583958,58.527546,-18.237367,-21.1066,-18.928169,-18.49536,8.307036,32.287438,45.912728,53.087941,26.620479,53.403547,65.071102,68.951251,41.830532,68.063033,77.320778,80.391071,52.549971,76.635472,84.569597,86.402597,-52.084007,359.063501,-60.293999,364.632277
18,10.638313,0.003149,0.569,0.391312,-4.367008,0.417423,1.531906,-2.888603,13.788414,35.271664,36.197491,35.316753,15.735798,34.073925,30.741177,26.122913,16.908417,31.950474,21.142216,10.968246,16.265545,26.013622,20.795231,14.50613,34.221708,65.464144,92.22881,108.304974,55.346153,77.983299,84.622641,90.339988,48.05732,74.457844,88.496985,98.306038,38.583942,67.555259,81.681839,93.021809,30.072636,51.824898,65.325452,76.597125,25.163555,49.531918,68.760853,83.856869,60.279865,91.667004,102.363224,104.595737,48.573475,81.394901,92.8652,94.898129,33.543205,63.365536,76.482525,82.118511,17.695026,40.250187,51.512318,58.06097,-17.758986,-20.648906,-18.710004,-18.24947,8.497165,33.089267,46.642124,53.450354,26.709091,53.758427,65.08549,68.498374,41.877709,68.350914,77.320778,79.965487,52.563618,76.596755,84.226636,85.628679,-41.487036,359.06256,-59.76634,365.019498
19,2.250595,0.789356,-0.310364,0.195317,-12.116947,-9.64777,-8.453693,-13.73045,5.700073,27.221088,27.103558,25.841961,13.669453,37.764645,37.144833,34.494381,21.108055,43.921108,37.576962,29.888706,26.299725,42.970905,43.003979,40.077038,35.531928,68.106135,95.25915,111.668334,53.487713,77.26335,84.03842,89.385018,43.835753,69.966675,82.595313,91.525473,33.455694,60.768272,73.227405,82.157194,24.877882,45.4877,58.975842,68.863627,24.863434,49.474812,68.68372,83.771152,59.723911,91.040096,102.266064,104.813747,48.298588,81.053295,92.795277,94.672451,33.432312,63.115139,76.407795,82.020206,17.640324,40.039387,51.574459,58.444576,-18.215137,-20.86639,-18.747116,-18.519875,8.283633,31.851542,45.511906,52.689959,26.608438,53.446958,64.796128,68.122128,41.798175,68.354495,77.433349,80.115293,52.470313,76.729333,84.449122,85.778918,-39.250374,359.906132,-60.090637,365.269032
20,2.026119,0.286028,-0.086632,0.068358,-20.861549,-20.767765,-19.585705,-26.025581,-5.958481,7.971954,0.063171,-6.211166,9.050846,38.564072,39.907036,39.031906,24.490585,56.079597,55.601349,52.094421,37.722588,62.502708,68.004799,69.45179,37.19394,71.369891,98.704514,116.225143,54.098054,78.920917,91.530907,100.673796,40.280596,67.854811,79.746582,88.485809,27.170922,53.807642,64.109216,71.292147,15.83367,36.866972,49.680553,59.196415,24.795971,49.082279,68.222408,83.401852,59.72517,90.814648,101.955814,104.626637,48.433628,81.295452,92.864971,94.687672,33.591385,63.458004,76.494312,81.922016,17.744064,40.465221,51.678829,57.993221,-18.217113,-20.749744,-18.491655,-18.472697,8.031876,31.938857,45.909332,53.286036,26.022797,53.461284,65.386585,69.135638,41.146646,68.391792,77.777484,80.509076,52.003109,76.651836,84.252386,85.276331,-37.223711,360.219979,-60.176725,365.365208
21,-14.108963,0.452322,-0.817165,0.19297,25.361309,46.182861,63.614388,78.018494,50.069962,79.278145,88.711281,95.946693,34.041309,62.769928,75.630569,82.106323,14.576626,30.85619,36.921272,37.865181,-4.919014,-7.298241,-13.116302,-21.039276,-13.442694,-11.521948,-5.90371,-4.46579,21.520574,35.89218,45.857647,53.752437,41.099469,62.709519,72.674554,77.395002,52.326929,77.74241,95.845346,108.048895,54.355368,78.800627,93.093563,105.517992,25.196915,50.028992,69.47628,84.860229,59.875832,90.487976,101.819344,105.123138,48.659706,81.314735,92.769699,94.901848,34.023914,63.947525,76.994362,82.548523,18.388939,41.142197,52.419548,58.768044,-18.265525,-21.072266,-19.006345,-19.256866,7.686506,31.058481,45.098425,52.736457,26.184027,53.077999,64.769698,68.514676,41.604525,68.068097,77.203761,79.877492,52.622898,76.902975,84.274184,85.235329,-51.304665,360.69098,-60.965881,365.576858
22,12.673187,-3.429927,-0.529747,-0.349754,-24.000492,-24.91991,-23.737907,-29.793434,-7.445526,6.926022,-0.884228,-7.717209,9.601135,39.385643,39.963112,38.03318,27.149734,58.613091,57.426567,53.554459,42.687035,67.178421,71.473045,72.055206,36.873147,71.898042,100.871521,119.354469,57.49093,87.037144,99.336715,106.719532,43.640251,75.504699,86.081248,92.142668,30.333408,60.721341,68.88808,72.733958,18.824737,42.389497,53.840493,61.183049,25.395985,50.360985,69.714432,84.732857,60.253944,91.227264,102.389259,105.425835,48.976479,81.822281,93.229866,95.107384,34.141502,63.872681,76.98349,82.603111,18.294983,40.595627,51.762428,58.159447,-18.067183,-20.368435,-17.847042,-17.521679,7.674032,30.990865,45.175243,52.909235,26.360078,53.194769,64.974524,68.752785,41.881908,68.304168,77.544191,80.352847,52.781288,77.026414,84.603313,85.907482,-38.623037,357.256978,-61.487188,365.223028
23,-17.344208,-0.750576,-0.295544,-0.219523,27.23568,50.71907,70.419159,82.139511,56.569633,85.800476,94.964447,99.902916,41.014481,70.612679,81.075325,83.382454,21.058617,35.484982,37.359009,34.286613,-0.009441,-6.603527,-14.408855,-22.896194,-12.3239,-10.795084,-2.383072,2.879545,27.825909,43.946965,53.618377,59.469043,47.652361,71.667343,80.198718,82.134593,57.892493,85.454604,103.011358,114.16941,57.786097,84.451778,98.569898,110.267031,25.448112,50.243855,69.735203,85.11343,60.251369,90.519047,102.026424,105.915356,49.155064,81.358509,92.691479,94.872379,34.503536,63.883038,76.659107,82.209377,18.611298,40.809975,51.754246,58.117962,-17.924539,-20.537076,-17.967517,-17.730334,8.365452,30.916702,45.023275,53.076455,27.191238,53.571508,65.667673,69.982359,42.668732,68.565496,77.892896,80.870933,53.462395,77.327694,85.123807,86.750931,-55.919523,356.502249,-61.73501,364.999352
24,17.003002,-0.066629,0.560532,0.179508,-25.797215,-27.657509,-26.19072,-30.832844,-6.966476,7.682877,1.041756,-4.047489,10.82674,40.737934,43.286304,42.979717,28.020573,59.575481,60.720005,58.816967,42.665577,67.207775,71.757374,72.112141,34.813277,69.107603,97.57936,114.721644,58.521668,86.937664,99.601439,107.172533,45.691785,76.351606,86.336092,91.863124,32.620952,62.173835,69.306192,72.729512,21.184714,43.925785,55.323367,63.591068,25.4389,50.13113,69.640903,84.874706,59.90118,90.598583,101.686649,104.908504,48.787136,81.132717,92.379627,94.340572,34.221954,63.594074,76.269665,81.754589,18.442097,40.60833,51.390209,57.830257,-17.862295,-20.565975,-18.28195,-18.26676,8.473145,31.650359,45.713953,53.291594,26.991599,53.489318,65.698178,69.831009,42.274641,68.406427,77.932972,81.078291,53.171736,77.19666,85.00889,86.848188,-38.866138,356.430171,-61.124096,365.173411
25,-19.897442,-1.212963,-0.266533,0.126156,27.742939,51.556549,71.218758,84.315491,58.057137,87.716446,97.017174,102.464333,42.79026,72.382278,84.337463,89.148674,23.306808,39.47794,43.933525,44.059181,2.733192,-2.033615,-8.314648,-15.598125,-11.00627,-10.518627,-3.562134,-0.5468,28.32232,43.869963,53.120051,58.904891,48.642096,71.922681,81.020678,83.188241,59.379628,85.885684,102.398609,112.417057,59.82312,86.640398,100.522878,112.085828,25.332184,50.636845,70.700397,86.242847,60.434475,90.768185,101.958447,105.482769,48.989239,80.878201,92.307758,94.547367,34.068718,63.224087,76.28191,81.89146,18.134308,39.996815,51.026287,57.385197,-18.12072,-21.088445,-19.121633,-19.417849,8.348594,31.073548,44.92608,52.670261,27.259966,53.818201,65.351326,69.072529,42.517752,68.654479,77.747288,80.588795,52.985497,76.663075,84.168837,85.732049,-58.739376,355.209967,-61.366425,365.292327
26,17.732048,0.314557,-0.127831,-0.843634,-16.219425,-13.701496,-11.924572,-17.047062,7.88023,32.609711,36.351585,38.73745,16.707458,42.16198,43.798828,42.218857,23.460674,45.297546,39.854965,33.129959,27.738991,41.820946,41.307793,37.953186,33.114399,65.427464,92.596904,109.955315,57.283264,79.646793,85.209949,88.628267,49.516667,76.152955,87.495579,96.452476,40.39959,68.093723,80.851173,91.469774,32.645776,52.730838,66.129566,78.607286,25.690498,50.599995,70.541782,85.907993,61.094112,91.623631,102.297764,105.207767,49.364262,81.225986,92.621555,94.835072,34.313679,63.29504,76.285572,81.810894,18.486042,40.387802,51.268444,57.246838,-17.257202,-20.020904,-17.796963,-17.121351,9.967257,33.136753,46.6328,53.818633,28.853498,55.04864,66.393796,69.870159,44.155064,69.977481,78.93654,81.514743,54.618795,78.281121,85.617131,86.91352,-40.942783,355.517731,-61.42971,364.441901
27,-14.715443,4.533036,-0.388927,0.39193,21.891918,40.323658,56.636066,71.868725,45.639095,71.022549,83.698483,94.904423,34.272194,60.885601,75.228024,85.622921,20.642567,40.316792,52.966862,61.986752,5.377121,9.712486,12.417583,15.013275,-6.234136,-1.098169,7.274754,9.579588,25.530399,43.565163,51.301254,59.384754,39.796906,60.755119,72.438173,79.849025,48.799869,70.617154,82.008561,91.050365,51.82743,73.92747,86.422172,99.136767,25.061703,49.315224,68.434525,83.268471,61.042557,91.598053,102.432861,105.329247,49.487114,81.543274,92.845802,94.756508,34.247532,63.629379,76.366768,81.496353,18.116856,40.672989,51.627045,57.868881,-17.882919,-20.453095,-17.98456,-17.618381,9.649366,33.362204,46.821324,53.631777,28.016903,54.25033,66.178966,70.203426,43.148162,69.086361,78.46946,81.728585,53.702172,77.610758,85.386679,87.143602,-55.573282,360.049594,-61.733694,364.832657
28,14.905643,-8.528843,1.167355,0.497153,-8.796673,-6.564503,-7.416401,-13.562565,19.667816,43.84449,43.58551,41.201248,21.531429,44.143066,42.059784,36.946907,19.799137,36.711731,29.435692,20.638561,15.305729,22.508812,18.35701,12.66552,31.111957,62.363841,87.628528,102.032614,65.812663,87.662058,90.878328,93.196315,61.133031,87.062091,92.847364,96.68966,53.688525,82.437171,91.548938,98.232,47.152615,69.607164,80.931263,90.468676,24.766102,49.426975,68.711185,83.583698,60.347271,91.045132,101.739521,104.183979,48.954792,81.081333,92.279606,93.888187,34.055729,63.106098,75.766354,80.983715,18.1073,40.006428,50.502834,56.367359,-18.550688,-20.89708,-18.404216,-18.488567,9.151596,32.771499,46.476633,53.526183,27.801826,54.669554,66.358845,69.902269,43.019104,69.539918,78.870899,81.796819,53.627331,77.791934,85.259103,86.629035,-40.611362,351.516551,-60.510063,365.325611
29,-20.619392,6.262233,-0.887604,0.650788,29.12859,50.562401,68.485909,84.474335,55.252304,83.209991,93.095398,99.515076,41.194897,66.92482,79.706955,86.594696,23.731327,35.745678,39.829102,40.280628,4.89624,0.578671,-4.10574,-9.384041,-11.559862,-8.662101,0.62831,5.54037,25.134949,43.026143,52.995624,60.808286,43.167058,66.570773,78.791982,84.450543,54.183331,81.02321,98.894211,110.755971,56.868363,83.880216,98.638009,110.901393,24.83511,50.056515,69.561367,84.72559,60.589199,91.707172,102.331524,104.582119,48.930874,81.502018,92.776966,94.382229,33.728256,63.126812,75.992146,81.391697,17.651825,39.619045,50.624027,56.909008,-18.583663,-21.00502,-18.629235,-18.745202,7.797904,31.458439,45.465593,52.82723,26.543353,53.802393,65.419436,68.800827,41.926245,68.92865,78.127301,80.875256,52.532063,77.228338,84.926577,86.409698,-61.233902,357.766202,-61.400814,365.963817
30,20.255814,-10.247049,-0.394707,-0.334872,-4.669762,-1.303596,-2.0644,-7.643967,26.55098,50.503235,53.094864,53.617172,24.538765,44.826164,46.178856,43.697662,18.135967,31.097603,26.430244,19.6245,8.775616,11.09642,7.083607,1.701107,24.610256,51.578946,74.808895,90.444593,64.775009,87.160892,90.473184,91.63545,65.114821,91.609391,96.553932,99.184932,60.647735,90.670476,100.255252,106.659387,54.544695,78.468348,90.145289,99.43181,25.446739,50.67358,69.997501,85.354443,60.595264,91.863041,102.652531,105.093899,48.980999,81.822796,93.037205,94.766407,33.95771,63.759785,76.461468,81.670704,18.157082,40.68037,51.569195,57.349148,-18.546983,-20.860401,-18.302699,-17.898789,7.497612,31.811219,45.978369,53.33698,26.32278,54.187283,65.715838,68.791441,41.985834,69.337809,78.323667,80.511237,52.940913,77.853129,85.126092,85.798245,-40.985813,347.507082,-61.803246,365.616872
31,-21.934662,9.126032,-0.101795,-0.062368,28.537216,52.628403,72.162781,88.964195,62.316399,91.404305,101.531067,106.345367,48.207321,78.833542,92.000771,96.561241,30.563049,51.720314,62.570801,67.581024,10.695133,12.341423,11.375599,8.959179,-12.037008,-11.278466,-4.682287,-2.266117,25.493287,43.97605,52.992351,58.472515,45.114851,66.942016,75.820367,77.113482,57.780787,82.975572,94.480415,99.391425,61.624318,89.686051,105.631799,118.555357,25.781193,51.515694,71.235352,86.967201,60.403748,91.785164,102.708549,105.276375,48.894539,81.927681,93.189926,94.932518,34.141674,64.233742,76.911278,82.04155,18.646259,41.38155,52.232094,57.929192,-18.425026,-20.550969,-17.923551,-17.708227,7.581901,32.250449,46.379438,53.677348,26.510996,54.468309,65.716394,68.542463,42.256548,69.656996,78.336017,80.232187,53.311601,78.394495,85.408847,85.769099,-62.935953,356.596696,-61.920519,365.518087
32,22.581539,-8.896011,-0.520935,0.218782,-15.253315,-15.864487,-18.435059,-24.638672,16.279907,40.2075,42.573681,42.850742,22.752457,45.809269,47.305584,45.003719,25.707722,44.239483,41.934299,36.501446,25.360622,36.071377,36.064281,32.648792,29.552512,60.186398,84.670559,100.774326,67.717231,91.139286,95.03234,96.211958,62.842468,90.107807,95.289901,97.866067,54.329494,83.814575,92.428696,97.819013,45.970279,69.072344,80.774232,89.805847,25.831089,51.771584,71.728706,87.573166,60.632973,92.353592,103.436623,106.141548,49.125938,82.353745,93.697929,95.429993,34.366264,64.598236,77.377052,82.476425,18.875198,41.621876,52.599792,58.363495,-18.602312,-21.018049,-18.583416,-18.3613,6.785876,31.134805,45.48628,53.031748,25.947276,53.912247,65.224861,67.988068,41.919638,69.279331,78.007566,79.863537,53.18106,78.208688,85.328016,85.701483,-40.360279,347.683796,-62.447319,365.71998
33,-23.003254,8.619987,-0.877934,-0.654801,28.933239,49.883537,68.996773,85.420647,54.786987,83.411179,93.781586,100.884361,41.986427,68.825569,80.785103,87.211876,25.452805,37.559395,40.672703,40.530396,7.192211,2.351017,-2.323837,-7.345505,-9.808991,-7.470565,-0.110348,2.901096,28.959091,45.759711,54.228533,61.238933,46.040551,67.861048,79.257457,85.254595,56.156751,82.214066,99.228651,110.585231,58.231688,85.041247,99.31961,111.383726,26.159992,52.444553,72.677708,88.740978,61.397953,93.25716,104.298878,106.843357,49.847202,83.366261,94.618435,96.2253,35.12352,65.623913,78.412914,83.46983,19.631653,42.689667,53.741055,59.461269,-18.060205,-20.179726,-17.548294,-17.31568,7.113647,31.282759,45.747484,53.546252,26.26949,54.231435,65.487362,68.380924,42.354114,69.718932,78.496136,80.517968,53.749967,78.747954,85.798184,86.224385,-63.395834,356.305929,-63.357553,365.067324
34,24.773369,-7.378063,0.612316,-0.1122,-19.627533,-21.86491,-25.616112,-32.605305,11.185513,36.085968,37.772942,37.728195,20.357552,45.323982,46.869736,44.948959,26.703644,48.031769,47.210197,43.182106,30.020142,43.957787,45.808525,43.637238,32.001595,64.593277,90.131951,106.775231,67.535191,90.885491,94.530371,95.451687,60.262227,87.355714,92.421718,94.781695,50.137753,79.135067,87.05357,91.321635,40.973066,63.900129,75.770967,84.35415,26.036739,52.100716,72.331238,88.258667,61.007423,92.604332,103.505974,105.981216,49.549828,82.901917,94.181442,95.865097,34.790783,65.125694,77.903824,83.092918,19.137268,41.974297,52.816544,58.526917,-18.037048,-20.198869,-17.48043,-17.028726,7.864965,31.816838,46.108292,53.740025,26.902431,54.572544,65.997173,69.162005,42.706708,70.022127,78.881211,81.022036,53.869083,78.983532,85.983126,86.281875,-38.627729,348.963758,-62.750502,364.991016
35,-24.663105,7.898063,0.075703,0.550752,28.24316,50.098858,69.2906,86.995525,54.475422,84.798374,96.255169,103.715115,40.596313,70.85741,84.491901,91.629467,23.917751,41.872387,48.422756,50.292835,6.587048,5.171814,1.715298,-2.905083,-10.628049,-7.956726,0.112386,3.329397,27.269229,45.569211,53.86544,61.006073,44.666049,67.769163,78.175898,82.779762,55.693685,81.53475,97.038302,106.588189,58.718776,85.146285,99.853133,111.983075,24.922771,50.496883,70.443935,86.321812,61.604748,92.846203,103.487263,105.850124,50.025616,82.969837,94.067745,95.822926,34.925079,65.008106,77.763805,83.105106,18.870964,41.664619,52.507496,58.307934,-18.414652,-20.882446,-18.721552,-18.984547,7.702252,32.491585,46.572346,53.709459,26.31395,54.213465,65.607157,68.629902,41.991268,69.366029,78.341698,80.602257,52.990746,77.79249,85.060266,85.826836,-63.299875,356.857406,-62.68384,365.537353
36,27.014122,-9.217484,-0.177555,-0.786391,-26.128635,-30.29377,-32.427177,-36.986561,4.385376,24.879169,22.707195,18.931561,18.022327,41.800175,40.674534,36.130199,29.296818,51.412411,49.458447,44.048138,37.313175,55.18919,57.453861,54.915791,30.300742,63.092928,88.427269,104.050247,72.353946,97.561081,101.006507,101.4705,63.845542,90.599093,92.951537,92.015833,51.816932,80.321848,85.209579,85.534509,40.463563,63.959595,73.76062,78.542325,25.424194,51.232681,71.136017,87.00119,61.398468,92.212944,103.079109,105.846977,49.847603,82.330055,93.359871,95.152245,34.812927,64.718056,77.410927,82.765846,18.717957,41.404152,52.537193,58.556213,-17.864579,-20.251171,-18.261202,-18.627506,7.549605,31.660054,45.655599,53.079728,26.061391,53.549525,64.695351,67.541304,41.785948,68.975642,78.07648,80.431085,52.991487,77.837876,85.176357,85.971332,-36.342058,347.639073,-62.9177,364.750112
37,-26.481686,7.795125,-0.630913,-0.194267,29.641399,53.01075,72.555428,90.608139,57.743912,88.273087,99.001923,105.979614,43.275375,72.156715,85.692902,92.837563,25.177631,41.272602,48.035316,50.912704,5.830936,3.890305,0.097103,-4.424114,-11.633345,-9.356052,-2.720661,-1.474847,26.575772,41.727223,50.883327,58.259846,46.012949,68.26508,79.19336,83.945116,57.428439,83.262341,99.180177,108.767423,59.613848,86.664171,101.539352,113.220492,25.586243,52.15004,72.591476,88.027954,61.168442,92.773132,103.417168,105.473785,49.511833,82.559052,94.08783,96.165047,34.640751,64.711418,77.979813,83.617172,19.010925,41.386929,52.563057,58.556099,-18.299055,-20.596665,-18.969171,-19.881163,7.975868,32.140225,45.898958,53.148209,26.662963,53.753981,64.483609,67.280902,42.27921,69.061661,77.67714,79.970118,53.298448,77.742781,84.858034,85.799789,-62.87221,355.428239,-63.597078,364.549887
38,24.683704,-6.707762,0.183735,-1.219447,-24.904976,-28.088551,-30.461483,-37.111645,5.487556,28.718204,27.146816,24.402752,18.940887,45.645962,45.302181,41.975956,29.746799,54.007244,53.128796,48.763676,36.787319,56.203709,59.908619,58.728504,35.616279,71.284923,98.693337,115.252266,69.243454,91.586482,95.537767,98.240398,57.931828,83.755851,88.917814,91.232035,45.56637,72.8067,79.861931,82.594943,35.215148,57.573738,68.956191,75.004582,26.651859,52.551212,72.823505,88.23,61.442242,92.860508,103.481312,105.641727,49.653797,82.571583,94.158726,96.314449,34.728584,64.857044,78.201427,83.799076,18.971043,41.234436,52.559338,58.846149,-17.516184,-19.898453,-18.280221,-18.187966,9.684008,34.011139,47.136498,53.719277,28.099278,54.783978,65.234123,68.01178,43.410725,69.722699,78.339598,80.829375,54.167276,78.621242,85.813745,86.991881,-38.359709,348.718393,-63.584547,363.328355
39,-22.381783,7.486435,0.264645,0.00704,28.01754,49.614086,67.900486,84.554157,53.225956,82.836056,93.976421,101.773624,39.113617,67.238102,80.606518,88.134098,21.787148,38.580494,46.204891,49.818134,3.370972,1.042728,-2.7491,-7.02673,-11.471683,-9.764778,-2.614821,0.160798,25.6137,42.364673,51.210419,59.392287,43.48112,66.218301,77.379874,82.390364,54.267497,79.763439,94.985472,104.212959,56.895533,83.304517,98.324378,110.661123,26.34613,51.492004,71.364441,86.53141,61.633415,92.682495,103.229141,105.593033,50.007591,82.763443,94.057274,96.028633,35.116482,65.014572,78.307457,83.921814,19.183388,41.360321,52.492104,58.689537,-17.615417,-20.389739,-18.71266,-18.360312,9.874138,34.046151,46.968537,53.384343,28.133611,54.045875,65.001448,68.538758,43.34601,68.928897,78.070614,81.312943,54.176662,77.984595,85.173208,86.53888,-60.836077,356.19078,-63.414488,363.321347
40,20.087929,-5.8314,1.065674,-0.11041,-17.65995,-17.992516,-19.160442,-26.067524,6.317139,32.094097,30.786037,27.095089,16.686573,46.356182,45.46114,40.696621,25.356388,51.812611,48.171787,41.662846,31.301937,49.348698,50.286541,47.813702,37.985704,73.518003,100.899741,115.874092,66.129257,89.685619,93.305737,96.220171,54.851224,81.417733,88.259617,93.515935,43.014781,70.531691,79.082209,84.636782,33.704733,55.457119,67.911868,77.021165,26.212807,50.94429,70.232162,84.994125,61.428452,91.899147,102.38102,104.895973,49.693909,81.540184,92.887802,95.103607,34.637089,63.570671,76.869392,82.81929,18.527927,40.260658,51.403885,57.875519,-17.653393,-20.419564,-18.347715,-17.600473,9.793739,33.661632,46.825584,53.585279,27.99245,53.872233,65.140818,68.957117,43.088573,68.537894,77.995957,81.471085,53.806962,77.173195,84.669139,86.489541,-40.803394,350.363223,-62.40406,363.214781
41,-19.700718,5.866845,0.597496,0.933666,28.145885,50.033226,68.695908,85.343285,52.628174,83.392868,95.00061,102.572021,37.598763,67.589264,81.019135,87.486877,20.156937,38.442478,45.662498,48.041267,2.608452,0.708103,-2.656345,-6.664066,-11.119088,-8.734843,-1.876904,0.882907,26.418308,44.482218,52.663839,59.440082,43.64692,67.31011,77.769395,81.747912,53.910518,80.167596,95.741482,105.160272,56.383684,82.789765,98.063483,110.598075,25.473175,50.272636,69.619102,84.521942,59.821129,91.348,102.313499,105.04097,48.326111,81.538811,93.235703,95.248947,33.631496,63.900719,77.203217,82.697983,18.083954,40.589218,51.792755,57.974739,-18.038654,-21.024657,-19.238464,-19.03265,8.171741,32.571552,45.985223,52.754674,26.581823,53.116222,64.46459,68.117867,42.041039,68.095637,77.198945,80.167719,53.060215,76.885623,84.16328,85.446268,-60.500364,356.256698,-61.802816,364.175077
42,20.290775,-4.799551,0.498219,0.184387,-18.55402,-17.710934,-14.66692,-17.826805,5.631866,30.554638,33.282681,33.095112,15.649166,41.105747,40.42345,35.728168,23.138065,44.607296,36.820736,27.124729,27.517834,41.281872,38.088398,32.356968,28.302375,58.431821,84.15624,98.327589,57.521682,81.081996,87.764996,92.705091,54.085827,81.367345,91.138977,99.329551,48.547062,77.213024,88.671183,99.051119,44.167538,65.925481,78.748633,90.846342,25.028915,50.01749,69.384785,84.461803,60.647907,91.893368,102.625637,105.161419,49.193172,81.893864,93.266773,95.372601,34.347954,64.104023,77.118359,82.616558,18.582859,40.493431,51.546421,57.746601,-18.0297,-20.838047,-19.328496,-19.807,8.128824,32.917786,46.388824,53.135983,26.554344,53.245219,64.123233,67.496782,42.056785,68.134725,76.982139,79.860635,52.969812,76.910879,84.201256,85.641585,-40.171309,351.444875,-61.266317,364.347191
43,2.114582,0.459485,1.124325,0.952809,-24.62574,-26.895561,-25.109482,-29.705944,-7.730026,5.891647,-0.255032,-6.435814,9.127121,35.450706,34.409752,30.279808,24.977074,52.818489,49.286842,43.497734,37.5214,57.820816,58.556557,56.207085,30.826732,63.668874,90.208583,103.530741,60.169169,87.871763,100.316014,109.20054,51.476687,81.066805,92.154771,100.871521,41.089589,69.785314,79.327049,86.791933,31.866979,53.944728,65.859593,75.334762,24.892445,49.902763,69.110413,83.713646,60.487862,91.967239,102.25811,103.971176,48.626175,81.935921,93.233185,95.149727,33.562546,63.744736,76.885643,82.4049,17.903423,40.21883,51.364288,57.699051,-18.065083,-20.859474,-19.538139,-19.477253,7.972781,33.242964,46.549313,52.681561,26.413368,53.762255,64.191653,66.589051,41.899198,68.507698,77.083163,79.257518,52.692368,76.729148,83.952587,85.07768,-37.927208,351.787481,-60.012474,365.183122
44,-13.572807,10.558641,-0.503712,1.124228,25.024338,45.658493,62.500191,76.298561,48.45829,76.909447,89.083214,97.728081,32.537212,61.964493,76.236534,83.209305,14.189758,31.639137,39.829674,43.633804,-4.006577,-7.701244,-13.182278,-17.868633,-13.839194,-15.697881,-12.170883,-10.061612,21.889595,34.51706,43.638213,51.417839,41.21099,62.507349,72.346597,77.276133,51.580366,74.649579,90.149303,101.411961,53.559343,76.758788,90.836276,103.597802,24.488583,49.872837,69.429417,84.00301,60.903111,92.3913,103.030758,104.963436,48.993931,82.094135,93.940716,96.004314,33.872452,64.575977,77.832584,82.934132,18.253727,41.687794,53.395672,59.592762,-18.623986,-21.618449,-20.651252,-21.402816,8.177545,32.908771,45.315663,50.751243,27.074036,53.800973,63.417858,64.894805,42.878436,68.661765,76.132577,77.351839,53.73984,77.183507,83.773326,84.109495,-51.357193,362.111486,-60.373363,366.072713
45,13.26519,-8.952698,0.652084,0.40039,-25.674305,-28.270569,-26.768017,-31.823101,-10.329895,0.96199,-6.306839,-13.306274,6.75808,36.781998,37.997131,36.251907,23.538666,55.679283,54.45591,50.719643,37.660332,62.85965,66.714935,66.289558,33.47496,68.743584,96.609014,112.275031,62.270042,88.594675,99.721173,107.977388,50.470341,77.93995,86.625824,92.766162,38.305942,64.910119,71.501605,75.669078,27.274478,48.257885,58.452446,65.859593,24.176102,49.369183,68.954258,83.350353,60.849323,92.552204,103.170376,104.731007,48.820782,82.146778,94.158955,96.023998,33.722477,64.387264,77.728214,82.802639,18.107872,41.518078,53.287525,59.825077,-18.728282,-22.037364,-21.329642,-22.002413,8.887799,33.450507,45.611757,50.626261,27.880249,54.503631,64.0261,65.275126,43.414862,69.152002,76.550442,77.706904,53.99561,77.355914,84.000629,84.51643,-37.833252,352.878827,-59.462528,366.193142
46,-14.857979,7.461302,-0.67646,0.360128,26.683216,49.41021,68.104362,81.513062,49.297714,81.696167,94.001884,101.057968,33.493824,65.405731,78.154335,82.191925,14.288063,31.863499,36.281776,34.886913,-3.671036,-8.459816,-16.034889,-23.616257,-13.058977,-13.117084,-7.73708,-3.806666,26.168775,41.483309,51.066047,57.458882,45.893832,68.062848,75.957144,78.663541,55.911046,80.87328,95.871281,105.543928,56.599007,81.114168,94.283123,106.009217,24.38261,49.651966,69.338779,83.748379,61.842213,93.311291,103.83276,105.570774,49.90797,82.745876,94.24181,95.934505,34.753761,64.874668,77.724209,82.547436,18.997135,42.050915,53.630962,60.136929,-18.887969,-22.177969,-20.975071,-21.271844,9.09423,32.851034,44.67562,49.580209,27.994241,53.910827,63.219454,64.228209,43.422766,68.441193,75.748304,76.848696,53.978814,77.151212,84.017919,84.763803,-52.164001,360.224903,-59.611759,366.438044
47,16.557312,-3.076406,0.061111,-0.601634,-26.979618,-35.062695,-38.576832,-45.846462,-12.772808,-6.262608,-14.58498,-23.981895,7.8479,27.510796,22.944603,16.671295,26.910553,49.409294,42.556801,34.24324,41.424065,62.213974,60.545769,55.421104,25.083326,54.700861,75.926145,84.804434,57.979561,86.586983,96.172747,102.704952,51.938519,81.650594,89.047305,92.146929,42.784452,70.927141,75.421027,77.290027,33.623285,54.284478,61.090115,64.625079,24.656467,49.315395,68.685894,83.187046,61.687489,92.265644,103.287449,105.877018,50.194187,82.332516,94.16399,96.41161,35.367794,64.85693,77.936039,83.148479,19.632053,42.330837,53.906193,60.531292,-18.768791,-22.105906,-20.717448,-20.944999,9.554394,32.794162,44.727923,49.979795,28.517575,53.788808,63.234954,64.692387,43.92702,68.539005,75.993886,77.307811,54.39779,77.336463,84.041261,84.725394,-35.351315,356.934826,-59.295273,365.622738
48,-20.97662,-3.399051,-0.026436,-0.335799,28.031559,52.741528,74.184895,89.913769,54.264164,87.892971,99.88306,105.641956,38.659344,73.677692,85.608845,88.043919,19.860191,41.740894,45.764751,43.536129,1.873627,-2.581959,-9.838428,-17.559357,-8.492534,-6.728078,0.365871,5.590388,33.209433,53.515254,61.616352,64.89746,52.598322,77.570374,81.790273,80.21113,62.795291,89.730512,100.986439,106.58541,63.130595,88.849086,101.616972,111.484503,24.869213,49.901562,69.840946,84.627285,61.100864,91.321507,102.581348,105.937099,49.862995,81.762371,93.452396,95.579967,35.154476,64.411869,77.573719,82.900486,19.20742,41.093445,52.507954,59.11932,-18.634113,-22.227246,-20.743198,-20.729613,9.995169,32.04408,43.940976,49.777378,29.346513,53.707236,63.06761,65.349041,44.661171,68.620701,76.200008,78.25006,54.920075,77.644783,84.377554,85.199699,-56.041546,353.396558,-59.03532,365.147723
49,20.066185,2.415491,-0.673885,0.251201,-26.730022,-31.621399,-32.133579,-37.337437,-9.815655,6.082706,-1.812172,-10.410233,9.789162,39.58952,37.126751,32.413502,28.946056,59.060268,54.592381,48.208637,44.92075,68.134632,68.141956,65.254726,31.232864,65.215166,92.063442,106.482719,60.470635,90.050132,97.936586,102.515317,50.258105,81.403222,85.762307,86.331151,38.606666,68.366475,70.229979,69.144283,27.699382,50.637499,56.223256,58.227798,26.227627,50.860519,70.691071,85.317993,62.111893,92.480736,103.61927,107.183647,50.70076,82.740669,93.901062,96.140556,36.122704,65.251808,77.983589,83.265038,20.590038,42.032204,52.9953,59.424706,-17.755405,-21.384044,-20.361396,-20.612164,10.367277,32.564018,45.033834,51.545477,29.382081,53.93565,63.657573,66.418064,44.654502,68.712462,76.435092,78.692255,55.050307,77.681401,84.494385,85.525988,-35.625057,355.66885,-59.358902,365.255725
50,-23.006687,-3.791167,0.440083,-0.175124,29.560375,54.950523,74.440384,87.503242,61.233444,93.172531,102.818871,105.990143,45.631371,80.099831,91.040726,92.637177,27.048969,52.139511,59.862556,61.586723,7.480602,9.586945,6.050377,1.452656,-8.5654,-7.584124,0.045695,4.0139,34.824948,54.167338,60.69942,62.297829,54.774097,79.616659,80.596576,75.434056,65.751839,92.022255,96.246786,95.018446,66.923553,94.308131,105.636245,112.68172,26.390533,51.258144,71.260357,85.846882,62.054386,92.167683,103.289623,106.889248,50.459576,82.089443,93.600483,96.15263,35.778522,64.82729,78.186092,84.023151,20.093479,41.386871,52.777462,59.798985,-17.738979,-21.41387,-20.24444,-20.112912,10.956746,32.862458,44.974925,51.369612,29.9726,54.060263,63.32548,66.050402,45.082926,68.750377,76.3881,78.970132,55.242042,77.629283,84.408244,85.7649,-58.490095,351.787867,-58.77717,364.990785
51,23.587074,3.921954,-0.659008,0.970469,-26.510353,-30.612831,-31.280708,-37.416744,-11.204166,-1.330948,-11.907349,-21.735535,7.789764,38.000565,36.031609,32.234459,26.785812,58.956871,55.143585,49.489288,42.798157,67.666283,67.962685,65.158539,34.505574,70.212441,98.890753,116.252252,61.00879,88.399667,98.371432,104.387528,48.93646,79.137167,85.065639,86.481884,36.069342,65.100928,68.015115,67.163144,23.923406,47.224863,53.559467,55.45292,26.343956,51.144218,71.173897,85.535202,62.122879,92.977753,103.618355,106.272354,50.377007,82.463722,94.114952,96.220436,35.566349,64.809494,77.868919,83.016472,20.085697,41.202106,52.098312,58.343582,-18.297141,-21.854274,-20.739555,-20.023065,10.394015,32.284474,44.094611,50.009991,29.729551,53.934662,63.054395,65.502676,45.028092,68.839606,76.181607,78.441981,55.159667,77.778287,84.538043,85.581687,-34.797106,355.67609,-59.330263,365.927523
52,-21.807346,-1.194376,-1.256447,0.192476,28.080082,53.253307,72.762966,85.619488,58.535786,89.959545,99.652576,103.005466,42.59634,76.392117,87.356129,88.670254,23.459301,47.122822,53.171825,53.085194,4.002571,3.433743,-2.384033,-9.699211,-9.263303,-8.635425,-1.525606,2.54739,33.227773,53.828452,60.409502,61.203365,52.763504,78.383256,79.546819,74.885219,63.274783,89.638133,96.842554,98.377422,64.140091,90.406555,102.245159,110.480564,25.764713,51.070061,71.813393,87.304115,62.468491,93.194733,104.432602,108.015976,51.368866,83.447342,95.02224,97.138824,36.919613,66.176262,79.206276,84.469986,21.218376,42.746143,53.632965,59.613075,-18.568164,-22.42707,-21.34298,-21.424614,9.822453,31.718531,44.041382,50.442924,29.238079,53.837776,63.308869,65.718864,44.734283,68.868752,76.631212,79.012987,55.169856,77.904505,84.540451,85.302204,-56.524801,354.49025,-60.507059,366.128536
53,19.534206,5.803489,-0.293999,-0.92922,-18.077946,-20.41975,-21.081505,-27.704144,-4.761486,14.929504,10.028744,4.685154,10.316963,41.116905,40.438385,37.851105,25.443993,56.070671,51.163788,45.248795,38.075752,63.43483,66.427689,67.193527,36.080148,71.955532,99.253351,115.900275,56.731956,81.546483,88.269991,93.292399,42.242592,69.350467,76.853575,82.030359,28.768838,55.072228,63.229952,67.417247,17.133949,37.874862,48.322908,53.88483,25.380535,50.837631,71.625366,87.242432,62.605591,93.678246,104.774895,107.95269,51.295624,83.784027,95.346451,97.616158,36.614914,66.402397,79.814758,85.479469,20.832138,42.738419,53.942986,60.293198,-18.451332,-21.602517,-20.270499,-20.850706,10.89444,33.613096,45.602062,51.491878,29.98847,55.361529,64.647927,67.060145,45.22594,70.017619,77.660097,80.210142,55.362826,78.394433,85.083731,86.381478,-36.918669,360.323611,-60.729132,365.229187
54,-2.208366,-4.289245,-0.839996,-0.223104,-13.040714,-12.049999,-10.844021,-16.077633,3.97316,32.658577,32.371445,28.52108,14.469223,47.671509,43.66848,36.211739,25.061302,55.028343,44.994965,33.423042,33.462181,54.212494,52.530899,47.667389,33.312495,68.742782,96.637233,114.117664,56.761905,84.342973,88.695513,90.605021,46.909194,77.609462,85.82875,91.587841,36.530803,67.146472,75.549406,81.510297,27.45553,50.824603,61.140071,68.115089,25.585556,50.893707,71.941795,87.991791,62.159042,92.782745,104.757271,109.137039,51.198921,83.614998,95.537453,98.089943,36.724205,66.505737,79.713936,85.356216,20.822868,42.646408,54.134674,61.046448,-18.599903,-22.165681,-20.61519,-20.997054,9.916437,31.705811,44.013285,50.51301,29.295877,53.743483,63.174068,65.608269,44.870072,68.864121,76.34154,78.493419,55.48503,78.505892,85.349999,86.33498,-38.990679,356.214384,-61.432772,365.186101
55,-0.393906,-0.1771,-1.337299,-1.091624,-13.636723,-13.12849,-12.167587,-17.142563,2.708473,25.597,25.569763,23.446484,13.054447,41.505432,40.777588,36.659431,23.475494,50.510445,44.293327,36.310501,31.593246,52.603111,54.014282,52.138023,34.262093,70.083815,98.095161,114.783271,58.823751,85.458062,91.084081,93.989993,47.565354,75.984932,84.421952,89.815171,35.902986,64.489475,73.72709,78.893067,25.724789,48.705823,60.145148,66.529462,25.366459,51.044369,72.543583,89.030628,61.583347,93.141003,105.330563,109.900646,50.790539,84.401379,96.684437,99.445782,36.644039,67.770138,81.553516,87.525616,21.129398,44.237251,55.815639,62.541218,-17.708845,-20.968958,-19.357087,-19.39284,10.59106,32.661954,45.1561,51.846881,29.563442,54.009751,63.785953,66.658705,45.118865,69.207021,77.103787,79.765477,55.98175,78.985446,85.561494,86.466755,-39.334116,356.171405,-62.719603,364.228599
56,-0.821657,-0.198127,-1.375866,-0.546059,0.429325,2.733593,1.619596,-3.925438,14.454202,35.698671,36.117697,34.365406,14.469709,34.190626,30.79834,25.621891,14.018526,30.31703,21.79676,13.277664,12.245636,24.194956,20.606317,15.955381,34.743901,69.185347,97.583929,115.249117,59.210371,82.952571,88.852236,92.494491,50.972928,78.561591,90.246931,97.772083,41.76872,70.911395,83.429438,92.302355,33.313174,56.859347,69.258521,77.637991,26.113644,51.336479,72.408371,88.805122,61.530418,93.13179,105.652771,110.749741,50.33123,84.038315,97.002068,100.596771,35.972786,67.203598,81.856155,88.643532,20.574818,43.462715,55.346832,62.82692,-17.641043,-20.570359,-18.512959,-18.307145,9.93453,31.464428,44.497841,52.285309,29.154469,53.843457,64.720051,68.596124,44.918299,69.082347,77.700358,81.107067,55.74043,78.415551,85.949719,88.069796,-40.073318,356.172517,-64.013014,363.881778
57,-0.821657,-0.198126,-0.715828,-0.696051,14.495373,18.595676,15.40678,9.291687,26.199932,45.800343,46.66563,45.284328,15.884972,26.87582,20.819092,14.584351,4.561558,10.123615,-0.699806,-9.755173,-7.101974,-4.2132,-12.801647,-20.227261,35.225708,68.286878,97.072697,115.714962,59.59699,80.447078,86.62039,90.998989,54.3805,81.138251,96.071908,105.728994,47.634453,77.333314,93.131786,105.711642,40.901559,65.012872,78.371894,88.746519,26.333084,51.949425,73.413391,89.901237,61.930504,93.77552,107.016563,113.153114,50.38147,83.946762,97.479515,102.282028,35.711632,66.691818,81.843681,89.89666,19.949341,42.53603,54.997215,63.929901,-17.226204,-20.025967,-17.8145,-18.562977,10.233649,31.97177,45.050816,53.066452,29.006392,52.923067,64.065744,68.579328,44.463569,68.114595,77.571362,81.968176,55.495898,77.863503,86.315405,89.955839,-40.799932,356.031541,-64.633799,363.242877
58,-4.465027,-0.281767,-0.643902,0.281026,14.178486,22.426758,23.651848,20.620193,27.098866,51.10754,54.012966,53.912487,19.185734,35.775661,32.219067,27.657967,10.238171,20.027161,9.404469,0.196667,0.770988,6.265526,-2.101879,-9.23624,31.684322,61.76622,88.544719,104.235189,56.479891,78.22147,85.419777,90.439159,53.711805,80.716372,95.879371,105.490143,48.993271,78.392333,93.857477,106.598686,44.296967,67.016425,79.421404,89.460724,25.987015,51.228848,72.517605,88.998814,62.09856,94.262638,108.181515,115.262203,50.412483,84.344501,98.851376,104.955082,35.574589,66.495037,82.197132,90.985966,19.679832,41.409645,53.696995,62.80592,-17.615355,-20.294952,-17.809807,-19.320037,10.105023,31.560883,44.347232,52.417084,28.798478,52.032626,62.840122,67.344999,44.010815,67.216126,76.538462,81.052665,54.532653,76.915572,85.77793,89.83487,-45.181303,355.792551,-65.194044,363.566681
59,-0.935726,2.594876,-0.926285,-0.232737,14.741478,21.940556,19.237289,12.499008,26.878967,42.964783,43.00415,41.450844,17.66819,26.364956,22.492046,18.952446,7.538509,13.055134,3.221455,-4.030666,-4.02832,0.452671,-6.367207,-11.71257,36.407055,68.769087,95.598715,113.014246,62.276217,83.80982,92.624136,99.135964,55.269892,83.004101,98.366924,107.608244,46.839725,75.911449,92.216769,104.836824,38.124087,60.696209,75.062257,86.551539,25.893345,51.815643,73.527203,90.568943,61.465359,93.948269,108.145237,115.548649,49.910889,84.189663,99.207172,105.969257,35.389194,66.756191,82.769108,91.95322,19.915695,41.720467,53.660717,62.418652,-18.210999,-20.719363,-18.230265,-20.065117,9.119857,30.539469,43.659394,51.897887,28.053089,51.698186,62.788683,67.427498,43.629074,67.671597,77.418468,82.115019,54.37025,77.42174,86.512574,90.597179,-45.880651,358.387983,-65.883951,363.3345
60,2.29517,-0.729396,0.077248,-1.225005,20.304222,29.163151,31.044903,27.205238,24.17244,34.786549,31.297245,26.424465,9.062405,7.710342,0.961647,-4.757423,-5.964775,-9.942284,-18.670464,-25.993309,-20.768566,-26.444378,-33.603973,-38.932171,32.83572,61.515143,86.102613,102.699889,68.968171,92.03621,103.170921,111.094796,67.338022,97.249057,111.33729,119.275676,61.968206,91.174051,104.660279,115.627893,54.613485,76.469611,88.494886,99.267245,25.471458,50.361328,71.620274,88.31068,61.827106,93.776035,108.284397,116.510067,50.261936,84.250088,99.921169,108.129902,35.623112,66.289158,82.475681,92.564678,19.982414,40.722542,52.546062,62.010098,-17.535017,-19.46231,-16.228379,-17.474687,11.33787,31.512594,44.21311,52.859835,30.352612,52.380837,63.146465,68.245691,45.535433,68.612365,78.075801,83.060973,55.478484,78.285258,87.892325,92.788824,-43.440056,357.662585,-65.661278,362.113493
61,-17.268219,-4.689079,-0.968513,-0.986339,0.322895,10.505619,22.82547,28.949718,26.730022,49.852009,56.834049,59.852772,34.160671,59.862156,71.552525,78.627033,36.169853,58.446636,66.781483,71.161709,33.966007,43.783836,49.861622,54.17387,18.957994,39.496984,55.54678,65.863113,61.568804,86.721352,92.264687,95.793599,54.199386,80.171116,91.349793,96.891522,41.263107,67.751379,81.695178,92.428819,26.90027,41.741611,51.519912,62.721869,25.544186,50.920887,72.175426,88.913784,62.588825,93.304424,108.165722,116.970806,50.887127,83.433895,99.171696,107.457218,36.241493,65.719242,81.681347,91.57465,20.428047,41.474419,53.233395,62.481365,-18.027662,-19.496643,-15.63718,-17.526496,11.602594,32.878698,45.779471,54.309487,30.534899,54.20303,65.506504,70.545276,45.92656,70.238685,80.168707,84.954303,56.469332,79.788387,89.275288,93.856921,-60.203676,352.965046,-66.125193,361.118694
62,13.629456,6.367455,-1.007824,-0.536858,23.058414,32.783031,31.543007,24.555187,32.361088,49.205532,51.255283,50.591869,17.135181,24.330654,21.778393,19.015675,1.683598,4.030666,-3.420925,-9.223881,-14.184837,-14.255676,-19.55246,-23.806343,33.877635,63.988617,89.401567,106.554844,62.825363,83.354658,92.082523,98.138077,59.579885,87.431482,102.890759,112.984914,53.826908,82.814713,98.361305,111.039467,46.937476,69.39326,82.856271,94.930452,25.633736,50.780239,72.547646,89.276505,63.262138,93.796234,108.72757,117.741966,51.60902,84.139023,100.169106,108.995132,37.012539,66.750641,82.969551,93.283997,21.015186,42.459755,54.461288,64.183731,-17.951648,-19.655403,-15.823234,-17.668645,11.719611,32.768288,45.577547,54.049518,30.42628,53.878099,65.425056,70.909789,45.734887,69.826563,80.147218,85.327522,56.285315,79.582202,89.638627,94.96565,-46.146441,359.297304,-66.705236,360.546638
63,-15.224876,-4.056323,-0.833473,-1.941371,26.074848,43.698235,60.304585,71.125431,49.126453,78.746395,91.100292,99.973927,37.980709,64.949284,80.347538,88.453732,22.540169,40.581036,50.295467,54.564342,5.966835,4.634399,2.369213,1.045818,-2.455814,7.064371,16.830075,21.349834,36.780583,56.801672,64.526278,71.094484,46.901599,73.589139,85.012224,91.209866,49.332898,80.580459,95.459159,105.645939,46.012023,73.297369,87.135512,99.71648,26.884689,52.237015,73.6409,90.360489,63.491249,93.839149,108.929329,118.363037,51.510944,83.478127,99.664421,108.899689,37.099171,66.23188,82.244453,92.643127,21.48365,42.981949,55.136261,65.111504,-17.289498,-18.487641,-14.014132,-16.200529,12.729539,33.403515,46.501333,55.591982,31.604417,54.93681,67.128194,73.335222,46.983542,70.933316,81.394824,86.91741,57.640428,80.72582,90.760076,96.162373,-61.159801,355.174569,-67.327194,358.538854
64,7.841835,4.112269,0.073299,-0.517407,18.790569,32.767982,36.428719,34.115696,41.572437,66.400394,70.630131,72.757587,29.486103,48.437176,49.920902,50.643482,16.157227,29.11726,23.364372,18.808537,2.579212,11.317577,7.388191,3.797493,29.344722,54.407485,76.284668,90.307384,51.121437,70.306055,79.566332,86.295645,50.061491,75.416087,91.499846,100.940867,46.531035,74.362193,91.036718,103.745694,42.526891,62.695873,77.170478,89.507963,26.198902,51.39473,72.936001,88.844204,63.023243,93.990269,109.067287,118.429241,51.061878,84.099941,100.891514,110.529156,36.361313,66.333103,83.144245,94.019566,20.302906,41.121998,53.571625,64.149914,-17.280235,-18.488259,-14.042105,-15.652741,13.189517,33.286436,45.960893,54.584832,32.033582,55.389811,67.619789,74.02942,46.986629,71.010257,81.717778,87.548005,56.847862,80.176364,90.822012,97.0086,-53.141985,359.248506,-67.077913,357.983116
65,-0.405006,-1.914325,-1.79987,-2.143913,25.341568,41.76527,46.210384,44.411831,45.908146,72.112713,77.337627,79.421368,27.877693,44.21339,43.418827,41.208401,9.257298,15.777912,9.778061,4.420223,-9.233608,-7.405128,-12.695446,-18.301334,26.338156,51.434944,72.481584,89.070894,51.320212,71.339819,82.103965,90.644109,54.465037,82.613097,99.595943,111.067564,54.48103,83.810129,100.112794,113.862202,52.695826,74.359105,87.049247,99.102186,25.842762,51.252193,73.121681,89.856262,62.371445,93.517799,109.49501,119.987869,50.820293,83.638229,101.253777,111.927795,36.460762,66.236916,83.422852,94.733849,20.50787,41.646194,54.29718,65.054512,-17.056637,-17.663829,-12.610607,-14.324428,13.197545,32.686778,45.150851,54.416439,32.305222,55.900487,68.662568,75.844264,47.51052,71.754226,83.364168,90.201235,57.842043,81.456697,92.402081,98.967694,-53.344088,357.301376,-68.674879,355.806399
66,0.209198,5.747234,-0.636292,-2.049434,31.118145,51.509342,60.948658,63.604717,51.63763,78.386364,83.953571,86.201763,32.471294,47.79974,47.900791,46.209354,12.666378,16.568756,10.515461,5.524292,-6.694851,-8.118782,-15.102768,-21.61068,21.759054,40.571317,58.792382,72.963361,40.614172,57.152785,68.244518,78.785004,46.028016,70.288147,89.449733,102.97863,49.696485,75.923367,95.268412,110.664704,52.557072,71.47215,84.922254,97.041513,26.045094,50.705223,71.932869,87.84771,61.976051,92.862511,108.689919,119.015694,50.733147,83.385315,101.086922,112.405586,36.481361,64.688187,80.983429,91.764221,20.632553,40.406513,52.481747,63.090019,-16.922392,-17.507477,-12.115616,-13.643383,12.450983,31.357662,44.65549,54.756993,31.962569,56.038993,70.235227,79.084988,47.408076,72.633181,84.949177,92.553864,57.763682,82.148734,94.07206,101.660815,-52.704735,363.007191,-68.881016,353.715545
67,-3.098545,1.786748,-3.683224,-7.136063,15.199471,26.1759,25.30798,19.87833,47.34169,77.97821,82.608948,85.263176,36.914635,60.675087,61.654129,62.654114,22.679901,36.29488,35.154133,35.35944,5.00885,10.482674,8.009377,6.767292,31.947378,59.300094,81.838068,98.411632,35.941642,47.235545,61.105799,73.315647,32.159615,50.245878,70.912876,85.946446,29.963399,51.005285,73.570305,90.859556,29.929375,48.346497,64.784765,77.438536,26.900425,52.598076,73.504658,89.636135,61.716328,91.948643,109.226131,121.549587,49.877415,80.831051,100.078983,113.791409,34.729557,60.315228,77.243099,90.095959,18.233757,35.341244,45.783634,55.305004,-16.460807,-15.006894,-8.311173,-9.103122,13.373163,33.107175,46.242599,56.521572,31.470974,56.655077,71.65629,82.031285,45.807752,73.76167,90.892346,103.114172,55.09699,81.566798,96.286923,106.156368,-55.472002,364.770428,-72.232962,346.555971
68,10.045681,-41.826148,-1.852856,-12.597578,35.904408,50.620823,48.887501,40.11961,60.340862,64.256229,56.216984,45.337086,40.440502,44.454403,37.320957,26.598816,18.399582,22.357807,19.28627,11.749363,-2.674313,0.299091,0.926342,-0.579414,21.228989,49.870559,76.337403,94.031922,87.452168,121.442127,133.066333,137.673223,94.388654,130.370743,140.233086,142.783872,94.014941,130.01648,138.733045,142.780723,87.906651,117.002643,125.875745,132.623953,26.153641,51.826515,73.533325,90.78907,56.771507,85.557632,101.94706,112.927551,44.777298,74.022217,92.409897,105.475388,29.513168,53.350639,69.467239,81.979752,12.33633,21.261292,27.116489,32.532406,-16.304455,-12.123767,-3.792896,-2.702013,20.714731,43.066837,57.383979,68.054018,37.31423,65.074375,81.02216,92.472971,49.412247,80.927558,99.718764,114.066102,56.022444,85.361979,102.435721,115.681308,-45.247393,322.933397,-73.906889,333.947509
69,96.14851,16.876388,-4.146538,-11.815139,-37.26059,-65.577049,-88.440685,-103.092785,-49.985275,-68.973541,-82.788105,-88.200302,-37.517509,-56.152611,-70.894775,-77.775993,-26.706161,-42.501297,-56.826668,-63.831711,-16.702995,-28.804779,-39.912758,-47.039452,8.787392,28.554317,43.76511,56.185465,62.560454,87.635197,90.19117,86.916298,67.788367,97.050344,100.637425,99.898458,66.917625,92.140815,96.326814,97.306484,60.393755,81.460402,92.499524,100.5921,29.361534,53.199692,71.741066,86.327591,51.660118,81.264725,95.180168,104.073143,35.390396,60.43499,72.131882,78.309517,17.308502,35.739956,46.406422,54.600334,-0.373192,9.253578,16.01532,23.434467,-15.574565,-12.466976,-4.139809,2.435992,19.984903,42.970197,56.780615,67.438304,36.394767,72.611754,97.623573,116.720629,46.98064,81.87024,104.07612,120.842592,52.734667,79.470125,94.007654,103.322395,50.874395,339.755614,-78.080149,322.0782
70,-10.832748,-5.007773,-31.03426,-39.264308,-28.944511,-53.246613,-71.826839,-83.83667,-38.166847,-54.952984,-60.520592,-62.543678,-17.534294,-28.449211,-34.929771,-35.806618,1.631584,-4.911003,-10.475807,-12.528191,16.136742,14.25602,11.021461,8.541069,-3.816855,-2.638657,-5.212661,-8.983512,22.027854,55.32275,67.043472,70.891819,31.261455,70.934366,88.0036,93.512601,37.123668,72.679556,89.794856,97.877861,39.043983,68.652873,83.597152,92.880277,33.009224,61.560745,82.109184,95.952244,61.826248,93.947582,102.295933,103.311939,43.339634,70.654507,79.769497,82.918167,22.553272,42.237568,52.080803,58.882942,3.845158,11.936989,17.059708,23.141727,-7.637167,3.09419,17.912313,31.287637,35.12419,66.204284,82.576109,91.755802,50.468488,91.383323,110.213803,117.990773,59.361474,97.987653,115.364898,123.435739,61.818646,93.679204,106.316302,112.476029,40.513172,334.881824,-108.642883,282.947875
71,43.637352,-122.559068,-42.619171,-72.28565,-35.541115,-60.654488,-78.337898,-87.192307,-51.961327,-73.188629,-83.419418,-90.068779,-31.696701,-47.437134,-56.451416,-62.17495,-11.493187,-22.486038,-30.955811,-36.987419,6.713676,0.591202,-4.644814,-10.350037,5.644482,20.796057,39.43406,56.629389,43.050349,77.494915,99.674551,117.829604,53.378847,98.98943,125.810351,145.654958,59.52962,102.27696,128.576399,147.630291,62.167536,98.461032,118.139653,133.698781,36.304035,67.228031,90.663128,107.295799,62.191257,90.283756,99.54277,104.095287,42.034092,66.31382,75.709877,80.308571,21.268902,40.061646,49.426403,54.924603,2.960873,12.779388,18.021755,22.649803,-3.601222,7.113709,22.892483,36.563098,39.613816,73.547458,93.127031,107.253241,53.921633,95.778347,117.640278,130.646396,63.015246,103.246998,122.179489,133.057997,66.747379,100.033383,114.727202,124.072571,85.017099,212.485946,-150.395479,210.825416
72,10.326691,-30.764179,0.852985,-14.795275,-37.939796,-66.334419,-84.884491,-91.338844,-55.853806,-76.661568,-86.206741,-93.245316,-35.356407,-53.062248,-62.289619,-68.682632,-15.236549,-28.720551,-36.866913,-42.76886,3.022385,-3.866386,-8.787804,-15.000916,2.705965,16.817478,35.717365,54.73643,41.071928,77.317691,99.060875,115.164889,52.547625,99.797311,126.130465,144.714684,59.891848,103.543894,128.835936,146.298273,63.287565,99.616876,119.379972,133.822158,33.939228,60.496616,78.480492,91.864986,55.245724,81.342773,89.517345,90.932865,34.044628,55.999203,65.53133,69.235325,12.742825,28.289394,38.179493,44.28297,-6.494865,1.356697,6.765919,13.030586,-12.01626,-5.394145,7.696942,21.485932,32.115463,66.370825,82.055244,90.554756,47.173486,87.776173,107.371061,116.894394,55.85652,93.388853,111.631963,121.693081,59.869309,92.067394,107.677343,116.800534,95.422297,182.23002,-149.463987,196.538393
73,21.132202,-66.877734,-39.816914,-77.378824,-35.622482,-66.61274,-87.779503,-94.64344,-57.599602,-77.631226,-87.244148,-94.874153,-36.411095,-55.133514,-64.856415,-70.956688,-15.604477,-30.313339,-39.19487,-45.237236,3.296013,-5.13073,-10.14164,-15.24868,-1.321274,8.26486,22.004018,35.723663,33.480765,71.111527,92.30044,107.730201,44.260534,90.834115,116.427376,134.026984,51.791059,95.709248,120.062129,137.040405,56.216896,92.90967,112.467013,127.519911,39.537735,71.7033,93.966808,103.82,60.212631,86.954155,97.56094,104.601002,41.654034,64.830666,75.982647,83.118553,23.215256,43.828583,54.247456,60.913811,6.415157,21.374702,27.99448,32.812843,-5.834611,0.802076,15.302061,33.285633,27.223348,63.024138,84.875509,101.292659,42.897085,84.637152,109.321077,126.40297,54.512214,94.621453,116.415396,131.222219,62.985729,97.839391,115.775909,127.883745,118.559475,118.494656,-187.275925,122.30194
74,21.219177,-62.053576,-24.892616,-62.458905,-32.505684,-63.850708,-84.291801,-96.767464,-55.285835,-76.687088,-87.528992,-96.366348,-35.465813,-57.03186,-67.841377,-76.804848,-15.091782,-32.88723,-41.955299,-49.741516,4.071465,-4.955635,-10.100441,-15.817223,-4.354793,1.098355,8.124255,11.721278,17.686522,50.57087,70.644725,85.773329,28.834695,70.201295,95.152784,114.570819,37.984685,76.400605,98.89171,116.709421,45.362192,76.603393,96.265836,112.618456,36.632595,69.526405,92.939415,107.119846,61.202717,85.829372,96.191368,104.244518,42.368202,65.88089,76.613045,84.180107,23.374214,44.854259,56.839027,66.007404,5.662022,23.051949,32.332878,38.888626,-7.692805,-5.096262,1.29151,10.790854,20.467359,54.394055,75.176958,91.649375,34.360492,75.709988,99.840135,118.230457,44.672687,83.026733,104.232997,119.665475,51.585584,81.429126,95.184524,103.336134,140.664682,58.357628,-211.282511,61.759582
75,22.70359,-55.859762,-12.279282,-57.338376,-30.0214,-61.56189,-85.442276,-99.102173,-53.193054,-77.550659,-88.362236,-97.129784,-34.533577,-59.220428,-71.880684,-79.588852,-15.730476,-34.843826,-46.777153,-55.677795,1.852226,-8.363228,-16.232414,-21.891975,-5.024816,-6.77541,-10.25134,-12.838744,3.490689,34.132571,53.089114,67.853051,11.172656,47.200101,71.229749,89.431269,21.372744,56.626486,79.115863,95.116074,32.524899,64.156579,82.16198,94.965218,32.271023,61.547527,79.647503,90.304985,59.091568,79.834156,86.575356,88.733997,40.035553,57.781448,67.975445,75.871639,20.174618,35.361843,45.569115,55.02903,1.800213,13.29546,19.587765,26.114559,-7.565784,-6.199309,-9.268768,-18.572363,11.90619,39.31939,57.308952,71.21675,23.889444,57.925838,80.458996,96.731279,33.871151,68.398739,90.555528,106.999879,43.223745,72.436228,91.20718,106.085294,166.073399,3.794671,-220.856667,5.718011
76,16.702309,-34.329524,-20.051365,-47.747395,-30.632286,-58.778114,-80.649147,-95.909958,-49.085197,-71.686249,-81.891747,-88.284302,-29.824562,-49.665298,-62.739601,-73.476219,-9.413223,-24.002266,-37.631378,-48.598824,8.981438,0.806808,-8.738136,-17.406349,-11.317585,-18.179414,-24.146541,-31.955406,-26.724251,-7.654982,12.890862,31.747585,-17.923304,7.912574,33.070371,53.253524,-5.275708,19.096469,43.76968,62.174452,8.979807,31.42778,47.847214,59.91695,29.755669,59.47649,79.691734,93.332348,55.275822,78.7603,89.682941,97.301674,38.621693,58.248253,69.820461,77.398281,21.312618,38.143616,49.469719,57.367744,5.298042,18.287716,25.411777,31.148758,-13.662649,-17.59578,-22.472951,-30.718144,-6.702019,11.957504,27.977197,42.65561,5.642475,34.484888,56.319525,72.451141,18.783395,49.164752,70.806079,86.017429,32.339926,57.894871,75.699243,89.539703,184.380569,-23.199445,-239.303169,-34.693975
77,-0.727501,-28.601865,-20.689316,-20.698985,-31.86161,-51.561928,-65.588608,-78.172302,-32.025604,-47.690964,-60.171204,-69.406357,-12.331123,-30.557899,-47.100563,-58.202133,6.124535,-5.478401,-18.99147,-29.616394,22.271576,16.88839,9.6175,3.02536,-13.578298,-29.357967,-41.707402,-53.819621,-41.780421,-33.281002,-16.232176,-4.276432,-37.021472,-14.746832,2.334227,14.157177,-26.377429,-4.874053,10.960822,21.249212,-13.602875,2.899799,13.523031,21.817131,40.189476,67.056484,88.769646,102.978802,55.935001,77.086601,86.861687,94.468689,38.122215,59.226151,70.27153,83.017788,18.867359,39.375801,49.593201,60.522194,2.049637,23.079185,34.083538,44.61525,-17.074514,-34.295253,-52.165297,-69.991745,-46.653671,-29.932123,-16.590205,-5.967745,-43.511471,-5.674863,14.4709,30.549256,-32.237883,6.711807,23.805494,36.927796,-17.068308,10.112834,24.670833,38.340213,183.479261,-50.253674,-260.166292,-53.845325
78,12.693901,-33.764878,5.972729,-32.485904,-31.564407,-54.838371,-70.223465,-83.231277,-33.307114,-51.466827,-56.634521,-58.864059,-12.288895,-33.349915,-39.134216,-40.810547,4.912262,-11.357574,-18.31089,-21.287041,19.356422,8.769035,1.954079,-1.486015,-14.100521,-32.212782,-46.72561,-56.801857,-46.877084,-27.56313,-13.311505,-10.309509,-41.223649,-12.567475,-2.438462,-3.623669,-29.960405,-2.317153,7.001076,5.867586,-15.350411,5.686842,13.004729,14.110587,37.947865,56.947746,72.132797,87.951736,41.349049,65.432224,74.558945,80.305939,23.479099,48.487473,61.329803,71.934643,5.129814,29.375267,41.241417,52.435284,-9.996014,7.737865,18.803787,28.9044,-19.368356,-39.919357,-59.631524,-75.494016,-55.68751,-43.505203,-28.192459,-18.220787,-50.386437,-21.996794,-2.120756,11.527258,-37.230311,-6.477155,12.791258,26.861553,-18.927489,4.674877,18.288311,29.101827,195.855188,-81.374585,-254.511538,-83.687261
79,15.063858,-10.022864,-4.614143,-31.937807,-34.117584,-56.040459,-70.799675,-87.163811,-41.194954,-60.818024,-70.444794,-75.293198,-24.013138,-46.995163,-56.708679,-60.758972,-7.281876,-27.997742,-32.030983,-30.869293,6.401138,-9.422722,-13.719749,-13.463974,-15.467861,-32.594183,-46.897215,-60.743865,-53.75324,-45.629232,-34.102684,-26.729716,-50.261902,-30.673838,-18.677801,-13.027268,-39.734198,-16.432155,-9.221343,-8.400156,-26.261092,-6.511859,-2.103003,-2.806834,38.402481,58.867264,77.34129,94.896927,44.166985,68.025055,77.505798,84.773083,26.285248,50.736752,63.378296,74.286003,7.885151,30.509262,42.464848,54.668655,-7.146893,9.647884,21.067944,32.216206,-16.912604,-34.202519,-52.160743,-66.778872,-49.03452,-38.699045,-24.246176,-15.172725,-43.343834,-20.229111,-1.562038,11.080123,-29.535994,-2.267475,15.25723,27.861693,-10.232105,11.911685,24.795693,35.362794,211.389284,-89.134342,-258.655443,-113.361962
80,-1.339645,-13.258956,-2.470207,-10.736668,-29.384651,-50.102348,-65.336494,-82.841949,-32.643242,-53.657455,-64.66713,-71.973839,-14.880409,-40.028114,-50.248489,-57.159462,1.997223,-19.625816,-27.366371,-31.932564,15.959358,0.130692,-6.087227,-8.948593,-14.103516,-28.790296,-40.455643,-52.097078,-51.708128,-41.111942,-27.894081,-20.188031,-46.406145,-25.176013,-11.704266,-5.014411,-33.348989,-10.929329,-2.959821,0.228353,-17.377492,-0.192507,3.432026,4.928208,36.224613,57.828083,78.720989,97.184601,48.19891,70.001392,82.076569,91.452656,31.351376,53.137264,63.832741,75.231571,14.452572,35.719013,46.398926,56.737061,0.083084,18.654156,29.380646,39.55101,-18.273552,-33.433155,-45.88792,-60.308663,-49.061165,-38.382265,-23.995021,-11.972355,-43.73263,-19.130386,-1.58609,10.099403,-30.966983,-2.825514,13.168368,25.217232,-13.722933,10.475834,23.21056,32.790426,210.793104,-101.793779,-260.382185,-123.49911
81,-1.6745,-9.034857,7.600765,-4.822584,-28.651772,-51.305923,-68.145447,-85.330696,-35.85743,-53.90831,-63.353004,-70.051804,-17.376709,-37.098885,-49.165077,-55.916176,0.974464,-15.019684,-26.072044,-34.075699,16.793633,8.109856,0.513954,-6.397934,-8.369157,-23.195307,-34.303898,-44.904128,-39.382576,-22.791336,-7.334498,2.63702,-31.672821,-11.526795,3.951285,13.647304,-19.179107,-0.24237,16.181541,25.648126,-5.222665,10.967614,22.819371,30.905711,32.494755,58.387241,79.265728,99.401836,50.011654,70.883102,83.474751,92.685814,30.658035,52.132416,62.552662,72.497692,12.360535,31.060352,42.993851,54.763069,-3.48278,14.620056,26.447067,37.505722,-11.90321,-23.210729,-35.431383,-48.370209,-40.163055,-27.329451,-12.320859,0.317582,-35.59973,-8.724793,10.731048,24.795569,-23.044405,8.030672,26.980824,39.836982,-7.031319,17.510441,32.296639,43.035406,210.360003,-110.622683,-251.540022,-128.115741
82,0.850983,7.407085,3.005161,3.346533,-29.120407,-54.203224,-73.757629,-92.04071,-38.038101,-55.79567,-66.964417,-75.537872,-20.029106,-39.474106,-52.99324,-61.009712,-4.468231,-21.926079,-32.840195,-38.326263,7.398491,-2.408638,-8.99231,-12.212563,-8.382773,-17.627056,-27.205595,-34.112039,-28.752675,-11.195905,5.698081,18.361639,-23.844428,4.653943,23.722872,35.199279,-14.207133,15.187483,34.620801,44.711713,-3.897099,21.433043,34.448177,43.065725,32.683067,62.778683,86.789017,106.489849,57.590332,77.349815,89.972076,97.875996,38.838387,57.356701,69.229259,76.866016,19.576378,34.035416,43.219185,51.285954,3.223171,15.30447,25.157318,34.686241,-4.952923,-12.830979,-22.374598,-29.839729,-27.086278,-19.742039,-10.512467,-1.563212,-24.280879,0.616794,24.580122,46.939884,-14.294063,11.713899,35.180784,54.027504,-2.911192,22.297889,40.477519,53.083001,211.78256,-102.564949,-247.963285,-124.11856
83,-2.882423,35.125641,2.96608,18.215229,-32.927284,-59.878693,-80.946121,-102.012634,-50.68943,-62.73468,-73.42186,-84.460258,-32.962646,-46.926155,-60.64579,-71.415024,-13.660355,-25.363083,-37.665024,-45.779686,4.638405,-3.110504,-10.253448,-14.886589,-9.323911,-16.069001,-25.589093,-36.23718,-26.67485,-16.839646,-6.260319,4.137463,-23.397108,6.236699,31.837617,53.333954,-12.698602,20.424535,45.567543,63.883395,0.944133,29.580516,47.147675,59.837322,38.127823,67.603912,92.549343,111.276684,62.739487,79.895153,92.221699,103.016682,42.788773,53.952255,59.645119,68.485165,21.025658,31.347027,38.503532,47.084656,1.011715,15.956383,23.54147,30.281868,-7.643188,-9.694876,-15.113907,-23.662403,-15.867139,9.944719,28.927197,47.184663,-13.909867,30.763623,55.587628,77.451936,-7.548988,42.370539,65.637817,84.504636,2.800628,40.668945,60.043661,78.895599,209.47958,-67.186486,-244.417763,-105.650509
84,-4.972916,8.169178,1.384678,7.420238,-29.57531,-59.007797,-80.634842,-98.052521,-51.614456,-66.825714,-74.412117,-82.523918,-32.563934,-45.76664,-53.414497,-60.707703,-11.888466,-21.620407,-32.469177,-39.949951,8.071175,2.97123,-3.967667,-9.407616,-6.634958,-7.788765,-13.637301,-27.390136,-10.377959,18.065886,37.361068,55.253528,-4.559033,31.676541,54.067487,72.412948,3.980956,37.213824,61.237544,78.957504,13.891064,42.34658,58.779414,72.831246,36.997719,68.900356,95.729485,117.608929,65.452595,83.014355,92.643242,99.76181,46.235619,56.735115,61.976051,68.942299,25.695992,32.545738,36.324692,41.069412,5.611095,12.04422,15.593719,18.87886,-7.997852,-2.83845,-1.919141,-6.839661,-0.251077,31.040234,56.838939,80.686454,1.96956,43.384635,66.236363,87.810352,5.934215,50.272462,74.352004,96.144342,12.764397,50.00289,71.775252,93.25575,205.728636,-56.272919,-241.811113,-95.485882
85,4.213943,2.302426,-0.246277,1.778474,-30.561905,-62.415962,-86.513329,-104.164696,-56.733284,-73.860397,-82.211609,-90.310936,-38.039474,-53.913345,-61.826706,-67.889099,-17.890663,-30.343895,-40.061646,-46.503754,1.083412,-6.041451,-11.423607,-16.113396,-5.288614,-5.651367,-11.397922,-25.383958,-10.001189,18.693085,37.874646,54.939218,-3.941992,33.787201,54.724944,72.443916,4.680465,39.381387,61.880921,79.005083,14.055135,43.575351,58.568846,71.282483,37.560253,69.438744,96.982098,116.697693,66.925507,86.104259,93.336296,98.164959,47.034588,58.32407,62.581387,66.201668,25.828629,35.112247,37.293892,39.551697,6.21397,17.149544,18.057632,17.897186,-4.05657,2.540227,5.210068,-0.555723,0.353984,29.517006,51.98409,73.128605,1.653583,50.17221,76.994273,101.77953,6.497841,56.708089,83.358518,105.495176,14.527772,54.078139,74.002651,92.938168,211.390085,-53.623811,-240.609884,-93.360726
86,1.580887,-1.170047,-4.439106,-1.897652,-28.870583,-59.898834,-84.70356,-102.243004,-52.133217,-75.912666,-90.723495,-104.310608,-35.777664,-57.341995,-72.868538,-85.9655,-18.968811,-34.697456,-48.710289,-60.277863,-3.873024,-11.329308,-17.679062,-24.717865,-7.84363,-14.381393,-22.944817,-36.388622,-18.561834,2.814121,19.004338,33.396352,-11.962876,17.748983,38.909521,56.40755,-0.976151,31.15685,52.560561,68.601991,12.606439,42.493453,59.149392,72.790552,37.609463,71.041317,96.627388,116.031876,67.314377,88.547688,100.074863,109.401226,48.376522,63.416862,72.11792,78.087845,28.769875,42.153625,50.62912,56.766758,10.804768,23.835239,28.478565,32.215061,-4.362358,-3.135192,-4.425837,-11.812236,-9.631335,16.736677,37.382063,56.516107,-5.524562,39.026013,63.88395,85.22128,3.086255,46.094274,69.740946,88.715829,14.763165,49.817361,68.347147,85.19022,213.642082,-54.768123,-244.37788,-95.232643
87,-2.319145,-1.258443,-4.110203,-2.312615,-27.821732,-56.84864,-80.463295,-96.144104,-50.851822,-73.614464,-87.913857,-99.847527,-34.78466,-56.372337,-70.184097,-82.341156,-17.998352,-36.107597,-51.409264,-62.868576,-2.781372,-13.482742,-22.936935,-31.457062,-11.435281,-19.9414,-31.067466,-47.149527,-25.564516,-6.765344,7.293125,20.678824,-19.144974,9.238479,28.196936,44.053269,-7.794693,21.353262,41.188883,56.669218,5.645099,33.25553,47.315759,59.170202,37.984085,70.752983,94.813042,113.077469,65.555134,88.614349,102.701054,113.576088,47.822857,67.271519,78.715839,87.130108,29.952507,48.735752,59.864845,68.351212,13.959675,30.963821,38.069744,44.056549,-7.843352,-10.806909,-15.418769,-25.049919,-20.053971,-3.835195,11.87834,27.849312,-14.63562,25.567079,48.036356,66.373758,-3.966754,36.250147,58.714762,75.756116,9.632045,42.429542,59.441224,74.234524,211.374121,-56.523394,-248.436899,-98.042086
88,-1.740303,-0.338269,3.111019,-1.475063,-24.96769,-52.943001,-74.355698,-91.04084,-45.319519,-68.765602,-82.354889,-95.425873,-30.578613,-55.823364,-70.687523,-83.627815,-15.576096,-36.290131,-53.256226,-65.955505,-1.29467,-13.714828,-24.175072,-33.38562,-13.868309,-23.028643,-33.64252,-48.682296,-30.328993,-10.426742,4.574532,18.794849,-22.500708,6.884152,24.633042,39.5981,-9.977014,18.358737,37.272981,51.712883,4.494843,31.325366,44.288816,54.710772,38.234596,68.280716,92.229366,108.881836,61.063271,84.153786,96.71196,106.469765,44.945068,64.552917,77.29351,89.489479,27.728806,46.617107,59.411488,71.198502,12.538433,29.592476,38.410892,46.239166,-10.41291,-17.359862,-24.258217,-34.330342,-25.252893,-11.949785,4.704826,21.290523,-19.468176,14.038246,34.061157,51.397585,-8.756919,26.917869,47.272349,63.505328,5.342553,35.194215,51.28242,66.472219,210.410328,-57.270759,-244.54937,-99.926246
89,-1.879692,7.017132,1.809425,3.63253,-31.018524,-58.564224,-78.317642,-95.681305,-50.039177,-72.658882,-85.60421,-100.027084,-33.074112,-57.512856,-73.19458,-88.760948,-15.842628,-37.281418,-54.108696,-67.236099,-0.212746,-14.938889,-27.450829,-39.0588,-15.940406,-25.882562,-37.392838,-53.492128,-30.133028,-11.306408,3.327946,17.725271,-22.156326,5.263358,23.221088,38.650262,-10.390927,19.254334,37.842628,52.315875,3.118334,30.569603,44.828329,56.648192,37.956219,68.577461,93.455944,110.869389,65.205688,86.85339,100.458126,109.60556,46.594219,67.57988,80.787449,92.726097,27.923641,48.14661,59.521809,69.712772,10.808315,27.476177,36.217461,43.701153,-12.420262,-15.91975,-22.482708,-33.546899,-21.714038,-7.644979,10.063897,28.849175,-17.675314,18.263827,40.392581,59.827134,-9.071722,30.117683,52.123646,69.247283,3.042443,35.815023,52.676065,67.650911,208.956671,-50.25105,-242.31391,-96.291138
90,-3.480377,16.125533,4.863853,7.841808,-33.710632,-63.972702,-85.949821,-102.254906,-59.927902,-79.294167,-95.54306,-111.038361,-44.004822,-64.481621,-78.1604,-89.536743,-25.699654,-42.168846,-54.177589,-61.306915,-10.489082,-19.041252,-28.896904,-36.247559,-14.350086,-22.4401,-31.862008,-44.188348,-22.167225,-4.137586,10.536504,25.090644,-16.322116,8.097795,26.040087,41.86573,-7.657669,16.839121,36.321006,51.869852,0.756659,25.544972,40.398602,52.191016,39.587975,72.625294,98.773441,119.391918,70.924301,90.458279,103.057137,109.642525,49.343948,67.349453,79.109974,88.114471,27.924271,45.477161,54.686794,63.06118,8.578777,24.336834,31.721935,37.790794,-8.126262,-7.354845,-12.205803,-21.786873,-15.049162,10.574727,32.787555,54.90436,-11.899768,31.781239,56.821124,79.856652,-4.521952,40.145456,65.295781,86.967798,6.590899,41.974102,62.590187,83.534197,205.944271,-32.804536,-236.982079,-87.128349
91,-7.88784,20.362785,4.120102,12.082116,-35.889702,-70.231247,-93.445702,-109.804001,-63.549957,-78.473969,-92.432327,-104.532852,-44.660797,-53.340912,-59.568214,-65.817032,-21.946449,-27.183838,-30.722809,-30.923538,-2.981186,-4.658089,-8.786545,-11.607399,-10.938653,-16.490725,-23.656892,-31.820203,-14.035498,5.78518,21.321337,35.650612,-7.952095,16.323413,29.900723,40.639891,-2.340433,19.329361,32.572663,41.486026,1.457927,17.870291,25.171043,31.351086,40.999832,76.480236,105.21286,128.214626,74.682255,95.578766,103.848553,107.967339,54.664478,69.97467,79.730186,86.89024,32.781029,47.750416,54.888096,59.038696,11.983051,26.035995,32.82074,36.44165,-7.746558,-1.668928,-1.401487,-2.957258,-2.32972,31.657398,58.811463,82.580864,1.937543,49.844562,77.392224,100.609792,7.814299,51.941297,77.239638,97.070289,15.105972,49.386837,68.982898,85.437345,198.940887,-11.698523,-231.97752,-74.303005
92,-22.148438,27.314492,22.827301,24.053206,-26.423607,-58.851357,-82.457428,-97.779007,-53.356247,-76.271324,-89.188499,-101.387215,-36.128998,-57.459526,-69.901886,-80.037003,-18.711777,-36.955032,-48.774948,-57.92942,-1.426506,-12.465477,-18.623657,-23.707008,-10.828737,-10.93924,-12.176687,-16.674927,2.67651,27.223966,42.073921,56.09429,15.819406,48.311145,70.330076,90.023857,28.316732,59.879035,82.078061,101.93051,39.627462,69.10995,86.951218,103.94101,32.201557,64.151974,88.768272,105.339203,59.234905,82.073765,92.572346,101.234264,40.269928,58.582649,65.672436,72.114887,20.815544,35.506611,42.948761,50.204887,2.884598,14.894314,18.733177,23.532372,-2.556004,2.615439,6.441679,5.375003,7.903559,43.311739,64.318581,80.600157,16.028369,64.89181,91.945808,109.057217,26.21836,73.209158,97.491674,112.897167,37.437114,74.146035,93.688219,108.695329,179.066534,15.763815,-206.876135,-50.101953
93,11.812019,20.627602,-0.739117,20.416786,-38.189621,-71.251602,-96.338539,-118.12294,-65.045471,-93.632126,-110.764389,-125.144119,-48.403702,-74.948158,-90.216751,-102.171593,-30.084801,-53.420334,-66.535034,-77.190056,-12.761307,-29.478493,-37.28096,-43.728676,-7.327119,-7.284573,-5.999238,-6.873438,4.410585,28.853652,49.238111,65.873147,15.764695,48.545395,72.623486,93.446219,26.225801,58.715225,82.742403,102.794676,36.574306,59.158346,75.011436,89.18717,29.969845,61.581802,90.186768,113.040676,60.816422,82.132759,96.861649,108.267975,44.279022,64.471493,76.707802,84.207401,25.711269,42.42857,53.433609,60.876503,8.205128,24.995441,33.040409,37.013855,-6.305582,1.925841,9.584992,7.323691,7.239495,38.291832,59.091408,78.351732,17.902093,60.189547,87.544238,110.479823,28.614153,69.485577,92.084777,109.507285,37.655062,69.535194,85.974852,100.162132,192.486992,36.076073,-206.006813,-30.000511
94,-24.218102,34.021853,1.835861,20.903194,-26.724358,-59.488335,-84.62677,-102.481728,-56.577873,-87.409859,-104.738159,-119.608383,-42.697334,-73.67775,-91.265144,-105.499992,-27.507019,-54.0485,-70.479813,-84.393997,-11.647568,-30.090981,-39.80072,-49.651337,-14.873883,-16.772369,-14.465713,-14.725652,2.676633,23.897379,36.611109,47.375009,21.02512,51.210543,70.736054,87.059096,36.928661,66.664849,87.082932,104.561139,50.220468,79.811018,98.07537,113.917994,36.486912,67.457542,92.909317,116.545773,62.090607,85.082645,104.126816,120.659695,48.670349,72.588043,89.997826,102.468281,33.428192,55.004025,71.846123,84.751396,18.531246,34.371758,46.084328,55.809746,-8.127929,-3.596961,3.251931,6.950719,4.120574,26.871402,44.439054,60.392335,16.974818,49.990602,73.920399,93.79267,30.159457,62.923423,86.722433,106.999879,42.095318,68.00085,84.489415,99.896358,167.441826,69.262936,-204.998016,-9.932307
95,8.956032,25.169468,2.097759,25.757548,-37.710571,-72.117577,-98.178177,-120.246506,-69.341583,-102.543297,-124.254112,-143.698425,-58.033676,-89.427567,-113.724403,-134.200287,-45.427322,-74.712753,-97.836685,-114.547462,-31.814461,-53.191681,-67.771797,-80.31395,-14.200217,-19.690477,-19.969898,-21.050561,-1.488092,11.998136,23.958079,34.362468,19.585563,40.510586,57.628912,72.355212,37.194249,58.708926,75.792301,88.159056,51.261333,73.112519,88.864925,102.71721,37.054596,66.858559,90.202789,113.370781,60.03931,85.469055,104.902096,123.854427,48.451023,74.741821,95.560627,113.235512,36.593456,62.21838,81.971455,97.195644,25.457497,48.28125,63.124409,74.430141,-9.496874,-10.454499,-6.827867,-3.23072,-9.783303,0.51435,10.032188,19.327138,5.222171,23.667173,39.787489,53.963592,21.105272,42.74768,60.317308,75.415902,35.815424,55.12379,70.957491,86.708817,175.195055,92.591238,-204.10306,13.984075
96,-9.742699,31.35513,20.558681,22.794177,-33.208694,-64.691048,-89.696732,-115.513344,-64.455643,-90.031357,-115.486107,-139.695396,-58.851471,-82.121887,-108.848877,-134.815865,-50.253296,-72.114372,-96.767464,-116.45153,-39.438858,-59.272957,-75.937729,-90.489006,-22.987363,-33.613034,-36.390568,-39.077359,-12.951192,-8.060467,-1.985029,6.240898,7.786974,18.328665,26.69461,38.380073,26.112366,37.834447,50.515635,62.936113,40.674286,55.668151,68.876934,81.553676,34.7295,67.492905,90.534382,104.237251,77.068119,116.582737,136.008282,149.815063,75.031013,118.144455,137.604332,147.467308,66.914806,105.960445,123.864269,136.374664,54.975128,82.054253,94.471436,105.596466,-21.911701,-24.756636,-16.110219,-8.042374,-20.896741,-19.888295,-15.812428,-13.066356,0.242278,13.707109,23.154521,28.538725,21.032839,40.438431,50.233312,54.887903,40.790501,61.756772,72.53753,78.604106,165.196581,122.110189,-183.800154,34.942073
97,-28.119392,19.521436,5.402927,18.582521,-23.473434,-54.568291,-82.931099,-101.976128,-69.187546,-107.250366,-126.506424,-142.053623,-68.39138,-110.034027,-131.538906,-148.817253,-63.582344,-102.697792,-125.72834,-144.979019,-54.775314,-85.060043,-101.603508,-117.011833,-27.225016,-42.421236,-46.248743,-43.03624,-10.710238,-10.677387,-10.640213,-11.235981,11.651932,24.750924,32.25965,38.349599,29.306252,42.813907,49.682961,55.399073,42.64008,60.102973,68.293547,74.387819,28.235893,57.661457,82.71183,97.923489,70.800819,109.264469,131.82621,148.915043,72.551079,116.310081,142.747822,161.863575,70.709381,113.26189,138.530731,156.841908,65.12249,97.312031,113.912144,128.842278,-27.643375,-36.279726,-31.119707,-23.625739,-39.167916,-50.311426,-55.440354,-59.580626,-19.560431,-19.259274,-17.829536,-16.753875,2.362478,10.929051,16.754091,20.156631,22.337038,36.249005,44.316573,49.328483,137.251453,141.196948,-178.222961,53.089917
98,-7.661591,23.582853,13.447323,11.217178,-22.320328,-50.667801,-77.725868,-99.301643,-71.014137,-109.189796,-131.178303,-149.485016,-73.932838,-114.139252,-141.040478,-162.256851,-72.254448,-109.174805,-134.674873,-153.211441,-67.047501,-97.559395,-115.090828,-129.797859,-33.292611,-53.730299,-61.528018,-65.847861,-30.039599,-29.247218,-29.523551,-30.547497,-6.489783,3.083939,8.821108,13.498578,12.34119,21.193853,26.799926,31.178462,27.207664,35.800419,40.868399,44.890759,25.728664,54.029446,80.891933,99.299583,66.266384,99.347649,121.009026,139.311104,71.27758,113.836784,142.720299,165.131264,73.971176,117.328491,144.536991,164.124184,73.000031,107.667389,126.456528,142.062378,-34.691783,-48.452677,-48.01499,-44.218575,-53.038818,-68.90571,-78.217209,-84.581454,-33.571414,-39.199069,-42.978534,-43.747141,-12.050562,-11.698492,-12.53484,-12.361877,8.864766,16.626762,20.892233,24.525349,130.480471,164.803853,-163.885031,64.331147
99,-12.679939,8.94535,31.236877,-7.423665,-19.858704,-46.531677,-71.333771,-92.903366,-65.427361,-103.496819,-129.306679,-152.864685,-70.423965,-109.37851,-138.330631,-163.177986,-71.520309,-108.150215,-135.815392,-156.924648,-69.477654,-100.389175,-119.613876,-136.787109,-39.103757,-63.796203,-73.75179,-74.231344,-38.81458,-40.408976,-42.953278,-45.162893,-15.167383,-10.744078,-9.822391,-7.985008,3.241217,6.046786,6.223454,6.943278,16.882871,18.895503,20.195534,21.573494,14.394722,38.32489,62.46809,77.599239,54.688225,86.959877,104.51992,117.954655,63.551903,107.690678,132.511139,148.837166,67.047215,109.212112,133.321323,149.963837,66.317196,98.873062,115.979576,129.890499,-35.071548,-51.44751,-53.277761,-47.723096,-49.817021,-71.3815,-82.798688,-90.645931,-31.351209,-42.054007,-45.491498,-44.942444,-11.065797,-14.746986,-15.596518,-14.702557,8.000136,16.004688,21.300681,25.03936,119.267836,173.754668,-131.180849,56.912946
100,-26.875534,-14.328072,9.80896,-3.078104,-11.734886,-37.461777,-65.654526,-84.865494,-60.404892,-105.39814,-128.939037,-143.136921,-65.470161,-115.771923,-142.726135,-160.438213,-67.081947,-109.464397,-130.711613,-144.367676,-66.190796,-99.078541,-116.369247,-128.186932,-34.001938,-59.546108,-70.333009,-64.74154,-36.489245,-41.37855,-44.118786,-46.456533,-12.556205,-8.804003,-8.254672,-6.613469,5.311338,3.166067,-1.038271,-2.401227,17.40917,16.411592,13.816161,10.831393,13.342495,34.675026,58.418427,74.477921,56.321754,84.59198,102.856808,117.370834,65.842552,105.205307,131.357689,151.190643,70.152111,109.14093,134.26506,152.622185,68.966618,100.860386,117.867165,131.795998,-35.632242,-54.575724,-56.9981,-50.325474,-55.70162,-76.19899,-88.516653,-96.853144,-36.821184,-46.345845,-51.646254,-53.005597,-16.243847,-21.019995,-23.635866,-24.112116,4.237035,10.293948,13.872137,16.925109,93.481579,159.025959,-120.282612,53.434206
101,-7.182655,-1.002703,8.903503,-7.016638,-8.736763,-32.527657,-58.816452,-75.626507,-57.829285,-102.243118,-128.17337,-146.757374,-66.135063,-115.479069,-144.686508,-163.587799,-69.704361,-111.043396,-126.859646,-132.533226,-69.293175,-100.88562,-115.039673,-123.061066,-42.020445,-66.938188,-75.267083,-71.772473,-48.274928,-54.634295,-58.981987,-63.21788,-26.415529,-24.350349,-26.305799,-28.290828,-8.223673,-11.178986,-18.769038,-25.194724,4.856361,-0.835977,-7.152921,-13.526119,12.340221,33.277874,57.470055,74.552822,54.440575,82.180138,101.651516,117.67662,64.432411,104.359531,131.251602,151.826248,69.584427,109.264812,135.431442,154.287529,69.581623,102.070541,119.045334,132.352066,-35.865843,-55.417629,-58.834743,-52.602305,-54.927146,-77.670625,-91.452268,-100.27177,-36.433206,-47.339811,-52.901207,-53.020787,-16.411098,-20.411846,-23.801511,-23.751555,3.521842,9.747611,12.976849,16.320233,87.057981,157.761944,-110.62005,46.156256
102,-1.846848,-10.914077,6.411209,-7.983989,-9.246483,-34.852295,-61.604805,-77.854843,-55.097923,-99.067097,-124.212055,-141.505966,-64.093552,-111.272507,-139.413872,-158.566246,-69.478226,-111.400967,-131.282043,-141.534233,-69.739609,-101.158333,-115.940437,-124.143791,-42.642951,-67.090835,-74.637476,-72.35623,-54.333447,-61.413316,-64.293325,-68.093075,-32.881292,-36.96673,-40.317431,-43.395936,-14.294418,-19.743181,-26.895762,-32.063407,-0.142149,-7.50144,-13.408546,-18.361022,12.791748,35.656586,60.84898,78.261681,54.055195,81.098328,100.680943,117.4403,63.446732,103.092556,129.620476,150.949745,68.859386,108.76997,134.363136,153.049622,69.474506,102.562809,119.673729,133.476906,-36.327891,-55.421149,-58.476251,-55.358874,-55.191098,-78.17633,-91.41673,-99.501248,-36.831712,-50.143712,-55.650243,-55.317131,-16.808678,-23.619533,-27.805315,-27.744275,3.048,7.675484,10.412478,13.518215,86.204939,146.563244,-103.215036,37.887645
103,1.395378,-18.881331,5.125866,-10.270143,-10.780563,-37.04052,-63.972244,-80.624027,-57.384453,-97.170753,-118.137074,-130.497894,-65.977707,-111.93243,-138.151875,-155.945721,-71.586342,-111.535606,-131.168404,-141.684723,-72.275848,-102.315559,-115.042191,-121.849308,-41.528881,-62.746199,-68.732006,-66.658551,-55.419513,-64.00529,-66.287184,-69.881583,-33.899463,-38.754003,-41.040559,-44.666636,-14.427582,-19.704001,-27.460285,-34.588413,0.952253,-5.164743,-10.653521,-16.079869,13.571548,35.553188,60.140419,76.563663,54.480114,81.824512,100.30077,116.311283,62.999496,103.584423,129.697666,150.730648,67.635098,108.323994,133.84798,153.063412,67.49382,101.225452,118.384838,132.383366,-34.977965,-53.263775,-54.671777,-48.149513,-54.46303,-77.140529,-89.62816,-97.98012,-36.523269,-48.913304,-53.025604,-52.159647,-16.405108,-22.037641,-24.939849,-25.100709,4.211965,9.436235,12.259927,14.946564,87.821417,127.414658,-97.868071,27.350245
104,-1.959686,-13.400673,3.744507,-7.314985,-6.911888,-32.875328,-60.597496,-79.098301,-55.084534,-90.811214,-108.855686,-117.84153,-64.977036,-109.581985,-131.926975,-144.662018,-70.329666,-108.998795,-123.824615,-129.767418,-70.038757,-98.287811,-107.590599,-111.089001,-41.860512,-61.005702,-64.944298,-63.004285,-57.935286,-71.33985,-75.932814,-80.279549,-37.071644,-45.416502,-50.323992,-55.357577,-17.709339,-24.034619,-33.086951,-41.247824,-2.772007,-8.854268,-15.591979,-21.96067,15.587425,39.655895,65.742817,82.53891,59.624519,86.576443,103.209629,117.376728,66.586189,103.681355,129.572582,151.08942,67.453365,104.162064,128.885822,147.994022,63.361874,93.518486,109.006977,122.769756,-34.561088,-51.695685,-51.921445,-47.434042,-50.358325,-73.677689,-86.849978,-96.812111,-31.217149,-44.448873,-47.990537,-47.626518,-10.184773,-9.633589,-9.119363,-8.49451,9.309029,16.153198,20.31252,22.641715,85.839844,114.053536,-94.145451,20.074812
105,0.099907,-12.809752,4.374962,-3.154396,-8.358536,-34.185905,-59.873085,-76.527958,-59.109535,-96.901817,-109.938984,-115.049629,-67.007217,-113.188248,-133.514729,-145.85186,-70.347862,-108.080692,-118.68576,-121.823559,-69.3647,-96.72884,-104.347,-106.144352,-38.764624,-55.86393,-59.273943,-56.32817,-50.263693,-58.984982,-61.423999,-63.605425,-31.133384,-40.087256,-45.908591,-51.550386,-13.48419,-21.725894,-31.220545,-38.64279,0.470785,-6.924876,-14.919517,-20.783552,10.134945,31.409626,54.877853,69.592209,53.684521,82.49033,100.705032,115.288067,62.649708,103.900394,130.842991,151.178112,65.952415,105.963306,131.702671,150.562534,63.642883,95.228577,111.521358,125.361958,-33.266429,-50.925627,-53.110757,-46.450945,-53.046197,-75.814593,-88.203362,-96.717787,-34.487945,-44.334295,-46.897153,-45.627225,-14.22677,-17.903884,-19.902868,-20.404991,5.477107,9.497615,11.615963,12.414179,86.028299,101.583781,-89.68194,17.260413
106,-0.343552,-5.355551,2.500534,-5.843287,-10.111427,-36.825027,-62.597351,-81.026058,-61.678391,-100.835609,-114.562569,-120.972519,-68.749237,-113.600407,-128.777275,-136.893482,-70.779877,-106.910706,-112.323418,-111.307297,-68.936234,-95.426502,-99.537277,-97.871933,-38.280748,-55.987647,-61.076561,-61.596437,-47.704046,-55.682755,-61.1016,-65.308779,-29.473997,-38.308566,-46.452921,-53.162196,-13.136968,-21.612305,-31.891402,-39.212808,0.342005,-7.410914,-17.416673,-24.833638,11.750965,34.315109,59.50613,76.300335,55.597401,84.665394,101.916103,116.791363,63.764076,103.566914,130.073948,150.513439,65.874138,104.216709,129.865322,149.387569,63.214417,93.885155,109.377651,122.966709,-33.395611,-50.432549,-51.036932,-44.229474,-50.660563,-73.018936,-84.321639,-92.802471,-32.474634,-42.892608,-45.601382,-44.484101,-12.517766,-14.726547,-15.746417,-16.192718,6.515934,9.262716,10.155349,9.706177,85.660315,96.478612,-87.205839,11.667509
107,0.057678,-4.845771,2.200985,-3.518755,-10.783768,-37.789078,-63.397064,-81.514664,-62.664299,-102.823105,-115.081673,-120.107861,-69.284019,-113.137321,-122.565136,-124.358597,-70.96447,-107.510147,-112.006874,-110.027618,-68.506393,-95.717239,-100.060215,-98.505707,-37.184184,-55.050153,-59.954772,-60.212302,-46.046016,-53.661417,-59.595384,-63.981331,-27.269785,-37.428592,-46.40738,-52.872988,-11.091671,-21.783971,-33.53245,-41.721481,1.849919,-7.849373,-19.214196,-28.067415,10.372696,31.345253,54.842148,69.99733,53.256626,81.323547,97.718582,110.524864,62.858219,102.770805,128.686867,148.165054,66.386776,105.170631,129.967461,148.871384,64.291649,95.392399,111.028404,124.673882,-33.106773,-49.769257,-51.682903,-45.648004,-51.18047,-70.663497,-81.413565,-88.715829,-33.606952,-44.057684,-47.15422,-45.9784,-14.01651,-17.998176,-19.754327,-20.13755,5.141494,6.993759,7.990164,8.389658,85.492716,91.863788,-85.230131,8.379701
108,0.434074,-0.569709,2.05925,-0.096115,-11.613235,-39.18251,-64.972115,-82.883835,-60.069351,-99.548893,-108.707886,-110.676727,-66.527939,-109.338741,-116.237869,-115.961437,-68.851662,-106.087017,-110.208549,-107.934608,-67.933273,-95.533218,-100.489998,-99.532013,-38.545503,-57.472498,-62.440504,-62.437293,-48.272551,-57.072448,-64.180229,-68.571054,-28.255198,-40.040017,-50.921613,-57.81725,-11.159565,-23.72457,-36.453491,-45.025066,2.467516,-8.152042,-20.037978,-28.856029,8.77264,29.113712,52.702847,68.758736,50.230465,79.380283,95.496368,107.095528,60.212917,101.43322,126.821251,145.369949,64.8242,104.357414,127.543373,144.084435,64.619408,96.593285,111.49395,122.608452,-34.80809,-52.408779,-55.791682,-52.349529,-50.05723,-68.705608,-76.744524,-80.079663,-31.40345,-43.923068,-48.594178,-48.87434,-11.923974,-18.336136,-22.523401,-24.577034,6.406049,3.904293,1.547959,-0.202294,86.007071,91.550713,-83.090601,8.540221
109,-2.691879,-1.23649,3.042984,1.84325,-10.02697,-35.880318,-59.842644,-75.497532,-59.257736,-95.509357,-97.437057,-92.967796,-66.334076,-104.817123,-104.856777,-99.988232,-68.481331,-101.876621,-99.104748,-91.986065,-67.161255,-93.413887,-92.397938,-86.25721,-37.72768,-56.887258,-62.225983,-61.048804,-49.376957,-60.678456,-66.623538,-67.864289,-29.726957,-43.349962,-51.862411,-55.430381,-12.300713,-26.00208,-34.911954,-38.422712,1.712679,-9.050079,-18.432992,-23.454103,7.782669,27.267723,47.294712,60.551891,51.119614,81.581383,89.631557,92.616978,60.611687,98.530998,118.159561,132.738762,65.206661,98.831978,115.834808,127.109528,65.884609,93.250408,104.884415,112.456856,-34.038741,-50.864586,-56.302822,-57.154144,-50.275179,-64.821569,-68.632032,-68.369192,-32.384602,-45.198585,-51.735823,-55.236021,-13.757899,-21.571457,-27.453029,-30.809534,3.19685,-3.382749,-9.060237,-13.124896,83.363743,90.57765,-79.999065,10.646898
110,-3.950386,1.281352,5.296383,3.370121,-9.350052,-33.362274,-56.694717,-70.37796,-56.997185,-92.260551,-84.404583,-73.393135,-64.720802,-99.901085,-88.976154,-77.794018,-67.50721,-98.046684,-87.050171,-76.475086,-66.804543,-92.194977,-84.183083,-73.791962,-37.795729,-56.776849,-61.177214,-57.263195,-50.182182,-61.615117,-63.897999,-61.333998,-29.402273,-43.80602,-47.495793,-45.768757,-10.513378,-26.720793,-31.28282,-28.854177,4.917803,-8.461597,-14.21936,-13.156512,5.486526,23.573627,44.782391,60.01236,46.698132,78.088818,74.691467,66.875668,57.696247,94.974232,109.443111,116.725216,62.97575,93.313351,88.290882,79.990826,64.364605,83.43092,77.8652,70.21574,-34.544138,-52.50159,-58.326043,-59.364623,-48.36388,-64.62971,-64.118695,-60.424415,-27.451794,-50.478307,-62.69967,-71.709518,-7.989299,-28.489695,-34.833871,-36.441697,8.73123,-9.889359,-15.922189,-16.007405,79.202299,92.025018,-74.91374,14.183035
