YashyHoby/handMotion-similar-search/workspace/NewProject/handData/tgt/d4_feature_d2/15.csv
,vel_0x_L,vel_0y_L,vel_0x_R,vel_0y_R,posFromWrist_1x_L,posFromWrist_2x_L,posFromWrist_3x_L,posFromWrist_4x_L,posFromWrist_5x_L,posFromWrist_6x_L,posFromWrist_7x_L,posFromWrist_8x_L,posFromWrist_9x_L,posFromWrist_10x_L,posFromWrist_11x_L,posFromWrist_12x_L,posFromWrist_13x_L,posFromWrist_14x_L,posFromWrist_15x_L,posFromWrist_16x_L,posFromWrist_17x_L,posFromWrist_18x_L,posFromWrist_19x_L,posFromWrist_20x_L,posFromWrist_1y_L,posFromWrist_2y_L,posFromWrist_3y_L,posFromWrist_4y_L,posFromWrist_5y_L,posFromWrist_6y_L,posFromWrist_7y_L,posFromWrist_8y_L,posFromWrist_9y_L,posFromWrist_10y_L,posFromWrist_11y_L,posFromWrist_12y_L,posFromWrist_13y_L,posFromWrist_14y_L,posFromWrist_15y_L,posFromWrist_16y_L,posFromWrist_17y_L,posFromWrist_18y_L,posFromWrist_19y_L,posFromWrist_20y_L,posFromWrist_1x_R,posFromWrist_2x_R,posFromWrist_3x_R,posFromWrist_4x_R,posFromWrist_5x_R,posFromWrist_6x_R,posFromWrist_7x_R,posFromWrist_8x_R,posFromWrist_9x_R,posFromWrist_10x_R,posFromWrist_11x_R,posFromWrist_12x_R,posFromWrist_13x_R,posFromWrist_14x_R,posFromWrist_15x_R,posFromWrist_16x_R,posFromWrist_17x_R,posFromWrist_18x_R,posFromWrist_19x_R,posFromWrist_20x_R,posFromWrist_1y_R,posFromWrist_2y_R,posFromWrist_3y_R,posFromWrist_4y_R,posFromWrist_5y_R,posFromWrist_6y_R,posFromWrist_7y_R,posFromWrist_8y_R,posFromWrist_9y_R,posFromWrist_10y_R,posFromWrist_11y_R,posFromWrist_12y_R,posFromWrist_13y_R,posFromWrist_14y_R,posFromWrist_15y_R,posFromWrist_16y_R,posFromWrist_17y_R,posFromWrist_18y_R,posFromWrist_19y_R,posFromWrist_20y_R,posFromBody_0x_L,posFromBody_0y_L,posFromBody_0x_R,posFromBody_0y_R
3,-0.139847,0.551184,-3.094597,0.190685,-39.006615,-68.331242,-83.66272,-87.398586,-63.348942,-93.173332,-105.993748,-110.427189,-50.124092,-77.640381,-86.972694,-89.469967,-38.853264,-63.755722,-71.426067,-70.539265,-29.995308,-48.563576,-55.469456,-55.981579,-2.781362,11.365904,20.269079,18.331042,55.81947,61.522306,54.026423,47.568998,59.821576,60.643042,48.797831,39.377373,56.095556,51.69516,41.870423,34.461546,49.325056,45.178083,37.264151,30.915961,41.766472,67.511215,77.964363,72.800446,63.675327,86.698265,88.566284,82.725048,48.091736,72.68486,76.266346,71.240902,33.467789,56.088066,59.335899,53.636627,20.68428,42.388115,45.966454,41.076164,-2.723317,11.101983,28.641447,37.679052,53.691304,58.51185,44.610906,35.409971,66.370207,69.273403,55.895794,46.01227,70.572199,73.059815,61.41838,52.383245,70.466483,74.375592,64.394071,55.423465,50.458031,475.151358,-108.60878,458.165672
4,-0.334167,-0.75212,0.908661,0.889206,-38.836098,-67.837601,-83.846684,-89.501324,-61.60738,-91.000614,-104.405766,-109.855728,-48.046417,-75.846233,-86.884632,-91.100521,-36.660118,-61.470165,-70.888882,-71.793766,-27.889824,-46.989326,-55.611477,-57.826538,-2.276985,11.732331,20.844284,20.05746,56.329652,62.382489,55.695105,49.71927,60.175591,62.090286,51.391348,42.597287,56.205719,53.379588,44.261769,37.05389,49.091948,46.820336,39.658585,33.288659,40.11898,64.213428,74.217682,70.022049,61.182232,80.830307,82.185574,76.576538,45.891094,67.384243,71.228886,66.615372,31.318588,51.334534,54.855022,49.266472,18.605232,37.287769,40.7864,36.273937,-1.780944,11.772407,28.369683,36.569026,53.703098,56.380473,44.204897,36.95367,65.808896,66.596461,54.274722,45.871417,69.111617,71.32574,60.028625,51.984646,67.569277,71.980973,62.482401,54.169931,51.173687,473.080388,-106.650295,457.736028
5,-1.498718,-0.077373,3.279705,2.669779,-37.82135,-66.212597,-81.316624,-86.23003,-60.915127,-89.838924,-104.310722,-111.445141,-47.527885,-75.353336,-86.257725,-90.400887,-36.209793,-60.815105,-69.299583,-69.360008,-27.365227,-45.986252,-53.93795,-55.411377,-2.704977,11.364237,20.211527,18.356792,55.977366,62.380019,57.601896,53.033477,60.400548,62.173217,52.07758,44.071393,56.864164,54.228903,45.131956,38.166015,50.126576,48.109499,40.980784,34.801174,38.780937,61.67799,70.639458,64.998779,61.16581,78.157482,77.242527,70.702229,45.905972,64.07198,65.792599,60.063858,30.586395,48.062096,50.246658,44.019184,17.106857,33.620167,36.554146,32.176895,-3.285678,9.496472,26.516306,35.20039,50.66541,52.529593,40.564463,32.986391,63.231557,62.498765,51.093773,42.703189,67.063911,67.988315,57.691496,49.703339,66.068001,69.900787,60.776114,52.537621,50.320072,472.315687,-102.725487,459.718479
6,-1.262398,-0.250707,3.714752,1.48343,-37.240448,-64.657516,-79.246159,-84.551926,-59.443188,-87.662201,-102.407513,-109.663124,-46.669464,-74.942493,-87.239628,-92.369328,-35.692863,-60.750904,-70.464592,-71.829643,-26.82209,-45.693169,-54.593296,-57.09446,-2.329102,11.375167,20.221593,18.280036,55.173684,62.002724,58.301157,54.263483,60.096489,63.078725,54.616696,47.807045,57.214597,56.546581,48.394848,42.086673,50.806448,51.161884,45.005491,39.190084,36.142216,58.146286,66.970482,62.306499,56.679153,72.446594,71.653061,65.764446,41.610374,58.982048,60.85659,55.564327,26.600819,43.295631,46.026707,40.499725,13.350163,28.766212,32.081566,28.276062,-4.108934,8.241642,24.418089,32.345483,49.166481,49.351856,38.339534,31.780097,61.765294,60.571411,49.242928,41.279286,65.624015,66.725766,56.745109,49.336912,64.415869,68.62453,59.942545,52.136984,49.342546,471.681325,-98.725863,460.818254
7,-0.284271,0.256017,1.456146,2.668359,-36.555405,-64.223843,-78.397694,-82.606888,-58.216496,-85.629272,-99.860573,-106.733894,-45.142937,-72.651443,-84.776001,-89.712238,-33.919258,-58.540649,-68.410721,-69.884377,-24.91642,-43.916016,-53.119125,-55.785656,-3.264683,10.262424,19.956683,19.253346,53.757377,61.605052,57.664881,53.291779,59.31442,63.593168,55.289096,48.252389,56.956542,57.454683,49.662522,43.170392,50.951809,52.214605,46.337756,40.363774,34.603271,56.295662,65.670147,62.56628,56.672173,70.396271,67.981796,61.174679,42.297821,56.795883,56.835766,50.756035,27.597198,41.535015,42.722225,36.769009,14.323254,27.84502,30.259094,26.489582,-6.839414,3.958263,19.596493,27.380009,44.566693,44.094858,33.690284,27.289792,57.6211,56.826002,46.122679,38.635627,62.291469,63.576248,54.258111,47.64668,62.240772,66.325809,57.995184,50.862579,49.524536,472.212702,-96.803455,463.761973
8,-0.614891,1.407662,3.470078,1.328498,-35.615044,-63.553734,-77.771702,-81.378765,-57.715988,-85.208702,-101.0289,-110.483379,-44.723053,-72.854576,-85.126991,-90.976753,-33.556595,-58.50935,-67.516937,-69.170895,-24.557076,-43.926544,-52.523804,-54.915962,-4.037365,8.701683,18.724948,19.272242,51.877818,60.280814,57.47506,53.546746,57.443197,62.42522,54.547967,47.512928,54.888274,55.941551,48.201816,41.500352,48.711565,50.330229,44.336425,38.163298,33.447533,53.832378,62.310619,60.274887,53.835068,66.248131,63.707371,57.3983,39.875507,53.251934,53.272476,47.214832,25.151768,38.555088,39.763412,33.877773,11.628857,25.203266,27.625237,23.732414,-7.06116,3.422146,19.08767,26.956093,42.051598,42.391658,32.589768,26.540698,55.072414,55.102918,45.167339,38.203498,60.314283,62.609792,53.802702,47.290133,60.909804,65.398503,57.506059,50.474972,49.176235,473.666539,-93.066788,465.136646
9,-1.581001,0.754467,1.520691,1.847696,-35.64743,-63.273296,-77.1698,-79.609623,-56.160965,-83.797016,-99.338951,-108.501377,-43.403664,-71.37085,-83.00108,-88.137074,-32.530289,-57.454891,-65.746536,-66.542244,-23.923759,-43.073616,-51.425056,-53.474064,-4.214836,8.533166,19.253902,20.697812,51.6486,59.715551,56.902325,53.151111,57.141855,61.58276,53.489874,46.452488,54.613732,54.997757,46.918766,40.00519,48.547865,49.059344,42.864357,36.841593,32.456703,52.687225,61.904011,62.078648,50.801525,64.742775,62.708073,56.624222,37.351227,53.094864,53.909798,47.696342,23.357849,39.57716,41.212864,34.920444,10.368805,26.144772,28.902683,24.573154,-8.023972,2.092783,17.553419,26.056266,39.657782,38.141253,28.220247,23.035312,52.51959,51.069752,40.860989,34.417704,58.100654,59.569387,50.240444,44.108999,59.260265,63.163138,55.168806,48.553299,47.787066,474.428848,-91.354265,466.992184
10,-0.461884,-0.023774,-2.166781,-1.783275,-35.460892,-62.723751,-75.769501,-77.402973,-54.790878,-81.751785,-97.047958,-105.446663,-42.481041,-70.501614,-83.33931,-89.020557,-31.768456,-56.745358,-66.808548,-69.068985,-23.12027,-42.311668,-52.098198,-55.417957,-4.119617,8.237443,19.893019,22.362603,49.875808,58.591755,55.397221,50.944337,55.529305,61.844211,54.589649,47.495762,53.434422,56.623152,49.536983,42.570487,47.553684,50.758283,45.555811,39.619188,35.249733,57.124743,66.451177,66.181783,53.494834,71.983351,71.496534,65.926494,39.333171,60.07307,61.517844,54.946832,25.209016,45.386309,47.331776,40.555372,12.491784,30.572261,33.542046,28.796653,-6.539245,5.450493,21.022557,28.454111,44.18594,42.894769,30.527258,23.933981,56.292417,54.578843,41.974472,34.28369,61.125575,62.055058,50.066648,42.617402,61.506004,64.189121,54.645456,47.554718,47.370644,474.445273,-93.475585,465.249108
11,-0.57621,1.075075,-2.166782,-1.783275,-34.564819,-61.475658,-74.060211,-74.42791,-53.969479,-81.339626,-96.451778,-104.831657,-41.895447,-69.826298,-81.828289,-86.935043,-31.618423,-56.614494,-65.683651,-67.301502,-23.568192,-43.231888,-52.113934,-54.637756,-5.331407,7.407579,19.132192,21.036513,49.748725,57.833275,54.746001,50.351965,56.490327,61.638458,54.245699,47.517498,55.230124,56.655941,49.366614,42.856762,50.007768,51.574253,45.816027,40.193467,38.042765,61.562262,70.998345,70.28492,56.188145,79.223929,80.284996,75.228767,41.315117,67.051277,69.125891,62.197323,27.060185,51.195459,53.450689,46.1903,14.614763,34.999752,38.18141,33.020153,-5.054518,8.808203,24.491696,30.851957,48.714098,47.648286,32.834269,24.832651,60.065244,58.087934,43.087956,34.149676,64.150497,64.540728,49.892851,41.125806,63.751743,65.215105,54.122106,46.556137,46.897373,475.55729,-95.539427,463.502776
12,-1.63662,1.359003,-2.166781,-1.783274,-34.942589,-61.083698,-72.430801,-72.476692,-53.705578,-80.362186,-94.496212,-101.582508,-41.261101,-68.131084,-77.449722,-79.912949,-30.40123,-54.714775,-61.644688,-61.118774,-21.509628,-40.866165,-48.161774,-48.760414,-6.080254,6.147624,19.020115,21.985864,48.380398,57.271346,52.687675,46.893201,55.006155,59.754824,50.46114,42.326079,53.672347,54.963115,46.6307,39.024902,48.604305,50.247545,44.032058,37.591551,40.835795,65.999779,75.545511,74.388055,58.881454,86.464505,89.073457,84.53104,43.297062,74.029483,76.733937,69.447813,28.911352,57.004609,59.569602,51.825227,16.737742,39.427242,42.820773,37.243652,-3.569792,12.165911,27.960833,33.249802,53.242255,52.401801,35.141279,25.731319,63.83807,61.597024,44.201439,34.015662,67.175417,67.026398,49.719054,39.634208,65.997482,66.241087,53.598755,45.557555,45.290766,476.858016,-97.676196,461.661225
13,-1.118317,1.75859,-2.166782,-1.783275,-35.298386,-61.648521,-71.471672,-70.393009,-55.298824,-80.455227,-94.624615,-102.304115,-42.435837,-67.666683,-75.940418,-77.964993,-30.757027,-53.260117,-59.588585,-58.639641,-20.864067,-39.453621,-46.247177,-46.439896,-6.714061,5.336224,18.644178,20.876147,47.236286,55.780506,51.696025,46.348254,54.304918,57.429921,47.54158,39.031324,53.05688,53.543412,44.981532,37.064512,47.863979,49.325673,43.321434,36.745879,43.628826,70.437298,80.092678,78.491192,61.574764,93.705082,97.861919,93.833313,45.279007,81.00769,84.341984,76.698303,30.76252,62.813759,65.688515,57.460155,18.860722,43.854733,47.460136,41.467152,-2.085064,15.523621,31.429972,35.647648,57.770413,57.155317,37.44829,26.629989,67.610897,65.106115,45.314922,33.881648,70.200338,69.512068,49.545258,38.142612,68.243221,67.26707,53.075405,44.558974,44.247723,478.531699,-99.767704,459.793043
14,-0.39402,1.902715,-0.868664,-2.654588,-34.985962,-61.507988,-71.341038,-71.216125,-55.72958,-81.229763,-96.240463,-105.423145,-42.690353,-68.1007,-76.510677,-79.434929,-30.835648,-53.273849,-59.838352,-59.621487,-20.723076,-39.676781,-46.701107,-47.269821,-7.589681,4.167412,16.870274,18.650477,45.733899,54.414031,51.441983,47.332494,52.699345,55.420871,45.830847,37.549932,51.279827,51.362943,43.053993,35.431584,45.943048,46.691833,40.818381,34.611538,39.834023,63.711605,72.821388,67.776432,57.929535,79.866314,81.351471,75.550232,41.558018,64.287243,68.672619,64.816246,27.051659,47.60313,51.434727,46.701908,15.157757,35.153389,39.000721,34.571972,-3.830316,11.129647,28.892833,37.389566,53.348836,58.857837,45.355801,36.870924,65.140448,69.917336,56.750975,47.16305,68.479231,72.64442,61.362681,52.679462,67.594903,72.935202,63.361851,54.306523,43.853645,480.312041,-100.636425,457.01608
15,-1.237679,0.450778,0.246906,1.997255,-34.709587,-61.074314,-71.35128,-71.435051,-55.55048,-81.289558,-96.700745,-106.470623,-42.110825,-67.407932,-75.497704,-78.241825,-29.866791,-52.373772,-58.763466,-58.271999,-19.505539,-38.692474,-45.61655,-45.986595,-8.173964,3.140873,16.374727,19.404511,44.631901,54.302077,51.824651,48.014218,52.031947,55.379313,45.417181,36.763293,51.1914,51.564126,42.912461,34.803952,46.390923,47.189047,40.905943,34.365586,37.986889,61.141891,70.771408,67.153931,57.335815,77.473984,77.662811,71.761837,41.217098,63.136311,66.907425,62.729073,26.520367,46.679592,50.54678,45.883255,14.169903,32.496471,36.658916,33.25716,-4.23577,8.591705,24.587409,33.586975,52.713424,52.880892,40.034953,32.825716,64.38524,63.4299,51.735545,43.566521,66.873967,68.162637,57.371135,49.102569,64.767969,69.778583,60.326386,51.251607,42.6618,480.718328,-100.343685,458.968845
16,0.147171,0.659124,2.924652,2.591665,-34.767265,-60.685158,-70.899239,-71.540852,-57.098408,-81.992512,-96.403942,-105.247021,-43.530922,-67.623768,-75.453815,-78.364964,-31.019783,-52.681389,-59.117603,-58.872871,-20.417862,-38.526764,-45.061855,-45.295944,-8.633078,1.429399,12.581338,14.9034,43.956969,53.500372,50.319731,46.08285,51.017079,54.798551,45.263484,36.835047,49.892172,50.44422,42.166825,34.484518,45.07459,45.766009,39.461169,33.085809,35.858803,58.238869,67.743988,64.162674,54.534073,74.763451,74.247551,67.679729,39.417515,60.814419,63.304996,57.960434,25.166817,45.037422,48.23061,42.708893,13.230114,30.806122,34.455643,30.910378,-5.45497,7.235234,22.752927,31.087319,48.937263,48.001683,35.765159,28.81231,61.253074,59.359807,47.761165,39.598748,64.615693,65.768511,55.004118,46.814099,62.928795,67.329068,58.174137,49.84166,42.802162,481.24935,-97.425842,461.432408
17,0.819969,-0.012288,1.696644,2.658293,-34.214745,-60.797596,-71.34304,-71.621761,-56.418228,-82.486153,-97.318153,-107.060452,-42.771721,-68.335075,-76.66317,-80.238647,-30.549889,-53.267097,-59.234734,-58.767414,-20.507355,-39.318123,-45.880966,-46.250553,-9.153017,1.163007,12.327358,14.406865,43.719292,53.857845,52.027501,48.849392,51.341022,54.868576,46.077231,37.938774,50.416494,49.524077,40.883034,32.56408,45.61929,44.886683,38.138783,31.417128,34.754791,56.121826,65.009708,62.265987,54.047413,72.420673,71.133385,64.504337,39.715118,59.348488,61.03363,55.466995,25.712128,44.266605,46.939716,41.337147,13.504601,30.464287,34.014359,30.515556,-8.105915,2.666753,17.339207,25.527373,43.787032,42.850896,31.146846,24.814774,56.793274,55.594699,44.805975,37.365607,61.550588,63.729204,53.684141,46.198385,61.518971,66.877363,57.978079,49.812637,43.556528,481.194778,-95.794802,464.048418
18,0.708733,-0.8135,2.692451,0.673697,-35.125122,-61.782532,-72.710838,-73.321209,-56.378918,-82.805557,-97.295151,-106.319275,-42.456322,-67.954788,-75.038795,-77.02137,-30.0214,-53.094177,-58.688736,-57.409515,-19.722977,-38.732986,-44.929619,-44.523811,-8.172544,2.218569,13.432382,15.346521,45.200499,54.514931,50.810833,46.467741,52.298647,55.051542,44.618007,35.338464,51.008249,49.470602,40.163641,31.46659,46.162447,44.420529,37.166029,30.227197,33.544922,54.081745,63.066902,61.282654,51.909657,66.972542,64.677258,58.233261,37.330513,54.06229,55.112171,49.407921,23.076038,39.762325,41.909523,36.373615,10.610619,26.205883,29.189358,25.58012,-7.426413,3.26283,17.964862,26.268687,43.629136,41.847143,31.066262,25.996676,55.77643,54.129794,43.883301,37.331335,60.007198,61.597086,52.367869,45.745878,59.487259,64.027211,56.004721,48.671736,44.206438,480.309185,-93.161173,464.650021
19,1.105728,-0.036803,1.586266,2.211715,-35.555077,-62.281666,-73.949432,-75.332108,-58.116875,-85.063877,-98.603611,-106.484299,-44.326401,-70.074749,-75.789013,-76.451054,-31.988411,-55.547447,-59.992332,-57.778416,-21.938438,-41.562309,-46.983604,-45.828896,-8.531684,2.139343,14.457377,17.56509,45.508695,54.349996,48.505381,42.868062,53.112517,54.480042,42.304713,32.558337,52.041518,49.713034,39.523475,30.791966,47.395664,45.286949,37.51214,30.375151,32.516098,52.537708,61.619339,61.607208,50.970325,64.407005,61.673584,55.226955,36.974258,51.865082,52.374401,46.316185,23.059216,38.239975,39.76656,33.796291,10.324287,24.850502,27.612648,23.955574,-8.129503,1.283544,15.877019,24.649344,40.457944,37.366965,27.331103,22.672961,52.834208,49.889887,39.898176,33.64817,57.456968,57.99716,48.955233,42.62773,57.408185,61.476302,53.772259,46.786126,45.257349,480.22417,-91.629725,466.813524
20,-0.18734,-0.080955,-10.196629,-8.801163,-35.521774,-62.162704,-73.295803,-74.41143,-58.264561,-85.37693,-100.202579,-109.410725,-44.28772,-70.596256,-78.771172,-81.94931,-31.792374,-55.202751,-61.679821,-61.312866,-21.517296,-40.844193,-47.961216,-48.647804,-8.237628,2.659096,13.889273,16.405664,46.140772,55.297062,51.110693,46.332816,52.973208,55.689362,45.072799,35.893477,51.050795,50.288733,41.132382,32.484483,45.281145,44.381565,37.507632,30.600478,44.94524,71.555958,81.084251,78.597794,61.158714,91.640625,94.911404,89.987984,44.369087,78.418808,81.30312,73.184624,29.823647,59.824448,62.64679,54.407215,17.866745,41.984539,45.203362,38.706665,-1.647933,16.124021,32.761372,37.80317,58.517778,59.098541,39.988949,30.40757,68.528014,67.009633,48.202927,38.006761,71.291715,71.648447,53.194707,42.938952,69.387765,69.619452,55.587289,47.097657,45.066977,480.148063,-101.829386,458.017209
21,0.777855,-1.068282,-0.979671,-1.48695,-35.806961,-62.322063,-74.456635,-76.87088,-58.14045,-85.004654,-99.199905,-107.519073,-44.159889,-70.474434,-80.213242,-84.539738,-31.760445,-55.276165,-63.496571,-64.561214,-21.70063,-40.839729,-49.06723,-50.809879,-7.525708,2.521949,12.568802,14.822013,46.52486,55.422045,50.587173,45.368275,52.9595,56.524536,47.079255,38.211464,50.883636,50.835903,42.866024,34.807781,45.275279,45.318195,39.123147,32.557781,40.549507,65.234127,75.293026,71.245594,59.73547,81.74612,82.126751,75.927715,43.16288,66.89621,70.6077,66.438618,28.475304,50.176563,54.022923,49.284668,16.621513,36.949425,40.878811,36.680603,-4.304559,10.139665,27.503078,36.46263,54.147146,57.259058,43.829825,36.157707,65.975622,68.455951,55.967609,47.214365,68.918647,72.231618,61.09487,52.643646,67.4036,72.58057,63.026546,54.064894,45.830698,479.065902,-102.823191,456.516381
22,0.013504,-1.296512,1.634445,1.015115,-34.967422,-61.306572,-73.904343,-77.162189,-56.54211,-83.474922,-98.038273,-106.670208,-43.27034,-69.83099,-79.775562,-83.963184,-31.40419,-55.01152,-63.502007,-64.795475,-21.85009,-41.141052,-49.900875,-52.249317,-7.576096,3.210219,14.010242,16.274753,47.205473,56.300382,52.503658,48.247017,54.204944,58.005867,48.912007,40.458561,52.839519,53.289803,45.425888,37.402719,47.667922,48.926704,43.084127,36.376859,38.26973,61.528587,71.093273,67.16486,57.855034,77.498589,78.180885,72.953682,42.058868,63.444557,67.811794,64.224644,27.407112,47.215748,51.594143,47.210083,14.822159,32.65028,36.964817,33.731461,-3.596591,8.942077,24.785689,33.45415,52.838469,52.692676,40.619359,34.137974,65.028741,63.830969,52.321556,44.417874,68.044261,69.654403,59.119721,51.096119,66.015636,70.960609,61.774309,53.127214,45.825005,477.778097,-101.207943,457.540202
23,0.230141,0.872657,2.456017,2.924994,-35.248718,-62.169228,-74.737701,-76.967869,-56.112442,-84.135075,-99.425526,-108.973389,-42.587471,-70.370293,-79.322777,-82.410049,-30.928574,-55.615368,-62.891006,-62.814846,-21.839218,-42.338676,-50.489101,-51.871662,-8.272703,2.965996,15.51899,18.802074,47.135633,56.605429,53.047926,48.854024,54.673383,57.879464,47.816864,38.837119,53.34933,53.253432,44.722365,36.229028,47.929373,48.549409,42.293413,35.382739,36.176777,58.368702,68.137894,64.68401,56.274605,74.326515,73.116188,66.547337,41.211948,60.746613,62.972717,57.63588,26.765728,44.918747,47.987995,42.670383,14.44479,30.575981,33.984718,30.463428,-5.039575,6.960383,22.545261,31.390019,49.225082,47.578137,36.055942,29.91684,61.713115,59.698693,48.738489,41.116759,65.285314,66.695385,56.665883,48.953627,63.588598,68.096625,59.138864,50.865543,46.025791,478.633124,-98.781281,460.447566
24,1.081924,0.047116,3.237934,2.261362,-36.316795,-63.266087,-75.958042,-78.069134,-57.589245,-85.577374,-99.971752,-108.161945,-43.88237,-70.907879,-78.870449,-81.065197,-31.88015,-56.468582,-63.160229,-62.459507,-22.318726,-42.232933,-49.171085,-49.378738,-7.289327,3.005331,14.541234,17.75843,47.646,55.622178,49.677898,43.736335,54.38896,56.253699,44.827588,34.764803,52.439747,50.932604,41.86258,33.046597,46.775443,45.737851,38.971056,31.930829,34.669361,55.954342,64.993458,62.409267,54.076023,70.209675,68.414326,61.998081,39.245224,56.94912,58.441086,52.946491,24.822578,41.815853,44.380989,38.945789,12.228928,27.798958,31.007938,27.51543,-6.31083,4.985914,20.180467,28.574015,45.904762,43.95771,32.727904,26.882733,58.251881,56.540036,45.799231,38.594131,62.313637,64.090012,54.472941,47.387637,61.43036,66.293143,57.688408,49.885379,47.070093,478.673077,-95.580969,462.701765
25,-0.473328,0.028035,2.755337,2.648722,-35.410194,-62.92757,-76.174507,-79.992828,-55.768032,-84.555931,-101.357346,-112.234783,-42.108421,-71.505489,-84.303246,-90.456276,-30.413017,-56.279125,-66.209393,-68.423309,-21.34243,-42.847137,-53.1003,-56.50034,-8.533783,3.570779,15.599945,18.001418,45.887534,55.937537,53.85556,50.140408,53.510067,58.372294,50.747168,42.8835,52.36861,54.047419,46.415068,38.447968,47.023186,48.739785,43.136183,36.64819,33.506069,53.698769,62.587624,60.761719,55.120182,67.406673,63.680534,56.550465,40.457211,53.711529,53.207073,46.890564,25.511742,38.890629,39.974442,34.237061,11.974583,24.902515,27.097607,23.523445,-7.275372,2.20875,16.284016,24.108966,43.277035,39.392749,28.790265,23.114476,55.477373,52.592517,42.368378,35.258744,59.62132,59.991081,51.533992,45.296829,59.165046,62.819435,54.923533,47.83156,46.583376,478.699537,-92.839022,465.348913
26,-1.139145,-0.235825,-11.758976,-9.366426,-35.577164,-62.155209,-74.451542,-77.926884,-55.815697,-83.916721,-99.689312,-109.377136,-41.984825,-69.962654,-80.659847,-84.980507,-30.002975,-54.896793,-63.304882,-64.007721,-20.45002,-41.16703,-50.176563,-52.189522,-8.069544,3.897624,16.069804,18.63084,46.386724,56.156504,52.443822,47.653225,53.725699,58.286152,48.926272,40.049897,52.414244,54.152394,45.902169,37.621933,47.100929,49.260341,43.370525,36.578659,45.652428,72.20232,82.324791,80.760155,61.903324,93.101006,95.849304,90.60791,45.211716,80.412197,83.379135,75.175095,31.010685,62.296314,65.427532,57.093201,19.255486,44.643059,47.941246,41.315575,-2.345898,16.866322,33.78118,38.862251,61.733616,61.207379,42.699237,34.004902,71.394777,68.401425,49.745761,39.519584,73.517138,72.778109,54.270646,43.62926,71.043664,71.132152,56.97303,47.762832,45.435476,478.453786,-104.606752,455.97256
27,1.013832,0.425399,-1.694813,-0.301219,-35.849304,-62.987423,-75.993004,-79.474068,-55.891228,-84.701271,-100.364456,-109.575005,-42.311668,-70.853863,-81.297169,-85.115547,-30.595779,-55.90662,-64.08514,-64.554234,-21.362114,-42.444305,-51.045227,-52.680302,-8.384656,3.53058,16.042448,18.851536,45.887287,55.327875,50.600943,45.238722,53.414106,57.524399,47.309214,37.756054,52.239552,53.179764,44.494815,35.86291,47.035598,48.277954,42.026466,34.923378,41.838169,67.703762,78.341961,73.744984,64.332218,86.245365,86.373425,79.834728,48.035488,72.067051,74.692554,69.392223,33.179512,55.72506,58.634148,52.793312,20.848675,42.131195,45.637493,40.867882,-3.660194,10.006593,27.271637,36.241873,55.647804,58.382853,44.327533,35.746943,67.724703,68.933158,56.032756,46.705418,70.623452,72.244648,60.929008,52.240478,68.969344,72.513447,62.917001,54.387663,46.435661,478.865198,-106.315212,455.657355
28,-0.109978,0.327524,2.0965,1.6157,-35.357552,-62.412014,-75.183105,-78.131905,-57.057667,-85.039158,-100.628529,-110.177937,-43.219299,-70.986443,-81.593285,-86.192894,-31.078949,-55.632019,-63.812599,-64.66713,-21.385803,-41.873474,-50.363045,-52.21796,-8.724407,2.764689,14.908649,17.840065,45.431816,55.002512,51.438155,46.884618,53.281281,57.0877,47.999027,39.602639,52.362373,53.074294,44.790229,36.579647,47.284637,48.461291,42.275444,35.334141,40.487022,64.289131,73.836365,68.865795,62.961273,82.426758,82.216015,76.39389,46.830254,67.857742,70.594025,65.681992,31.428852,51.271706,54.2066,48.505669,18.03772,36.251564,39.565201,35.352287,-3.37818,9.150114,24.854726,33.118228,54.127138,53.394346,40.257811,33.156884,66.402565,64.039994,51.585615,43.355458,69.195968,69.088152,58.122946,50.10731,67.08398,70.69218,61.392877,53.139811,46.307516,479.171958,-104.236879,457.252291
29,0.3899,0.127885,5.005417,1.91698,-35.441322,-62.670422,-74.821758,-76.919575,-57.869396,-85.58424,-100.98278,-110.579109,-44.327545,-72.131481,-82.938423,-87.869396,-32.372017,-56.70908,-64.705868,-65.529385,-22.803955,-43.044434,-51.407547,-53.162155,-9.074779,2.631864,14.892717,17.191562,44.454801,54.908219,51.810386,47.592339,52.84625,57.667351,49.365935,41.592113,52.564853,53.911753,45.568778,37.419885,48.162419,49.701672,43.391397,36.476648,38.107109,60.445347,69.496422,64.272022,59.329948,75.526772,73.996983,67.755718,42.978287,60.679321,62.326698,56.877823,27.048111,43.689537,46.158199,40.594368,13.352509,28.631001,31.619968,27.769146,-3.505509,8.443319,24.129961,33.517815,51.102727,50.154611,38.562206,32.204137,63.233472,61.279133,50.557224,42.873805,66.191563,66.870447,57.537861,50.027714,64.139597,68.162081,59.702707,51.690344,46.699619,479.251709,-99.229259,459.121137
30,0.896416,-0.944349,4.134693,2.71319,-35.626259,-63.022728,-75.098934,-77.175808,-56.037025,-84.24242,-99.629002,-108.530788,-42.683487,-71.563568,-83.742542,-89.260254,-31.243973,-56.584396,-66.621208,-68.754101,-22.434425,-43.603706,-53.577404,-56.458454,-8.797952,3.400348,15.614888,16.70151,45.534383,55.680593,52.112284,47.512558,53.625108,59.326461,51.697815,44.229412,53.061573,55.703318,48.144758,40.283499,48.213487,50.815155,45.333139,38.88232,35.147953,56.249657,65.030193,61.234474,57.661686,70.878582,68.224411,61.616249,42.314701,56.329765,56.43465,50.537395,26.648369,39.955215,41.581364,36.231766,12.730923,25.676136,28.442001,25.177116,-5.070265,5.52413,20.549179,29.430864,46.232657,47.194296,36.809668,30.247204,58.703647,59.060441,49.332034,41.913277,62.704826,65.454202,57.15118,50.026541,61.840074,67.701052,59.859244,51.945002,47.587709,478.285902,-95.102892,461.812868
31,-0.191917,1.077545,2.860851,2.090931,-35.63633,-62.84832,-74.7369,-75.418911,-58.649654,-85.539494,-101.171665,-111.469116,-45.070267,-72.002964,-83.132744,-88.99292,-33.055687,-56.612377,-64.48534,-65.796719,-23.414268,-42.904816,-51.191025,-53.512402,-8.361809,3.006628,14.970091,17.73583,45.37834,55.014307,52.623825,48.849022,53.071145,57.166123,49.162652,41.748219,52.07616,52.551453,44.905208,37.375487,46.927411,47.671627,41.796816,35.550453,33.772831,53.983898,62.285843,59.934139,53.723202,66.368065,63.680992,57.2192,38.699799,52.434883,53.068027,47.380543,23.729267,37.141685,39.046726,33.764534,10.508423,23.282776,26.153526,22.980595,-6.474345,3.693107,18.264907,26.921389,43.449381,43.495014,33.097356,27.448429,55.43563,56.178302,46.47972,39.732376,59.393769,62.666109,54.605457,48.041018,58.92391,64.665155,57.337975,50.098541,47.357912,479.411905,-92.279921,463.952257
32,-0.250282,0.038347,2.626591,1.110828,-35.010223,-62.253399,-74.931793,-77.942562,-59.085617,-86.872101,-103.077049,-114.503117,-45.199699,-72.938805,-84.534874,-91.626778,-33.141289,-57.155399,-64.824657,-66.097527,-23.57048,-43.423004,-51.706181,-54.115677,-8.534524,2.872382,13.56953,15.583457,45.745755,55.64941,54.711236,52.188855,53.70952,57.002917,49.593361,43.415665,52.80358,52.921647,44.369153,36.49474,47.651496,48.167668,41.695051,34.992229,32.688904,51.958752,59.290638,56.470127,50.670891,62.86869,60.340004,54.386501,35.787964,49.757366,51.06205,46.204319,20.971642,34.767494,36.877899,32.161102,7.420692,20.876484,24.113445,21.377392,-7.958023,1.029626,14.904759,23.039202,40.693583,39.531996,29.30372,23.919948,52.372809,53.153952,44.097142,37.977306,56.327182,60.215482,52.744423,46.997498,55.925187,62.279922,55.563453,48.800918,47.09713,479.502694,-89.66383,465.115527
33,4.438362,-0.385693,-17.53315,-12.383366,-35.500374,-63.868103,-79.327297,-86.443806,-59.824219,-87.217884,-103.703384,-115.246468,-46.167984,-74.130306,-89.15657,-98.706493,-34.491005,-58.728733,-69.618988,-73.681812,-25.413437,-45.016594,-55.262775,-59.782104,-7.795063,3.757204,12.061584,12.355331,46.969895,55.252848,55.140401,53.696985,53.890758,57.362428,52.252458,47.811368,52.54818,53.166487,45.185617,37.751176,46.86177,47.930793,41.505786,34.553431,46.003132,72.926273,83.774014,83.64069,63.540344,94.400997,97.178364,91.054802,45.400543,79.39064,85.53051,79.455528,30.331364,60.792046,67.276955,60.892925,17.34066,43.591862,49.384918,43.879108,-2.702816,16.408999,36.549945,43.901888,60.555665,67.911806,49.749713,40.34247,71.243118,76.885006,59.249273,48.805982,73.585434,80.397431,63.686781,52.765665,71.089853,76.631767,63.94286,54.179626,51.451836,479.181622,-107.280636,452.796783
34,7.501373,1.662012,-6.382198,-2.371463,-38.378448,-69.247227,-90.017509,-102.844162,-60.396309,-90.833244,-105.920677,-115.190678,-47.439651,-78.032684,-91.269379,-98.568306,-36.903191,-63.478374,-75.819225,-81.536751,-29.03286,-49.503593,-59.672127,-64.438534,-4.788621,5.414029,15.689174,22.642209,49.382669,52.760849,43.53898,35.883226,53.698158,53.000626,41.050068,30.011688,50.937915,48.094555,38.561156,29.272351,45.194139,43.444441,35.601212,27.146037,36.511116,62.982216,79.536209,83.075008,48.798237,80.509701,91.619568,93.047905,33.775291,68.153572,81.6782,84.782639,22.139339,52.327766,63.800354,65.315094,13.296146,37.667599,47.613602,49.072781,-3.131302,13.146848,32.164061,44.032366,51.583145,72.373706,63.658314,55.970573,63.501221,83.517679,74.433576,66.034964,66.93899,85.044026,76.402982,67.373281,65.629449,79.277896,72.714198,64.38135,58.661985,481.351161,-113.954058,450.932847
35,5.396347,-1.860478,-17.183075,-2.87973,-41.040802,-73.670654,-96.287098,-114.31303,-60.219841,-85.926075,-98.739567,-105.112667,-45.542336,-69.974155,-77.789497,-78.029938,-32.471008,-54.321327,-62.980156,-62.770271,-22.585373,-39.425354,-47.126999,-47.746582,-2.2881,9.950523,24.249325,35.99907,50.108175,54.438299,47.12316,41.72111,55.312376,56.052146,45.459418,35.829133,54.284787,53.244169,42.972173,32.566365,49.747367,50.704066,43.793948,34.655504,32.252598,59.142952,78.789997,93.19313,46.218853,72.092056,87.978458,96.432838,30.860481,63.050537,81.521816,89.682198,20.436287,49.886913,66.623268,74.085732,12.854862,36.475697,52.229404,61.258621,-3.270425,14.043649,31.405951,43.994143,50.821268,78.180715,76.830418,70.921151,60.801864,84.732927,78.798033,70.447711,63.589648,84.120363,78.146937,68.495718,62.513462,80.419723,78.5887,70.752325,63.422155,479.856616,-131.77331,448.419049
36,-4.15226,-7.98192,-7.344131,-5.319304,-40.770264,-70.120697,-89.941692,-106.491852,-49.959183,-73.743725,-84.499111,-88.968773,-34.241638,-58.18325,-65.368538,-64.066601,-21.06205,-42.325401,-51.021767,-50.331917,-10.967789,-28.490868,-35.325279,-33.724251,1.870049,17.372799,34.991056,45.478376,59.98046,64.9045,54.862833,47.761288,65.454881,64.002758,51.656875,42.432598,63.552907,61.139947,52.012743,42.398265,58.051068,59.390064,52.63636,44.113753,29.954052,46.253986,61.00399,71.697865,34.942589,57.807369,71.498795,79.2136,21.315079,43.735886,58.662243,66.928253,11.062946,28.450127,42.717934,51.702003,3.064499,16.110134,27.242718,34.834843,5.66628,23.884318,40.301283,51.672498,53.113629,75.82364,78.691638,78.74252,58.37532,80.974797,82.300517,79.735096,57.334887,79.260544,81.489549,79.526009,52.902875,70.012308,73.501515,72.264963,59.046021,472.593996,-139.341316,443.819045
37,-14.067192,-5.796635,-32.945709,-46.059355,-38.170853,-65.803642,-84.498024,-100.531025,-49.869404,-71.99667,-82.341442,-88.185711,-33.071022,-57.664604,-65.513477,-67.154789,-18.822556,-40.060387,-46.750832,-47.048492,-7.701645,-25.697479,-31.561203,-30.865974,-3.714534,10.23297,27.955153,39.335383,54.09052,67.325486,58.762495,49.680676,63.261445,66.947327,54.127138,44.355383,63.579274,66.823641,55.823299,46.576669,59.78996,66.831792,59.831827,51.058452,27.725373,43.596382,55.54061,62.918215,17.48231,39.486895,57.289524,67.223768,4.677172,28.103857,47.140131,57.126818,-2.481079,17.513237,35.12332,45.347901,-6.259632,9.741326,23.813238,32.670937,11.907116,35.803198,57.900027,73.339668,58.625749,88.23291,91.297521,89.233761,62.726995,92.595299,93.276097,88.846617,62.211811,89.498979,90.097433,85.254996,59.167547,80.090192,82.937349,79.919452,44.502296,467.166721,-172.763558,398.12905
38,-14.981003,-8.871743,-32.945709,-46.059354,-31.743965,-53.452835,-65.591526,-74.121895,-46.376438,-72.679253,-83.441391,-86.683788,-33.649406,-57.284088,-66.474667,-67.444954,-21.726265,-42.496719,-51.155434,-50.439835,-12.278709,-28.235435,-37.094536,-38.496208,10.005852,24.900915,41.610515,52.732382,42.748575,60.003555,54.438607,46.454711,48.786777,65.016206,55.910305,46.10329,49.497895,65.059617,56.490141,47.700402,46.564257,61.610239,57.531006,49.647331,25.496693,40.938778,50.077229,54.138565,0.02203,21.16642,43.080254,55.233936,-11.960735,12.471828,35.618019,47.325382,-16.025105,6.576347,27.528706,38.993797,-15.583763,3.372517,20.383759,30.50703,18.147952,47.722077,75.498771,95.006837,64.137868,100.64218,103.903404,99.725001,67.07867,104.2158,104.251677,97.958137,67.088735,99.737413,98.705317,90.983983,65.432219,90.168075,92.373182,87.57394,28.348675,459.688206,-206.881886,353.462924
39,-23.292618,-61.241527,-15.995808,-46.743395,-52.240906,-87.881756,-111.594429,-120.001774,-71.036911,-112.36124,-105.794449,-91.337242,-55.780277,-99.303417,-95.519142,-80.408535,-43.240013,-83.743973,-81.946964,-68.545933,-33.117027,-66.936092,-67.187805,-56.937962,-4.393665,11.643719,32.423536,44.962204,53.158645,67.155549,49.691915,42.328672,67.320978,79.150628,62.553414,55.088284,75.354769,85.276825,71.363778,63.938106,78.502311,88.084863,78.108775,71.675185,21.785374,30.025978,30.664272,31.400127,-4.603786,3.420868,15.213203,16.243744,-16.344967,-7.84584,5.008621,6.115723,-22.570782,-15.65443,-4.722519,-3.123035,-25.442219,-20.281391,-11.848526,-9.269772,18.715747,39.224109,61.575226,79.066277,53.756389,84.521494,75.961096,64.220305,56.371889,86.234697,77.604089,66.815243,56.978587,83.016513,75.885946,65.865089,56.388006,76.100528,72.442619,64.475519,3.639765,399.489736,-224.293985,307.762587
40,-31.612072,-44.704149,-8.897953,-57.637711,-54.873734,-90.32793,-114.50489,-123.177795,-83.849831,-125.779209,-121.686287,-109.641438,-70.898094,-115.644608,-110.935993,-95.942917,-59.549618,-103.360062,-99.721413,-84.196014,-49.549026,-86.776714,-86.572723,-74.661484,-8.896505,2.071294,18.275405,29.6925,32.44237,49.703709,36.447934,27.26787,50.813488,61.942332,47.244314,36.959227,62.751942,70.388245,57.041511,46.465703,69.655761,77.961686,66.112523,56.843168,13.903599,16.317959,10.598831,4.525566,-2.897358,-14.043846,-11.284904,-7.506237,-16.360359,-25.254478,-19.266071,-14.678078,-26.756458,-34.540501,-29.424019,-25.188904,-34.644814,-39.913445,-35.255299,-30.643158,13.804675,32.432057,48.351746,60.835456,59.701719,73.883874,64.78211,55.419883,58.572427,75.055156,64.138671,54.158075,53.225521,69.269389,59.056365,48.640059,45.232362,57.701499,52.472474,46.022644,-27.944441,355.288143,-233.164072,250.627431
41,-32.697945,-48.410285,-0.326986,-26.646661,-27.071743,-57.277508,-86.053047,-100.992279,-75.78146,-109.940243,-100.99268,-89.148502,-79.39785,-112.206402,-101.174297,-87.728577,-78.447933,-105.128918,-93.389339,-80.252781,-74.329205,-93.082409,-83.127079,-71.275406,36.333942,47.612223,44.059475,33.613713,55.985641,45.262002,34.302786,30.049171,37.36468,25.732076,18.197538,16.51064,16.003793,5.488747,2.328052,4.257444,-5.484425,-9.913226,-8.750404,-5.790398,-0.710793,-3.720932,-8.183069,-12.259369,-10.734015,-18.564663,-17.675228,-16.063185,-12.499495,-17.31946,-14.269466,-11.858368,-12.6723,-15.604191,-13.061342,-11.287022,-11.646023,-13.325357,-11.704159,-10.125961,0.234127,0.290906,1.207467,1.105054,10.636447,8.222499,-2.162438,-11.283468,11.054373,8.643112,-3.267184,-13.007107,10.2732,8.020082,-3.529098,-13.826442,8.814655,6.855191,-0.489341,-7.230881,-60.543337,308.036002,-233.39201,225.138915
42,-44.641857,-66.509732,-0.326986,-26.646661,-24.660416,-51.40872,-73.631659,-86.343127,-76.094055,-100.337048,-96.96682,-92.439537,-77.734165,-99.390621,-93.167439,-84.478112,-73.933525,-92.899361,-84.864207,-75.216379,-66.716538,-79.705124,-72.801562,-64.292193,12.136951,12.423874,8.173995,1.828306,18.303965,-1.09536,-18.700958,-32.255961,12.271721,-9.801056,-27.518515,-40.769922,4.23719,-16.337492,-32.681683,-43.39893,-4.755708,-18.715963,-28.767479,-35.7479,-15.325184,-23.759823,-26.96497,-29.044304,-18.570671,-23.08548,-24.065552,-24.620132,-8.63863,-9.384441,-9.272861,-9.038658,1.411858,3.332119,3.301334,2.614861,11.352768,13.26273,11.846981,10.391235,-13.336422,-31.850245,-45.936811,-58.625347,-38.428825,-57.438875,-69.106986,-77.986818,-36.46368,-57.768931,-70.673038,-80.172289,-32.679121,-53.229226,-66.114561,-76.292943,-27.603052,-43.991117,-53.451157,-60.484405,-105.550832,242.832677,-234.084635,199.79866
43,-44.641857,-66.509732,-4.176292,-91.795384,-22.249088,-45.539932,-61.21027,-71.693974,-76.406651,-90.733852,-92.94096,-95.730572,-76.07048,-86.574841,-85.16058,-81.227646,-69.419117,-80.669804,-76.339073,-70.179977,-59.10387,-66.327839,-62.476044,-57.308979,-12.060041,-22.764475,-27.711485,-29.957101,-19.377712,-47.452722,-71.704702,-94.561092,-12.821238,-45.334188,-73.234568,-98.050484,-7.529413,-38.163731,-67.691419,-91.055305,-4.026991,-27.518701,-48.784554,-65.705402,-12.823448,-18.157997,-13.902054,-5.256672,-24.967976,-20.663624,-16.801186,-16.417236,-16.100979,-14.049225,-11.572952,-11.659527,-6.326923,-6.361256,-4.392242,-4.521847,2.646046,-0.259895,-0.129776,-3.012257,-1.575747,-8.797334,-7.626546,-2.139837,-47.591166,-29.124458,-10.142443,0.020254,-53.217215,-29.31431,-9.133256,-0.221684,-49.608737,-29.112911,-11.312367,-3.463704,-40.55801,-26.498893,-13.53075,-8.093318,-151.735439,177.221089,-239.803677,108.901421
44,-16.624432,-46.531838,17.420826,-13.644186,-28.156242,-49.074554,-57.651844,-59.699364,-72.851028,-87.692299,-79.890175,-70.323486,-69.067783,-82.536621,-71.011105,-57.49649,-59.893742,-71.042805,-60.386639,-47.741432,-46.061325,-53.752499,-47.536068,-39.126263,-35.628444,-67.517468,-91.138915,-106.999169,-58.254567,-93.057747,-113.370823,-125.804886,-46.209809,-87.641032,-113.744382,-126.549596,-35.575833,-74.025962,-100.841171,-113.332198,-26.392435,-56.432559,-78.587495,-90.232419,-2.006435,-6.140156,-7.515965,-3.810997,-27.899609,-22.773457,-14.092941,-12.696934,-35.120316,-24.723186,-14.141121,-11.173782,-36.91864,-28.242645,-17.634602,-14.58086,-34.889431,-30.079937,-21.041565,-16.198997,-25.811178,-46.759264,-64.759942,-73.139133,-52.843749,-75.544991,-69.918942,-66.187889,-54.501655,-76.533059,-70.721913,-64.873717,-55.933955,-75.473546,-71.473477,-65.545067,-57.376908,-73.891068,-72.595791,-67.520556,-168.245344,128.93219,-222.268324,93.500174
45,-21.846313,-39.83445,17.876158,-25.835477,-25.857754,-34.60104,-27.996712,-16.551476,-65.723877,-36.350555,-24.32024,-26.648998,-57.950363,-28.910179,-18.649464,-20.347195,-43.758717,-19.201698,-10.483246,-14.252701,-26.867695,-12.128048,-6.889915,-9.525948,-36.89936,-73.571942,-98.020443,-106.758805,-88.373238,-137.562906,-123.774594,-109.4669,-82.529981,-137.314885,-125.260062,-111.246362,-76.28013,-127.219125,-115.929513,-102.961587,-69.156077,-109.873403,-105.292881,-95.611405,-2.766867,-7.577734,-8.648987,-7.664509,-36.619606,-27.799358,-16.026649,-13.451471,-40.896034,-27.732182,-14.517889,-11.708965,-39.184084,-28.659868,-15.659409,-12.100897,-33.106728,-27.985125,-18.531132,-14.181662,-29.721122,-55.461256,-75.806257,-85.446669,-62.612154,-92.944729,-85.711826,-78.777841,-61.590216,-94.125396,-87.092287,-77.032249,-59.743894,-88.275811,-83.418492,-74.45877,-56.678758,-79.161666,-77.980566,-71.04831,-189.681015,89.06634,-203.981524,67.633296
46,16.879234,-16.935606,17.876158,-25.835477,-27.945786,-48.671436,-61.509132,-69.916306,-61.105556,-63.980312,-51.71545,-37.94981,-52.767735,-56.65844,-42.178116,-26.51722,-38.483505,-41.693516,-29.351406,-16.856403,-19.538097,-20.545807,-14.73959,-9.790707,-15.062654,-34.428232,-49.360748,-60.516268,-72.167398,-104.999567,-120.135427,-124.654167,-79.43292,-117.508687,-131.848029,-135.021845,-81.68891,-118.952474,-133.13818,-139.23097,-79.238962,-107.74851,-125.220758,-138.336052,-3.527298,-9.015312,-9.782009,-11.518021,-45.339603,-32.82526,-17.960358,-14.206009,-46.671753,-30.741177,-14.894657,-12.244148,-41.449528,-29.077091,-13.684216,-9.620934,-31.324024,-25.890312,-16.020699,-12.164326,-33.631065,-64.163248,-86.852572,-97.754206,-72.38056,-110.344466,-101.50471,-91.367793,-68.678777,-111.717734,-103.462661,-89.190782,-63.553833,-101.078076,-95.363508,-83.372473,-55.980608,-84.432265,-83.365341,-74.576065,-172.015629,72.589771,-185.319214,42.256857
47,2.033386,-11.027543,14.751835,-16.788702,-30.078678,-47.675114,-61.010971,-71.537819,-39.010391,-43.051014,-33.164234,-19.789753,-31.78236,-40.287094,-29.522095,-13.43399,-24.853306,-34.508801,-24.21278,-11.329365,-17.48909,-27.536144,-26.261559,-22.166462,-26.97363,-52.553923,-67.920544,-73.579537,-94.242028,-117.72926,-132.299702,-141.069897,-96.25895,-125.44414,-141.226558,-148.871876,-90.010673,-117.653492,-132.613116,-141.754832,-77.863225,-94.735815,-104.035519,-110.360676,-4.374561,-11.42046,-15.090923,-19.608536,-35.474625,-39.208775,-28.668079,-17.962646,-41.00584,-44.988956,-32.492466,-19.996147,-44.303284,-53.743401,-42.165527,-29.035492,-45.274773,-64.30521,-62.506599,-55.987873,-33.379587,-62.881124,-83.529072,-93.294931,-76.557852,-99.702339,-101.91183,-100.101679,-66.418064,-89.993908,-93.987215,-91.202549,-50.904539,-70.68193,-75.163126,-73.974431,-30.378177,-39.897435,-43.042415,-43.897349,-169.509001,63.363672,-170.094137,27.269599
48,-3.117027,-55.18165,9.242592,-12.654141,11.0499,11.448326,7.39151,-1.197796,-18.012886,-4.704666,-0.139847,-2.94445,-29.957428,-16.315498,-8.836155,-8.407516,-38.629932,-29.832687,-20.347824,-16.877174,-44.304886,-47.908058,-42.394867,-38.369064,-42.103191,-75.09906,-95.72941,-102.297029,-91.234289,-118.273621,-100.587407,-90.368733,-78.793557,-107.749467,-89.687009,-79.097523,-61.673934,-84.192055,-70.661552,-62.06608,-40.336481,-46.534586,-36.914489,-30.258783,-27.543411,-48.986206,-67.607689,-79.90551,-32.456017,-47.985821,-43.136673,-33.303909,-32.565536,-57.629986,-50.688343,-38.610134,-35.586433,-65.94183,-58.486233,-46.52607,-41.478996,-70.437756,-65.233669,-54.318466,-21.084616,-39.186132,-45.731707,-44.269827,-81.374199,-89.81372,-82.795817,-79.579979,-76.391373,-77.322446,-68.786532,-68.512761,-64.594543,-59.380524,-49.738537,-50.105921,-47.778517,-44.933768,-36.87926,-34.6409,-172.598476,10.56778,-160.823994,17.001216
49,9.116421,-6.979896,0.04818,-6.28508,-2.903309,-4.40712,-4.062424,-11.533527,-19.031811,-34.11129,-29.999084,-23.113575,-25.812092,-46.63147,-40.78474,-32.325497,-34.536381,-60.014477,-52.351227,-40.15234,-44.313927,-71.818256,-65.964489,-54.032536,-36.348732,-67.692592,-90.997537,-99.93452,-86.259953,-101.062484,-87.082932,-80.38082,-77.41572,-89.340496,-71.738541,-63.906211,-63.421996,-66.00869,-51.492742,-47.888278,-44.534552,-41.831582,-30.513441,-28.077449,-30.019112,-50.16037,-68.139782,-79.846401,-31.250553,-57.682686,-56.022491,-45.145855,-30.587425,-66.499958,-63.392544,-52.344303,-33.157825,-70.32217,-65.654469,-53.690872,-39.541397,-71.236839,-67.744732,-56.617184,-18.958797,-36.54235,-44.38987,-46.728389,-73.833949,-80.199058,-70.959961,-65.335178,-70.891881,-73.515255,-61.971509,-59.758436,-61.737475,-61.210466,-47.631952,-44.754661,-48.152663,-48.794712,-39.027248,-34.714013,-163.398399,4.467889,-160.692158,11.596141
50,-5.587292,-1.966689,-1.960659,-4.438836,-3.921776,-7.448559,-8.667068,-17.218609,-18.258762,-36.971741,-34.64613,-27.526588,-23.329353,-50.911961,-46.648865,-38.14064,-30.706902,-61.547012,-55.676708,-44.217396,-40.319252,-69.74247,-64.579868,-53.176346,-33.391134,-60.831103,-82.671915,-93.556135,-81.272434,-95.827624,-83.140261,-76.059001,-74.175923,-85.354229,-68.801661,-61.152915,-61.321679,-62.541497,-47.417277,-44.145339,-43.807873,-41.442554,-29.415951,-26.4427,-31.284142,-51.171856,-68.756275,-80.911617,-30.603161,-61.34531,-59.198055,-47.910461,-28.941994,-69.554501,-64.517212,-52.192039,-31.116028,-72.467709,-67.079201,-55.083733,-38.194256,-71.618214,-68.434067,-58.140335,-15.662467,-33.193718,-41.207964,-43.805032,-71.344944,-76.103925,-65.089535,-60.595401,-68.17968,-69.831194,-56.536423,-54.040379,-58.737517,-58.838324,-44.376563,-41.538854,-45.156841,-46.305059,-36.278768,-32.414119,-168.776836,2.888885,-162.443962,7.54499
51,-4.851093,0.37995,-7.935104,1.523197,-6.833096,-14.902096,-20.42078,-31.328144,-21.467457,-38.906078,-35.084267,-27.843819,-24.768562,-53.117752,-47.142563,-37.439461,-31.669693,-65.31126,-58.643417,-46.422958,-42.136745,-73.531265,-68.669014,-57.09177,-31.066046,-59.94943,-79.712001,-87.676045,-76.911991,-95.205149,-85.700217,-80.419198,-67.240147,-82.938182,-69.263554,-62.435996,-53.055614,-58.444604,-45.305073,-41.043832,-34.47297,-35.015108,-24.065834,-20.089292,-25.993195,-47.824402,-65.479946,-79.16811,-28.553352,-46.716843,-45.352306,-37.178249,-26.286907,-57.629013,-53.832035,-43.441486,-29.574509,-68.011379,-64.269447,-53.351841,-37.517395,-69.753799,-66.16087,-55.690384,-15.684481,-32.503533,-39.078069,-41.247176,-67.236535,-80.957476,-82.81462,-83.306647,-64.082787,-75.415006,-68.841613,-65.99248,-54.354689,-57.082266,-44.821228,-42.021248,-40.686389,-41.447648,-31.355902,-27.262745,-173.577175,3.575596,-170.328312,9.374948
52,-7.449245,2.164877,-3.350315,2.349572,-18.309574,-33.983002,-45.790043,-56.013737,-25.437813,-47.716427,-49.503651,-43.95052,-24.929008,-52.38287,-52.581711,-44.279709,-27.958946,-63.000412,-61.263027,-50.186691,-34.478817,-68.062248,-67.57061,-58.403778,-26.927471,-50.832569,-62.670184,-61.844396,-73.120824,-87.939317,-76.898035,-71.577743,-62.524145,-75.47086,-64.609672,-59.342331,-46.795882,-47.087036,-35.910921,-33.103964,-26.424607,-24.71023,-17.286318,-15.365293,-22.738037,-46.811829,-65.875568,-80.155106,-28.705273,-51.918926,-56.988888,-54.335232,-27.037983,-59.918804,-62.736225,-56.406384,-30.812759,-71.876049,-72.463531,-62.242756,-39.204826,-73.330708,-72.944698,-63.969212,-17.702114,-32.10512,-33.049191,-27.661992,-62.361309,-78.369084,-78.667678,-75.491731,-58.396407,-72.838007,-69.378657,-65.0862,-47.560136,-51.641962,-43.647507,-39.151675,-31.813133,-35.706342,-30.569294,-27.454326,-181.445074,4.691796,-174.097281,10.675843
53,-33.52581,7.21887,-19.071064,3.952242,-7.39357,-12.825222,-15.162163,-16.927128,-33.857346,-26.131668,-21.384373,-22.732487,-33.210526,-25.898438,-21.109486,-21.537838,-29.692097,-25.415497,-22.302876,-22.853508,-24.284019,-27.707462,-28.241501,-30.244904,-35.949917,-65.946877,-88.202065,-97.565404,-60.829621,-91.931914,-78.541368,-67.173488,-49.238266,-81.878206,-69.777379,-57.097796,-36.999241,-65.992171,-55.664847,-44.863033,-23.29312,-42.101369,-35.926204,-28.739691,-13.698349,-27.024364,-33.864555,-38.243923,-41.008015,-49.504395,-47.653027,-43.193321,-38.364429,-49.973888,-47.499046,-42.160892,-34.846458,-48.626633,-47.279205,-42.230072,-30.587711,-45.059738,-47.467918,-46.589298,-36.371765,-63.565257,-81.539968,-89.726683,-57.753431,-74.743532,-74.397421,-71.161916,-40.982915,-60.456339,-61.876568,-60.38156,-22.998601,-37.439831,-37.96897,-36.187934,-4.063146,-11.147648,-14.533484,-16.140971,-215.580568,11.55943,-193.778028,14.27685
54,-13.743839,2.294769,-30.403805,13.398759,6.470203,3.397808,-8.211021,-18.79612,-13.690166,-18.424931,-17.236404,-15.5583,-24.085808,-28.900795,-23.830891,-20.556908,-34.353905,-36.986904,-31.490307,-28.860855,-43.220387,-45.54451,-39.152699,-36.579437,-26.749507,-51.780777,-64.305057,-67.100097,-65.369912,-82.777848,-65.826495,-52.771439,-55.748025,-72.163044,-53.903324,-42.265008,-43.156869,-56.15388,-40.595647,-29.837676,-28.414915,-37.895981,-28.873011,-22.220515,0.327015,-5.445957,-19.86414,-33.536339,-27.225552,-22.439747,-16.702023,-16.667347,-36.859818,-29.403992,-20.336494,-19.500389,-45.387211,-36.275597,-26.188602,-25.270443,-51.741028,-44.865475,-34.757767,-32.587967,-37.235066,-65.353271,-82.329076,-89.243116,-70.909696,-94.360866,-81.989881,-69.246696,-59.631755,-82.420868,-67.917858,-55.982615,-46.807615,-68.496212,-54.23338,-41.610083,-33.201807,-52.815251,-43.213772,-31.163426,-230.679131,13.196542,-225.536556,27.017951
55,-12.890396,-18.202015,1.456461,42.281896,-0.715313,-5.061722,-10.0177,-13.484058,-14.301453,-21.215057,-26.628971,-27.892914,-13.963966,-18.994274,-24.693546,-26.616726,-10.776043,-13.845291,-20.793228,-24.404526,-7.819061,-8.593769,-13.806038,-17.297344,-5.432956,-7.956973,-4.875658,2.518027,-23.081409,-11.867626,1.649817,15.113166,-21.051611,-9.172468,9.110254,23.855203,-13.587067,-0.650294,19.358847,31.2994,-5.794566,7.565383,21.843683,31.935368,-9.172611,-18.616076,-30.370102,-38.35393,-39.055224,-37.331171,-31.724825,-29.969502,-46.235733,-41.787529,-32.79891,-28.425923,-50.350571,-46.291123,-37.423668,-33.738842,-51.448117,-49.68916,-42.738934,-39.727278,-29.207945,-53.061295,-71.89883,-82.769202,-50.761123,-82.353298,-81.239923,-75.618736,-47.485449,-80.798469,-77.551679,-70.211176,-45.31344,-75.665497,-71.707218,-64.156887,-42.983983,-68.144713,-65.766968,-58.053369,-244.955149,-6.668936,-225.465717,67.636384
56,60.737114,121.401588,1.456461,42.281896,-34.187679,-59.156857,-74.193649,-83.800278,-72.989445,-90.929832,-94.294395,-96.573372,-66.999035,-87.503929,-90.032845,-89.073944,-57.382679,-78.320103,-81.425171,-80.241966,-43.45768,-59.283314,-65.204716,-66.988564,-24.025727,-43.142759,-59.911114,-74.302974,-24.204926,-51.223665,-73.481848,-91.739036,-17.205517,-50.730804,-78.077437,-96.612317,-14.087368,-45.265429,-74.079129,-92.395474,-14.149489,-38.033839,-57.368665,-69.691391,-18.672237,-31.786194,-40.876064,-43.17152,-50.884895,-52.222595,-46.747627,-43.271656,-55.611649,-54.171066,-45.261326,-37.351456,-55.313931,-56.306648,-48.658733,-42.207241,-51.155205,-54.512844,-50.7201,-46.866589,-21.180824,-40.76932,-61.468583,-76.295289,-30.612551,-70.34573,-80.489964,-81.990777,-35.339143,-79.176069,-87.185499,-84.439736,-43.819266,-82.834781,-89.181056,-86.703692,-52.766159,-83.474176,-88.320163,-84.943311,-185.487585,114.54703,-225.278807,109.732659
57,35.701533,40.875315,23.578319,48.72157,-38.082619,-67.879286,-86.309281,-97.761326,-80.669031,-103.430872,-109.968453,-115.023995,-72.270813,-97.950297,-104.21402,-105.720835,-60.779171,-86.123343,-93.010626,-94.413615,-46.751547,-65.840464,-73.715401,-76.572991,-16.319121,-30.199116,-43.552319,-55.496114,-9.525063,-31.724012,-51.306426,-67.734907,-3.361168,-32.275921,-56.87585,-74.062719,-1.255756,-27.929511,-53.22234,-69.862502,-2.023839,-22.124293,-39.555214,-50.825375,-20.060777,-34.809551,-44.377699,-49.205217,-56.502428,-63.397665,-57.641201,-53.675451,-58.77634,-64.95655,-56.316719,-48.402528,-55.799017,-62.818393,-55.31928,-48.611726,-49.211082,-56.824779,-53.644752,-49.651823,-17.391726,-34.416793,-52.468801,-65.504097,-31.979134,-62.826367,-71.08743,-72.513417,-35.773342,-69.459087,-75.865306,-73.764264,-40.743416,-70.39405,-74.870615,-72.55482,-45.176077,-68.03943,-71.754828,-69.045297,-150.074844,155.62257,-201.989279,158.654454
58,35.701532,40.875315,23.57832,48.721569,-41.977558,-76.601715,-98.424911,-111.722374,-88.348618,-115.931911,-125.642509,-133.474617,-77.542591,-108.396664,-118.395195,-122.367725,-64.175663,-93.926582,-104.596081,-108.585262,-50.045414,-72.397614,-82.226086,-86.157417,-8.612515,-17.255473,-27.193523,-36.689254,5.154801,-12.224359,-29.131004,-43.730777,10.483182,-13.821039,-35.674263,-51.51312,11.575856,-10.593592,-32.365552,-47.32953,10.101812,-6.214747,-21.741764,-31.959358,-21.449318,-37.832909,-47.879333,-55.238914,-62.119961,-74.572735,-68.534775,-64.079247,-61.941032,-75.742035,-67.372112,-59.453602,-56.284103,-69.330139,-61.979828,-55.016212,-47.26696,-59.136715,-56.569405,-52.437057,-13.602628,-28.064265,-43.469017,-54.712903,-33.345716,-55.307003,-61.684895,-63.036056,-36.207539,-59.742103,-64.545112,-63.08879,-37.667566,-57.953317,-60.560173,-58.405948,-37.585994,-52.604682,-55.189492,-53.147283,-114.320669,198.450834,-178.358316,209.328972
59,-16.876945,29.717942,61.573162,10.443896,-14.397984,-28.018513,-40.98753,-47.773705,-57.173309,-64.407921,-51.978035,-41.051102,-66.221237,-67.983227,-58.333454,-48.073368,-67.978592,-70.906677,-61.106701,-49.673195,-67.498169,-71.036453,-60.897789,-52.015915,-32.580876,-53.367794,-65.900534,-67.182904,-44.298758,-54.648127,-46.300212,-39.566391,-23.921183,-34.883116,-30.635676,-28.251122,-6.587534,-16.688728,-13.82462,-12.216887,8.166368,3.003664,2.406846,1.781499,-20.981484,-38.456589,-50.93042,-59.369682,-59.116974,-77.572197,-74.431732,-70.750053,-58.588211,-77.966789,-72.279717,-65.283279,-53.387695,-70.88356,-64.687981,-57.45076,-45.476852,-60.043396,-57.901291,-53.384491,-15.681146,-28.504435,-39.359589,-46.205338,-30.660994,-45.155804,-50.171024,-51.557481,-28.425962,-43.855315,-48.421721,-47.948392,-25.856132,-38.86461,-41.91287,-41.225415,-22.595229,-32.052539,-34.791726,-33.962875,-129.182854,228.364833,-114.770393,219.968926
60,111.329956,12.862055,61.573162,10.443897,-44.694672,-81.440163,-103.497219,-112.782326,-69.121227,-104.278107,-117.564983,-122.620354,-50.176735,-91.263657,-107.545795,-110.928898,-31.430969,-67.783756,-80.970325,-81.395874,-15.720863,-42.995167,-52.167377,-52.505322,-9.305046,-9.921377,-8.466722,-5.427367,32.454596,27.18673,7.852985,-9.552048,47.302421,42.069382,19.505535,0.636647,54.755017,51.702014,31.954603,15.173867,57.087824,57.795916,42.995577,29.577089,-20.513649,-39.080269,-53.981506,-63.50045,-56.113987,-80.571659,-80.32869,-77.42086,-55.23539,-80.191544,-77.187321,-71.112957,-50.491287,-72.436981,-67.396133,-59.885307,-43.686745,-60.950077,-59.233177,-54.331924,-17.759666,-28.944604,-35.250161,-37.697775,-27.976271,-35.004605,-38.657154,-40.078908,-20.644386,-27.968528,-32.298331,-32.807994,-14.044699,-19.775903,-23.265567,-24.044882,-7.604465,-11.500397,-14.39396,-14.778467,-14.019356,240.853947,-49.363689,230.039881
61,-36.846943,9.647143,61.573162,10.443896,-2.168541,0.010471,5.846729,13.751907,-34.950485,-4.021225,15.853214,25.305805,-36.418076,-2.191544,14.995422,21.730499,-31.268463,-0.923424,12.671928,16.594849,-23.256912,-1.180172,10.461559,15.015507,-16.388374,-16.99396,-2.707632,12.333904,5.831771,5.251008,5.138375,5.851346,27.091758,26.424792,25.819885,26.461842,42.211717,42.120265,40.048106,38.820446,51.534609,55.457489,55.751915,54.890991,-20.045814,-39.703949,-57.032593,-67.631218,-53.111,-83.571121,-86.225647,-84.091667,-51.882568,-82.416298,-82.094925,-76.942634,-47.594879,-73.990402,-70.104286,-62.319855,-41.896637,-61.856758,-60.565063,-55.279358,-19.838184,-29.384773,-31.140732,-29.19021,-25.291548,-24.853404,-27.143282,-28.600333,-12.862808,-12.08174,-16.17494,-17.667595,-2.233265,-0.687195,-4.618264,-6.864348,7.386301,9.051746,6.003808,4.405942,-48.145609,249.883308,14.930162,239.865995
62,149.238682,15.698684,61.573162,10.443897,-43.246307,-80.22377,-102.024422,-98.975487,-60.113068,-116.871586,-107.920361,-94.503136,-42.48127,-100.682716,-95.740814,-82.872849,-29.819298,-85.1437,-82.233696,-69.870644,-20.578308,-65.211182,-63.85437,-52.81105,-11.388381,-6.063829,13.628378,37.03481,1.315901,9.24521,-1.488432,-7.999828,22.14024,28.366781,17.528966,11.941295,38.731464,45.802998,33.198627,27.308502,49.933791,58.596633,47.366086,41.929641,-19.57798,-40.327629,-60.083679,-71.761986,-50.108013,-86.570583,-92.122604,-90.762474,-48.529747,-84.641052,-87.002529,-82.772312,-44.698471,-75.543823,-72.812439,-64.754402,-40.106529,-62.763439,-61.89695,-56.226791,-21.916703,-29.824943,-27.031305,-20.682646,-22.606826,-14.702205,-15.629412,-17.121759,-5.081232,3.805048,-0.051549,-2.527197,9.578168,18.401512,14.029039,10.316184,22.377065,29.603888,26.401574,23.590349,102.986956,265.118432,78.397207,249.846332
63,23.544456,-22.873933,61.573162,10.443896,-33.572227,-63.003983,-79.530212,-76.728081,-49.104172,-90.671082,-82.787086,-72.375275,-34.485947,-76.271484,-71.732964,-62.542351,-23.34446,-63.348152,-60.696213,-51.867096,-14.748047,-47.396233,-45.630981,-37.195381,-4.366853,3.825438,22.17871,42.025898,7.453077,15.462204,7.232999,2.35479,20.635469,27.54466,19.905221,16.277483,30.736737,38.30504,29.591403,25.523804,37.121198,45.469533,37.377055,33.54538,-19.110146,-40.951309,-63.134766,-75.892754,-47.105026,-89.570045,-98.019562,-97.433281,-45.176926,-86.865807,-91.910133,-88.60199,-41.802063,-77.097244,-75.520592,-67.18895,-38.316422,-63.67012,-63.228836,-57.174225,-23.995222,-30.265112,-22.921876,-12.175082,-19.922103,-4.551005,-4.115541,-5.643185,2.700346,19.691836,16.071841,12.613201,21.389602,37.490219,32.676342,27.496717,37.36783,50.156031,46.79934,42.774757,128.685276,242.234695,142.124233,260.280426
64,23.544457,-22.873933,-12.907448,-27.941814,-23.898148,-45.784195,-57.036004,-54.480675,-38.095276,-64.470578,-57.653813,-50.247414,-26.490624,-51.860253,-47.725113,-42.211854,-16.869622,-41.552605,-39.15873,-33.863549,-8.917786,-29.581284,-27.407593,-21.579712,2.654675,13.714704,30.729042,47.016986,13.590253,21.679198,15.954429,12.709408,19.130697,26.72254,22.281475,20.61367,22.742009,30.807083,25.984178,23.739106,24.308605,32.342432,27.388024,25.161119,-0.597839,3.089218,4.629707,4.024429,21.82663,12.513771,6.044655,1.139259,22.708282,16.025505,9.162598,1.585121,23.437614,18.936768,15.454559,8.791351,22.334976,22.919655,20.571213,15.774422,-14.806452,-15.732893,-2.830083,12.093448,-16.041152,3.004652,15.823852,23.22081,0.403971,23.319981,36.337277,41.722036,16.051464,37.099771,46.901908,48.748863,30.185577,48.857358,55.154789,54.776197,153.586401,219.231488,130.573454,232.209337
65,23.544456,-22.873934,17.293739,-14.519066,-14.224068,-28.564407,-34.541794,-32.233269,-27.08638,-38.270073,-32.520538,-28.119553,-18.4953,-27.44902,-23.717262,-21.881355,-10.394783,-19.757057,-17.621246,-15.860001,-3.087524,-11.766335,-9.184204,-5.964043,9.676203,23.603972,39.279376,52.008074,19.727429,27.896193,24.67586,23.064026,17.625927,25.90042,24.65773,24.949859,14.747283,23.309126,22.376954,21.954408,11.496013,19.215333,17.398994,16.776858,-0.300865,6.60141,19.850922,28.360977,39.773598,33.535767,24.466553,18.709488,55.151939,45.401001,32.944107,23.78746,61.507645,52.550812,40.02388,31.387253,61.928902,56.543083,44.122124,35.387077,-24.306568,-37.703752,-38.138722,-30.527922,-28.967983,-13.973254,-7.14656,-6.137991,-10.192585,12.217443,16.709785,15.018873,7.969014,30.603381,32.753036,29.22258,23.123121,41.361661,43.135627,40.044031,180.245653,196.922863,150.981989,218.255581
66,23.544456,-22.873933,-17.90451,-10.07884,-4.549987,-11.344619,-12.047584,-9.985862,-16.077484,-12.069568,-7.387264,-5.991691,-10.499977,-3.037788,0.290589,-1.550857,-3.919944,2.038491,3.916237,2.143548,2.742737,6.048615,9.039185,9.651627,16.697731,33.493238,47.829708,56.999162,25.864604,34.113187,33.39729,33.418643,16.121155,25.078299,27.033984,29.286047,6.752556,15.811168,18.769729,20.16971,-1.316581,6.088232,7.409963,8.392597,24.444237,51.24733,74.052887,91.693954,52.832108,80.965691,98.081017,112.353172,53.645096,83.404198,102.707977,114.780006,51.062737,77.948456,95.402069,106.054001,46.351547,67.641678,78.977737,85.073662,-21.681928,-27.062859,-27.60935,-31.099854,-8.716379,-6.887826,-8.935717,-11.238328,3.574793,4.327531,0.606574,-4.017976,12.713607,13.741566,7.754123,1.340293,20.16151,22.604109,19.220063,14.945637,208.689067,176.531945,137.976437,210.659755
67,23.544457,-22.873934,49.706612,-41.786133,5.124092,5.875168,10.446625,12.261543,-5.068588,14.130936,17.74601,16.136169,-2.504654,21.373444,24.298439,18.77964,2.554893,23.834038,25.45372,20.147095,8.572998,23.863564,27.262573,25.267296,23.71926,43.382505,56.38004,61.990251,32.001781,40.330182,42.118721,43.773262,14.616384,24.256179,29.410239,33.622235,-1.242171,8.313211,15.162505,18.385012,-14.129174,-7.038868,-2.579068,0.008336,19.31282,38.874779,57.000961,69.345589,40.304832,71.327133,61.082497,49.928284,45.889091,68.627586,58.951836,47.698288,50.582199,69.136276,59.174652,49.172173,56.514359,75.207367,64.802399,53.662262,-30.54231,-48.375643,-54.269597,-46.826943,-32.893642,-20.754437,-20.70868,-24.633845,-12.005515,5.76403,0.954106,-5.670726,6.098471,26.452456,20.868366,11.754685,19.603409,36.895439,34.029047,26.515009,233.988962,155.543221,189.438486,170.758831
68,-39.851189,2.101181,-5.682907,-9.744277,17.122192,43.083801,69.848099,80.307312,39.717751,83.44265,72.12101,58.271255,43.994637,84.940796,73.009186,58.421059,48.738899,82.856598,71.653404,58.94783,53.408203,80.012512,71.114731,60.522423,-34.266847,-56.567144,-62.593552,-52.865207,-40.93336,-44.420653,-42.310765,-42.352446,-16.229737,-20.969205,-21.537988,-20.369855,5.556426,-0.027664,-0.327648,2.235921,22.400147,18.170182,18.973246,22.152713,22.34127,46.475029,68.627014,83.766289,54.500999,85.10479,74.074059,63.35186,58.641815,87.353897,76.932564,66.745949,61.994476,88.57029,78.756981,68.30452,64.820023,91.004677,83.746147,71.446037,-32.237914,-48.218241,-55.808232,-60.977297,-22.150552,-35.8555,-38.524044,-36.352221,-1.973667,-16.243569,-20.826808,-20.543868,12.638457,2.032515,-3.472967,-2.669223,21.742814,18.319618,14.18796,13.614669,195.508862,159.226926,185.126667,162.597078
69,3.010712,-10.347331,7.20211,-10.29719,16.925812,41.136246,67.226257,82.869759,42.652588,80.052795,71.474419,59.795494,48.597336,82.048187,71.771164,60.03273,53.864365,82.221336,71.10466,58.456306,58.229828,81.925507,72.41375,59.250183,-35.834073,-55.225122,-64.077198,-64.181402,-38.283526,-49.252005,-45.941566,-41.868632,-14.52592,-26.326979,-25.144212,-23.15307,6.40253,-3.846989,-3.491924,-1.622122,22.448066,17.491916,18.033282,19.392038,16.224747,40.269928,64.265671,80.143433,52.713661,84.593353,74.837723,62.426491,57.668152,86.466064,75.365868,63.189583,60.46154,87.935715,76.55468,64.922791,61.449738,87.64698,78.622513,64.927483,-35.000381,-51.274146,-60.682192,-66.756055,-26.353409,-46.235991,-50.959157,-47.67916,-7.135692,-28.955756,-34.391089,-32.300838,6.519547,-10.999663,-16.976917,-14.537529,14.856902,5.978304,2.979457,4.737924,199.803572,149.439671,193.612776,152.859965
70,5.089645,-5.691906,6.959953,-8.202554,10.825424,34.595833,61.770058,79.476357,38.397331,79.502792,68.230476,55.062561,44.804306,79.902077,67.667084,56.14872,50.216217,80.555878,69.059029,57.091827,54.483147,78.749199,69.010506,56.479454,-36.03575,-56.822791,-65.414218,-61.365182,-39.711134,-51.593766,-49.562918,-45.234091,-14.904141,-29.444943,-29.691389,-26.775781,6.449707,-6.757409,-7.195158,-4.11091,23.130099,15.623842,16.219116,19.342082,12.584953,37.578392,64.492264,80.936165,42.745056,83.252792,72.738876,59.290123,48.132591,83.797188,73.031616,61.823616,53.158493,84.47113,73.385124,61.688461,57.485733,81.839104,71.867981,59.561348,-37.447055,-57.763095,-65.723989,-59.6852,-41.824048,-56.029113,-53.068458,-46.903019,-17.670745,-34.326807,-34.463769,-31.606331,2.718747,-11.908567,-12.631047,-9.78108,18.936752,9.777931,9.635287,12.442029,205.155659,144.208423,200.835171,145.118069
71,-0.388985,4.405089,0.096245,3.909419,9.641876,35.115852,63.730888,80.316124,35.672035,78.812714,67.657814,55.496178,40.95623,80.160255,67.251434,54.091301,45.658951,79.352989,66.858902,54.122772,49.603729,74.109535,63.603516,53.114433,-35.307836,-58.570081,-65.31869,-57.128054,-46.687881,-53.66154,-50.201418,-48.233062,-22.985603,-31.937992,-31.146846,-28.457183,-0.862036,-10.590937,-8.865198,-4.052433,17.388299,10.11058,12.413006,17.723665,13.135529,39.290886,67.753716,83.542557,40.032692,83.680573,71.434021,58.036995,44.113083,84.567375,71.04744,56.65123,47.979355,82.853737,70.577087,57.266121,51.498756,77.405777,67.172012,56.740265,-36.280343,-59.234515,-66.682695,-58.996714,-48.859458,-53.147808,-49.158638,-47.15774,-24.443036,-31.140733,-29.414006,-26.967887,-1.464658,-10.020733,-7.677058,-2.877816,17.522482,10.216112,12.590292,17.991847,204.513931,148.91612,200.678673,149.330095
72,-5.825272,9.016733,-3.627663,10.384011,12.19059,37.104836,64.307442,77.859192,31.111679,77.360344,69.726219,57.923584,35.246658,80.810966,70.70343,57.655106,40.336075,79.755936,68.423424,55.83847,45.231857,73.199043,63.598251,52.912903,-30.387254,-53.496358,-62.238333,-57.622582,-43.056278,-47.025162,-44.729652,-44.747807,-20.101179,-25.532807,-25.17589,-23.623238,0.683639,-5.483684,-4.454798,-1.161772,16.901088,12.039354,13.792387,17.31815,12.279282,37.883148,65.934677,80.486641,33.561287,79.754219,70.015869,57.603035,38.62381,83.695564,72.342224,59.13517,44.616508,82.680016,71.006813,58.72776,50.045357,76.940804,66.895752,56.157875,-33.26013,-56.793274,-65.303932,-59.903704,-43.610055,-49.13048,-46.838614,-46.115763,-19.41223,-26.311171,-26.479997,-24.649282,2.079075,-5.69734,-5.353452,-1.579452,18.696543,11.975196,12.999079,16.808215,198.391342,158.194259,196.753693,159.975511
73,-9.783669,7.1268,-11.759377,4.720634,14.580345,41.137848,68.287582,79.26487,37.578392,77.905884,64.01413,50.558281,38.380508,78.741074,66.390839,54.676094,39.882088,77.809067,64.489059,51.606102,41.700096,70.589333,60.571404,48.912849,-35.877051,-55.629649,-55.051357,-42.356151,-32.981204,-39.42381,-42.609081,-42.811314,-8.14667,-18.957747,-26.181187,-24.367145,11.885534,-0.305603,-7.528178,-3.755351,25.86132,13.011306,6.705354,10.970146,17.021255,46.112137,73.901939,83.043365,40.601006,82.654381,67.539139,53.394356,40.3125,82.849503,69.745674,57.691383,40.923271,81.231537,67.745934,54.664879,42.222519,73.999214,64.163818,52.13768,-35.394286,-54.839244,-54.151962,-41.242668,-31.644925,-37.10113,-41.288795,-42.243333,-6.298913,-16.588507,-24.552149,-22.755521,14.596871,2.828972,-4.994312,-1.139913,29.539298,17.769052,11.177133,15.276187,189.207745,165.453591,185.594387,164.828677
74,3.307914,28.436888,-4.495697,-2.340773,-0.716781,10.340576,25.614243,29.999314,20.170403,38.342095,27.458611,20.331765,26.157608,42.597962,33.263741,27.971344,29.971848,45.616112,35.617142,29.252701,32.151184,44.386139,36.355973,30.324135,-24.534179,-30.555297,-20.514948,-4.166485,-14.997775,-6.951923,-13.109036,-16.673908,5.522298,9.972198,0.751976,-1.684345,22.747576,25.074805,15.960403,15.286479,35.736405,35.675807,28.440984,27.963674,7.027016,26.70742,49.680176,62.154465,25.693588,60.693283,48.905182,37.115936,26.939964,61.173477,50.156937,38.284035,27.031288,57.806511,47.175522,35.125351,27.357903,49.804573,50.109558,47.036133,-30.337113,-46.248959,-48.181994,-34.801421,-20.109516,-27.205256,-33.866828,-34.474452,0.768422,-6.854234,-15.751419,-14.500108,17.433747,8.796099,0.226501,2.749067,29.65014,30.009465,32.018268,40.478321,192.25748,193.449117,180.840511,162.046543
75,3.307915,28.436888,-60.700665,-18.72927,-16.013908,-20.456696,-17.059097,-19.266243,2.762413,-1.221695,-9.096909,-9.894752,13.934708,6.454849,0.136642,1.266594,20.061607,13.423157,6.745224,6.8993,22.602272,18.182945,12.140541,11.73542,-13.191308,-5.480946,14.021461,34.023181,2.985653,25.519964,16.391009,9.463498,19.191267,38.902142,27.685139,20.998454,33.609618,50.455212,39.448983,34.32831,45.611489,58.340308,50.176615,44.957203,9.570351,31.243744,55.9548,70.864277,44.886761,80.853253,68.768635,56.038628,49.728013,83.181668,70.154973,57.369462,51.582013,80.979138,67.884636,54.698639,51.806717,74.071656,68.24627,60.938244,-37.704647,-59.207932,-65.779364,-56.339548,-40.941249,-53.15863,-56.751608,-55.558529,-20.171976,-33.581819,-39.179278,-36.140648,-2.346794,-16.192749,-21.932295,-17.722492,12.656025,3.515235,1.987668,7.979758,193.418798,220.672764,117.993249,142.104031
76,3.307915,28.436888,-60.700664,-18.729271,-31.311035,-51.253967,-59.732437,-68.531799,-14.645576,-40.785484,-45.652428,-40.121269,1.711807,-29.688263,-32.990456,-25.438156,10.151367,-18.769798,-22.126694,-15.454102,13.05336,-8.020248,-12.07489,-6.853294,-1.848437,19.593406,48.557869,72.212846,20.969081,57.99185,45.891054,35.600903,32.860235,67.832087,54.618301,43.681253,44.471659,75.835619,62.937564,53.37014,55.486574,81.004808,71.912245,61.95073,12.113686,35.780067,62.229424,79.574089,64.079933,101.013222,88.632088,74.961319,72.51606,105.189857,90.153008,76.454887,76.132736,104.151764,88.59375,74.271927,76.255531,98.338737,86.38298,74.840355,-45.072181,-72.166904,-83.376734,-77.877674,-61.772982,-79.112003,-79.636388,-76.642604,-41.112375,-60.309404,-62.607137,-57.781188,-22.127334,-41.181597,-44.091091,-38.19405,-4.33809,-22.978996,-28.042931,-24.518804,196.330547,245.823867,56.89642,120.088975
77,-24.607887,36.897662,-45.797997,-41.747076,-33.60363,-55.433693,-66.67408,-75.372963,-18.61084,-47.289391,-53.025055,-46.69796,-2.635918,-36.252251,-41.116905,-31.623459,6.085396,-25.626183,-29.850769,-20.728683,9.624596,-12.782249,-16.724167,-9.409332,2.512192,23.406988,51.139283,73.907771,29.523119,65.660819,52.22714,42.249755,41.567475,75.812031,61.369227,50.099097,51.774571,82.383942,69.033441,59.868198,60.185224,86.401732,75.739906,65.841933,-17.796822,-12.89114,0.165596,9.614754,-0.790386,19.285812,30.226822,35.863152,20.951385,50.194931,57.505417,58.659897,40.535431,71.033592,64.481277,55.695763,57.301254,79.675369,69.198418,57.985725,-50.540582,-87.814489,-110.932207,-121.338294,-91.556811,-133.216757,-155.276197,-170.38362,-73.988016,-106.529248,-115.075011,-121.925756,-51.485178,-73.340532,-65.330083,-60.375045,-28.274371,-39.665439,-36.903219,-35.082972,171.00975,281.728273,10.385513,77.348643
78,-18.635559,28.428284,-29.889564,-11.132256,-37.342758,-62.107658,-75.227394,-87.127075,-26.695862,-58.194351,-64.49295,-57.949791,-10.187645,-46.543922,-54.72702,-46.571846,-0.906029,-34.181557,-41.954842,-34.68956,3.077888,-20.566406,-28.656807,-24.449387,1.943841,24.342012,55.095261,78.556281,31.782999,71.347414,60.389927,50.432117,45.535001,85.036739,72.33468,60.122671,56.592832,92.591841,80.429294,70.429865,64.864424,94.654243,86.192954,76.445899,-22.499514,-23.989706,-14.422674,-3.756924,-9.103146,6.409321,13.943396,16.684942,13.611317,36.933489,40.164242,37.93828,34.693594,57.26984,53.692646,46.964178,52.904262,70.886078,65.033684,57.833633,-42.01092,-76.408308,-101.131568,-112.666869,-91.355196,-134.563503,-155.485407,-168.94851,-82.831879,-115.715595,-115.29191,-111.446665,-68.310359,-92.160499,-84.477836,-75.700803,-51.798345,-70.269375,-67.109669,-61.691193,150.120993,309.647642,-21.75725,65.707471
79,-16.523094,24.013253,-29.889565,-11.132256,-39.341927,-66.940269,-82.62886,-96.539841,-34.084167,-71.601334,-75.635948,-66.871147,-17.37854,-58.568573,-62.998924,-52.422295,-7.189636,-45.531464,-50.563774,-41.428185,-1.572876,-28.618584,-34.278145,-28.504143,1.055129,22.705688,52.474574,73.825149,36.054954,70.662355,56.563563,46.338312,50.476084,84.226636,68.399202,56.567268,61.164833,92.036334,77.296202,67.396376,68.484171,95.955941,85.262499,75.886502,-27.202206,-35.088272,-29.010944,-17.128601,-17.415905,-6.467171,-2.340031,-2.493267,6.271248,23.672047,22.823067,17.216663,28.851757,43.506088,42.904015,38.232594,48.507271,62.096786,60.86895,57.681541,-33.481259,-65.002127,-91.330928,-103.995443,-91.153581,-135.910249,-155.694617,-167.513399,-91.675742,-124.901941,-115.508808,-100.967574,-85.13554,-110.980465,-103.625589,-91.02656,-75.322319,-100.873312,-97.316118,-88.299415,131.568317,333.773682,-53.676395,54.688002
80,-4.988136,8.127713,-36.6681,-11.344678,-43.92231,-73.60817,-92.957039,-110.508728,-51.561813,-82.452507,-84.740181,-77.613258,-34.613686,-68.916092,-72.755585,-65.473938,-22.344589,-54.013023,-60.502052,-55.58567,-14.867935,-40.593338,-48.179512,-45.234604,4.267324,25.469451,52.829762,75.54496,48.416028,74.776167,62.512844,51.521827,61.349775,86.086002,75.226266,66.60665,69.467114,93.239788,83.619073,74.371332,74.06295,95.130338,89.644432,80.768551,-15.668535,-15.776539,-6.660604,5.339956,-2.93561,15.808754,24.050875,27.548475,13.953524,34.947853,32.738142,25.907993,30.331621,48.633013,47.089462,41.283045,44.961691,61.735382,61.285715,57.954941,-36.308115,-65.974804,-85.61886,-91.114416,-90.011105,-125.32243,-141.126815,-150.685532,-85.696743,-104.879586,-97.446318,-87.412247,-75.729177,-91.314518,-85.57653,-76.068943,-63.628072,-80.103206,-77.071276,-70.151617,124.210453,342.102547,-92.714224,43.544476
81,-23.422394,17.816599,-36.6681,-11.344678,-42.925758,-72.403564,-89.523354,-101.699638,-47.359085,-83.570824,-80.041924,-67.736435,-29.828224,-68.540497,-68.156433,-56.044579,-17.136269,-54.266739,-55.070572,-43.575668,-8.654823,-36.419907,-38.583641,-29.566727,1.033702,23.071868,51.921043,70.392506,47.844837,71.906934,54.091755,45.230818,60.387766,83.435736,67.141408,57.908548,68.546415,90.179067,75.4871,67.20674,72.970585,94.26892,83.490262,75.057935,-4.134865,3.535194,15.689735,27.808514,11.544685,38.084679,50.44178,57.590218,21.635799,46.22366,42.653217,34.599323,31.811485,53.759937,51.27491,44.333496,41.416111,61.373978,61.70248,58.22834,-39.134972,-66.947481,-79.906793,-78.233388,-88.86863,-114.734612,-126.559013,-133.857665,-79.717744,-84.857231,-79.383829,-73.85692,-66.322814,-71.648571,-67.527472,-61.111326,-51.933825,-59.333099,-56.826434,-52.00382,98.391151,361.970016,-131.779232,34.250669
82,-5.03231,5.988555,-24.600277,-11.585859,-44.833832,-74.985809,-93.032742,-109.391899,-57.203064,-89.832001,-85.34214,-72.425079,-39.383583,-74.874001,-72.488136,-61.014061,-25.527763,-59.474258,-59.586639,-49.412384,-15.700607,-42.953682,-45.286674,-37.047729,0.065702,21.38707,48.736574,68.707213,47.264506,70.508535,54.21785,43.013484,61.593072,80.785841,65.886208,58.396377,70.523602,88.522241,75.122031,67.056995,75.338528,92.083511,83.026763,74.592336,2.888031,20.953903,42.757988,58.623734,40.693588,75.397396,92.213688,101.924,56.188602,72.774696,62.883282,51.796589,64.977779,78.116226,66.753616,54.524803,70.202866,80.148182,69.334545,59.178715,-43.428355,-66.872825,-71.744346,-69.370969,-83.875492,-100.41182,-108.098635,-112.794198,-70.196139,-69.072683,-61.321401,-56.200686,-52.807254,-50.475898,-45.796606,-40.578357,-35.428156,-35.773712,-31.999094,-27.796516,89.96418,372.156364,-159.77417,26.862602
83,-7.96463,4.454119,-23.959408,-21.333316,-44.609184,-75.442772,-94.861965,-109.218407,-57.479668,-90.850124,-87.831631,-75.695229,-40.108452,-76.059837,-75.606194,-65.256729,-26.465263,-60.359917,-61.363449,-51.653709,-16.615448,-43.284416,-46.545868,-38.743057,-0.352286,19.627121,46.220554,66.011314,46.036167,68.655034,53.489751,42.628409,60.74388,80.258925,65.688545,57.635797,70.159583,88.335817,75.270665,67.011732,75.231824,92.608019,83.507984,75.069791,18.367023,45.139561,67.80304,82.327652,70.583439,112.44976,130.935116,140.952816,80.292377,94.182701,81.088829,70.306835,82.81168,91.180458,78.207264,66.757622,81.87355,87.655621,75.196381,64.930229,-37.908331,-53.970138,-52.378336,-47.736681,-65.164778,-68.185021,-69.584841,-70.428846,-47.966454,-38.90347,-34.424373,-34.504123,-29.033284,-19.748832,-17.034932,-17.17773,-11.043505,-6.212091,-4.005749,-3.638149,80.752945,378.897163,-184.980183,7.815966
84,-7.90844,3.637717,-17.845001,-26.018907,-43.711853,-73.868408,-92.771759,-106.974792,-58.739319,-90.680637,-87.530537,-75.534382,-42.039871,-75.475502,-74.94381,-65.073395,-28.440399,-60.530434,-61.679764,-52.423668,-18.016548,-43.422089,-46.853943,-39.696236,-0.672771,19.300338,45.907726,66.275173,45.845173,69.18615,54.408906,43.261227,60.36745,80.109921,65.467231,57.197801,69.619329,88.097152,74.903497,66.658026,74.350645,91.621742,82.699178,74.607651,34.063396,66.747952,88.82246,101.867237,90.470467,133.623161,153.060436,164.748745,91.523037,108.011456,93.938999,84.525547,87.149906,98.636341,84.766445,73.312511,81.108971,91.871681,80.079918,69.56749,-23.700364,-27.499867,-18.21069,-8.532518,-39.416492,-26.332784,-17.217898,-11.115043,-22.713716,-2.922431,-0.552203,-5.331654,-4.786923,13.38752,12.114844,6.44347,13.426546,24.257507,22.847282,18.821093,72.286034,383.438211,-203.383656,-17.299609
85,-9.103432,3.02577,-15.013905,-22.644401,-41.565285,-71.045151,-88.819485,-101.224937,-58.814621,-86.850758,-85.471916,-76.026707,-41.446266,-72.460155,-72.591991,-64.363632,-26.724014,-56.609001,-57.939949,-50.093079,-15.161591,-38.320427,-42.633476,-37.331085,0.630533,20.344538,46.236979,66.770844,43.43629,70.434311,58.804362,48.180141,57.195578,80.125729,66.988885,58.462758,66.220957,86.395372,74.173175,65.614753,71.5226,90.640219,82.848243,74.90856,39.953842,73.507576,94.331474,101.967144,98.050861,132.918091,123.909473,112.37875,90.911579,118.391647,105.947514,94.689102,80.476685,104.57468,91.033058,79.321117,68.254566,88.627796,78.676414,69.114704,-16.610243,-12.430636,3.82408,18.453864,-18.292726,7.149771,14.961847,14.171565,-1.259832,27.48798,28.350911,23.297875,16.605519,41.396118,37.161244,30.286354,33.720943,49.286709,44.5038,38.820292,62.739515,387.890122,-218.840647,-38.517869
86,-5.836258,1.983732,-13.5993,-17.380055,-41.856194,-71.638527,-88.716431,-99.897938,-57.219658,-84.65538,-83.596287,-74.897861,-40.244865,-70.717335,-71.817055,-64.345608,-25.907822,-55.035324,-56.967888,-50.028191,-14.505501,-36.618347,-41.671944,-37.785645,1.000727,20.806307,47.421661,69.009049,45.10954,70.447093,58.968309,48.625547,58.859505,80.453994,67.788985,59.107186,67.372046,86.17165,74.223748,65.534601,72.041736,90.181166,82.589385,74.414248,41.515617,76.852283,98.759136,110.366535,92.914639,128.046856,141.003056,147.014809,79.130287,107.483826,92.016678,82.642479,63.888302,91.728859,75.550861,65.474854,48.537998,73.982677,64.240894,56.077023,-4.148115,8.53156,29.036587,43.559327,-4.371528,27.660047,45.130628,56.213716,7.636118,43.695518,41.42653,30.756954,21.653122,53.865996,46.827406,35.757904,35.751266,57.16847,50.385897,41.341222,56.620045,389.290652,-232.72316,-56.481126
87,-4.101906,2.260806,-5.267658,17.973662,-40.581207,-70.407887,-87.024651,-100.340996,-58.095589,-86.611061,-86.068211,-77.529259,-40.827942,-71.319466,-72.352295,-65.323448,-25.906105,-55.345802,-57.56876,-50.969925,-13.988686,-37.134361,-42.1978,-38.112831,-1.336896,19.187397,46.142995,65.784937,42.173679,68.569201,58.072002,48.538726,56.49786,78.592837,65.683543,57.229726,65.50354,85.10096,72.826398,64.274892,70.500137,88.961287,81.502331,73.661202,43.087292,75.888405,98.26664,112.964745,60.007267,83.106937,90.05785,90.394077,38.337307,65.71701,71.052475,67.245598,16.495743,44.858551,51.626816,48.800697,-3.593903,19.791355,31.548843,34.404774,5.140073,8.116258,17.381629,27.119793,-33.926325,-20.653815,-3.488682,6.585126,-38.155487,-17.893386,-0.549671,6.440043,-33.298848,-11.471127,5.145075,10.582724,-22.225023,-5.98556,7.541022,15.178251,52.289457,391.313395,-238.2195,-38.745528
88,-3.705025,0.378468,-7.030334,-15.557584,-39.153214,-68.271732,-84.676895,-98.260403,-58.760376,-85.726948,-85.805912,-78.747025,-41.97773,-70.346889,-70.911827,-65.13073,-26.955414,-54.500656,-56.291771,-50.526123,-14.504128,-36.071091,-40.96859,-37.688942,-0.999369,18.309121,44.715202,64.141635,42.273097,68.927662,61.03985,52.402882,56.55393,79.239364,67.030875,58.167838,65.426229,85.628061,74.025097,65.010278,70.57294,89.454673,82.831817,75.050463,38.496437,63.858376,76.831226,71.234207,47.457733,74.150105,66.502304,58.684902,25.78783,56.83176,48.602772,39.453907,8.645325,39.051647,32.053814,23.98447,-4.781685,20.219765,16.261253,8.489571,-5.660135,-6.062316,-2.015225,1.67393,-42.169387,-6.258929,0.051623,-9.098367,-40.959573,7.934928,8.395802,-6.308391,-30.499949,16.76113,14.217415,-1.840595,-16.131647,16.706512,15.144968,2.035077,47.171345,390.202196,-246.662922,-55.792779
89,-2.024689,-0.429721,1.880608,0.286815,-38.512802,-66.796646,-83.221951,-97.023926,-59.016666,-83.472347,-86.792049,-83.729324,-42.957916,-69.569721,-71.638412,-67.772141,-27.970047,-53.846855,-56.291485,-51.585445,-15.036278,-35.201454,-39.891586,-36.745033,-0.168579,18.952128,44.65691,63.462874,41.882711,69.188928,65.431107,58.905632,56.459822,79.937329,68.903024,60.166514,65.516323,86.207651,75.338652,66.567809,70.409611,89.310177,82.865348,75.17032,29.266061,45.915413,46.766996,36.627416,35.108585,42.816438,34.366665,26.422805,14.871454,23.129654,23.282747,24.917793,-2.355166,7.623653,9.100313,10.750894,-16.017495,-8.021222,-5.697213,-4.974947,-8.971439,-19.367739,-25.629138,-28.837133,-57.990892,-54.707206,-60.226165,-72.661439,-58.928974,-30.229404,-18.950862,-24.589878,-51.162362,-21.510663,-14.140227,-21.964621,-40.049819,-18.958951,-12.88887,-19.104419,43.344584,389.287071,-246.584386,-55.991368
90,-1.982346,1.232476,1.880607,0.286816,-39.378319,-67.78307,-84.418259,-97.622223,-57.39687,-81.949081,-82.04092,-75.516014,-40.82016,-67.716236,-67.842121,-61.510563,-25.895004,-52.467842,-53.625698,-47.529488,-13.325157,-34.560242,-38.19294,-33.712807,0.661717,19.861711,45.824178,64.880232,42.806929,69.185532,61.550526,52.996118,56.623708,79.602641,67.344135,58.731126,65.227701,85.445157,73.863126,65.52787,69.961797,88.924237,81.418783,73.556597,20.035686,27.97245,16.702766,2.020626,22.759438,11.482773,2.231026,-5.839291,3.955078,-10.572453,-2.037277,10.38168,-13.355656,-23.80434,-13.853188,-2.482681,-27.253304,-36.262207,-27.655678,-18.439465,-12.282744,-32.673162,-49.243051,-59.348197,-73.812398,-103.155483,-120.503953,-136.224512,-76.898375,-68.393737,-46.297526,-42.871366,-71.824776,-59.782457,-42.497869,-42.088649,-63.967993,-54.624414,-40.922708,-40.243917,39.665537,390.357916,-246.40048,-55.866184
91,-0.864944,1.346282,-1.790657,1.20015,-38.906364,-66.790123,-82.429276,-96.035099,-57.919807,-82.852364,-83.3111,-77.181587,-41.648026,-68.602409,-69.945831,-65.158939,-26.646194,-53.132744,-54.580135,-49.228134,-13.796196,-34.755135,-38.619576,-34.731445,-0.407985,18.525865,44.182049,62.475547,41.565623,67.744154,60.879114,53.03607,55.385921,77.742595,66.920836,59.053154,64.118108,83.523113,72.749766,64.772662,69.058264,87.136253,80.278314,72.90019,22.234097,33.521919,24.240131,8.960724,25.724831,13.599186,5.183086,-3.284683,4.101505,-6.828289,2.341976,13.192291,-14.517288,-21.546307,-11.839886,-2.271137,-28.862514,-34.615574,-25.146046,-16.552963,-10.249148,-28.923769,-43.543982,-53.851485,-72.960736,-98.973807,-116.934625,-134.507295,-77.321983,-64.316883,-42.088309,-37.4377,-71.936544,-56.108462,-39.298425,-39.049818,-62.985019,-48.673651,-34.974908,-35.270847,37.777262,391.448459,-249.214468,-54.921774
92,-1.066017,1.246556,5.571213,6.34998,-39.874649,-67.670231,-83.698997,-96.10342,-56.900711,-81.24218,-81.163502,-74.446507,-40.27565,-66.370811,-67.268257,-61.555309,-25.266266,-50.984516,-52.557507,-46.739388,-12.567444,-33.160629,-36.507912,-31.952248,0.593977,19.819659,45.286949,63.631453,43.460619,68.959834,60.324101,51.788033,56.536145,78.206218,66.44968,58.372603,64.441865,83.385657,72.237855,64.265198,68.604893,86.705297,79.129263,71.168585,22.604713,32.656345,24.188004,9.616756,23.16433,13.259239,5.471363,-2.800369,1.840839,-4.463024,4.112263,13.498764,-15.946541,-20.12455,-12.328434,-4.709187,-30.253372,-34.603558,-26.535473,-19.466171,-7.620896,-24.539892,-38.327493,-49.250894,-69.757742,-96.293469,-113.175615,-129.620043,-74.306833,-58.076942,-33.757561,-26.348993,-68.148897,-51.252688,-33.802608,-31.64968,-58.258797,-46.91963,-32.989355,-30.955358,35.52515,392.660928,-244.82935,-48.60588
93,-2.22702,1.29398,10.140438,8.241303,-38.083763,-65.674267,-81.677914,-95.08152,-57.069569,-80.121918,-79.374962,-72.960205,-40.57869,-65.482807,-64.961586,-58.922653,-25.079613,-50.071907,-50.990067,-45.289879,-11.730537,-31.698303,-35.205803,-31.199226,-0.336231,19.148865,45.117259,63.886235,42.217954,69.303661,61.154212,52.411403,55.348932,78.835763,66.890763,58.422435,63.364197,84.121536,72.955827,64.726658,67.616331,86.847076,80.016863,72.581867,23.575287,32.158928,25.531311,9.651031,20.292091,13.18943,6.473751,-0.173779,-1.14624,-5.086498,2.645988,11.299095,-18.194733,-21.741371,-14.692955,-8.03627,-31.705227,-34.574432,-26.356945,-19.246445,-6.232284,-20.655482,-27.564797,-33.551098,-62.257074,-88.190827,-100.707265,-112.579245,-66.271345,-44.07272,-19.794589,-9.154128,-57.591923,-37.429302,-21.10839,-15.241669,-46.245131,-34.024354,-21.697057,-17.301663,32.334337,394.131391,-235.652704,-40.188094
94,-1.467934,1.371291,11.426868,-1.515015,-38.338394,-66.199207,-82.429504,-96.749554,-58.198929,-82.493591,-81.183987,-74.14587,-41.889381,-67.749825,-66.891232,-60.833187,-26.478195,-52.122173,-52.460632,-46.484127,-13.22113,-33.396721,-36.493034,-32.335968,-0.954538,18.069035,43.991488,62.232868,41.313804,67.464857,59.552283,51.091241,54.978738,77.726787,66.054848,57.736635,63.444905,83.660508,72.337458,64.120331,68.113051,86.681585,79.543731,72.11738,20.820694,28.61063,30.956383,30.029526,16.587238,15.78598,16.988869,16.432743,-2.671795,-2.617836,7.227173,14.287148,-17.266045,-18.195934,-7.244511,-0.925713,-28.269939,-31.333294,-21.832924,-15.369816,-5.037876,-12.560806,-12.658865,-11.337468,-43.129575,-62.885354,-68.918215,-70.661336,-40.369826,-32.007338,-13.150553,-1.037685,-29.365316,-20.494653,-3.824018,7.411439,-17.84377,-9.734736,1.932973,10.065749,30.599642,395.90707,-224.492598,-41.298722
95,-2.416649,0.218843,-5.0774,78.679195,-38.140182,-65.610065,-81.881733,-95.978336,-59.682941,-83.06591,-81.029377,-73.424606,-43.554783,-67.892818,-66.607075,-60.193748,-27.817039,-52.026844,-52.230549,-46.014519,-13.646851,-33.332977,-36.036072,-31.342278,-1.535609,17.812586,42.868803,59.911114,42.571166,67.862468,58.680058,49.8332,55.967362,77.640522,65.455745,56.999953,63.865611,83.419681,71.65771,63.107192,68.091685,86.627245,78.877445,70.685079,33.625946,50.324879,62.091007,65.30056,30.675488,40.658169,46.46719,50.172729,14.61771,52.089214,56.208515,49.308643,7.780094,48.539658,48.306255,38.600006,5.447845,40.835609,43.39262,34.60516,-31.9065,-57.108387,-71.928918,-79.939243,-91.407468,-112.437435,-122.694765,-128.406277,-85.146099,-71.098714,-56.469609,-53.969922,-68.115521,-54.056095,-42.309005,-42.912584,-47.780555,-36.000953,-29.086204,-30.939828,28.435907,397.731964,-229.317083,38.986524
96,0.02243,-3.086841,10.397472,9.457755,-38.715134,-66.400337,-83.462219,-97.616043,-60.448837,-84.87751,-82.821064,-75.625763,-44.530048,-70.434151,-69.629917,-63.784561,-28.991661,-54.324417,-54.376431,-47.750072,-15.19249,-36.048775,-38.214111,-32.579155,-1.062045,17.532733,41.867891,58.656531,42.049375,67.60571,57.375457,48.402258,55.461441,76.17821,63.894819,55.670158,63.997139,81.998125,70.256222,61.589737,69.081544,86.665406,78.32379,69.920794,24.629803,45.548344,61.863613,72.707577,28.558159,48.381844,61.53574,68.266068,22.133675,70.001736,76.91534,69.531269,22.724075,69.241848,70.884876,59.542751,26.015339,64.500618,67.559109,59.838581,-35.254113,-60.252069,-77.171126,-85.72961,-82.186587,-104.98592,-110.795059,-111.098964,-71.140766,-69.04153,-56.527994,-49.730972,-53.499723,-50.435853,-37.697855,-33.892455,-34.063133,-32.073195,-22.946762,-20.090589,29.029627,394.883171,-218.348322,48.682327
97,-0.749245,-6.622299,18.5392,15.532822,-39.022865,-66.763802,-84.105434,-98.777218,-60.557213,-86.346073,-83.27837,-75.617237,-44.538288,-71.611176,-70.112171,-63.911476,-29.208755,-55.765858,-55.391178,-47.907658,-15.74192,-36.796188,-38.95752,-33.291893,-1.632681,16.541206,40.422128,57.746515,39.175326,67.326968,56.146871,46.385798,53.506794,75.940224,64.191962,55.784705,63.434284,82.543937,71.505557,63.013517,70.092646,88.028053,80.334878,72.154307,7.98666,23.943214,43.657436,58.792076,19.146137,41.875019,54.864235,65.855999,22.278728,66.278572,85.758419,93.181114,29.016266,72.231102,87.534599,91.012516,37.547836,69.328709,84.849472,92.821083,-33.4485,-59.193513,-73.454585,-81.606103,-76.489309,-103.039918,-114.335488,-122.316945,-63.784841,-81.528513,-75.986475,-67.639271,-45.265244,-60.378904,-55.548448,-49.38023,-24.46258,-36.680331,-38.393874,-39.069393,28.93856,386.77474,-199.150944,62.729017
98,-0.206108,-8.369466,11.895103,13.052277,-39.550838,-67.799435,-85.088654,-99.699669,-59.48925,-86.84618,-82.473907,-73.255062,-43.077278,-72.139206,-69.949722,-62.417564,-27.9879,-56.580162,-55.759392,-47.175636,-15.400772,-37.623024,-39.453335,-33.391113,-1.778227,16.772091,41.781317,59.794838,38.217392,67.042978,53.536372,43.354779,52.816795,76.206245,63.295778,55.229507,63.385131,83.278767,71.30036,63.064708,70.846865,89.054221,80.926323,72.893706,5.883064,19.538326,36.17054,51.320686,19.364834,39.008274,49.394817,59.134712,26.414108,59.04459,81.709614,100.522099,35.552902,68.146763,88.480511,103.419342,47.146454,72.522812,89.693928,104.077835,-31.742676,-57.280053,-69.530902,-76.685768,-71.440379,-101.135164,-118.016739,-132.623459,-60.77457,-87.501816,-94.899762,-98.69238,-44.656663,-67.915326,-74.729546,-78.130048,-24.836201,-40.488726,-48.00122,-54.63377,29.286804,376.285151,-186.701488,73.661171
99,0.770073,-10.767049,15.663414,7.290439,-39.968376,-70.941124,-90.210342,-105.30407,-60.877247,-89.949474,-84.190636,-73.639297,-45.111351,-75.611916,-72.060528,-62.025833,-30.600471,-60.335655,-58.361607,-47.980671,-18.552933,-42.428627,-43.969345,-37.031708,-2.439574,15.818727,40.691731,58.389831,34.846066,63.909145,50.590445,40.75978,50.233466,74.857863,62.833638,54.612003,62.222988,84.350445,71.867476,62.917989,70.939676,91.055429,82.231974,73.555115,1.820984,12.351093,29.612846,44.425964,18.029079,30.037365,36.752815,41.502457,30.402145,54.368134,70.661945,83.851261,42.022877,67.237701,81.561184,92.103825,52.3736,75.006638,88.561707,99.719524,-32.989355,-58.63214,-70.49955,-75.899778,-70.319856,-104.590007,-125.054835,-141.112999,-60.165125,-91.860067,-110.631606,-123.394953,-44.554806,-72.412825,-88.8845,-100.697385,-25.36287,-41.980215,-50.322387,-57.784121,30.688505,365.067648,-170.406446,80.501156
100,-1.653328,-14.628302,14.204979,6.709398,-38.124962,-68.3321,-89.009342,-104.664173,-58.190918,-87.441502,-82.487698,-73.130493,-42.603493,-73.752422,-69.957905,-59.842415,-27.873573,-58.446751,-56.036568,-45.414162,-15.363808,-39.133816,-40.25116,-33.169098,-1.822934,14.615026,36.595702,50.627928,28.042344,63.749149,51.375231,40.555139,42.398574,75.500191,63.091569,53.40293,54.661588,84.942138,72.163137,62.408795,64.325095,90.492573,81.746122,73.042339,-2.040653,10.71064,29.854488,44.662571,12.420559,20.542603,24.884033,27.985783,26.572094,42.028484,52.215958,60.508633,40.861588,60.83868,71.919308,79.288788,52.92635,74.183922,86.284962,95.754318,-32.316275,-57.813144,-68.305527,-71.758857,-71.823911,-107.361119,-129.708192,-146.438045,-63.253757,-97.046917,-117.770911,-132.040165,-48.329114,-75.273011,-91.175965,-101.811146,-30.349679,-44.109369,-49.785498,-53.924875,30.242357,350.500031,-154.994287,87.27124
101,-6.890831,-17.226698,10.723457,2.299091,-35.241451,-64.27866,-84.212322,-98.915577,-56.214981,-84.084206,-87.750607,-85.014439,-39.400806,-70.979862,-77.920704,-74.674988,-21.555519,-49.702835,-60.750275,-61.997166,-4.870033,-22.59716,-34.680176,-40.473118,-3.861253,9.989673,25.959256,35.305613,24.940127,63.434284,62.4125,54.547597,37.761797,78.840086,77.166958,68.534992,48.567008,84.805546,86.026351,80.713037,56.662549,86.227164,90.453485,88.121975,-3.975449,9.469872,29.984322,45.547314,10.236912,17.06234,20.204487,22.863178,25.393753,36.011696,42.216969,47.872238,40.538921,58.054905,68.451118,74.456463,52.868671,74.310608,84.972382,91.499805,-30.006594,-54.681966,-64.934603,-67.935241,-70.088817,-108.049265,-132.289884,-150.431568,-62.242131,-99.147882,-122.235743,-137.976757,-48.549069,-77.369129,-95.109806,-106.533972,-32.054207,-46.081029,-50.132103,-51.125543,25.253963,332.953142,-142.368393,89.25014
102,-10.074463,-21.045343,7.692719,-2.270748,-31.28397,-56.055908,-73.408527,-84.646111,-54.720383,-79.387321,-89.815063,-94.366035,-39.091358,-67.036057,-80.023441,-86.909008,-19.924049,-40.779648,-52.759495,-61.28437,0.104828,-7.655296,-16.556053,-25.23571,1.353446,17.487284,31.56397,38.226531,22.469987,43.663037,55.27619,63.31702,32.382842,56.942463,70.496246,81.659239,41.168197,67.503698,80.99678,92.753688,49.930704,76.251817,90.179005,102.362299,-1.76405,11.112499,29.822731,44.95966,13.273659,19.87175,24.156075,28.487034,26.84,36.985931,42.66386,48.343449,41.189804,59.01741,69.511528,77.089462,53.512917,76.977196,90.718517,103.062286,-32.877494,-59.482134,-73.670897,-81.102713,-71.346766,-107.38656,-131.774052,-151.011034,-62.821133,-97.327665,-118.983534,-133.931951,-49.009449,-77.600693,-93.879923,-104.275914,-31.581013,-46.219597,-53.022362,-57.710824,15.917015,311.250914,-133.93816,86.322506
103,28.138618,-48.836116,7.808189,-2.531458,-43.719177,-78.453197,-103.444977,-118.596039,-79.610081,-111.906567,-115.743141,-113.444538,-65.370598,-95.087414,-97.488899,-94.630165,-48.114624,-70.784683,-74.130249,-73.809929,-29.45549,-40.473404,-43.234291,-44.385338,-1.394386,11.760428,28.666456,38.128595,9.507032,32.696781,44.17007,46.38481,23.081686,55.733637,66.2895,64.334975,36.155607,73.315461,84.832222,83.71139,46.683311,80.855248,94.995784,99.182524,-2.20459,9.295521,26.248112,40.445251,11.959133,20.562801,26.367989,31.997452,25.473003,39.929867,46.217136,51.685238,39.860573,62.724953,75.588799,84.985771,52.330627,78.333035,93.160973,106.546726,-34.198119,-61.378736,-79.250787,-90.899015,-71.918636,-107.319715,-131.641319,-150.509559,-62.581109,-96.088272,-116.811834,-131.484319,-48.292373,-76.213377,-91.779946,-101.86879,-30.596526,-44.785166,-51.08698,-55.587042,45.192833,261.120417,-124.992771,82.496667
104,0.75943,-28.393704,5.328255,-0.751503,-44.123154,-84.038715,-117.075462,-139.563389,-67.672348,-90.828438,-101.740322,-107.28487,-52.523518,-74.728832,-86.09642,-91.739616,-36.648674,-55.049515,-65.38044,-71.096935,-21.265411,-30.861282,-37.898254,-42.612534,-2.350406,3.379724,10.116261,15.001028,-8.270665,-4.975478,6.561599,16.70256,1.400438,11.631061,25.864469,35.636904,13.918666,31.831905,45.972935,55.007885,28.163437,51.864356,66.349706,76.987326,-4.031296,5.565376,20.086269,31.301193,8.561211,19.491291,27.598686,34.291706,22.177391,36.208191,42.966099,48.005962,37.120914,58.291969,70.582638,79.351959,50.443325,76.687317,92.504539,106.008968,-35.457148,-60.295449,-77.787117,-90.444964,-71.385267,-106.644938,-130.361233,-148.291824,-61.957832,-96.18167,-117.532461,-133.836855,-47.197569,-77.086158,-93.556691,-104.12938,-29.617041,-46.257604,-54.073107,-59.681279,46.34903,232.812407,-119.26775,81.830859
105,4.620323,-25.194909,3.822327,-1.033949,-41.610603,-79.554462,-108.968582,-127.368793,-66.923389,-92.678719,-106.56126,-115.728664,-52.950211,-81.213627,-92.479935,-97.372055,-37.811737,-62.404919,-63.673782,-63.003674,-23.47847,-41.510353,-43.630714,-43.143425,-8.958256,-8.758925,-6.937041,-3.879655,-21.297964,-23.745627,-14.251625,-7.574491,-14.558277,-9.362289,1.529681,6.653236,-1.823675,15.544863,25.459077,27.495729,15.074634,37.213145,47.433517,50.424337,-3.224201,6.525192,21.600037,34.173489,8.243866,19.196949,27.598057,35.042324,20.548267,34.847031,42.91317,49.36924,34.914551,54.939251,67.238445,76.249409,48.986607,75.293427,91.520004,105.418396,-34.854958,-58.853947,-75.256493,-85.589436,-72.858354,-106.347084,-129.744902,-147.050826,-64.201872,-97.064021,-118.249322,-134.691789,-49.815972,-78.765862,-95.228676,-106.285797,-32.180301,-48.44008,-55.994069,-61.608911,50.993614,207.587441,-115.421162,80.766853
106,3.169441,-2.480638,2.868118,-3.368732,-38.969193,-66.355476,-83.044682,-99.770622,-73.597527,-97.759151,-114.873962,-131.490555,-61.842728,-88.967686,-108.266487,-127.90844,-47.948341,-69.997501,-83.895435,-98.38892,-34.304352,-45.89241,-46.651154,-47.127113,2.395545,-0.464548,0.300725,-1.105579,-21.085049,-29.233571,-33.898136,-36.694009,-21.897869,-32.828125,-37.146393,-41.352522,-18.951634,-25.623704,-32.127443,-39.648828,-11.742952,-5.061311,1.778165,4.658698,-2.902164,7.593155,24.616184,39.529896,9.116707,21.031208,30.872612,40.28017,22.081718,35.339298,43.851585,51.221981,36.295853,55.993996,68.660145,77.908688,49.299946,74.975624,91.027107,105.104485,-35.019338,-59.502357,-74.533025,-81.701847,-71.72511,-106.033979,-129.182109,-146.263755,-62.004669,-95.134908,-117.657568,-135.644197,-47.20183,-75.736078,-93.372736,-106.144234,-29.771819,-45.737048,-53.706525,-60.654219,54.004297,205.050132,-112.711802,77.341449
107,-13.304672,-37.456997,4.545479,-1.212747,-41.646538,-75.504971,-98.229618,-116.122169,-54.438286,-73.612404,-91.697388,-105.507374,-41.001205,-55.904388,-75.188427,-89.177628,-28.833275,-40.737648,-54.895248,-64.662495,-17.845917,-23.166962,-29.312668,-34.202385,-11.66348,-21.470865,-25.942398,-27.818252,-40.146783,-49.515432,-50.246372,-49.340926,-29.694291,-31.585459,-28.858438,-26.441897,-15.042153,-12.682176,-6.730239,-4.794117,0.17179,4.529516,10.678128,12.467038,-5.605888,4.961243,20.560398,34.091606,9.424725,22.197361,31.170902,39.41597,23.494549,36.794357,42.707806,47.992115,37.984428,60.265446,72.46788,81.085796,49.528599,74.678421,89.674473,103.471241,-32.845816,-57.333004,-72.444781,-79.297841,-70.230905,-104.196132,-126.294845,-142.997683,-61.141646,-95.762879,-118.577927,-135.94029,-47.292819,-73.684821,-89.778646,-100.135919,-31.739804,-46.624247,-53.593677,-59.485129,40.337219,167.481829,-108.528728,76.017397
108,-3.017693,0.230206,4.060764,-1.796566,-36.820793,-65.708313,-87.360077,-107.216606,-49.31551,-68.853951,-85.421505,-99.947948,-39.999847,-62.232742,-80.12764,-94.848289,-32.032928,-56.332111,-67.201653,-73.002949,-25.304146,-42.90596,-50.538826,-53.518124,-15.437912,-25.719849,-28.938281,-29.695217,-42.285571,-59.894009,-68.537276,-75.252325,-36.087435,-56.208251,-63.878084,-69.95945,-25.831741,-38.216465,-40.047983,-41.590878,-13.675246,-22.128075,-25.487236,-26.662716,-7.01683,3.406677,18.574104,30.069008,8.205986,23.482418,34.294968,43.630199,22.056084,38.551655,45.615692,51.447887,36.760826,61.021614,73.171234,81.462879,48.517113,75.009441,90.207996,103.577499,-31.188219,-55.152504,-72.110865,-82.014674,-70.016199,-102.753303,-122.294283,-136.321105,-60.899244,-93.758398,-112.327951,-124.562622,-47.563687,-73.61634,-89.146384,-99.420757,-32.486706,-46.835711,-54.252337,-60.711986,36.344261,167.786352,-105.44323,74.295147
109,-4.543076,-7.113277,3.216419,0.696637,-40.591221,-65.024815,-84.842377,-105.680752,-49.469833,-62.026119,-78.213444,-93.781128,-40.061188,-54.513359,-74.369087,-92.306213,-30.818481,-47.157955,-63.638535,-77.541561,-23.838158,-36.474037,-47.93375,-56.425095,-12.647102,-25.979016,-31.649927,-33.03647,-46.999103,-63.194137,-72.267742,-78.377019,-42.599695,-63.896424,-71.222339,-77.021968,-33.01986,-48.852109,-53.077505,-56.171509,-19.697146,-28.692576,-30.674579,-30.432517,-6.926823,2.699203,17.395191,27.880955,7.000008,22.971554,31.990128,38.769951,20.375004,35.771198,43.837051,50.889301,34.04829,57.906818,69.61956,76.796207,44.9366,69.62986,81.886826,91.120663,-34.651954,-57.914909,-75.933494,-85.84039,-69.673206,-100.662558,-116.031772,-125.345556,-60.445317,-93.205701,-110.469912,-120.85698,-47.713061,-73.337259,-88.476392,-98.717975,-34.170424,-50.364099,-58.578232,-65.202476,31.366997,160.517695,-102.660999,74.836405
