YashyHoby/handMotion-similar-search/workspace/NewProject/handData/tgt/d4_feature_d2/16.csv
,vel_0x_L,vel_0y_L,vel_0x_R,vel_0y_R,posFromWrist_1x_L,posFromWrist_2x_L,posFromWrist_3x_L,posFromWrist_4x_L,posFromWrist_5x_L,posFromWrist_6x_L,posFromWrist_7x_L,posFromWrist_8x_L,posFromWrist_9x_L,posFromWrist_10x_L,posFromWrist_11x_L,posFromWrist_12x_L,posFromWrist_13x_L,posFromWrist_14x_L,posFromWrist_15x_L,posFromWrist_16x_L,posFromWrist_17x_L,posFromWrist_18x_L,posFromWrist_19x_L,posFromWrist_20x_L,posFromWrist_1y_L,posFromWrist_2y_L,posFromWrist_3y_L,posFromWrist_4y_L,posFromWrist_5y_L,posFromWrist_6y_L,posFromWrist_7y_L,posFromWrist_8y_L,posFromWrist_9y_L,posFromWrist_10y_L,posFromWrist_11y_L,posFromWrist_12y_L,posFromWrist_13y_L,posFromWrist_14y_L,posFromWrist_15y_L,posFromWrist_16y_L,posFromWrist_17y_L,posFromWrist_18y_L,posFromWrist_19y_L,posFromWrist_20y_L,posFromWrist_1x_R,posFromWrist_2x_R,posFromWrist_3x_R,posFromWrist_4x_R,posFromWrist_5x_R,posFromWrist_6x_R,posFromWrist_7x_R,posFromWrist_8x_R,posFromWrist_9x_R,posFromWrist_10x_R,posFromWrist_11x_R,posFromWrist_12x_R,posFromWrist_13x_R,posFromWrist_14x_R,posFromWrist_15x_R,posFromWrist_16x_R,posFromWrist_17x_R,posFromWrist_18x_R,posFromWrist_19x_R,posFromWrist_20x_R,posFromWrist_1y_R,posFromWrist_2y_R,posFromWrist_3y_R,posFromWrist_4y_R,posFromWrist_5y_R,posFromWrist_6y_R,posFromWrist_7y_R,posFromWrist_8y_R,posFromWrist_9y_R,posFromWrist_10y_R,posFromWrist_11y_R,posFromWrist_12y_R,posFromWrist_13y_R,posFromWrist_14y_R,posFromWrist_15y_R,posFromWrist_16y_R,posFromWrist_17y_R,posFromWrist_18y_R,posFromWrist_19y_R,posFromWrist_20y_R,posFromBody_0x_L,posFromBody_0y_L,posFromBody_0x_R,posFromBody_0y_R
2,-17.717514,2.712572,-17.473068,-0.900198,-21.623096,-23.594456,-23.463764,-21.933231,1.95488,20.918026,24.126892,21.905823,20.81852,45.615349,48.270149,45.165596,37.581367,60.948601,60.752449,54.406586,50.883293,71.477394,74.696274,71.894989,35.025451,64.208696,88.547312,101.886636,68.303983,93.736199,101.230908,103.357963,58.068729,88.011442,92.406528,90.067854,44.791217,74.358302,79.719041,79.630985,30.084492,53.465112,62.148208,67.608427,35.020065,60.123711,78.399467,87.362022,67.752571,101.033363,106.222801,103.309021,51.620979,88.970146,95.434456,92.990227,33.035259,60.233345,62.922592,58.560104,13.955669,18.428478,14.161949,7.663765,-12.852854,-4.828141,10.678375,23.923098,17.353471,43.356385,54.622685,58.34568,37.13608,68.977063,79.570469,79.249491,52.176381,83.788578,94.508512,97.697797,59.780944,90.913897,104.594639,112.833996,-28.032017,333.740553,-55.032978,343.73918
3,-14.827995,8.911387,-2.057819,6.183933,31.61768,54.817314,69.874992,77.661552,58.564339,87.13932,93.654785,94.517212,41.42498,72.367287,81.264153,82.860832,21.006031,41.423378,46.605606,46.817093,0.202103,-4.781284,-13.106346,-20.406532,-6.952541,-0.265959,13.844257,24.572712,24.800015,46.903266,57.491671,62.028165,42.014795,68.895676,79.068192,80.720694,52.823278,81.410446,96.302114,104.38055,55.940254,82.774328,98.25318,112.150419,30.564365,55.171108,71.726131,77.502193,67.797031,103.75494,111.565762,109.646702,55.62624,93.151417,100.911541,99.20248,41.336346,75.582905,85.544758,86.639843,26.38876,50.369511,60.615292,65.548038,-18.125722,-18.169688,-9.836223,2.372883,6.91512,33.062097,47.317241,54.608545,27.432868,56.369852,67.090402,68.84257,44.432447,71.135363,79.270856,80.45949,55.814407,79.658649,87.646991,89.565206,-43.221645,344.771137,-57.452431,352.04231
4,28.138504,-7.230603,0.282097,2.196833,-33.021069,-43.964424,-47.545452,-51.561356,-10.865879,-12.234821,-25.972939,-38.632908,10.606613,20.534134,11.305161,1.959,29.256363,42.068138,32.149658,22.549553,43.046951,56.84864,52.011108,45.104027,36.017966,72.61762,99.171409,112.308438,73.270939,104.779458,116.338949,122.832808,61.349837,93.522481,98.472517,97.122159,47.20714,78.501199,82.514112,80.694883,34.834889,59.80231,66.769732,68.156894,29.256191,53.083248,70.340366,81.221523,69.662189,100.829487,111.384602,113.071117,58.682156,93.449535,102.794895,103.155384,44.874859,77.133007,88.080196,91.233044,30.03233,56.459141,68.105679,73.553524,-18.955586,-22.838452,-17.761889,-9.092069,3.527739,27.625097,41.042658,48.017306,24.438096,51.428213,61.983026,65.018244,42.259018,66.988885,75.196255,76.596446,55.261987,78.045234,84.455359,84.408861,-15.259352,338.486288,-57.346544,355.184896
5,-14.675446,-2.71708,1.174335,0.209519,-20.96632,-23.050175,-23.375015,-22.875423,3.096485,28.388443,35.778923,36.963844,22.408562,50.898972,56.20388,54.595299,39.251175,64.885483,67.65358,63.568954,52.221565,72.020874,77.347755,76.313782,32.811267,62.577312,87.395111,101.891947,68.473612,95.840406,102.876372,104.727958,57.815243,88.198793,93.417999,91.959331,43.680574,72.120406,79.111664,81.090888,27.614352,50.505477,60.09229,67.331291,28.528404,53.34034,70.382996,81.022797,68.980179,99.391365,110.32917,112.714577,58.475533,92.008095,102.081871,103.662529,44.463387,75.026321,86.307449,90.429268,29.134598,53.98201,65.104065,70.669098,-19.485404,-22.320366,-15.530352,-6.424389,4.552734,27.257929,40.433738,47.395788,24.775933,50.560435,61.31396,64.916294,41.700856,65.840636,74.223254,75.996973,53.606768,76.18488,83.124947,84.098751,-29.998598,336.41927,-56.23601,356.044477
6,-15.165825,10.322569,1.141148,0.772745,30.861454,54.053535,70.712357,77.673912,61.734009,90.020828,95.788994,96.004372,44.434547,72.873917,82.230377,84.640388,22.906723,36.049519,37.135963,34.461079,0.969543,-6.312103,-15.876274,-25.615768,-11.859043,-8.625359,2.988288,13.229285,21.882123,43.623332,55.500653,59.949338,42.417099,68.458297,80.614854,82.821443,54.137883,82.727891,103.236994,116.885132,56.384301,82.422906,98.097569,112.187778,27.997284,52.435169,69.116993,79.658833,68.149052,98.641262,109.591885,111.628475,57.548618,90.767841,100.952511,102.235737,43.661098,73.659153,84.721241,88.616581,28.622875,53.108082,63.80888,68.640804,-19.94279,-22.677654,-15.797423,-6.120145,4.167721,27.174504,40.560573,47.490636,24.21141,50.471761,61.251592,64.473049,41.006102,65.536762,74.005522,75.556631,52.896885,75.845561,82.878192,83.682182,-45.302782,347.079491,-55.233221,357.154873
7,31.102238,-11.005838,0.499935,0.803002,-27.23093,-36.988277,-37.75074,-37.270317,-6.986561,-11.767902,-25.733299,-38.042965,10.500011,8.515949,-4.521275,-15.140076,23.23019,23.073406,5.884151,-7.947865,30.45393,31.173191,19.124279,7.956791,34.47612,68.281074,92.187561,102.865751,75.279927,107.745947,117.480344,123.144215,66.517112,100.686146,108.334676,109.754935,54.724574,88.664638,98.400208,101.212445,44.74688,73.185477,83.80945,87.838911,27.288895,51.510086,67.940598,78.228836,67.938194,97.852707,108.885384,110.903664,57.316933,89.994965,100.465851,102.190132,43.461056,73.027267,84.388504,88.595123,28.342609,52.35981,63.382416,68.751068,-21.164027,-24.559559,-17.827406,-7.77413,2.542079,25.526509,38.908996,45.847828,22.925643,49.072126,59.667941,62.839566,40.014946,64.215859,72.557784,74.099815,52.042074,74.536514,81.731487,82.704797,-14.230957,336.260633,-54.763699,358.144856
8,-15.358715,1.209444,1.041527,-0.191118,-20.732346,-21.082993,-18.306656,-12.044792,-0.226822,18.147583,24.604111,27.287865,18.160229,41.433449,48.303337,48.955193,33.741989,53.367004,55.548134,50.48481,46.175537,60.381317,65.139771,63.862038,32.293428,61.651364,87.239624,102.208541,66.254117,95.739321,104.270017,108.942547,55.856829,87.477116,95.37487,96.73943,42.253954,72.374941,85.158882,92.297229,26.944484,48.52193,60.125759,71.37514,27.363911,51.554947,67.784958,78.353691,66.928482,96.321144,107.824974,110.751686,56.238556,88.188286,99.052505,101.524658,42.089138,70.862274,82.890587,88.059311,26.751709,49.811325,60.986366,67.224541,-20.838541,-23.882095,-16.946104,-7.144214,3.361322,25.873052,39.080415,46.152196,23.240632,49.393908,60.012447,63.64652,39.792151,64.028076,72.553029,74.76956,51.35683,74.04461,81.499614,83.314644,-29.630499,337.543467,-53.762999,358.027129
9,-12.18853,10.543389,1.155167,-0.804917,12.588673,30.213718,42.611275,49.718742,41.363754,68.536606,78.197594,82.953644,37.268372,68.339539,78.316612,80.361214,29.766598,53.583412,61.223488,62.022858,20.528011,25.186958,24.261761,20.736752,8.003347,25.311,45.307204,60.5971,37.166832,58.239716,64.928459,69.845582,42.277975,67.794851,75.516431,78.297114,44.07942,69.615191,78.844346,85.419098,41.776994,64.706898,75.166739,88.134264,26.804237,50.987549,67.085266,77.118874,64.884911,94.747009,106.547585,109.310989,54.29512,86.873245,98.005371,100.200119,40.300999,69.483261,81.422539,86.191177,25.096264,48.214073,59.245033,65.096512,-20.390357,-22.950343,-15.010537,-3.787709,3.640187,26.019092,39.487721,46.624402,23.410693,49.835546,60.795565,64.573456,40.138694,64.981255,73.574134,75.647157,51.964577,75.133764,82.692447,84.268935,-41.880913,348.218616,-52.669716,357.353972
10,27.228813,-15.184735,0.432758,1.137937,-17.69949,-21.607018,-21.379566,-22.267056,3.559914,-9.595127,-24.744701,-37.825298,13.931465,4.755135,-10.290127,-22.74559,18.5709,12.305374,-7.044754,-23.182411,18.012543,14.213333,1.087303,-11.973267,32.476024,65.56844,88.383488,100.098406,83.59178,114.173795,124.727434,132.427587,76.557049,107.883527,114.904549,117.26255,65.728435,97.885827,106.792397,109.855774,54.135598,81.355983,90.09558,93.572437,25.961666,49.713764,65.82407,75.576839,63.681164,94.482937,106.102467,108.289204,53.318195,86.6926,97.645397,99.288082,39.574127,69.689999,81.324177,85.624409,24.687424,48.268833,59.431057,65.311031,-20.710841,-24.294773,-17.533165,-6.200976,2.230857,24.60476,38.079441,45.191051,22.180871,48.500935,59.111446,62.678829,39.065348,63.802131,71.89724,73.844786,50.905866,74.188427,81.478187,83.013858,-14.695444,333.366222,-52.280302,358.824249
11,-15.697918,1.989228,-0.069237,0.007842,-20.682163,-22.430363,-21.575661,-18.399181,2.991543,26.201992,33.572445,35.589924,22.075424,48.654842,54.79517,54.27,38.191967,61.119061,63.486614,58.927975,50.375919,66.611767,70.399532,68.172626,33.784947,63.480659,89.169694,104.494665,67.909028,97.044663,104.773962,107.278744,58.441146,90.857395,98.087504,97.497972,45.365064,76.075643,85.966021,89.71705,30.56596,54.339869,65.100866,73.623349,25.44508,49.884167,66.148167,76.313381,63.688374,93.892536,105.860767,108.779469,53.324718,86.246281,97.623997,100.038128,39.466152,69.102573,81.289387,86.276951,24.377232,47.747555,58.669109,64.337711,-21.355948,-24.538811,-17.323028,-6.281993,1.821946,24.037151,37.937045,45.640594,21.801847,48.051207,59.21352,63.340053,38.767897,63.447437,72.048652,74.396773,50.785453,73.710417,80.988506,82.557337,-30.36727,335.711858,-52.323446,359.1885
12,-14.013062,12.724043,0.616665,0.215385,30.043144,51.544704,66.800365,75.346012,60.142422,87.809887,93.815975,94.870205,44.283772,72.871799,82.023296,84.109669,23.50811,38.040218,39.976673,37.870159,1.032658,-5.108528,-13.77737,-22.398777,-11.148481,-8.155562,2.840395,11.475017,21.749174,41.205247,52.439994,57.373234,41.438911,66.442208,78.260743,81.382597,53.441832,81.13683,99.707464,111.609732,56.320204,83.398686,98.804611,112.612868,25.743141,50.399208,66.78875,76.950302,62.924995,93.087959,105.260696,108.258018,52.593498,85.699081,96.817245,98.992424,38.799992,68.599892,80.806046,85.867653,23.738422,46.681366,57.873802,64.108658,-20.951915,-23.807007,-15.976314,-4.570704,1.818364,23.229579,37.10891,45.120162,21.843344,48.487844,59.539438,63.499863,38.726586,63.8335,72.41582,74.772771,50.535117,73.441185,80.780469,82.468293,-44.396839,348.678981,-51.723289,359.646966
13,27.898979,-13.357355,-0.101681,0.109175,-30.666618,-39.371967,-40.9548,-42.306232,-11.039314,-11.887207,-23.757191,-35.868816,9.93227,25.662518,18.441525,8.91592,28.011074,45.285473,37.244511,27.423534,41.187458,56.295376,51.457272,43.305073,35.63289,70.539163,94.929835,107.414224,81.887654,112.439658,122.413831,127.716216,72.330789,102.317716,101.003852,95.21858,59.177519,88.895523,87.106119,80.468444,46.802181,71.286899,75.016315,73.201223,25.157661,48.936481,65.315037,76.036091,63.112736,92.7178,105.041943,108.29298,53.172398,85.638943,96.924534,99.220104,39.460716,68.430805,80.764675,85.969219,24.148865,46.648006,58.082714,64.730701,-21.015085,-24.529919,-17.919105,-6.965014,3.241897,23.180364,36.651278,44.504757,22.964546,48.278819,59.176099,63.161841,39.359033,63.905131,72.29306,74.392389,50.688134,73.56271,81.232914,83.008362,-16.505785,335.729858,-51.832895,360.164372
14,-14.352779,3.04306,0.340004,-0.229465,-19.35688,-19.751987,-18.880749,-16.256046,4.49667,29.266319,36.420479,37.859917,23.225555,52.83989,59.120636,57.69104,39.261818,66.070518,69.773598,65.614815,51.605988,73.234863,79.933319,79.406662,33.688987,64.503801,90.348942,104.255999,69.432719,95.2715,102.181556,103.773667,58.224772,87.478104,92.690826,90.592239,43.817166,71.815853,79.469878,81.513817,27.412119,50.223648,60.129093,68.230932,25.376873,49.264355,65.642681,76.241512,62.630939,92.521191,104.904385,108.123035,52.844181,86.054592,97.428646,99.322186,39.330425,69.246426,81.385517,85.982838,24.249573,47.308788,58.599415,64.839993,-20.929191,-24.266924,-17.411949,-6.403641,3.031081,23.145104,36.89161,45.061313,22.986406,48.456598,59.293734,63.28423,39.681309,64.298049,72.212784,74.038929,51.250742,74.255056,81.389081,82.667006,-30.852613,339.0388,-51.48694,360.20079
15,-15.705185,11.025413,-0.668736,-0.076756,28.503056,52.251091,69.569206,78.147011,61.385536,91.741333,98.046112,98.487053,45.422287,77.620468,87.110138,88.602333,25.787945,46.327057,53.133888,54.636154,5.224056,1.261311,-6.547165,-14.096031,-11.250246,-10.253285,0.613243,10.623047,21.996114,44.375452,54.221123,57.607577,42.358004,67.615651,76.110779,76.225635,54.758042,80.757559,96.353058,104.915617,58.282571,84.590901,101.352989,116.81239,25.887737,50.329285,67.019463,77.450638,63.128242,92.613487,105.10437,108.647232,53.157578,86.236382,97.597275,99.619446,39.5434,69.529266,81.799164,86.55201,24.422207,47.451897,59.048767,65.724335,-20.900044,-24.137866,-16.487051,-4.317465,2.740051,23.13825,37.06797,45.217357,22.690127,48.417942,59.273912,63.200929,39.487165,64.278783,72.191542,73.843366,51.238022,74.402207,81.62435,82.912093,-46.612444,350.24758,-52.210321,360.307402
16,32.634773,-13.357046,0.008984,0.234158,-32.60622,-42.637882,-48.081036,-55.098724,-10.736675,-3.377323,-13.974094,-24.172897,10.064049,29.851456,23.468399,15.710106,28.256149,48.156166,40.272217,31.827049,41.47419,58.640671,54.78241,48.545036,39.492352,78.598888,107.576628,125.32172,78.964019,108.703449,116.115166,118.931726,66.908671,96.837861,94.526543,88.73139,52.431596,82.267789,80.632391,74.649394,39.187058,63.479856,68.624838,67.944719,26.209888,50.597134,67.308025,77.682095,63.665943,92.590771,104.95039,108.610668,53.728008,86.209431,97.385387,99.688168,40.090027,69.452763,81.452694,86.234608,24.913559,47.927799,59.119892,65.407848,-20.776914,-23.940326,-16.629818,-5.098052,2.909,22.86062,36.788364,45.185987,22.884517,48.246276,59.314111,63.599528,39.683717,64.150898,72.24508,74.147363,51.496324,74.158108,81.085948,82.265319,-14.024992,336.954739,-52.248659,360.605764
17,-17.198124,1.050498,-0.114269,-0.080893,-19.192085,-19.989967,-19.53083,-17.560158,5.086441,31.196308,38.316708,39.63335,23.907681,54.321613,60.086918,58.614979,40.093746,67.641506,71.430073,67.636013,52.38905,74.412518,81.086254,80.661907,35.229598,66.896383,93.238491,107.534143,71.138821,97.261839,104.200424,106.05837,59.767051,89.393416,94.203773,92.164466,45.421195,73.0981,79.385156,80.52723,29.175402,51.99996,61.729911,69.333054,26.262188,50.557022,67.179108,77.717972,63.496857,92.590942,104.922523,108.447876,53.598404,86.153069,97.509384,99.755287,40.071201,69.555588,81.631851,86.339607,25.058441,48.185921,59.415894,65.571213,-20.818534,-23.734697,-16.45809,-5.316525,2.927278,23.292564,37.181158,45.367781,22.903166,48.475988,59.384692,63.36253,39.782085,64.272237,72.20803,73.922715,51.658295,74.404306,81.262739,82.342754,-31.296415,338.044047,-52.436228,360.563681
18,-15.027065,10.991635,0.424461,-0.541366,29.442959,52.832222,70.166588,77.244873,62.667847,92.647247,97.460976,96.383171,46.111565,76.417923,84.888153,86.04332,25.236053,38.854065,39.045525,35.796947,3.406792,-3.467731,-13.017826,-22.810879,-11.28495,-9.396437,1.89654,12.11364,23.188885,45.793735,56.604997,59.356657,43.653774,69.892389,80.641901,81.494612,55.294159,83.339715,103.157459,116.106644,57.152538,83.626977,99.32492,113.338188,26.216812,50.80822,67.215614,77.010384,63.872108,92.823715,105.018539,108.403931,53.806915,86.040688,97.313461,99.598961,40.031719,69.234695,81.285553,86.166573,24.730339,47.555809,58.702812,65.042152,-20.714731,-23.177647,-15.50065,-4.234782,3.819016,24.562153,38.348611,46.182577,23.706168,49.80393,60.576598,64.167261,40.335431,65.407765,73.371037,75.014339,51.879732,75.026071,82.095073,83.385225,-46.408424,349.102079,-52.09671,360.088713
19,31.156025,-13.859139,-0.532608,0.314927,-32.31102,-41.909294,-48.179741,-57.240715,-8.208847,-8.835354,-21.123276,-32.33408,13.129635,28.092213,20.818005,12.117977,31.511593,48.649578,39.564114,30.112095,44.949932,60.822659,55.883389,48.010082,38.994212,78.061289,106.810737,124.25597,84.814129,115.274496,123.910908,127.943643,73.545852,103.131154,99.679615,93.461595,58.9793,87.235054,84.038359,77.439463,44.832281,67.695001,70.150629,67.996404,26.721439,51.669502,68.334618,78.493881,63.784561,93.331375,105.483398,108.516426,53.586273,86.762123,97.810135,99.393311,39.925919,70.301857,82.135506,86.17733,25.019932,48.544693,60.044632,66.111832,-20.587155,-23.045316,-14.832696,-2.806186,2.461989,23.756618,37.938095,45.976887,22.693091,49.207051,59.868136,63.271386,40.020133,65.269691,72.725807,73.790816,52.320198,75.614367,82.139719,82.710231,-15.323725,335.273522,-52.700644,360.434222
20,-20.081978,3.586279,-0.003319,0.166603,-18.046932,-16.075802,-14.244804,-13.161106,10.534801,39.566517,45.302868,44.713726,28.705273,59.80711,63.506527,60.889835,44.305286,71.044979,72.161922,66.735706,56.35603,74.736614,77.062511,72.98521,35.362238,66.080536,91.908881,106.770044,68.343812,93.69495,98.467824,98.546062,57.881563,88.537494,92.578688,89.507654,44.609794,74.291612,80.59812,81.288551,29.621611,53.914038,63.343881,69.945,26.269398,50.97908,67.481461,77.568741,64.155579,93.636589,105.577354,108.483353,53.827858,86.729164,97.585716,99.374771,39.912529,69.875336,81.454239,85.600433,24.718723,48.195305,59.333839,65.176392,-20.946481,-23.582976,-16.251288,-4.965104,3.324148,24.534118,38.509348,46.379993,23.14109,49.755333,60.525716,63.999671,39.962397,65.574924,73.352141,74.508171,51.870964,75.631411,82.519237,83.28698,-35.423756,338.856544,-52.722015,360.597567
21,-16.029854,10.861465,-0.001659,-0.650541,30.828781,54.356861,72.287579,80.407734,67.173214,98.282261,103.216496,101.294575,51.168766,83.502445,92.072926,92.793903,30.866318,52.666912,60.044689,61.673183,8.449802,4.255886,-3.115597,-11.144142,-12.010085,-10.616995,0.35525,10.424952,20.145022,42.73147,54.718399,58.361982,40.641775,66.798508,76.798123,76.216125,53.398916,80.397307,94.096389,99.631881,57.17835,85.629358,103.723093,118.6733,26.787758,51.906681,68.410549,78.294468,64.070835,93.583202,105.462399,108.210926,53.560123,86.764469,97.471104,98.797817,39.550838,69.891415,81.152515,84.847584,24.341125,48.12624,59.382992,65.054684,-20.527936,-22.477891,-14.322329,-2.747091,3.396458,25.245544,39.476977,47.401901,23.283734,50.615207,61.519712,64.682445,40.274298,66.471478,74.313348,75.193106,52.472289,76.635534,83.513665,84.061206,-51.471033,349.718318,-52.741098,359.947335
22,36.272564,-12.042318,-0.571117,0.598917,-31.850281,-42.239685,-50.808105,-62.770958,-6.781883,9.535332,1.484985,-7.577534,13.430672,38.537292,32.327957,23.958549,31.019554,55.067825,47.89547,39.123802,44.025993,64.132347,60.999069,54.680443,40.824124,80.515559,109.945127,129.042923,79.253628,107.523646,109.356151,108.113856,66.470181,97.285304,90.349868,81.802438,51.718811,82.047896,77.635397,70.571767,37.422293,62.392925,66.656853,65.82773,27.308407,52.062492,68.806572,78.915939,64.488716,93.890305,105.934181,108.845558,54.171524,87.454033,98.047943,99.070473,40.53772,71.145973,82.238846,85.597229,25.764484,50.217819,61.404762,66.523933,-20.666566,-23.010241,-15.231048,-3.529777,2.768765,24.680837,38.897696,46.968228,22.667032,49.915513,60.751167,64.026223,39.943316,65.964322,73.49534,74.214424,52.54182,76.45689,82.878007,82.934817,-15.250368,337.6785,-53.364115,360.548753
23,-17.721519,-2.797602,-0.369301,-0.350063,-19.094639,-21.727066,-24.588375,-27.457066,6.821194,34.593658,39.987259,38.369522,26.79142,56.157532,58.805008,55.472145,44.069138,70.697365,70.316505,64.099274,56.743813,79.024887,81.086197,76.829567,36.912729,67.828073,93.852413,109.045485,70.793636,98.241756,103.961697,104.512325,60.912397,93.238491,97.362369,93.694641,48.356933,79.615177,83.554482,81.782184,34.218867,60.139899,68.168626,71.47357,27.623577,53.127823,70.095291,80.600853,64.970627,94.11953,106.191101,109.397049,54.580879,87.557373,98.407516,99.922829,40.773182,71.107063,82.605057,86.478081,25.797272,50.087471,61.375237,66.892662,-20.29452,-21.73985,-13.347907,-2.538065,3.284813,25.162922,39.140807,47.114576,23.047909,50.040373,60.979211,64.536035,40.125047,65.798584,73.558017,74.519841,52.619255,76.254164,82.867818,83.35614,-33.018494,334.883893,-53.780022,360.201685
24,-19.479504,12.792401,0.071983,0.13264,30.978298,54.893589,73.222332,82.688656,67.569065,97.81889,103.146343,102.058811,52.099514,83.563442,92.843456,93.928471,31.814232,51.352901,56.951122,56.938419,8.947277,5.624828,-1.87397,-10.546989,-11.089077,-9.813561,1.37549,11.133599,23.53055,45.166166,55.866894,59.548207,44.086151,69.595123,79.337115,79.740962,56.837179,83.905163,98.74811,106.306916,60.374922,89.7943,107.241632,122.794152,27.497063,52.639046,69.669685,80.25238,64.787178,94.265213,106.299591,109.309616,54.352112,87.539291,98.355675,99.857826,40.539265,71.002693,82.446442,86.302528,25.630245,50.039749,61.276474,66.672935,-20.314527,-22.17871,-14.180365,-3.264189,2.949508,25.137605,39.249673,47.271237,22.721743,50.013388,61.112715,64.636194,39.86551,65.851751,73.727707,74.609627,52.442896,76.169874,82.75006,83.090428,-52.506723,347.668343,-53.716764,360.326375
25,35.554733,-11.302548,1.888046,0.540934,-31.478691,-41.033764,-47.286701,-52.579594,-10.179577,-14.058609,-26.663818,-39.976044,11.95261,27.669468,17.147655,4.651451,30.946484,49.961643,38.29073,25.589848,45.267735,63.521175,55.561924,44.175396,36.217852,70.590477,94.760453,108.575502,82.289587,115.743922,128.361322,135.264648,72.215254,105.278092,103.076011,95.966933,58.143879,90.240385,85.917485,77.405562,43.462163,69.896218,70.562011,66.596708,27.367516,52.946091,69.613266,78.444901,63.834343,94.383774,105.865059,107.541733,52.766876,87.061615,97.98317,99.101028,38.764114,70.381279,81.824226,85.491829,24.154701,48.981514,60.10025,65.323563,-21.104191,-22.384463,-13.10319,-1.12429,3.096721,26.475983,39.980551,46.971192,22.909712,50.393585,60.512316,63.093792,39.992963,65.776168,73.05895,73.753581,52.08919,76.061379,82.52288,82.72289,-16.960173,336.30585,-51.836901,360.807364
26,-14.360962,3.128276,-0.735054,0.289856,-19.74638,-21.16848,-22.23444,-23.165588,3.723106,30.946255,35.115795,32.439022,22.917595,54.006214,57.292728,54.186687,40.669041,69.066181,69.549809,63.28577,54.733372,78.217106,80.667057,76.334782,36.000552,67.013276,92.637474,107.010129,69.097847,95.295088,100.591112,100.495523,58.058046,89.554029,92.51632,88.757943,44.88835,75.27721,77.667939,74.952835,30.348598,56.811861,64.628784,68.663185,26.692028,51.65451,68.103905,77.381973,64.491806,94.646988,105.973892,107.581673,53.724632,87.239685,98.150253,99.47628,39.727421,70.540581,82.322502,86.309509,24.730339,48.624458,59.964981,65.601082,-21.446042,-24.071113,-16.008486,-3.819139,2.168304,25.305319,38.949381,45.847581,22.164631,49.4903,59.74198,62.316355,39.357304,65.067335,72.592241,73.606553,51.486506,75.647033,82.530475,83.125008,-31.321564,339.448838,-52.572384,361.111932
27,-16.225262,9.687899,-0.139503,-0.158328,30.913124,55.216713,72.702141,79.586906,63.809395,93.327713,97.606201,96.235085,47.735138,77.749672,86.116676,86.824265,26.693974,40.569191,41.130066,37.295895,3.897572,-4.175949,-14.663086,-25.387402,-12.10234,-9.047856,3.135562,13.764599,21.803885,44.455912,56.334345,59.82596,42.778586,69.572707,80.848579,81.699068,55.292122,84.324387,103.691107,115.730276,57.970731,85.230883,101.57529,116.162961,26.510124,51.165848,67.273865,76.993904,64.195518,94.236717,105.94059,108.243828,53.713188,86.878967,97.610664,99.141541,39.865494,70.239944,81.889801,86.05957,24.783325,48.236504,59.59259,65.49099,-20.97785,-23.628548,-16.522125,-5.738157,2.793712,24.660459,38.302731,45.708334,22.707973,49.658385,59.944459,62.748916,39.637836,65.138287,72.784223,73.893384,51.49441,75.212311,82.313978,83.182498,-47.524939,349.144965,-52.690001,360.961833
28,30.735626,-14.294047,0.095959,-0.20637,-31.452484,-40.956345,-46.311893,-50.684166,-8.297539,-11.261959,-24.64016,-38.01075,13.636551,28.67672,18.227234,6.382084,32.127113,49.340973,37.629547,24.991264,45.688591,61.999626,54.09668,43.005066,36.050879,71.41923,96.50163,109.840089,85.570263,116.906744,126.686589,131.377521,75.727247,107.316411,102.800419,94.707163,61.866379,93.475921,88.773442,80.370569,47.592957,73.998112,74.474208,70.768319,26.669712,51.517467,68.013783,77.872639,63.929729,94.146252,105.919819,108.151188,53.185673,86.803493,97.658329,99.065723,39.109554,70.062618,81.919727,86.097965,23.981781,47.984219,59.576054,65.725422,-20.832428,-23.278423,-15.533069,-3.69817,3.005578,25.272468,38.888742,46.13997,22.82888,49.989799,60.202329,63.028707,39.726201,65.381892,72.793485,73.748702,51.51065,75.303948,82.182512,82.927037,-16.773949,334.878026,-52.578678,360.782571
29,-17.204132,5.487636,-0.300751,-0.149621,-18.699131,-16.996307,-13.977356,-9.875565,8.036213,37.189178,42.973366,41.547775,26.68499,57.601318,61.446762,58.78521,43.10955,69.632607,69.98703,63.985291,55.818672,75.056992,76.33564,71.453133,34.677117,63.01574,86.233956,99.182647,66.112461,91.168494,96.166263,96.045665,56.749308,87.927461,91.890047,88.686374,44.58565,75.360944,81.064027,81.242362,30.652534,55.72703,64.425502,70.151679,26.977158,51.844311,68.596172,77.97678,63.924809,93.810368,105.970516,108.747082,53.367176,86.738262,97.451763,98.655453,39.626141,70.306263,81.903133,85.720882,24.843407,48.460293,59.977512,66.083164,-20.823412,-23.386672,-15.290452,-2.878742,3.133031,24.824407,38.726153,46.521711,23.080513,50.173692,60.556221,63.548275,40.126097,65.632228,72.985467,73.788346,52.131056,75.773807,82.746046,83.507614,-33.955822,340.365291,-52.85717,360.632579
30,-15.637779,9.87667,0.434189,0.435958,30.285702,53.88279,71.630287,79.37233,64.750786,95.406189,100.806427,99.893303,49.034042,80.311203,89.319763,90.612831,29.040985,47.6651,52.147179,51.688843,6.939812,2.026005,-5.431652,-13.399429,-12.476979,-10.941247,0.46214,11.219432,20.557206,42.479158,53.917372,57.579851,41.01098,66.471107,77.116508,77.579574,53.368226,80.580459,97.600355,106.61363,56.273768,83.826061,101.378986,115.994073,26.570892,51.283436,68.063221,77.631626,63.801556,94.111233,105.964108,108.236561,53.245869,87.036724,97.742786,98.724232,39.541168,70.441532,81.920757,85.707493,24.792595,48.828793,60.196781,65.964031,-20.501693,-23.340544,-15.972794,-4.068488,3.061894,24.890912,38.739121,46.459713,23.034386,50.138371,60.451924,63.272436,40.068175,65.744799,73.221292,73.981316,52.07227,75.886502,82.539491,82.822987,-49.579639,350.245697,-52.409019,361.072273
31,31.852341,-13.843084,-0.257721,-0.245087,-28.26479,-36.029606,-38.615513,-41.285362,-6.637287,-10.050316,-24.040203,-38.202724,12.530594,26.942596,16.131935,3.295498,28.430214,45.326843,32.867317,18.805504,39.806213,54.511185,47.339287,36.598663,34.664891,68.744696,91.775624,103.728527,82.907462,113.830339,124.250659,130.687152,72.997879,104.013258,102.455357,97.636046,59.182089,91.117611,89.363776,83.986859,45.517217,72.455402,75.053365,73.033386,26.741352,51.267986,67.912731,78.041782,64.337597,94.301434,105.992603,108.257046,53.730755,86.909466,97.61095,98.758106,39.95985,70.429859,81.958752,85.743656,25.11549,49.396076,60.716801,66.002941,-20.774444,-23.116328,-15.671575,-4.383538,3.241526,25.272962,39.165446,47.036771,23.072918,49.916563,60.573881,63.760944,40.068484,65.503293,73.501268,74.71911,52.212814,75.681243,82.299776,82.525721,-17.707615,336.406997,-52.647057,360.83157
32,-14.660969,3.189162,0.958672,0.161601,-20.028992,-18.836288,-15.528774,-10.559292,6.640549,36.061535,43.33643,43.782406,24.489613,55.700626,61.363735,60.05064,39.784985,65.964146,68.476353,64.413357,51.651936,68.718281,72.108135,69.809704,32.462562,61.022622,84.831913,97.989629,67.044213,92.335885,97.750902,98.082934,57.985736,88.222752,92.454446,89.95658,45.586995,75.210952,82.193936,84.156549,31.600403,54.460961,63.983183,72.33258,26.56929,51.594143,67.97636,77.171116,63.822498,94.256687,105.891781,107.947483,52.941685,86.647625,97.446384,98.668957,38.886108,69.887524,81.496754,85.441189,23.867741,48.436832,59.802074,65.300732,-21.044787,-23.17141,-15.265999,-3.560776,3.295187,26.039037,39.880083,47.259072,23.101694,50.785638,61.132599,63.816334,40.007227,66.305616,73.952726,74.758198,51.95056,76.189758,82.704735,82.703068,-32.361231,339.606178,-51.681032,361.00319
33,-14.727058,9.738472,-0.401287,0.066382,29.37561,52.375088,69.24139,76.820126,62.920589,94.258175,98.675823,97.175617,46.68623,77.884541,86.81242,88.015537,26.118393,43.088779,47.155781,46.402645,4.084625,-2.615547,-10.969105,-19.247303,-11.984335,-9.621332,1.599768,11.629949,21.722992,45.300473,56.87003,59.790701,42.040236,68.826577,79.993398,80.361677,54.236251,82.947044,101.500881,111.870257,57.048242,85.251507,102.760281,117.30133,27.036896,52.181625,69.085808,78.98838,64.174576,94.163818,105.853271,108.177109,53.325806,86.749992,97.731628,99.168663,39.317608,70.017128,81.716309,85.683975,24.36882,48.591957,60.008011,65.634842,-20.800441,-23.169002,-14.868079,-2.404623,2.545969,25.115622,39.006994,46.654968,22.501788,49.693335,60.380479,63.479424,39.655003,65.143288,73.015663,74.17688,51.860096,75.542181,82.325155,82.803536,-47.056561,349.384495,-52.050591,361.109416
34,30.178814,-13.036932,0.974407,0.324251,-26.361408,-33.90192,-36.716766,-40.04591,-5.576763,-8.498955,-22.627144,-37.535648,12.138634,23.312874,10.851288,-3.109818,26.211205,40.003967,25.90107,10.890884,35.538368,46.419182,37.338867,25.501671,32.919824,66.339703,88.561021,100.166023,81.554572,111.983199,121.36815,127.265253,73.302185,104.732033,103.706853,99.785764,60.997242,93.714154,92.829333,88.647348,48.74664,76.152831,79.395963,78.229806,26.696663,52.357578,69.317036,79.447575,63.723507,94.341373,105.747128,107.524967,52.480488,86.202221,97.338467,98.969135,38.084049,68.975658,81.072865,85.663891,23.032379,46.966267,58.565769,65.06258,-20.96303,-22.6913,-13.68173,-1.839113,2.990758,25.958762,39.474754,46.44267,22.722917,50.331958,60.644339,63.439595,39.486054,65.040906,72.690424,73.882392,51.215051,74.733807,81.813615,82.931668,-16.837177,336.348952,-51.035614,361.435057
35,-14.403648,3.658033,-0.546398,0.89569,-18.597794,-15.980473,-12.673244,-7.159996,5.730114,28.909492,33.992958,34.100761,22.622795,51.182442,54.746475,52.418976,36.937294,60.731621,58.549805,50.416832,48.435974,60.962677,58.154068,50.351257,32.980463,62.416575,87.833724,102.180383,67.316162,94.779966,100.933086,102.106097,57.776835,89.938734,93.718539,91.734127,45.487021,77.695356,84.690505,87.111738,31.272508,55.417907,64.600008,72.608543,26.610088,51.631393,68.512802,79.097786,64.294739,94.067345,105.572891,107.62104,53.310814,86.490669,97.342987,98.79055,38.975544,69.466553,81.257057,85.423279,23.687038,47.147026,58.83625,65.267601,-21.393121,-24.169791,-15.970386,-3.470126,1.613724,24.278842,37.854546,44.921757,21.46364,48.79357,59.099961,61.899848,38.379857,63.845912,71.482586,72.645716,50.199503,73.664845,80.845615,81.990283,-31.27018,340.041997,-51.611366,362.365759
36,-13.049126,11.014668,0.478878,-0.712291,30.129719,52.605629,68.568649,75.566483,59.193649,88.792877,94.35379,94.101448,42.561607,71.818886,80.714951,81.757507,21.334133,33.961372,34.432583,30.217495,-0.63097,-7.947121,-16.467819,-25.824738,-12.222074,-8.867606,2.880471,13.914961,19.890363,41.338443,53.984371,58.919897,40.079599,67.862838,80.052802,82.286747,52.248197,82.19937,101.639943,113.878937,54.697897,83.187809,99.246003,112.371362,25.628071,50.459461,66.607876,76.976452,63.614216,94.117413,105.741062,107.709904,52.609921,86.029301,97.150898,98.919582,38.165131,68.818531,81.060963,85.904446,22.58297,46.040668,57.943096,64.985332,-20.827796,-23.361786,-16.041707,-5.434963,2.980507,25.199046,38.62198,45.606014,22.378905,49.480296,59.588098,62.301967,38.896893,64.279153,71.919593,73.056851,50.459534,74.178485,81.881726,83.370651,-44.329348,351.061837,-51.14253,361.65864
37,27.694588,-15.873684,-0.622959,-0.177594,-24.975357,-32.662411,-36.907368,-42.569675,-3.285084,-6.693363,-19.395161,-32.28384,12.290382,20.080948,9.36264,-2.558556,23.871574,33.710861,20.46833,6.830006,30.76973,37.891388,29.172935,18.549385,31.195752,65.670205,89.224776,102.6403,82.447359,112.706111,121.064276,126.410936,75.770905,105.398444,104.778655,102.576697,64.823853,95.473176,95.902589,93.738669,53.710508,79.632405,84.581824,85.071875,25.64764,49.642639,65.698471,75.979156,64.2453,93.807564,105.61306,108.055573,53.721199,86.34613,96.897354,98.266068,39.59198,69.533844,80.573158,84.192009,24.124432,48.04493,59.033203,64.352875,-21.370583,-24.893567,-18.564026,-7.318535,1.940198,23.712899,37.893264,45.833873,21.687362,48.833708,60.300204,63.907539,38.692623,64.789026,73.371901,74.733127,50.906113,74.914241,82.114216,82.528252,-16.589842,335.17554,-51.720572,361.468433
38,-14.415665,2.282357,0.225563,-0.021057,-20.644798,-20.699387,-17.303066,-11.672688,3.01775,21.587734,24.585457,23.745575,21.789951,47.312965,50.32196,48.079262,37.571526,60.443802,58.879395,51.521645,49.840164,66.151772,67.992096,64.274139,34.853909,65.597092,91.758642,106.881256,70.854769,99.987379,107.008339,109.37869,61.055967,93.121968,97.195087,95.536038,47.684841,78.471868,85.298005,87.58098,32.051366,54.509435,63.750076,71.517166,25.878124,50.520287,66.931801,77.054443,63.477058,93.72963,105.764008,108.168297,53.141212,86.711769,97.625999,99.060974,39.250088,69.992752,81.294594,85.041046,24.185486,48.139114,59.177284,64.69883,-21.683287,-24.652926,-17.469315,-6.463663,1.665409,23.277929,37.211539,45.073046,21.496739,48.343657,59.463732,63.15721,38.551091,64.241362,72.336903,73.823853,50.650158,74.25345,81.406556,82.357389,-30.948858,337.458777,-51.43836,361.448256
39,-12.923813,11.105379,0.237293,-1.011348,32.637691,55.975227,72.886391,80.424042,60.818138,88.715515,93.445587,93.152962,43.352852,70.968819,79.487228,81.220093,21.239891,33.253613,32.948627,29.200916,-1.637936,-8.357792,-17.04546,-26.130524,-8.02391,-1.600632,14.008081,27.979667,25.425238,46.849482,57.863718,61.776656,44.473635,70.962524,81.795028,83.650381,55.391478,83.925911,102.60998,115.073684,56.486622,83.983463,99.261379,112.481216,26.11908,51.212482,67.644253,78.054714,63.681393,93.650494,105.505199,108.069592,53.113461,86.356487,97.434368,99.294033,39.066067,69.406071,81.11063,85.494175,23.949394,47.364521,58.512783,64.634228,-21.003785,-23.179005,-15.095382,-3.901268,2.656194,24.503428,38.139895,45.591132,22.48351,49.20631,60.190164,63.882283,39.322477,64.502443,72.674554,74.450002,51.117238,74.412334,81.824421,83.395537,-43.878794,348.568695,-51.20719,360.441446
40,28.780003,-9.941137,-0.080681,-0.489002,-32.822113,-43.190575,-47.139015,-53.427486,-11.930351,-11.567059,-24.191093,-36.543274,8.740482,20.505009,11.279011,0.86729,26.661358,41.172009,30.894184,20.123005,39.823208,53.649387,48.820095,41.525745,34.266662,71.100783,97.710517,111.880755,78.469027,109.852007,119.163969,124.399169,67.838385,97.708109,100.296192,99.07267,53.918051,82.545604,84.179767,82.120267,40.845428,64.108784,69.539053,70.325815,27.019215,52.926807,70.153599,81.388493,63.376293,93.145351,105.319576,108.47826,52.725964,86.167431,97.400494,99.536877,38.845139,69.538708,81.544361,86.078396,24.129524,47.611713,58.805981,65.047016,-20.966364,-22.502715,-12.918371,-0.795963,2.472054,24.377766,38.318971,46.100449,22.489253,49.179819,60.488666,64.565613,39.631476,64.657745,72.796696,74.566525,51.892267,75.22392,82.196406,83.393252,-15.130348,338.618851,-51.319427,359.943738
41,-11.670399,1.12923,0.447578,0.204456,-21.467056,-22.48003,-20.352573,-15.485859,0.034389,20.484009,24.801292,24.08226,18.44101,44.764366,48.846588,46.719246,34.405174,57.527618,56.831932,49.354706,47.446175,63.924179,65.686913,61.49826,31.477396,60.638472,85.415208,99.552903,69.133785,96.48928,102.727738,103.912358,58.930826,88.993829,93.336797,92.081412,45.612621,74.771536,82.596116,86.325841,30.353353,52.723675,61.297473,69.010778,26.911697,51.81673,68.910427,79.957638,63.150043,93.088932,105.112438,108.08733,52.667141,86.068439,97.147465,98.956203,38.934116,69.469929,81.077213,85.083447,24.165115,47.8969,59.014835,64.806919,-20.701332,-22.801834,-14.171534,-2.346763,2.973221,24.320215,38.212637,46.170413,22.964608,48.99006,60.030663,64.029558,40.129431,64.842873,72.657573,74.140509,52.426038,75.736386,82.349979,82.952848,-26.837626,339.682857,-50.908728,360.08297
42,-12.5144,9.268799,-0.554008,1.636201,26.211605,48.340359,62.931347,71.025982,49.526997,76.325512,84.09296,86.53101,36.271534,67.749882,77.00861,78.670292,19.518757,43.900852,51.306324,52.944775,1.799698,4.539413,2.628021,-0.383835,2.291558,16.441541,35.451776,50.755936,35.286223,58.171976,64.661141,67.508761,46.423342,72.56118,77.571856,77.547402,52.801604,79.098387,86.495346,90.698573,53.211503,78.196214,88.578681,99.638674,25.764427,49.125652,65.789509,77.433758,62.844601,92.705784,105.027523,108.328457,52.798862,86.165371,97.31329,98.796215,39.48246,70.341969,81.757336,85.06216,24.999733,49.388523,60.666561,65.965176,-21.250355,-25.659457,-20.789017,-11.214863,0.828814,21.884655,35.986102,44.080593,21.008787,47.171757,58.40107,61.976912,38.635998,63.732291,71.454427,72.265643,51.320273,74.65032,81.051862,80.782198,-39.360123,348.87967,-51.470833,361.647185
43,25.272961,-13.530256,0.348988,-0.388781,-30.86277,-39.871101,-44.927902,-51.778164,-7.917538,-8.654995,-21.681118,-34.154549,11.85894,22.622337,12.938919,2.017136,28.542023,41.178818,30.301094,18.794746,40.816498,52.023926,45.123596,35.861206,34.992168,71.36526,98.317277,113.885791,83.352867,112.574027,119.990869,123.976364,74.588693,103.288,99.821764,94.590516,61.874963,90.429588,87.34429,81.434097,49.523089,73.312374,75.33118,73.196345,25.178719,48.476715,64.823341,75.775337,62.415161,92.627907,105.153694,108.685799,52.440147,85.318108,97.166862,99.644966,38.723602,68.462219,81.115494,86.120338,23.509712,46.569672,58.141479,64.689789,-20.929932,-25.312111,-20.067155,-10.352704,2.915669,22.805045,36.012717,43.397634,22.876119,47.868611,58.755332,62.305919,39.525327,63.646397,71.891373,73.442852,50.991205,73.832992,81.390748,82.694361,-14.085131,335.296601,-51.119814,361.205592
44,-18.159771,5.057544,1.251011,0.078176,-4.66135,2.492924,9.893589,17.737141,21.578178,49.836102,55.704746,55.099926,26.454563,55.616627,60.427265,58.392735,27.514286,47.337856,45.542049,38.502216,26.501827,29.275646,22.678242,13.695431,25.852489,52.813892,76.247556,89.884641,64.387155,87.496505,89.649619,86.885608,60.891402,88.825251,90.852023,87.731466,53.21879,82.477741,89.322156,91.626064,42.191154,64.545236,74.390783,82.829533,24.85199,47.763577,64.189167,75.634403,61.943951,92.37711,104.19508,106.988697,51.642437,84.884319,96.460705,98.683605,37.82856,67.961712,80.318127,85.080585,22.592068,45.602474,57.141781,63.699131,-20.687623,-24.922652,-19.418776,-9.459113,3.984445,25.061528,38.156135,44.890882,23.946563,48.949366,59.472501,62.968439,40.43312,64.229135,72.4102,74.240668,51.763394,74.474887,81.703637,82.733758,-32.238178,340.345917,-49.86208,361.27554
45,-15.435047,10.342453,1.00462,0.002841,30.9688,55.105019,72.678108,81.004257,63.170013,94.209938,100.437698,98.940697,47.131462,81.152458,90.364151,90.223846,27.568932,52.25853,60.091896,61.385193,6.532459,5.17313,-0.548973,-7.097855,-10.374995,-7.951601,4.824621,15.422165,24.045981,46.674605,54.849309,55.53196,43.874162,69.280195,74.558312,71.304065,56.159838,81.234087,89.473692,91.224439,59.407354,85.975346,101.869963,114.273028,25.768318,49.726639,66.223068,76.677132,61.683197,92.870636,104.532394,106.700706,50.920715,85.446281,96.708412,97.873192,37.045898,68.578606,80.277557,83.739624,22.243538,46.12175,57.648239,63.2341,-20.926844,-23.520855,-15.422906,-3.288148,3.366324,26.329696,39.317969,45.237117,23.465527,49.608675,58.998999,60.603522,40.543468,65.103953,71.706493,71.802576,52.294942,75.734102,81.957864,81.642319,-47.680578,350.719786,-48.864813,361.309796
46,35.006561,-16.877067,0.06712,-0.605895,-31.973705,-42.002163,-48.60363,-56.456108,-11.446095,-16.646061,-29.782906,-42.077351,9.639244,20.824699,10.921669,-0.572662,27.954483,42.965584,32.172775,20.780067,41.920052,55.564613,47.868004,37.513618,35.449059,70.828402,95.989719,108.806819,86.427729,115.647468,126.028639,133.119562,78.120384,106.295121,103.028648,97.53033,65.694596,92.175581,87.027881,79.280242,52.599495,74.08765,73.940067,70.102279,26.121655,49.953403,66.468945,77.509747,62.249165,92.79459,104.539661,107.062969,51.19463,85.444622,96.809063,98.326321,36.963387,68.411236,80.415974,84.251003,22.014313,45.615635,57.719135,64.315166,-20.520032,-22.287082,-14.467875,-4.046937,5.215255,27.254471,39.6295,45.384268,25.275679,51.13811,59.474848,60.048756,41.838312,66.463265,72.032967,71.209711,52.597828,75.754788,82.01523,81.784963,-12.692013,333.865258,-48.815689,360.72644
47,-12.492886,2.268772,-1.168499,-0.405638,-22.105465,-23.716221,-22.434826,-18.081264,-1.372089,21.889629,27.564297,27.149334,16.432171,46.817493,53.322544,52.256756,32.506084,59.743252,63.205547,59.422474,45.417538,66.212711,72.222691,72.064075,35.415776,66.757506,92.404366,105.885593,74.208249,100.454767,105.174845,104.04753,63.41897,91.46928,94.50703,91.269455,49.591571,76.543588,80.718533,80.324133,34.21862,54.797995,63.376239,70.588316,26.583824,51.195946,68.359566,79.909058,62.774391,93.514252,105.713654,108.67733,51.861076,86.637726,98.13343,99.280014,37.947006,70.078583,81.936722,85.329552,23.176117,47.6017,59.555511,65.606575,-20.821807,-22.887358,-14.295406,-2.662925,4.562614,26.216261,39.184959,45.774345,24.904559,50.362463,59.301946,60.63946,41.834052,66.321548,72.512953,72.25354,53.211627,76.445837,82.486818,81.7623,-25.196657,336.138985,-49.995947,360.325757
48,-9.697895,7.499032,-1.060925,-0.94509,-17.570114,-13.354797,-6.942959,-0.905342,8.768463,36.225128,46.615906,50.435715,25.955887,60.311165,69.769478,70.038872,40.307007,70.060387,77.641754,77.199554,50.407677,72.296104,79.692764,80.491676,30.018481,57.407629,79.221827,91.626002,67.979114,90.15659,94.446946,94.722785,58.365501,84.428992,87.754498,85.598977,44.321914,69.794576,74.084007,75.233614,27.744954,47.455562,54.796389,62.870256,26.115532,49.763432,66.379452,77.898846,63.182774,93.812428,106.502438,110.105152,52.524891,86.942654,98.719425,100.335102,38.75124,70.431919,82.617702,86.46944,23.895664,48.269062,60.108204,65.780354,-20.632789,-23.281079,-16.193613,-5.43768,4.744099,26.452518,39.992407,47.239806,25.12192,50.766681,60.746906,63.095212,42.249323,67.273739,74.167494,74.250177,53.971589,77.877582,83.887502,82.896285,-34.856558,343.67993,-51.018877,359.42258
49,-11.280956,5.912602,-0.756969,-1.037654,26.008301,48.690434,66.995258,76.395435,55.422878,85.185184,96.309643,100.651646,43.627682,75.951748,88.825092,92.936268,29.22987,56.129093,67.808247,73.095646,13.887749,21.62447,23.881702,24.811935,-5.803798,1.257053,13.873033,26.259424,25.325758,47.140635,55.530169,60.127735,42.461374,68.593593,75.326178,74.825753,53.875938,80.391318,86.843124,88.486488,58.571069,84.924539,95.463296,103.996833,27.075863,51.841965,68.927765,80.573959,63.600998,94.234772,107.534294,111.722145,52.906609,87.22023,99.495392,101.577301,39.184227,70.798874,83.266182,87.238312,24.379635,49.199753,60.997009,66.134377,-21.103944,-22.032423,-12.840381,-1.90111,5.343942,27.900071,41.417422,48.730646,25.668226,52.181753,61.819881,63.875244,42.784205,68.240689,74.845637,74.879661,54.738776,78.790006,84.431153,83.398933,-46.147413,349.761095,-51.785746,358.553489
50,30.684814,-19.468423,-1.078892,-3.682424,-27.790947,-34.916382,-37.694206,-41.244793,-6.150169,-11.120911,-24.672089,-38.191967,11.281986,21.201725,11.512699,-0.149689,25.936146,39.975986,29.274044,16.731319,36.760311,49.212513,43.421688,33.957653,35.042618,70.974318,96.410795,109.389496,86.365361,116.277631,127.293658,134.781883,77.622923,106.63938,106.784926,103.309057,65.412891,95.332262,95.740926,92.066962,53.774358,78.793649,82.410988,81.827076,27.611446,52.652607,69.411793,81.473179,64.138241,94.539242,108.000927,112.90884,53.128681,86.912785,99.515705,102.420101,39.211578,70.523815,83.444195,88.184223,24.21381,48.941288,60.786037,66.2356,-20.92493,-20.523429,-9.418976,1.510539,6.386042,29.481499,43.680142,52.321248,27.044766,53.727119,64.450264,67.879017,44.352974,70.026696,77.690602,78.566531,56.337803,80.388168,86.740001,86.287185,-15.435019,330.442726,-52.837057,355.021119
51,-20.895023,0.88334,-2.44669,-2.432163,-18.410625,-19.400711,-19.984131,-23.45026,6.43856,35.23407,45.548973,49.250908,25.31662,57.934227,68.981552,71.456108,41.989746,69.996643,79.370956,81.167564,55.120125,78.03566,87.709579,91.332207,34.039791,67.607006,94.755822,110.799876,72.840168,101.498226,109.048696,111.79344,60.896651,92.514776,100.543873,101.435364,46.330408,75.76862,85.931132,90.541418,30.769613,55.178563,67.329623,77.727714,26.647568,50.68634,67.267685,79.777336,63.4021,93.504524,107.323494,113.403511,52.518311,86.02169,99.555588,104.399185,38.351097,69.767647,83.547821,89.766769,23.156776,48.372345,59.993935,65.284538,-20.156878,-20.49595,-11.688118,-2.226596,6.28471,30.614928,46.025793,55.977242,26.334389,55.429331,68.562964,74.780243,43.215408,71.410276,81.275275,84.296784,55.019802,80.470914,87.71399,88.21738,-36.326981,331.443237,-55.280685,352.706127
52,-22.136536,6.680962,-0.057678,-9.901061,33.761272,61.371689,82.334747,95.128555,64.090805,95.682907,108.821983,116.727104,50.108471,81.330185,97.148666,105.657578,33.619537,57.091713,70.374184,78.768082,15.978355,19.307957,19.218349,18.899403,-8.258624,1.105024,19.042839,33.178002,23.556794,48.003659,60.430003,70.767701,41.849613,71.273746,83.748996,89.701427,55.491328,86.71561,101.040161,109.493422,62.731626,93.889031,111.318394,127.215173,29.716415,53.095779,68.603325,80.918884,62.991829,90.124855,104.543037,113.169594,50.357437,80.339928,95.110703,103.128662,35.034828,62.388611,76.779671,85.34008,18.776379,41.478767,53.520126,61.011543,-16.583691,-12.245848,0.156414,9.503821,14.162457,39.505999,55.282056,66.591397,33.015475,63.47189,79.407757,89.320365,48.113389,77.71771,90.369443,96.515462,58.388658,84.855378,95.003812,99.14078,-58.408499,338.263956,-55.283346,342.944822
53,22.501888,-8.484445,0.163193,-10.958722,35.349369,55.424938,66.691189,70.098553,44.314556,41.597271,32.037563,25.940895,26.375027,19.321575,11.187515,4.916954,6.855469,-3.289433,-14.050941,-22.38018,-13.785667,-24.465237,-32.422428,-38.633881,24.276248,49.731065,72.12584,88.278636,79.776098,108.018884,118.683551,124.591274,80.350562,114.064991,125.680058,132.487732,76.94583,109.608402,123.507061,135.495039,69.973282,97.87817,110.588257,121.875121,31.718731,56.260071,71.477737,84.314003,60.553894,85.231133,97.718468,105.061226,45.806637,72.15786,85.919724,94.601212,28.671627,52.356606,65.447731,74.783936,11.488953,29.858551,40.672932,49.323463,-8.938928,1.798048,17.557927,26.879646,18.505981,47.07907,64.64416,77.115149,33.952291,68.16875,87.97538,101.016881,47.33342,80.854013,98.111278,108.247484,57.208607,87.226841,101.815932,111.065032,-35.933962,329.814276,-55.147505,332.020866
54,-2.480907,-1.883449,1.35252,-11.074195,34.748611,50.994644,51.861992,46.225891,64.24221,59.724426,42.804222,28.785725,44.139061,35.270462,14.285488,-4.325237,18.476543,9.191036,-6.553745,-21.491375,-7.564259,-16.73315,-25.823936,-34.406376,1.863936,23.581124,49.58873,69.298782,37.174551,81.322267,99.292069,107.32765,44.515316,101.559915,129.673766,141.493227,49.97677,103.54093,128.912136,143.436265,53.135056,95.039874,113.609272,125.257932,32.156582,54.83923,67.526379,75.545139,59.200687,80.326939,87.43166,89.357128,42.161293,63.700848,71.731281,75.210514,22.423897,41.097336,49.877758,55.85146,2.853985,14.527359,21.742001,28.162823,-1.347641,14.788174,34.836063,50.701164,22.72551,55.146638,74.374728,84.816661,33.513307,72.678691,93.770224,103.878025,43.307602,81.841958,101.48427,111.355197,50.531721,82.435935,98.531983,108.52425,-38.583698,328.18669,-53.963814,321.202533
55,50.121574,12.53132,18.136253,3.661738,15.94883,6.602325,-9.625511,-23.529911,-0.664444,-31.059151,-48.053684,-59.496689,-14.124298,-47.238865,-64.932175,-76.869106,-27.481956,-55.433521,-71.034737,-81.980667,-39.135075,-60.834274,-71.823235,-78.922977,26.912497,49.4141,65.262281,76.717353,77.855907,111.119434,121.378956,126.408836,76.488383,112.936008,124.457894,130.00765,69.772346,101.998775,113.747038,121.767613,58.490052,84.804434,96.970377,105.616423,20.30056,31.4324,34.467945,36.403942,28.609371,42.422733,47.008724,47.727413,16.573792,29.064274,30.438595,26.873417,1.753864,10.297108,13.684845,14.745598,-13.727245,-10.72443,-8.612766,-6.959038,2.95698,14.846652,28.492319,38.934129,14.436938,41.861531,59.494237,70.606224,20.843728,54.63343,72.823249,80.937685,28.773037,62.465544,80.688893,90.365306,35.742373,62.000254,77.069701,86.345107,11.02212,341.415095,-36.343317,325.561356
56,35.862808,5.972129,-48.67281,-58.862777,-35.187492,-63.892708,-83.238373,-96.238575,-59.979515,-96.86079,-111.262665,-122.395191,-45.79216,-84.868584,-103.453846,-117.774696,-33.821526,-67.096367,-86.569462,-101.592865,-22.411537,-46.952934,-63.568497,-76.476917,2.21931,13.571135,33.34195,50.412357,43.365338,69.106059,83.393993,94.915385,60.853487,88.67705,102.706928,113.501395,72.439841,100.608402,114.455191,123.58993,79.478029,105.403878,115.321179,120.347169,36.795616,59.322166,69.296036,74.032745,62.45779,69.23069,64.019966,57.034206,45.589256,52.748165,47.046204,37.47242,25.890141,37.38905,36.914062,32.656002,5.188236,21.688728,29.333382,31.408653,3.478092,26.640671,50.669609,71.173648,51.292177,98.022604,125.234529,143.032418,60.092784,117.335663,150.137235,172.454575,66.264429,116.223785,141.807536,159.565349,69.538744,105.728438,117.945016,123.99421,46.742477,347.872042,-85.158577,267.183396
57,9.758835,6.775811,-21.787033,-51.016523,-37.650375,-67.213154,-89.397812,-103.923283,-68.850517,-101.339951,-116.347218,-127.392254,-55.130882,-91.729774,-109.622211,-123.667202,-41.317062,-75.442028,-93.487072,-106.883297,-29.518776,-55.45681,-68.83009,-79.559212,-5.221121,8.006744,29.218072,44.812706,31.707787,60.061476,74.966606,84.906755,48.391945,78.879112,93.29456,102.356865,60.372699,89.072191,101.694283,108.182955,68.188572,93.211382,103.165302,109.063207,33.284283,57.203922,67.922401,75.121365,54.552898,69.849014,72.529106,71.302242,35.364017,54.449272,58.866978,59.243374,15.47184,34.357224,40.637627,43.278408,-2.390213,13.205795,21.309185,25.71785,5.039266,25.846499,49.260341,67.171419,28.02067,67.230638,87.678175,97.027187,36.28553,79.984938,99.415632,106.697919,44.953868,85.944347,102.327472,107.837461,52.571954,85.743041,98.436764,102.440414,56.526003,354.724979,-106.920919,216.243999
58,1.621513,-1.310282,-17.026634,-53.348527,-35.563774,-64.496498,-87.103386,-102.860298,-66.75396,-99.645367,-115.077782,-126.164246,-55.057182,-89.537945,-106.838665,-120.359516,-41.931152,-73.207169,-90.731335,-103.452244,-29.476776,-53.036728,-66.074638,-77.800369,-5.680482,6.917158,27.974666,42.990946,30.076156,57.594424,72.447312,82.59272,47.735971,77.948471,92.868235,102.569225,60.616427,88.037377,101.039853,108.540181,68.029256,91.509418,102.339514,109.483233,35.00227,58.656063,69.771709,74.250355,56.632576,73.21661,73.256435,68.681145,36.687527,54.578419,56.259499,53.761139,16.334839,34.253368,37.569237,37.049274,-2.023945,14.055634,20.113792,21.650505,5.574889,26.700384,50.951315,68.770631,27.282197,68.861342,82.735425,80.784359,34.710956,80.666045,92.906521,89.898843,43.131675,85.993809,96.788893,94.427001,51.033628,86.328187,95.131264,92.518975,58.597498,353.627566,-123.497572,163.108341
59,1.931763,-0.067925,-29.843903,-52.70126,-35.355377,-64.453468,-86.706963,-102.325115,-65.055084,-97.719955,-113.807831,-125.765648,-53.127937,-87.547245,-105.287132,-119.537544,-40.239716,-71.330967,-88.953667,-102.289639,-28.042717,-51.50322,-64.502678,-76.386852,-6.053084,5.887531,26.636596,41.259958,30.415845,57.454004,72.485289,83.11908,47.832178,76.8834,91.951427,102.178901,60.136441,86.412724,99.81917,108.019563,66.930716,89.480175,100.268652,107.643627,37.234268,68.185444,85.760994,91.155052,63.569584,94.28318,97.560768,94.64447,45.489693,76.149273,76.246548,71.14254,28.189774,57.819443,57.842388,53.054638,12.534542,37.049847,39.929924,38.505249,-5.551609,6.515595,28.706408,47.080552,1.656949,39.771526,56.27772,60.173121,12.985741,56.018615,67.456521,66.299503,26.013905,64.967979,69.556467,64.896101,39.060038,67.454298,68.028576,62.077998,62.912064,353.784598,-150.958672,110.632038
60,0.57827,1.578896,-14.427967,-33.015753,-34.580841,-63.420181,-85.749321,-101.92646,-63.502007,-96.167736,-112.883606,-125.398235,-51.507111,-86.126461,-104.357986,-118.637409,-38.979492,-70.937634,-88.527489,-101.488094,-27.240829,-52.065353,-65.049706,-75.953693,-7.703117,3.82797,24.521212,39.278943,30.419179,56.869906,71.588302,81.995593,48.169397,76.190067,90.713269,100.491077,60.350839,85.789106,98.118996,105.737762,66.974312,88.769984,98.413978,104.81058,23.83255,58.283558,89.05632,101.229744,45.426292,95.675182,88.867664,77.184563,37.61982,88.314114,81.993256,71.285076,33.981628,82.004299,74.338646,63.11388,32.186909,67.972298,63.04842,54.7015,-30.553949,-40.734184,-28.885392,-10.034565,-34.487049,-14.321279,-12.107434,-17.950783,-9.197199,6.704644,5.328597,1.1564,15.295083,23.644325,20.733318,19.191194,36.868794,38.429597,33.762563,31.693862,66.318512,355.599967,-162.55846,77.852758
61,0.05928,2.057956,19.048347,-58.490978,-33.748169,-62.567482,-84.454308,-100.814781,-63.031082,-95.496712,-111.852894,-123.971386,-50.780067,-85.655823,-103.859367,-117.769375,-38.238487,-70.439587,-87.944012,-100.916805,-26.649513,-51.388321,-64.084167,-74.57777,-9.396931,2.244751,23.237606,37.153556,29.329037,55.431986,69.538189,79.440794,46.813234,74.363675,88.541507,98.020751,58.600462,84.061145,96.259691,104.024621,64.947107,86.878445,96.309586,102.770902,-1.465073,7.147007,22.066727,33.554821,-2.527714,32.41436,31.892395,25.881672,6.767406,43.508377,42.792778,36.555634,17.272797,50.341873,47.408066,40.786686,27.286835,49.705067,47.475243,40.662403,-19.001528,-23.849491,-18.233662,-6.923271,-22.347536,-22.538128,-16.629324,-12.677143,-9.90313,-9.660111,-4.322344,-1.865048,3.454534,4.563788,7.475598,7.414341,17.027769,21.89049,20.023652,16.847149,66.966162,357.709052,-142.921743,19.412909
62,-0.442314,1.255448,-23.774986,-5.539105,-33.171844,-62.090607,-84.154129,-99.974041,-61.710777,-94.028149,-110.48069,-122.50185,-49.668045,-84.571152,-102.883358,-116.812077,-37.183113,-69.584084,-87.033119,-99.999733,-25.855637,-51.117668,-64.009552,-74.662457,-9.243296,2.016521,22.664192,37.909751,28.190483,55.14954,69.277293,78.95525,45.720005,73.924506,87.864291,96.909244,57.657842,83.579738,95.850904,103.636334,64.254576,86.120089,95.634036,102.155497,-9.263821,0.099163,20.474739,36.236572,22.019291,44.104271,37.359638,29.991188,41.166916,59.729862,49.470119,41.701355,55.227299,70.939865,59.692726,51.933002,64.95512,78.1394,66.805687,57.688694,-30.140623,-54.136802,-64.286965,-64.301013,-71.84716,-79.499889,-67.289825,-57.532488,-59.309387,-66.454682,-54.390967,-46.022551,-43.90056,-51.000808,-41.261347,-33.103315,-26.962391,-35.127679,-28.508251,-21.845073,66.785345,364.065516,-166.435232,18.974821
63,-0.738716,1.427608,-12.989616,-14.887746,-32.591057,-60.79319,-82.301731,-97.500916,-60.727272,-93.247948,-109.794846,-121.534538,-48.550873,-83.481617,-101.858368,-115.433064,-36.071548,-68.360023,-85.69994,-98.313389,-24.826584,-50.032196,-62.80838,-72.950191,-9.609784,1.690973,22.340805,37.750497,28.681214,55.487809,69.212702,78.658231,46.08038,73.835153,87.479956,96.339844,57.702178,83.331934,95.283232,102.880694,63.8716,85.568966,94.814238,101.119449,3.63842,16.888103,30.880337,41.970634,34.439163,48.333778,43.948116,39.677181,46.70763,58.540134,53.536663,48.62772,55.512428,67.053108,59.178085,51.406918,61.849422,74.054661,67.290802,59.547501,-25.870026,-40.133414,-51.961088,-60.117947,-56.482361,-70.012833,-66.250875,-59.584393,-53.721129,-66.58621,-62.858708,-58.500395,-47.535128,-58.499778,-54.365248,-47.959754,-39.304045,-48.436684,-46.518901,-41.651425,66.077557,369.871429,-179.393921,8.465379
64,0.556984,0.528151,-0.356312,-8.40315,-33.057861,-61.173248,-82.467899,-98.051949,-60.319405,-92.517014,-109.228992,-121.58392,-48.152275,-82.769394,-101.101627,-115.002537,-35.696068,-68.03215,-85.709839,-98.68309,-24.47731,-49.958839,-63.411827,-74.283428,-9.413974,2.325459,23.342891,38.060546,28.680041,54.450711,68.257609,78.204242,46.124408,73.477556,87.647794,97.189282,57.755716,83.058688,95.081432,102.70946,64.067102,85.746252,94.955893,101.000641,-1.573162,8.327293,23.806458,37.164917,23.345661,41.981506,46.267433,45.109577,39.509182,58.515987,60.96302,57.080498,51.766605,70.610161,68.15752,60.909691,61.042671,78.227406,75.127716,67.51545,-32.588564,-50.396178,-60.412435,-64.721101,-65.562358,-76.822916,-73.844539,-67.362444,-57.758495,-67.132547,-62.41531,-56.475877,-45.40551,-53.697263,-48.423037,-42.098004,-31.330399,-37.097949,-34.487265,-31.394434,66.443624,372.772263,-179.941149,2.434911
65,0.369072,0.721245,3.523636,-6.553448,-33.415489,-61.348686,-82.021637,-97.213669,-59.570389,-91.184406,-107.848206,-120.520763,-47.437019,-81.362629,-99.691486,-113.686352,-35.214729,-66.94931,-84.387302,-97.162342,-24.200363,-49.117699,-62.35508,-72.9776,-10.155288,1.865603,23.720001,39.047935,29.137611,54.788979,68.291571,77.992993,46.695229,73.912897,87.690402,96.903007,58.011363,83.206581,94.998316,102.407686,63.862955,85.458803,94.54161,100.322869,2.715225,18.070908,40.02634,58.340378,29.23811,62.643585,65.211582,58.71151,38.898697,72.578144,72.469196,64.012356,46.565552,77.916298,76.464157,66.869431,52.549896,78.881607,77.759514,69.218731,-30.965207,-51.260808,-58.547449,-55.262667,-62.380143,-65.401405,-56.208807,-50.160477,-49.157373,-53.063765,-43.201237,-38.520154,-32.800831,-36.906029,-28.724408,-24.281868,-14.64516,-20.549024,-16.928906,-14.261412,66.318426,372.977243,-176.911783,-4.634801
66,0.034447,-1.122746,-0.988197,-1.25094,-33.455086,-61.040039,-81.154804,-96.435986,-59.12178,-90.678806,-107.544537,-120.46526,-46.757011,-80.225315,-98.421879,-112.707367,-34.27906,-65.255241,-82.776203,-96.148167,-23.039474,-47.801056,-61.215935,-72.363682,-8.991601,3.770418,25.715095,40.619792,30.020086,55.31818,69.268463,79.953569,47.085368,73.674046,88.006934,98.495736,58.282632,83.402576,95.822931,104.254023,64.328306,86.429458,95.818608,102.218359,17.083626,40.951538,60.86792,72.827568,49.138012,89.261856,89.976597,82.880287,47.437935,91.78442,89.871483,81.818848,46.270008,86.98494,83.536148,74.535885,45.263786,77.303352,75.107861,66.78978,-26.564379,-39.253255,-38.535252,-31.324409,-53.756142,-43.473679,-28.483798,-21.941095,-39.467405,-28.056392,-13.523896,-10.992222,-22.123783,-12.195768,-2.175992,-2.024673,-3.437028,1.701502,7.017687,6.543259,65.617018,371.610382,-178.635836,-6.129855
67,-0.739517,0.36618,1.711922,3.293119,-32.706184,-59.903984,-79.61071,-95.54987,-58.31337,-89.493427,-105.828438,-118.127346,-45.879707,-79.145164,-97.135391,-111.070404,-33.315239,-63.874397,-81.480732,-95.00124,-22.093964,-46.857719,-60.527344,-71.964626,-9.516726,3.421035,25.592643,40.611455,29.973341,55.785631,70.147604,80.96362,46.912344,74.089688,88.332853,98.583483,57.869028,83.474763,96.013863,104.581856,63.543026,85.767247,95.640273,102.816165,26.615238,56.338291,79.377079,90.354137,61.580086,103.542252,95.59124,83.879185,54.093876,97.310314,87.063274,76.364937,47.487946,87.78923,77.313595,66.200066,41.824379,74.925613,67.026386,56.240616,-24.010382,-32.449903,-29.027541,-22.080836,-44.060864,-24.570921,-14.020091,-15.131136,-29.20776,-7.800497,0.614509,-3.688383,-11.781793,6.929971,12.244427,7.50249,6.004734,17.824565,20.394339,16.423726,64.44972,371.12365,-177.351694,-3.689649
68,0.068207,-0.078176,2.430325,8.020545,-32.887573,-60.31723,-79.955292,-95.109787,-58.014565,-89.00116,-105.351048,-117.922211,-45.378342,-78.663368,-96.837502,-111.088657,-32.848663,-63.64666,-81.083622,-94.631767,-21.83773,-46.514282,-60.098305,-71.403351,-9.565818,3.771777,25.85817,41.052724,30.164459,55.498059,69.203378,79.499148,47.117293,73.673799,87.350713,97.139141,57.987527,82.946056,95.229509,103.609967,63.630774,85.329436,94.811768,101.829949,24.53476,52.150612,76.285915,88.860455,58.097591,99.861546,92.798824,81.389809,54.289627,97.532444,89.094143,78.379326,51.421452,92.642155,84.469929,73.192406,49.399624,83.800507,78.89122,69.32642,-28.832688,-40.334072,-35.375545,-25.581806,-48.213085,-32.938997,-23.154521,-22.529391,-30.72966,-16.251628,-8.389349,-9.007131,-11.507313,-0.314711,4.556656,3.038985,8.412691,13.948029,14.20982,11.51358,64.071665,370.575909,-175.367632,3.86133
69,0.510406,0.539328,8.885536,14.447312,-32.985649,-60.207024,-79.681263,-95.249577,-57.342224,-88.726959,-105.308075,-118.006039,-44.554482,-78.624229,-96.924419,-111.194458,-32.081566,-63.909187,-81.348038,-94.678116,-21.195145,-46.762733,-60.432243,-71.562366,-10.48028,2.351023,24.500279,40.124368,30.02762,55.585189,69.064501,79.082456,46.981072,73.116131,86.552588,96.30304,57.649814,82.262911,94.599532,103.095524,63.081257,84.503401,93.907989,100.968963,8.270245,26.806183,48.875484,64.713993,51.46162,80.841694,73.910179,62.867832,62.276459,86.542969,77.028351,65.579967,67.720013,88.300552,78.601398,66.751957,69.973984,88.691597,81.135693,70.211277,-39.27388,-59.148064,-64.136911,-60.108129,-64.600996,-65.660386,-58.2843,-53.65271,-49.298164,-48.278201,-41.513876,-39.198575,-31.29446,-31.093123,-25.772893,-23.479236,-12.24662,-14.608357,-12.256561,-10.195858,64.482279,370.894448,-166.581888,18.087853
70,0.134239,0.235578,2.363262,3.207872,-32.936325,-60.163307,-79.517097,-95.185204,-56.994781,-88.136501,-104.769115,-117.423935,-44.00219,-78.316784,-96.811123,-111.026115,-31.445847,-63.433914,-80.871964,-94.008465,-20.677757,-46.181374,-59.865761,-70.86937,-10.860909,1.931059,24.258958,39.949861,29.774073,55.87239,69.511513,79.580658,46.770503,73.199494,86.643917,96.537074,57.297034,82.185414,94.630098,103.281516,62.58182,84.367303,93.768927,100.82632,1.112137,14.498119,34.442539,49.657745,47.177753,67.909985,61.053314,50.880375,61.442127,75.66473,66.875896,56.773453,69.206829,79.95821,71.094589,60.626564,73.19561,84.558105,76.527557,66.449261,-40.216129,-64.253928,-72.656121,-70.782521,-73.700383,-78.244348,-70.935014,-64.011928,-58.556742,-61.985835,-54.9675,-49.567673,-40.34105,-43.895589,-38.528243,-33.521489,-21.13976,-27.766752,-25.348513,-20.718745,64.70933,370.988571,-164.125814,21.154271
71,-0.413017,-1.222164,3.153648,0.024175,-33.33252,-60.214691,-79.236374,-93.596191,-57.307777,-87.637939,-103.626823,-115.848198,-44.231987,-77.317829,-95.179768,-108.965321,-31.426849,-62.383575,-79.397621,-92.440853,-20.412598,-45.233345,-58.757629,-69.730396,-9.620776,4.107082,26.799988,42.928207,31.427625,57.431156,70.841308,80.698155,47.888371,74.685456,87.980814,97.316426,58.035322,83.269875,95.599456,103.987262,62.966957,84.740029,94.188891,101.235787,5.035629,21.140957,40.305634,53.508739,50.39011,76.060181,70.584869,60.354309,63.436089,85.525932,77.557182,65.675068,70.175686,86.736088,79.363689,68.455296,73.541164,87.348003,80.462723,70.725002,-35.404259,-56.563594,-62.241606,-57.366164,-69.533002,-66.478795,-56.772804,-51.611334,-54.100586,-49.469552,-41.104841,-36.961913,-35.269211,-31.19671,-24.019922,-21.58217,-15.173589,-15.040332,-10.379534,-8.229447,64.18313,369.727998,-161.085348,21.140037
72,0.159645,-0.379889,1.374664,3.800028,-35.119743,-63.26683,-82.765846,-94.27002,-58.030701,-88.220158,-103.616753,-114.951668,-44.189529,-77.389412,-94.993515,-108.202171,-30.855789,-61.760445,-78.648148,-91.660538,-19.755363,-45.10437,-58.699722,-69.639301,-8.708414,5.152269,28.771863,46.987,29.893683,57.334578,71.701059,82.131753,46.554438,75.422138,89.370877,98.525746,57.110548,83.954687,96.315082,104.07223,62.739592,85.282012,94.575634,101.145322,12.819042,33.866844,54.4487,68.769379,51.623268,87.089767,85.316963,76.643543,56.826038,92.271366,88.435421,78.965263,58.871498,91.482239,86.349449,75.952606,59.056778,86.16354,82.398434,73.142738,-31.999218,-46.598034,-46.487501,-40.964513,-53.511456,-50.023607,-38.887476,-33.699515,-37.154544,-32.368454,-21.758437,-17.809282,-17.82966,-14.100768,-6.637058,-4.86831,2.972727,3.430822,6.427971,6.742466,64.475241,367.499843,-159.578218,23.091798
73,0.798683,-3.998277,5.651722,13.307306,-34.835587,-62.783318,-81.88797,-91.49786,-58.563766,-88.393936,-103.363724,-114.161339,-44.68586,-76.729259,-93.748856,-106.500378,-30.797997,-61.134109,-77.607708,-89.896431,-19.070206,-43.649483,-56.627655,-67.101746,-7.292847,6.806439,29.968895,48.153095,28.359247,57.462834,73.410804,85.329745,45.064771,76.172097,92.054303,102.618378,56.294887,85.075272,98.515805,106.883788,62.725574,86.595567,96.68509,103.559269,19.278774,44.173965,64.341373,78.038292,60.570831,95.62603,91.83609,82.69804,61.664772,96.418362,91.190872,82.445412,59.446163,90.502396,84.687996,75.175724,55.699883,81.475067,77.503738,68.579807,-28.097981,-38.569709,-36.752425,-32.432829,-43.928965,-33.444425,-20.961424,-16.43478,-28.549099,-17.458293,-6.160128,-3.471423,-9.693117,-1.025057,7.126553,8.350879,10.860632,14.666834,18.347066,18.624881,67.666426,361.274907,-151.533995,34.172446
74,1.588211,-4.824868,3.924236,20.73795,-35.317497,-62.903709,-81.253052,-89.819183,-59.010429,-88.817368,-103.591747,-114.282646,-45.132751,-76.795578,-93.960514,-106.674442,-31.14624,-60.746727,-77.399712,-89.892082,-19.297943,-42.559776,-55.148735,-65.543518,-6.907092,7.70145,31.404839,49.805104,27.60052,57.163406,73.778466,85.848943,44.654563,75.946708,92.197502,102.826107,56.10803,85.468869,99.481951,108.063838,62.453317,87.011271,97.849579,105.049122,24.720325,52.685852,76.292496,90.273972,60.81213,99.442005,91.183548,80.316696,57.659111,96.488457,90.083427,81.22776,52.858086,89.435921,83.346977,74.633675,47.375793,77.64473,74.495144,66.567249,-25.980467,-35.390921,-30.171159,-24.057158,-39.910712,-25.870088,-14.774218,-13.000808,-22.976742,-9.425552,-0.275067,-0.020841,-3.480871,6.855191,13.496232,13.737614,17.131448,22.783216,25.035933,23.619193,70.512142,355.557112,-146.352253,54.01747
75,0.25898,-9.785958,0.242157,18.41916,-34.465714,-61.925011,-80.402756,-90.409412,-56.017685,-85.55254,-100.286179,-111.460934,-41.398315,-73.367901,-90.813675,-103.879051,-27.494316,-57.030029,-74.288578,-86.867466,-16.476974,-39.957619,-53.475266,-64.382629,-5.095582,11.096796,35.115545,53.690625,28.511153,59.069765,77.212777,90.622743,45.582302,79.245539,96.952037,108.461449,57.307346,89.438617,104.570432,113.842813,63.673073,90.328997,101.82291,108.92501,28.955555,60.852356,86.023121,99.185314,64.00629,103.882084,94.947739,83.070717,57.053432,97.348595,90.480366,81.529884,49.394474,88.506489,81.769066,72.798843,41.674919,74.0308,70.247669,62.253513,-24.337412,-29.970532,-21.183077,-13.558661,-33.55045,-13.126316,-4.387861,-4.525811,-15.725298,3.835102,10.406982,8.40383,4.077194,18.843879,23.002152,21.066462,24.197887,32.098821,32.939337,30.008632,71.585112,345.337574,-145.296106,72.003049
76,0.882797,-10.508068,-2.106228,17.142285,-33.841553,-60.849152,-78.265915,-87.961578,-54.571953,-82.38636,-95.907555,-106.220055,-39.425583,-69.401207,-85.63076,-97.20274,-25.474777,-52.957649,-69.097595,-80.19001,-14.411316,-35.971756,-48.528557,-58.650169,-4.834378,12.314082,37.01931,56.389118,32.021047,63.342646,81.319426,94.46893,48.099681,83.117351,100.616183,111.518836,58.672092,92.080732,107.492091,116.861358,64.228518,92.153289,104.34529,112.047913,35.221996,67.299671,89.864216,102.676792,72.611904,109.491405,103.343697,93.727169,61.698704,100.780907,95.446987,87.311039,50.415859,88.195782,83.89658,76.022873,39.543285,71.04538,70.353413,64.006519,-18.84425,-18.451054,-7.197443,2.597408,-22.078119,4.390763,16.505082,18.138319,-5.989697,20.157094,29.387175,27.113525,11.639397,32.403313,38.363833,35.376533,29.566869,42.286775,43.993988,40.011951,73.368216,333.881452,-146.502028,88.19728
77,1.317787,-14.100645,-1.154022,18.034517,-31.700249,-58.918877,-74.936657,-83.308353,-49.738312,-75.519333,-89.018269,-99.508038,-33.773232,-62.771301,-79.533062,-90.958042,-19.789124,-45.901794,-62.202759,-73.165398,-8.294907,-27.368546,-39.272232,-48.589668,-3.22121,15.89011,42.721158,62.29857,31.585953,64.320958,83.720653,98.351857,47.229432,85.847275,105.232088,119.3725,57.071275,94.020004,111.487652,124.403059,61.909049,91.997246,105.384797,115.40553,37.500687,69.684391,91.248722,105.629654,74.689808,105.386238,116.918049,124.337139,61.203918,92.28756,104.25745,111.578407,47.176266,77.265472,88.770275,95.200424,33.191586,56.139164,66.310501,71.947918,-10.123455,-7.128498,5.14526,19.378854,-10.582539,13.991933,34.557908,49.860463,0.081912,28.061394,51.363468,67.225605,12.904755,38.866543,58.365965,70.111016,27.422586,47.947991,60.388476,68.693597,74.846277,319.557471,-147.495775,106.008461
78,2.272568,-15.053207,24.89954,20.944659,-31.464615,-58.133926,-71.643448,-77.977638,-48.103065,-71.315117,-83.274822,-91.181946,-29.228325,-56.967545,-71.989975,-80.641766,-13.766899,-39.018288,-53.690987,-61.871338,-1.987953,-19.758453,-31.643257,-39.873962,-2.250123,18.77583,46.663551,67.547849,27.444662,67.238789,88.974687,102.721131,41.668931,86.4662,106.944057,118.974148,51.47854,92.062701,110.800061,123.030718,57.077635,89.510989,103.882718,114.473346,37.124062,66.954002,80.929928,87.036381,64.529743,88.15012,90.762577,89.195709,45.364609,73.55175,78.878975,78.473797,25.638943,53.206501,59.72723,61.753407,5.977421,28.640556,36.649876,39.795628,4.864821,22.033288,44.910272,63.028337,18.17716,55.577903,73.300147,79.611225,26.815796,68.417172,85.938481,90.725373,37.795575,77.838679,89.666847,90.668315,49.299862,80.298939,89.16426,88.936648,77.114611,304.117954,-122.60047,126.566809
79,4.860077,-15.791803,-12.876492,12.205092,-34.237175,-56.946716,-66.58287,-71.505318,-45.893669,-67.269745,-74.784393,-75.43293,-26.209259,-50.116539,-60.146828,-61.733551,-10.099754,-32.173119,-42.247009,-43.576698,1.672211,-14.388542,-24.60331,-28.246994,0.020933,22.988382,49.241755,70.36478,30.641789,74.512308,89.067744,92.998529,41.877215,90.207595,102.907185,103.673137,50.037841,94.030131,105.960681,108.263725,55.279092,90.122997,98.89205,100.803102,34.898415,62.831669,74.727402,79.676228,58.012733,75.804806,78.006878,78.088531,37.051506,54.011822,61.090164,67.792053,15.5373,32.926254,41.300526,49.302635,-4.754333,7.9216,14.416924,21.628704,6.417288,27.533335,54.137698,72.907785,16.979449,62.400026,80.163459,84.612391,20.696762,67.252682,88.307226,95.202216,27.302204,69.356951,90.04371,100.521211,36.05835,66.312841,83.651122,94.719451,81.945677,287.495314,-135.505972,137.941065
80,-6.471062,-11.416046,-12.17411,11.334967,-32.816048,-44.06662,-42.875748,-37.340469,-38.29113,-42.625809,-41.205711,-37.453423,-18.848991,-24.571266,-25.404854,-23.259087,0.425606,-7.447929,-10.554657,-9.171982,17.988625,12.043762,8.417358,9.289169,9.430646,30.242079,49.196738,59.386853,58.597251,76.126958,68.246679,58.516852,63.307572,83.426844,73.388759,62.175502,60.750055,80.02452,70.373981,59.89722,54.904823,70.86539,64.557339,55.761487,35.134449,58.081112,64.630623,64.748611,54.377289,62.766037,57.728577,55.39793,33.528671,39.635525,39.261818,40.43169,11.709309,19.833641,21.482334,23.841934,-8.956146,-4.292221,-3.612099,-1.763878,8.207,33.171889,62.043356,80.24182,23.711108,63.303497,72.893459,73.566786,25.710155,67.37359,84.286966,89.244165,29.833909,65.452905,82.794397,91.838732,35.568855,60.88109,75.726074,85.827206,75.442057,275.977164,-147.712641,149.173928
81,31.968956,-61.457653,-10.249443,7.430798,-37.191925,-53.683548,-50.173988,-41.278725,-39.377289,-44.511795,-46.125069,-44.480324,-17.394447,-25.081673,-31.720619,-32.670593,0.770302,-8.235626,-15.963364,-17.235718,14.916801,5.206375,-2.160301,-3.770256,12.420848,39.172238,66.453015,80.412251,53.778804,86.538386,83.669276,73.641071,59.947609,94.13628,90.891172,81.511532,62.559651,96.042701,91.819528,82.168618,61.391766,88.87675,87.184233,79.595231,34.205475,53.657856,53.09206,43.251057,46.810112,46.473083,41.072731,40.956459,24.459915,19.953918,18.989983,19.465427,0.610199,0.374851,1.718388,2.569427,-21.244183,-20.799866,-20.211353,-20.198421,11.49416,36.51376,68.55117,85.645969,19.022832,67.748538,60.403203,48.183414,18.35636,69.441982,67.047918,56.418758,20.767034,68.008322,66.433934,57.960233,23.762238,57.451781,64.691769,65.484398,107.473154,215.681021,-157.899942,157.766236
82,9.201851,-17.780074,32.865028,10.753772,-8.607102,-11.483345,-8.770409,-4.833756,-9.372368,-11.971665,-13.655663,-12.515316,-6.693421,-13.631001,-18.238449,-18.335324,-5.570069,-14.184609,-18.225231,-17.390843,-5.116024,-13.617497,-17.195378,-16.437664,12.696719,33.167876,52.990777,63.763105,34.403316,59.641914,63.060663,60.656411,33.462919,61.942271,66.067538,63.301984,31.698926,59.231335,62.710631,59.405255,28.611066,52.035992,57.174367,56.082157,-25.434494,-42.905273,-50.904179,-53.203182,-49.502735,-65.224056,-71.760864,-76.78442,-34.402657,-47.982388,-56.254234,-62.572746,-17.06686,-28.804722,-37.068787,-43.251286,-1.499462,-11.809444,-19.429493,-25.594425,0.501228,10.980026,28.618537,43.303835,0.062306,24.452731,41.517087,52.924796,3.044851,30.64321,49.415335,60.251174,8.760963,35.350938,49.674316,56.80229,16.665757,40.993443,51.356212,55.60427,117.33347,199.276205,-124.37645,169.895267
83,9.201851,-17.780074,-7.850487,-8.167283,19.977722,30.716858,32.633171,31.611214,20.632553,20.568466,18.813744,19.449692,4.007607,-2.180328,-4.756279,-4.000053,-11.910439,-20.133591,-20.487099,-17.545967,-25.148849,-32.441368,-32.230453,-29.105072,12.972588,27.163512,39.528538,47.113959,15.027827,32.745441,42.45205,47.67175,6.978229,29.748261,41.243903,45.092436,0.8382,22.419969,33.601734,36.641892,-4.169635,15.195233,27.1645,32.569082,-24.479507,-41.76923,-51.111603,-54.783577,-47.267315,-62.570766,-69.864452,-75.743957,-33.091415,-45.251175,-52.265831,-58.444015,-16.623253,-25.951195,-31.528438,-36.331661,-1.525543,-8.840732,-13.68552,-18.054188,3.080111,13.499851,29.35953,42.530769,4.507212,26.122734,40.376433,49.957232,5.533652,29.989557,45.809037,55.206733,9.045287,32.914748,45.670827,52.039135,14.502887,36.286247,45.657341,49.600154,127.686081,182.632602,-131.076176,162.864454
84,5.569611,-21.895399,-7.850487,-8.167282,-15.3899,-23.241463,-19.845314,-9.898224,-19.268188,-13.209343,-4.702721,3.262138,-2.687302,5.570641,13.720551,20.307999,12.060928,21.862907,26.555901,29.094429,24.23893,33.500748,36.662178,37.256012,9.212482,21.331248,33.026529,42.292857,0.868396,19.586613,31.992086,39.784802,-6.384622,18.202725,30.690943,35.543352,-8.032864,14.893644,27.257249,31.832152,-5.781568,14.474482,26.458446,31.762127,-23.524521,-40.633186,-51.319027,-56.363971,-45.031894,-59.917476,-67.96804,-74.703495,-31.780174,-42.519962,-48.277427,-54.315284,-16.179645,-23.097667,-25.98809,-29.412037,-1.551624,-5.87202,-7.941547,-10.51395,5.658993,16.019675,30.100522,41.757703,8.952118,27.792736,39.235779,46.989668,8.022453,29.335904,42.202739,50.162293,9.32961,30.478558,41.667338,47.275979,12.340017,31.579049,39.958469,43.596038,133.798914,161.638928,-138.38344,155.598898
85,-2.714309,-14.746585,-7.850486,-8.167282,2.339229,7.621193,18.853683,30.566024,5.401954,14.278049,22.408962,29.867763,6.023311,14.583149,22.376747,28.130321,5.989551,13.452816,19.366092,23.482132,5.502262,10.083732,13.595638,16.443443,6.537362,15.82379,26.907742,37.11703,-0.006052,14.434715,25.178669,32.583963,-2.440006,14.711109,25.137821,30.072821,-0.8181,15.181617,25.683046,31.465818,3.564388,19.2376,30.065658,36.591133,-22.569535,-39.497143,-51.526452,-57.944367,-42.796475,-57.264187,-66.071629,-73.663033,-30.468934,-39.78875,-44.289025,-50.186554,-15.736039,-20.244141,-20.447743,-22.492413,-1.577706,-2.903309,-2.197575,-2.973713,8.237875,18.539499,30.841514,40.984637,13.397023,29.462739,38.095125,44.022103,10.511253,28.682251,38.59644,45.117852,9.613934,28.042368,37.663848,42.512824,10.177147,26.871852,34.259597,37.591921,131.067095,148.497931,-146.251436,149.037204
86,-2.71431,-14.746585,-7.850487,-8.167283,20.068359,38.483849,57.552681,71.030273,30.072098,41.765442,49.520645,56.473389,14.733925,23.595657,31.032944,35.952644,-0.081825,5.042725,12.176285,17.869835,-13.234406,-13.333282,-9.470901,-4.369125,3.862241,10.316333,20.788955,31.941203,-0.880499,9.282816,18.365252,25.383124,1.504611,11.219494,19.584699,24.60229,6.396663,15.46959,24.108843,31.099483,12.910344,24.000718,33.67287,41.420139,-21.614548,-38.361099,-51.733875,-59.524761,-40.561054,-54.610897,-64.175217,-72.62257,-29.157692,-37.057537,-40.300621,-46.057823,-15.292431,-17.390614,-14.907395,-15.572788,-1.603787,0.065403,3.546398,4.566524,10.816758,21.059324,31.582508,40.211572,17.84193,31.132742,36.954472,41.054539,13.000055,28.028599,34.990142,40.073412,9.898258,25.606179,33.66036,37.74967,8.014277,22.164656,28.560727,31.587806,128.437729,134.828922,-154.016979,141.947497
87,-14.452286,-7.617901,-7.850487,-8.167282,19.771042,38.503418,57.680855,72.787628,33.111649,50.067101,62.306786,73.918304,19.412613,33.16349,43.464432,50.661736,5.789223,14.384651,22.727966,29.241486,-6.020851,-3.947639,0.72979,6.23497,1.087919,8.226452,16.885959,24.452607,-0.720627,11.430434,20.034365,26.711623,3.138465,14.175425,21.963634,26.387063,9.046435,19.893513,27.987818,33.742092,15.822123,28.310835,38.618955,46.218763,-20.659561,-37.225056,-51.941299,-61.105156,-38.325634,-51.957607,-62.278805,-71.582108,-27.846451,-34.326324,-36.312218,-41.929092,-14.848824,-14.537086,-9.367046,-8.653164,-1.629868,3.034115,9.290371,12.106762,13.39564,23.579148,32.3235,39.438506,22.286835,32.802745,35.813819,38.086975,15.488856,27.374946,31.383844,35.028971,10.182581,23.16999,29.65687,32.986514,5.851407,17.457459,22.861855,25.58369,113.881016,128.250326,-161.971893,134.81952
88,-22.867699,1.61817,27.318497,-1.264381,9.12529,22.739296,41.520767,55.583382,24.003181,49.231224,62.944679,75.286903,22.543602,47.040825,61.516914,72.627296,20.226173,41.109467,50.805473,56.972809,17.377396,29.173851,35.960426,40.908852,6.419388,14.55556,17.819069,20.655266,2.838049,10.642498,17.432759,22.998756,-0.137765,8.719035,17.203665,22.954913,0.271702,10.007581,17.884834,23.148871,2.730418,12.726328,21.004897,26.584232,-17.489109,-33.322449,-47.243977,-55.324135,-29.759312,-45.616341,-57.483578,-66.640854,-21.096916,-33.491917,-39.581833,-46.348477,-11.540451,-19.251957,-18.87352,-20.042191,-2.814999,-5.887585,-3.806057,-2.781334,14.140762,23.416538,30.636438,36.794683,19.748831,28.68568,31.918088,34.449423,12.243028,22.580335,27.399419,31.634077,6.222424,17.423517,23.948683,27.678819,1.217348,11.319818,17.374981,20.448587,91.114998,130.95203,-134.551716,134.638674
89,-24.971695,0.418853,27.318496,-1.264381,22.038345,42.782249,62.569542,74.199142,45.620842,71.557045,82.353058,90.074959,34.036331,61.344109,72.719765,79.823914,20.557709,40.735703,48.195992,53.451233,7.954445,17.203102,21.50116,25.605698,-0.936013,4.546127,10.085016,15.014613,-1.159796,9.416629,16.188797,20.458405,0.738535,12.7296,20.382329,23.582421,5.433604,17.244358,23.325848,25.150634,11.521886,23.035868,30.146798,34.180582,-14.318656,-29.419841,-42.546653,-49.543113,-21.192989,-39.275074,-52.68835,-61.6996,-14.347381,-32.657508,-42.851448,-50.76786,-8.232078,-23.966827,-28.379993,-31.431217,-4.000129,-14.809284,-16.902484,-17.669429,14.885884,23.253929,28.949375,34.15086,17.210828,24.568616,28.022358,30.811871,8.9972,17.785724,23.414995,28.239184,2.262268,11.677044,18.240495,22.371125,-3.416712,5.182177,11.888107,15.313485,66.844769,132.316297,-106.531754,134.319707
90,-19.820709,-1.283421,27.318497,-1.264381,25.91732,43.859138,61.440582,72.638168,46.368141,70.913773,77.976723,81.233025,34.435387,60.987968,66.077499,66.522675,20.059204,37.82547,40.582924,41.817169,6.598549,17.443085,19.088173,20.15316,1.146335,9.764407,20.627602,28.967057,2.732394,17.371873,27.842396,32.265455,3.673841,21.57757,30.275486,31.152342,7.776785,25.538921,31.167532,30.187986,13.247501,28.086866,33.384496,34.690455,-11.148205,-25.517235,-37.849331,-43.762093,-12.626667,-32.933807,-47.893124,-56.758347,-7.597847,-31.823101,-46.121063,-55.187244,-4.923706,-28.681698,-37.886467,-42.820244,-5.185261,-23.730984,-29.998913,-32.557526,15.631005,23.09132,27.262313,31.507036,14.672824,20.451551,24.126627,27.174319,5.751372,12.991113,19.43057,24.84429,-1.697889,5.930571,12.532308,17.06343,-8.050772,-0.955464,6.401233,10.178382,46.77083,131.166088,-79.466486,133.188537
91,18.753548,4.903168,47.360744,0.657951,-15.418625,-22.610207,-20.27298,-14.086761,-19.898529,-27.674332,-22.245827,-15.340576,-13.489037,-23.149338,-20.442009,-16.012802,-8.762512,-20.505867,-19.77951,-14.682999,-4.925194,-15.015907,-15.736313,-12.224007,8.443257,19.434398,29.103587,35.946273,-0.035074,17.966406,31.213907,35.664321,-5.834611,15.562895,28.709743,30.660191,-7.131185,14.303186,23.926617,24.135272,-5.954036,13.092569,19.692515,19.306513,-24.705162,-43.870411,-63.710289,-73.90583,-38.194885,-63.366222,-74.281654,-78.288116,-26.723614,-55.920296,-64.421539,-65.600624,-17.722721,-42.593479,-47.401028,-47.341461,-12.222748,-27.712612,-30.308704,-31.807423,-5.049208,-1.876101,10.327201,20.861944,-9.002469,8.278507,13.798315,13.480671,-1.176592,20.333299,21.12426,16.153846,8.626039,29.678607,29.257777,23.394391,19.573028,38.150207,38.682249,32.7673,64.699717,136.045652,-32.930403,133.822884
92,3.831711,-3.716696,-37.973156,-8.818144,-31.112366,-57.476006,-69.694061,-70.976543,-56.764755,-72.628384,-66.024742,-58.346901,-41.306305,-57.223091,-52.350883,-45.411873,-26.008759,-43.532982,-40.005226,-33.126297,-11.710854,-26.945801,-26.506805,-22.513161,-3.288148,6.803784,23.193208,35.587997,-0.411258,22.413794,32.581061,34.022871,5.251996,28.931241,34.627285,31.772378,12.051581,32.472319,34.293647,29.313353,19.699061,34.418321,34.51564,30.486919,36.365833,63.872509,77.358685,82.440777,52.980995,63.961544,61.326427,57.906246,34.058475,45.528374,41.630859,37.663994,15.700665,26.386528,23.677197,21.752129,-1.093884,9.409275,9.144459,8.27179,3.809136,19.7082,41.631943,54.106452,6.301938,39.358354,48.184526,47.317982,8.967457,48.984132,46.57179,37.259519,14.055691,51.089203,44.922313,35.711992,21.066894,48.349955,43.388248,35.207615,68.234596,132.295148,-71.20039,124.970931
93,-2.732849,-2.752154,2.965279,-9.314154,-32.406349,-55.457611,-60.06134,-53.329353,-55.243263,-63.645287,-53.572197,-46.906815,-35.721474,-42.451172,-34.261436,-31.898003,-16.226006,-25.386887,-20.378151,-18.870277,0.401573,-8.086967,-6.919327,-5.482292,5.804353,23.088664,45.081321,56.54442,1.268106,34.094193,44.857722,45.207477,0.31715,38.350773,39.871315,31.709454,4.710939,41.970644,39.254613,29.390294,12.474262,42.777536,40.2031,31.586138,38.203468,59.34454,64.563046,60.788898,55.537319,54.307594,47.091179,43.457851,34.431152,32.7285,27.684689,27.403679,11.973038,11.787014,8.668442,9.266911,-9.233608,-4.420109,-3.987465,-3.698902,11.258736,35.615754,62.581171,76.215971,16.487885,54.718985,60.974981,57.705482,13.604635,60.691053,55.813079,43.798116,15.675249,61.378088,54.818774,43.195309,20.676168,56.449602,55.465918,49.221717,64.916382,129.456589,-68.820477,115.570373
94,-7.342758,6.321266,-3.807049,8.661452,-28.646049,-50.091248,-53.586159,-45.018082,-43.594666,-54.905663,-42.61116,-35.648918,-25.231361,-35.153847,-26.539536,-23.44574,-7.225113,-18.376236,-13.588829,-11.52626,8.234711,0.621758,0.544052,-0.033531,-1.490593,10.529927,30.073747,42.470451,-1.271379,32.902843,32.999729,26.26492,2.140455,41.506589,38.136128,28.679547,9.051128,46.281069,41.220314,31.360626,16.851317,45.026301,43.130255,37.216479,34.136353,57.219372,68.277512,69.624882,54.470615,63.336868,56.072102,52.198048,34.857159,45.201015,37.481918,34.905338,14.592476,25.167503,18.788681,16.450367,-4.14196,6.497555,5.292263,5.256729,4.061757,19.816386,41.764088,57.17026,8.270788,47.029114,50.959342,45.72476,10.820154,56.729609,53.765404,43.398066,16.578751,59.437303,53.620661,43.11315,24.752776,59.385186,55.014801,45.663565,57.461872,135.341496,-72.739277,123.795466
95,-102.733669,8.931147,-0.55109,3.480068,27.140865,47.319775,63.843899,70.020733,49.392185,64.473095,59.961262,58.603306,34.418678,43.173409,38.619232,35.011082,18.746395,20.84959,16.293526,12.555714,4.169712,3.561115,-1.135426,-6.098385,10.520109,20.676323,32.699066,42.211347,0.498573,30.950974,41.765323,47.548558,-2.924685,35.412256,44.920584,45.874566,-1.641202,31.306347,41.691532,44.825427,3.6844,28.855968,36.852769,39.964064,32.696972,55.940094,64.261436,61.383419,57.835236,61.572304,52.674465,49.815273,36.944733,43.547459,36.146393,33.183804,14.833889,23.914204,19.115925,17.131748,-5.673752,5.435257,6.483536,6.816845,3.288395,18.984176,41.241495,56.238261,12.325876,52.584243,54.686288,48.108573,13.293011,58.298502,58.525929,50.936433,18.059587,59.926181,57.546135,48.669019,24.744008,57.062074,59.993675,56.095927,-45.114527,143.587554,-73.133097,126.590444
96,39.072533,1.334303,0.119076,8.317595,-4.291306,-5.671177,2.265015,11.969318,7.969608,9.820805,11.159191,12.316532,17.381802,17.877216,19.912891,18.683796,23.98962,20.739384,17.443829,13.26273,27.313328,28.405209,28.001575,25.582523,6.998112,20.070181,37.924818,48.953318,0.610279,43.176259,49.200135,47.886703,-1.384135,49.923603,50.060812,41.969594,1.864245,46.720917,45.578597,37.282923,7.914056,42.030171,43.368796,38.17219,30.632572,53.842506,61.870251,59.214821,58.15773,62.334995,54.409275,51.857414,38.15918,46.103725,37.547665,34.692879,16.83672,26.381607,19.954662,17.653599,-2.998009,8.515034,7.192783,6.721001,0.928356,16.741463,39.834018,54.732725,10.213333,48.844638,50.399328,43.778078,13.249724,56.861632,54.381859,44.725762,19.01005,60.09828,54.658068,44.373229,26.234786,59.075137,55.218021,46.136018,-6.145391,144.283929,-73.117418,134.270111
97,16.146412,6.996075,1.027451,6.588028,-11.779346,-19.37542,-18.579369,-15.157242,-1.046562,0.054016,1.221428,1.920204,11.438484,9.557419,11.019287,10.001564,19.86866,14.089394,11.80172,9.15493,24.800148,24.114647,23.495979,22.285309,5.560378,19.990523,37.601864,48.943315,-1.536597,37.31917,46.122556,47.361763,-2.137367,46.233521,48.843958,42.288164,2.32478,44.866429,46.646508,40.440407,9.529262,40.602625,44.229227,42.096985,30.220757,52.79892,61.721249,60.671883,55.360737,62.042255,57.858925,55.344429,35.743561,45.506172,39.903431,36.220894,14.680595,25.731869,22.326107,19.787693,-4.745922,7.695065,9.212723,9.591179,0.658445,15.204742,37.36431,53.769727,6.671576,43.708177,54.162645,54.190186,10.734877,55.076304,59.018944,52.240787,18.432066,59.863628,58.52068,49.421263,27.488134,60.697259,60.268649,52.186323,9.795055,150.41278,-72.295933,139.990916
98,-72.999458,4.900204,2.798023,5.605517,37.725163,65.149384,85.394211,94.180641,65.913391,83.819046,80.245857,78.268204,43.561764,55.568962,52.157764,46.70866,20.661793,27.017555,25.538349,22.866325,0.341091,3.450336,1.289005,-0.811615,5.052789,19.737099,34.382691,43.683291,4.711186,36.786573,48.925037,54.682275,2.857994,44.421517,55.953901,56.823532,4.861919,42.432166,52.934244,54.196114,10.024624,37.47225,45.86271,49.480111,28.890266,49.432297,57.28981,56.229687,53.306465,59.28772,53.75948,51.113777,33.828964,42.570133,36.772842,32.730389,12.499352,22.756405,20.627232,18.353291,-7.450218,2.969341,6.31691,8.004684,0.595027,15.454029,36.951385,52.333783,8.22886,44.703346,54.130967,53.198103,11.201586,55.198632,60.485517,54.821769,17.896196,58.517963,61.064735,54.912233,26.074852,57.105052,62.773678,60.651996,-63.376408,154.13207,-69.669914,144.415519
99,37.85471,10.114069,1.886215,5.583163,14.989443,25.216913,33.484926,35.731516,33.222599,44.294128,42.384682,40.924702,26.906004,34.327583,32.432642,28.778658,19.132662,21.512203,20.185175,17.816048,11.008444,14.078951,13.464804,12.002907,3.671124,15.494259,31.447818,42.473446,-1.775108,29.743784,40.083582,44.247227,-1.88348,39.20932,47.491532,46.564164,2.295139,40.756075,47.265494,45.143936,9.487766,38.534295,44.556967,45.492702,25.633507,44.869537,54.048328,56.06329,49.716282,57.296562,56.158619,54.406128,31.197052,36.064911,38.084221,38.681087,10.338306,15.401402,20.534248,24.019947,-9.402122,-5.031452,-0.9902,2.763748,1.902098,15.295762,32.704624,47.812171,6.396355,35.790848,52.226646,58.925207,8.649318,44.591084,61.667728,67.578107,14.101015,46.833797,63.712346,71.172537,21.312908,46.333001,60.115508,67.980164,-25.497465,163.733764,-67.759466,149.486308
100,37.85471,10.114069,-7.035427,4.236202,-7.746277,-14.715557,-18.424358,-22.717609,0.531807,4.769211,4.523506,3.5812,10.250244,13.086205,12.70752,10.848656,17.603531,16.006851,14.832001,12.76577,21.675797,24.707565,25.640602,24.817429,2.289458,11.251419,28.512944,41.263601,-8.261402,22.700995,31.242127,33.812179,-6.624955,33.997122,39.029163,36.304796,-0.27164,39.079983,41.596745,36.091757,8.950907,39.59634,43.251224,41.505292,26.379089,46.59296,55.683804,58.936501,49.28833,60.22253,64.664955,68.701572,31.480293,40.761223,47.990341,52.896538,12.150192,19.067631,26.49662,31.610012,-5.119858,-0.37468,3.428249,6.519184,-0.006978,12.74899,30.418809,44.537299,2.056227,26.448504,44.725638,58.87204,5.774034,37.218023,57.238865,71.991594,12.408992,43.034294,63.334063,78.191521,20.594812,45.884138,62.093683,74.093949,12.469797,173.52667,-74.682341,153.401346
101,43.177528,-0.260031,-5.438175,6.634156,-29.022217,-51.51329,-65.158768,-68.194885,-33.766136,-50.325279,-51.180496,-46.816406,-16.42662,-29.490967,-33.356209,-32.045631,0.081253,-12.895088,-19.079361,-19.690132,13.472786,7.060432,2.59243,1.51886,-3.60962,4.856361,23.419461,38.369421,-4.084234,20.859289,30.843219,34.209358,3.261719,35.903789,43.399363,42.61785,12.076158,43.998157,49.592312,47.617966,20.477301,44.785598,51.086548,52.112778,26.313572,48.394375,57.492599,59.773693,47.023659,60.433617,67.224541,73.103199,29.139862,41.795826,50.450306,57.516289,11.05093,19.652081,27.850342,34.69099,-4.699631,3.633099,8.887539,12.936058,-3.775173,8.557434,28.791006,42.89338,-1.804347,20.234128,36.899267,51.044373,4.914654,34.505019,54.086507,68.856773,13.573914,44.322655,65.066039,81.245202,23.316153,48.358538,63.312574,74.285622,55.994196,172.948207,-79.773645,159.71707
102,8.317795,3.797712,-5.29501,7.23369,-25.648041,-47.542992,-63.42556,-67.88332,-26.836967,-41.374626,-45.105743,-44.534569,-9.753685,-20.811081,-27.718391,-31.216621,4.674339,-5.414085,-14.642944,-18.914795,15.48317,13.380661,8.882103,6.620979,-1.420259,4.561565,18.385444,30.519709,-7.741093,9.375627,23.364812,34.381333,-0.529201,20.715225,36.388159,45.426011,8.823393,30.380091,45.764157,54.013271,18.40434,36.676472,49.072867,57.211695,24.169006,47.071381,58.452358,62.706757,39.259644,58.829155,68.224297,75.750675,23.160095,41.010132,52.179909,60.999756,7.838001,21.505394,31.856461,40.4916,-4.120388,7.836914,14.769459,20.423527,-6.720915,2.161635,20.87942,34.17626,-7.221402,12.490503,27.625776,41.062789,2.640448,28.583463,47.210845,61.35805,13.320799,40.759286,59.235935,73.324353,23.700364,45.295162,58.272197,68.073963,65.274267,175.954789,-84.106379,166.15963
103,9.527779,6.677751,-2.368469,5.418784,-23.294678,-47.402802,-65.26165,-66.721573,-20.224915,-37.414856,-41.45359,-41.593781,-2.805519,-15.818024,-21.398277,-24.70356,9.66568,-4.346924,-12.832146,-16.53717,17.320976,10.354729,4.546394,1.696129,-6.809712,-4.993818,7.813341,22.571196,-18.299611,-3.629195,10.526284,20.476437,-8.15797,14.001844,24.393759,28.961499,5.021173,28.640953,40.070275,46.016531,18.172282,38.603085,53.126782,64.099892,22.554016,43.772621,56.52626,66.065197,30.051785,49.67308,60.505486,69.25375,16.021271,32.626705,43.811989,52.601337,3.598309,16.903725,27.69762,36.456299,-4.630795,3.610783,10.539322,17.176037,-8.145559,-1.709684,14.899757,28.333497,-9.108742,5.444966,18.680982,30.94733,1.690047,21.900339,40.401319,54.507644,12.241402,34.004223,51.134034,63.260889,21.840935,38.912269,49.885564,56.625498,75.846004,182.582182,-85.430889,171.528056
104,-6.163216,-1.566793,-1.707001,-2.315579,-14.555054,-31.296844,-47.449837,-51.805687,6.632195,-4.001541,-16.584091,-25.771408,20.996246,11.999588,-6.215401,-20.64537,26.499023,16.589584,-2.414131,-15.103912,25.345802,17.924652,5.647774,-2.444,-12.970736,-21.663527,-14.446879,0.603487,-26.092822,-13.509446,-0.845919,8.691247,-9.444787,5.151713,22.136102,32.481705,8.169888,23.525548,40.9898,49.90835,26.314938,43.894416,59.212038,69.829342,22.853565,41.008129,52.488556,61.283398,30.392075,44.735069,54.060001,60.475731,16.713581,28.557415,39.678898,49.381313,3.728085,14.326458,24.346218,33.542175,-5.786304,-0.735798,5.949554,13.593292,-10.564446,-5.258233,7.948945,19.903146,-1.62984,13.505309,24.455818,33.393079,8.341246,30.128273,48.851801,64.051232,16.285683,37.060868,54.164868,66.817219,22.316969,38.152369,49.825605,57.450422,70.609875,180.616065,-86.210804,168.813153
105,15.672684,-5.917789,-24.604282,14.144055,-8.575287,-21.503792,-39.165802,-50.408478,15.906029,8.112144,-5.020981,-16.246033,19.811096,9.88575,-6.979523,-18.884697,16.077347,2.240524,-15.637093,-25.604897,6.822281,-8.083878,-24.025955,-35.73452,-17.771583,-29.219801,-29.73906,-20.418885,-21.713421,-17.226389,-9.027416,1.261314,-2.081853,10.855661,15.764448,18.17432,14.722657,31.55267,33.823541,32.149981,28.238896,45.342154,53.186988,58.562609,19.654369,46.584549,69.224682,80.405846,21.62075,56.558189,72.043819,78.754063,16.115055,56.869526,77.836533,85.015583,15.531807,54.177361,75.87101,84.925575,18.650551,51.988049,68.611908,76.115799,-25.301861,-35.248185,-29.221653,-14.22643,-25.311803,-19.494914,-9.087005,-3.730219,-0.766817,10.835962,20.895598,24.608342,20.816434,34.354101,42.46088,45.207785,38.670084,51.590555,58.403663,61.497544,87.021646,174.346777,-110.075998,182.605709
106,21.874924,8.114004,-6.107025,2.326385,-22.000122,-39.655266,-53.111,-67.295265,-19.024315,-21.119957,-32.333794,-42.306747,-6.604614,-10.217514,-26.425781,-37.570038,2.29763,-4.3396,-18.4132,-27.357674,8.139267,-0.065918,-9.614067,-16.984863,10.322446,9.766383,9.879634,12.282466,-15.577159,-31.643505,-35.88971,-32.626756,-25.329895,-46.7563,-49.96831,-46.893572,-30.984257,-49.254969,-51.315704,-49.112573,-32.362773,-46.465456,-53.361557,-57.252018,8.037472,30.662041,52.358437,72.201118,22.885895,54.55616,74.836121,89.478951,27.533512,61.849823,86.015053,102.596283,33.711948,66.648159,88.479652,103.406811,39.798717,66.914005,84.111557,96.956177,-27.331226,-42.037704,-46.348007,-52.516564,-25.93752,-26.072506,-24.956738,-23.771994,-5.772923,-2.06302,-0.519753,1.323064,11.802418,18.332895,18.400326,18.833752,26.208233,31.512223,32.806697,34.219423,109.626446,182.321225,-115.453148,184.792538
107,0.30407,3.37361,22.746391,-13.739158,-23.536835,-43.150291,-58.383865,-73.102913,-26.424408,-23.792953,-24.276237,-25.53257,-12.825508,-9.344215,-9.278526,-9.384613,-0.998383,3.942833,4.650421,3.942375,8.871689,13.757286,16.601601,18.490448,-10.234822,-23.686161,-30.302347,-36.684561,-38.641247,-55.699674,-66.980116,-74.837949,-33.55715,-52.216334,-65.02516,-74.680917,-25.219486,-41.365551,-54.087186,-63.108921,-15.543999,-25.573501,-34.330142,-41.255388,-9.569263,0.204449,19.305611,35.583172,15.811672,35.781155,31.097775,25.085106,35.667572,59.937115,51.836014,42.1982,50.292664,78.512878,69.696636,59.138889,61.348801,87.391605,87.704315,81.514549,-27.524814,-48.309817,-62.073428,-68.159086,-39.657288,-51.896713,-50.097739,-45.962561,-27.266759,-36.667086,-37.689179,-35.461286,-14.297629,-22.52019,-23.195246,-21.515943,-2.386777,-4.622327,-4.986963,-4.323023,110.070333,185.69658,-92.566938,171.055125
108,8.896408,-28.254951,-17.620811,-0.562052,-21.840935,-40.05352,-54.736862,-68.175774,-13.223419,-11.193123,-14.814377,-18.368454,0.298691,4.161072,-1.764336,-5.365906,12.703972,18.763275,18.577995,18.976021,24.132156,30.726128,38.055038,44.48719,-7.204729,-23.249524,-36.97522,-47.372446,-45.187933,-63.19602,-61.22541,-55.994718,-47.813066,-67.682681,-65.266326,-58.648874,-46.480863,-65.004412,-66.990614,-65.382448,-41.241001,-61.596684,-75.42396,-86.707983,32.846661,60.572948,79.12056,89.22821,55.446968,82.808819,102.002563,118.578358,43.131008,71.399288,92.071838,105.807896,27.465534,49.668159,64.123535,72.949963,12.5984,24.231949,32.036247,39.939194,0.094602,-10.417295,-21.775295,-33.702881,-6.18134,-16.736832,-24.434638,-29.46211,-16.764558,-33.431179,-46.48923,-55.521586,-28.175848,-49.533772,-63.798241,-73.013996,-39.614495,-64.264457,-83.493164,-99.589119,119.7365,157.882404,-109.417992,170.933847
109,7.219391,2.102416,25.185986,-30.276289,-24.839973,-41.262817,-53.051033,-64.351845,-15.271568,-15.461884,-22.122574,-29.995193,1.288605,3.358841,-3.468132,-9.36779,14.734497,18.54435,15.035706,12.887764,24.31881,30.410957,35.243225,38.634796,-22.459613,-50.842757,-68.61079,-82.766455,-41.792555,-69.144993,-82.594202,-88.932943,-40.258366,-76.504623,-87.838973,-89.339045,-40.366924,-78.664591,-95.273321,-101.431597,-41.833928,-72.121023,-90.286481,-104.105946,-13.853302,-8.749352,2.148228,11.269684,9.087296,20.254841,24.528694,26.291199,28.034077,46.683083,52.844582,55.384884,43.315029,67.680073,78.076859,84.917107,54.586315,78.077259,92.415848,103.49659,-29.132609,-53.93281,-73.688434,-88.805089,-39.159147,-56.540591,-64.536807,-67.666503,-30.159056,-46.080103,-58.20495,-63.321898,-20.097907,-35.570707,-47.327893,-53.936083,-9.601757,-19.964526,-28.084458,-34.30927,127.641993,160.660138,-83.545904,141.332876
110,0.955925,-39.351006,-11.323299,10.015114,16.688347,25.637627,25.012093,22.008018,24.841347,25.699654,21.784515,20.92392,5.776291,3.343506,-1.193848,-1.289177,-13.40435,-16.9487,-17.801514,-16.187553,-30.175667,-45.570602,-57.04628,-67.060432,-27.775582,-56.705589,-81.849214,-94.292323,-35.472123,-59.628205,-67.330982,-70.927264,-28.689396,-57.355635,-67.90804,-72.025434,-24.624706,-55.215366,-71.714675,-81.252705,-22.625289,-42.200448,-56.708892,-69.237958,23.55669,40.230446,49.657917,53.023853,38.666725,65.806332,83.67382,98.196659,30.596867,55.817699,71.642933,81.656456,22.36393,44.800186,62.488461,74.67001,14.189701,29.43615,37.750626,43.839226,-10.583218,-35.655182,-58.398476,-72.530428,-26.261524,-47.713586,-63.067981,-74.34623,-31.005252,-58.17636,-76.794757,-89.334012,-38.341973,-66.182548,-84.146823,-95.324049,-46.69983,-73.392958,-89.620287,-101.185337,129.21155,121.95095,-94.255571,151.989809
111,-1.072083,-0.748971,24.179993,-29.155457,21.400909,28.341293,24.000092,15.507431,32.278061,33.715324,35.043983,39.121284,13.922997,12.144241,8.678398,8.008003,-6.666756,-10.371437,-9.321785,-5.930786,-27.527161,-44.361763,-55.922241,-65.777206,-17.147565,-47.750544,-75.886996,-92.331748,-42.078244,-82.107022,-104.712026,-119.376483,-38.712815,-80.366216,-81.131365,-73.677936,-35.990857,-75.475367,-87.034705,-90.712961,-33.986408,-62.667776,-79.567444,-93.763555,-21.643581,-21.419506,-10.30798,2.972202,-7.44072,-8.67754,-4.929657,-0.053787,15.295086,31.889935,42.65007,50.254383,34.260693,55.633736,69.113388,80.725307,49.3606,71.86615,84.920712,96.470318,-18.476063,-38.182564,-51.965843,-56.58005,-44.12811,-69.816621,-87.877598,-101.82538,-41.807221,-65.583013,-77.58893,-82.623502,-35.297462,-55.832067,-68.454407,-77.029656,-27.256539,-45.016668,-54.915321,-63.915227,128.571539,122.93306,-69.643507,124.565432
