YashyHoby/handMotion-similar-search/workspace/NewProject/handData/tgt/d4_feature_d2/17.csv
,vel_0x_L,vel_0y_L,vel_0x_R,vel_0y_R,posFromWrist_1x_L,posFromWrist_2x_L,posFromWrist_3x_L,posFromWrist_4x_L,posFromWrist_5x_L,posFromWrist_6x_L,posFromWrist_7x_L,posFromWrist_8x_L,posFromWrist_9x_L,posFromWrist_10x_L,posFromWrist_11x_L,posFromWrist_12x_L,posFromWrist_13x_L,posFromWrist_14x_L,posFromWrist_15x_L,posFromWrist_16x_L,posFromWrist_17x_L,posFromWrist_18x_L,posFromWrist_19x_L,posFromWrist_20x_L,posFromWrist_1y_L,posFromWrist_2y_L,posFromWrist_3y_L,posFromWrist_4y_L,posFromWrist_5y_L,posFromWrist_6y_L,posFromWrist_7y_L,posFromWrist_8y_L,posFromWrist_9y_L,posFromWrist_10y_L,posFromWrist_11y_L,posFromWrist_12y_L,posFromWrist_13y_L,posFromWrist_14y_L,posFromWrist_15y_L,posFromWrist_16y_L,posFromWrist_17y_L,posFromWrist_18y_L,posFromWrist_19y_L,posFromWrist_20y_L,posFromWrist_1x_R,posFromWrist_2x_R,posFromWrist_3x_R,posFromWrist_4x_R,posFromWrist_5x_R,posFromWrist_6x_R,posFromWrist_7x_R,posFromWrist_8x_R,posFromWrist_9x_R,posFromWrist_10x_R,posFromWrist_11x_R,posFromWrist_12x_R,posFromWrist_13x_R,posFromWrist_14x_R,posFromWrist_15x_R,posFromWrist_16x_R,posFromWrist_17x_R,posFromWrist_18x_R,posFromWrist_19x_R,posFromWrist_20x_R,posFromWrist_1y_R,posFromWrist_2y_R,posFromWrist_3y_R,posFromWrist_4y_R,posFromWrist_5y_R,posFromWrist_6y_R,posFromWrist_7y_R,posFromWrist_8y_R,posFromWrist_9y_R,posFromWrist_10y_R,posFromWrist_11y_R,posFromWrist_12y_R,posFromWrist_13y_R,posFromWrist_14y_R,posFromWrist_15y_R,posFromWrist_16y_R,posFromWrist_17y_R,posFromWrist_18y_R,posFromWrist_19y_R,posFromWrist_20y_R,posFromBody_0x_L,posFromBody_0y_L,posFromBody_0x_R,posFromBody_0y_R
35,-2.662697,-2.895415,2.612,-11.586292,-33.593788,-64.223843,-79.608021,-83.849258,-57.298622,-87.838326,-105.211143,-118.044548,-46.159172,-82.471848,-101.805496,-115.036926,-36.286583,-69.430618,-85.319481,-94.364548,-28.55175,-55.479813,-69.232578,-77.316055,-12.676866,-2.522628,11.638656,20.808036,42.203937,62.337905,65.19732,64.333246,57.745713,72.17734,71.209217,67.358955,64.002017,76.695926,72.611815,64.236669,63.560564,73.879984,70.878975,64.399813,38.769836,56.834049,61.078777,57.454834,57.518291,76.106987,73.569946,65.166893,42.778759,62.099934,61.621799,53.318939,28.69051,46.85194,47.21014,39.882545,15.870495,33.880405,36.781712,31.388912,5.777554,29.411474,51.295141,60.867937,54.973922,74.155946,69.804765,65.390475,66.592077,86.556911,81.284599,74.594004,72.223529,90.069151,83.381149,75.049722,72.891113,89.083676,82.762101,73.553386,53.354387,465.532327,-91.80934,430.347992
36,-2.290077,-5.618917,4.875298,-15.99842,-31.929932,-60.756054,-76.024075,-80.010166,-55.43438,-85.244808,-102.021046,-114.29987,-45.06546,-79.773159,-98.347263,-111.220379,-35.886383,-68.503075,-83.746834,-92.913437,-28.276062,-54.049644,-67.022438,-74.95966,-14.7397,-5.987876,8.622951,19.681771,38.598392,61.727688,67.144372,67.820786,55.257665,74.164962,76.405761,74.162677,62.877728,79.22053,78.128536,71.94207,64.007822,77.412725,77.144851,72.778603,-14.059124,-10.135231,0.318432,11.417828,3.53199,25.780792,28.74527,25.348377,19.804459,41.677036,39.282074,32.599697,33.89883,53.334846,50.130215,43.137703,45.985451,61.716099,57.56361,50.63158,25.65001,49.807882,65.830509,71.73391,64.677876,97.229729,106.196074,106.017677,59.087672,97.053493,107.270593,107.130111,50.584085,87.747027,96.078207,94.301277,40.291712,70.239303,77.325286,75.767941,51.07275,460.971055,-86.925602,415.407217
37,3.791313,-10.464719,4.399052,-7.757643,-30.386467,-58.16494,-77.616062,-88.10297,-47.255974,-82.029247,-102.345486,-116.841946,-37.273293,-77.483425,-100.510998,-115.972366,-30.259666,-67.459717,-88.976955,-102.744141,-25.597115,-53.169365,-70.067425,-81.521187,-15.378261,-8.856923,6.266802,22.731623,27.432374,58.351731,67.092502,68.826268,45.635777,75.899284,81.025618,79.286788,56.2742,83.195404,85.834122,82.245435,60.140208,83.689284,86.990028,83.770671,12.809658,23.544445,30.949116,37.326908,27.331924,40.632019,39.777775,35.970211,21.840134,35.295639,33.627949,29.187527,13.849926,25.597687,25.220833,23.432293,5.062351,13.741894,16.782875,18.101749,24.36381,46.68714,64.2794,76.803495,43.319767,77.771001,93.117398,98.140115,42.141816,81.760077,96.843603,97.167608,41.037224,77.237539,90.904943,93.437945,39.111229,65.600797,77.420011,81.626326,54.76284,451.512019,-82.627773,408.655257
38,1.761818,-10.874989,-9.555302,-81.978612,-29.71756,-60.09201,-84.845123,-105.657406,-52.142601,-86.903915,-106.298676,-121.277962,-40.508652,-79.991169,-101.533813,-117.391319,-31.161804,-66.939697,-87.578888,-101.968632,-25.077209,-50.961571,-66.532402,-78.205833,-15.305704,-8.285609,4.548535,16.737943,29.238079,57.425228,67.092008,70.823277,45.533889,73.613901,79.422083,79.38139,55.335532,80.751014,85.591258,84.249236,59.438538,82.156391,87.713743,87.361334,35.844555,48.927155,48.01815,41.404438,66.231022,67.212696,54.148636,42.35733,52.022667,54.015255,41.41571,32.008724,33.141289,32.1698,25.144329,21.283665,12.111225,15.101624,14.732838,13.417339,30.128026,67.496658,93.150435,107.493141,96.242216,139.290219,159.837175,168.896084,100.119277,144.705607,157.418596,158.805881,98.449793,129.479067,127.026464,118.430436,92.721516,111.099303,107.692533,100.397895,56.310453,441.046266,-92.39728,327.085881
39,1.795921,-8.911758,-20.744877,-79.967833,-29.237595,-60.219498,-85.403309,-107.029724,-54.288712,-88.635464,-108.163834,-122.815819,-43.573151,-82.802925,-105.245247,-121.513653,-33.857803,-69.692974,-91.721764,-107.115097,-27.013435,-53.894119,-70.378132,-82.752285,-15.821197,-9.900258,2.916842,14.211487,26.850067,53.265535,62.01069,64.271187,44.13728,70.98673,76.429658,75.909781,55.000166,80.019889,83.92764,81.987689,60.58018,82.701524,87.186456,85.963304,45.47327,70.310326,81.710987,85.840473,85.219002,93.69072,90.11713,85.913258,64.22081,74.949188,72.556458,67.973957,40.533772,52.548294,53.376045,51.903305,16.732063,31.389198,39.143028,42.0714,4.520624,28.815953,55.249082,72.846776,60.01152,95.02493,104.443165,105.095496,69.324903,102.499015,108.876103,107.482582,73.702636,105.342745,110.106913,107.591263,73.518682,99.186908,104.202462,102.929662,57.609015,432.339057,-113.639517,247.322596
40,2.224731,-8.376567,-20.532017,-72.217045,-29.99897,-61.403961,-86.869183,-110.1091,-56.499825,-91.324482,-110.944862,-125.939312,-44.937057,-85.051346,-107.372417,-124.334164,-34.503365,-71.821918,-94.037704,-109.972115,-27.00428,-55.421448,-72.230072,-85.009117,-15.837684,-8.944794,4.562244,13.019457,25.85533,51.130823,59.930504,63.133868,43.584923,68.221238,74.064803,74.704537,54.990347,77.889314,82.190478,81.262184,60.969331,82.102113,86.544067,85.951942,42.63319,77.721519,104.931049,118.343983,88.619041,122.163048,121.434231,112.603741,76.384678,110.201111,109.105797,98.785286,62.189827,94.380913,95.686054,89.462872,46.682281,76.164036,83.16433,81.439304,-16.618518,-13.866487,-1.673868,11.288099,2.066045,29.905539,36.759959,35.790539,19.707582,44.972887,48.939919,47.267779,35.220397,57.440357,59.394016,55.970265,47.535652,64.658856,63.598972,59.438538,60.70261,424.672249,-133.30267,175.81531
41,1.414604,-4.37409,-2.337685,-71.795784,-32.0858,-62.904053,-88.581219,-111.054382,-61.347771,-95.967407,-115.071602,-129.295692,-50.228004,-88.754768,-110.103664,-126.265984,-39.290314,-75.686989,-96.958351,-111.942501,-30.517387,-58.413277,-74.713039,-86.901741,-16.109571,-10.671891,2.159474,10.317876,24.962975,47.190838,55.178933,58.638623,42.665768,63.817322,69.592035,71.177415,54.601752,75.34952,80.04638,79.854707,61.591158,80.627822,84.951771,84.845992,27.400646,58.826351,85.18713,98.625584,76.197224,109.214458,99.59816,87.498093,74.421043,104.480667,93.649979,80.751171,67.753887,93.859978,83.311958,72.114716,58.044033,81.328182,72.419987,61.91391,-34.638245,-46.582967,-37.88502,-21.652844,-46.485679,-28.227348,-20.743198,-20.723994,-21.525638,0.43744,3.99309,1.127439,3.478154,21.414981,22.518584,18.540685,26.49562,37.189803,35.03459,30.268693,62.807064,421.256818,-134.950504,104.978186
42,0.40844,-3.573496,0.472026,-32.459251,-32.397423,-63.112564,-89.318447,-111.146221,-63.87886,-98.119812,-116.935272,-131.069527,-53.478928,-91.461868,-112.64986,-128.651848,-42.087822,-78.230324,-98.983326,-113.391209,-32.213974,-59.305,-75.079079,-86.990147,-15.171767,-10.627369,1.495718,9.620344,25.40239,46.786867,54.576496,58.240086,43.248692,62.616276,69.546834,72.809479,55.178624,73.988664,79.721758,81.032719,61.749239,79.550894,84.787515,86.495593,28.271999,56.639328,80.304809,93.402629,68.204327,96.16612,91.401772,83.676696,65.436516,96.853867,91.614704,82.31266,60.17631,90.298018,83.059945,73.015051,53.574014,79.577923,73.283515,63.576064,-30.28092,-44.417542,-40.579546,-29.317722,-54.57523,-49.009095,-47.390253,-49.579776,-34.981431,-22.073264,-17.093124,-17.104818,-12.967579,1.566315,8.269283,9.249555,9.011809,17.790209,19.497198,18.422965,64.092636,418.587919,-133.601346,73.423532
43,1.598969,-2.338179,0.472026,-32.459251,-32.897758,-64.46846,-91.358013,-113.346748,-65.879517,-99.785328,-118.652573,-133.471985,-56.468124,-93.373947,-115.311642,-132.395096,-45.524826,-79.67474,-100.850601,-116.435394,-34.885483,-60.431442,-76.033115,-88.595581,-15.064075,-11.511882,0.683392,8.853774,24.860037,45.587427,53.705754,58.138013,42.7198,61.557874,68.892588,73.24908,54.715805,74.229306,81.20315,84.205023,61.384417,79.704406,85.801703,88.743123,29.143352,54.452305,75.422487,88.179674,60.211429,83.11778,83.205385,79.855299,56.451988,89.227066,89.579429,83.874149,52.598734,86.736059,82.807932,73.915386,49.103994,77.827663,74.147043,65.238218,-25.923595,-42.252117,-43.274071,-36.982599,-62.664781,-69.79084,-74.037308,-78.435558,-48.437224,-44.583967,-38.179338,-35.337074,-29.413311,-18.282352,-5.980018,-0.041573,-8.472002,-1.609385,3.959807,6.577237,65.950699,416.741041,-132.870226,41.455583
44,-2.123222,-0.769966,0.472026,-32.459251,-30.914268,-62.487373,-89.881439,-112.524433,-65.126381,-98.717651,-118.128433,-132.85881,-55.745659,-93.767624,-116.336517,-132.967072,-45.292625,-80.555592,-102.348404,-118.03688,-35.092735,-61.164207,-77.123051,-89.770489,-14.356724,-10.484788,1.412417,9.46183,26.065096,46.349118,54.096016,57.517421,44.333338,62.967019,69.363188,72.878762,56.06042,75.165504,81.267803,83.727939,62.274179,80.670862,86.36814,89.131286,30.014705,52.265281,70.540166,82.956719,52.218532,70.069441,75.008998,76.033902,47.46746,81.600265,87.544155,85.435638,45.021157,83.1741,82.555918,74.815721,44.633975,76.077404,75.010571,66.900372,-21.566269,-40.086692,-45.968596,-44.647477,-70.754332,-90.572586,-100.684363,-107.29134,-61.893016,-67.09467,-59.265552,-53.569331,-45.859043,-38.131018,-20.229319,-9.332702,-25.955813,-21.008979,-11.577584,-5.268491,63.337297,419.250038,-132.888379,12.275295
45,0.331764,0.210013,0.472026,-32.45925,-32.682037,-64.025002,-91.262512,-113.82534,-67.051277,-100.18158,-118.837109,-133.110924,-57.39006,-94.330158,-116.106319,-132.577915,-46.453514,-80.603142,-101.663074,-117.155914,-35.913162,-61.324539,-76.754665,-89.251728,-14.326404,-10.887833,0.641834,8.713045,25.948696,45.993436,53.787635,57.715023,44.07905,62.810728,69.738075,73.759941,55.886284,75.196317,81.855729,84.774856,62.324073,80.800476,86.981507,90.153193,30.886059,50.078259,65.657845,77.733765,44.225636,57.021103,66.812611,72.212505,38.482933,73.973465,85.508881,86.997128,37.443581,79.612141,82.303905,75.716057,40.163956,74.327145,75.8741,68.562527,-17.208944,-37.921268,-48.663122,-52.312356,-78.843883,-111.354333,-127.331418,-136.147123,-75.34881,-89.605374,-80.351766,-71.801588,-62.304776,-57.979685,-34.47862,-18.623832,-43.439624,-40.408574,-27.114976,-17.114219,63.028221,421.758077,-133.057194,-17.88593
46,-0.01236,0.401563,-6.642036,0.160644,-32.371101,-63.836975,-90.865517,-113.953857,-66.668243,-99.798317,-118.851128,-133.559761,-57.297821,-94.48637,-116.840343,-133.803463,-46.730232,-81.065826,-102.514629,-118.513985,-36.343346,-61.69899,-77.200527,-89.927101,-14.341471,-10.405809,1.71061,9.071012,25.99575,45.673877,52.875272,56.067645,44.007851,62.402435,68.854056,72.417981,55.495528,74.811797,81.128185,83.799323,61.460617,80.312771,87.013308,90.755075,28.139305,46.992531,64.092064,77.48291,43.971233,59.759331,73.93507,83.687325,40.321655,87.78471,91.99522,83.320141,42.14304,87.107391,84.79248,72.635708,46.277103,80.842094,79.711075,69.848099,-24.483359,-44.688125,-55.089673,-60.600156,-79.67881,-105.759282,-120.726501,-133.054817,-76.362875,-68.522734,-46.33402,-34.730161,-66.152753,-55.167602,-35.506394,-26.718724,-51.704021,-44.201223,-29.826993,-22.753699,62.416964,424.612644,-140.298128,-15.272282
47,-1.17382,-0.57891,1.14521,-3.673717,-31.939087,-63.70388,-90.889664,-113.425312,-66.184616,-99.265594,-118.040314,-132.532539,-56.885033,-94.285069,-116.382809,-133.193321,-46.441269,-80.952244,-102.375755,-118.578987,-36.143875,-61.426163,-76.891937,-89.788628,-14.312819,-9.93243,2.532137,10.549749,26.837161,46.338929,53.732491,57.137039,45.006417,62.701121,68.945199,72.525118,56.549237,75.366625,81.598909,84.371255,62.545387,81.351907,87.910727,91.561535,19.208393,34.09853,48.970985,61.19751,39.29718,59.073658,73.452759,83.792667,37.594471,83.163471,88.409843,81.464081,40.984383,84.257069,85.265636,75.483742,46.056461,79.40752,81.264553,73.857365,-30.162297,-49.49984,-60.118318,-65.475938,-78.818782,-103.664307,-118.68917,-129.999592,-74.890591,-69.758946,-49.827272,-38.236781,-64.674078,-57.43554,-38.801798,-29.063819,-50.157606,-48.200179,-35.322193,-26.710635,60.783262,425.685218,-139.612799,-17.294515
48,-0.217323,0.672338,1.051598,-2.577833,-31.988983,-63.634186,-90.607567,-113.031349,-66.79985,-99.350166,-117.865391,-132.168617,-57.461128,-94.153805,-116.03405,-132.878094,-46.823273,-80.659904,-102.120838,-118.517818,-35.984802,-60.472755,-75.788441,-88.773479,-14.121887,-10.028205,2.228511,10.49263,27.716364,46.737652,53.710447,56.882998,45.723525,62.807764,68.899381,72.708517,57.116167,75.224167,81.666217,84.874645,62.983197,81.496712,88.844146,93.466597,14.06868,27.739849,42.532883,54.902973,32.47118,53.946877,69.265766,80.324306,32.693195,78.447762,81.939526,73.773022,37.812309,80.987663,80.472908,70.020962,44.23193,77.092781,77.422256,69.394341,-31.568601,-52.463798,-63.048251,-68.110519,-80.075464,-103.989948,-118.179173,-128.571397,-75.222221,-71.612323,-52.753964,-42.46582,-64.949392,-60.468134,-43.091846,-34.244648,-50.96666,-50.481085,-37.982648,-29.668726,60.190802,427.408734,-138.936338,-18.821171
49,0.604935,-0.271084,0.362549,-4.31762,-32.064857,-63.977623,-90.683842,-113.102417,-65.979195,-99.653549,-118.703098,-133.094616,-56.219788,-93.933735,-116.235523,-133.249798,-45.317917,-80.003185,-102.170849,-119.058609,-34.221153,-58.885345,-74.542809,-87.920837,-14.243041,-9.93984,2.499348,10.723206,28.220124,47.305385,53.740951,56.508728,46.016839,63.196792,68.927477,72.108117,57.081772,75.583678,82.044808,85.099725,62.61041,81.87413,89.700316,94.588849,9.574471,22.116737,37.071247,49.842224,25.329437,47.64101,64.441395,77.59901,27.720337,73.948002,77.598038,69.843235,34.513435,77.645245,76.517715,66.292706,42.03907,74.939175,73.455219,64.789524,-32.456912,-54.551364,-65.05128,-69.012137,-81.2356,-104.563424,-116.591756,-123.903251,-75.082542,-73.56518,-56.147581,-46.067783,-63.822293,-60.151756,-43.692276,-35.4699,-49.167623,-48.501429,-36.376982,-28.720641,60.749931,427.460481,-138.619595,-22.815959
50,0.272713,0.006731,1.37043,-0.489496,-31.868248,-63.554535,-90.170689,-112.572842,-65.394173,-99.398289,-118.512096,-133.00106,-55.927963,-93.767738,-115.936031,-132.794209,-45.273972,-79.87175,-102.184925,-119.172478,-34.258919,-58.80661,-74.609756,-88.262672,-13.934227,-9.703583,2.413515,10.672138,28.689674,47.364233,53.560393,56.318228,46.335039,63.397419,68.675041,71.788127,57.238371,75.788998,82.276928,85.618984,62.650918,81.921122,89.629426,94.735321,5.256443,14.883671,28.449039,39.773712,17.619953,37.948608,55.228386,66.98267,21.529312,65.229721,68.19025,59.502411,29.913483,71.032047,68.356304,57.315388,39.593925,70.592937,66.658115,56.701298,-31.432812,-54.916988,-66.700634,-70.088292,-81.556826,-105.802569,-113.607019,-115.823611,-76.596477,-80.18078,-63.254343,-55.036074,-65.83971,-64.251026,-48.066335,-41.544874,-51.245123,-49.627849,-37.984191,-32.595171,61.108189,427.914053,-137.16362,-22.858613
51,0.126228,-0.379518,-1.582775,0.960435,-31.886215,-63.493881,-90.054932,-112.431736,-64.385719,-98.481903,-117.83392,-132.492828,-55.121384,-93.161087,-115.549164,-132.715931,-44.784737,-79.454384,-102.065678,-119.425392,-34.052124,-58.576241,-74.595394,-88.571205,-13.745024,-9.622073,2.549613,11.201092,29.14286,47.663043,53.609176,56.082095,46.877578,63.639913,68.763962,71.750335,57.805363,76.038963,82.495895,85.752797,63.291394,82.312002,89.878898,94.77657,1.418552,7.223282,13.660183,14.210415,13.060455,52.513618,52.475109,41.701813,18.264828,63.834286,59.435863,46.9277,26.443748,67.331886,61.728058,50.556507,36.318569,67.99427,63.102322,53.588161,-35.420469,-64.601614,-87.121711,-103.147147,-86.007734,-99.892468,-84.836328,-76.100281,-78.455411,-82.398978,-68.124073,-63.029109,-65.634853,-67.946109,-54.77632,-50.723085,-50.324363,-52.872617,-43.232791,-38.078021,61.518173,428.735287,-138.462639,-20.697426
52,-0.362778,-0.106581,-2.921391,0.951389,-31.530304,-63.210182,-89.929104,-112.244225,-64.166107,-98.444881,-117.752037,-132.303543,-54.523888,-92.78595,-114.918709,-131.724014,-43.971291,-78.89225,-101.344471,-118.396225,-33.20652,-57.90493,-73.887749,-87.618599,-13.806775,-9.633311,2.372821,10.94205,29.530714,48.417757,54.349563,56.70775,47.170337,64.163309,69.388876,72.434468,57.951156,76.238417,82.641626,85.819426,63.257493,82.509974,90.175609,95.194126,-0.228596,3.457603,6.617603,1.523952,9.409904,49.680805,46.864529,35.313091,16.649265,59.693356,55.002422,43.153152,26.24073,64.688015,59.831371,49.07238,36.885681,66.837044,62.449093,53.137722,-37.549746,-69.585953,-95.025918,-113.005662,-85.568719,-97.545181,-82.793193,-74.677614,-75.570339,-83.154371,-70.169309,-64.46144,-61.596345,-69.497217,-57.636908,-52.746584,-46.641568,-54.685825,-46.139908,-40.021986,61.464815,428.67576,-141.07461,-19.698983
53,0.143852,0.112509,-1.265659,-0.322183,-31.331291,-63.224602,-90.33783,-112.860374,-63.095741,-98.587189,-118.234119,-132.631416,-53.343544,-92.988224,-115.177803,-131.76693,-43.022118,-79.24015,-101.897621,-118.886089,-32.928085,-58.781891,-74.959488,-88.516273,-14.425946,-9.98887,2.29551,11.41796,29.392887,48.596895,54.499617,56.758076,47.299148,64.466566,69.618279,72.349006,58.135975,76.368278,82.517384,85.297882,63.357775,82.661819,90.233531,95.040183,-0.879879,2.688332,4.213314,-4.424515,7.322159,50.510159,46.255016,33.241196,15.510178,58.779144,52.982483,40.583725,25.106392,62.824802,56.751823,45.352135,35.221195,64.116497,58.867435,48.865528,-36.114451,-68.903394,-95.181221,-114.234001,-84.231483,-95.278292,-81.184594,-75.013937,-72.279104,-80.687936,-68.62067,-64.136479,-56.953794,-66.057349,-54.839491,-51.074229,-41.399915,-51.36532,-43.267186,-37.416582,61.932764,429.043159,-142.016172,-19.766276
54,0.420914,-0.155858,-2.10434,4.054285,-31.764793,-63.564377,-90.760746,-112.950783,-63.762932,-99.163857,-118.424091,-132.520809,-54.025269,-93.347626,-115.152626,-131.414108,-43.574066,-79.365807,-101.390877,-117.819214,-33.641624,-59.726486,-75.757313,-89.090424,-14.632007,-10.209134,1.834975,11.329595,29.130139,48.479322,54.28065,56.537874,47.003858,64.675529,69.889055,72.391119,57.952762,76.688022,82.860099,85.495113,63.43521,82.502811,89.530502,93.78702,-1.837635,2.088776,3.635502,-5.361042,5.267658,47.345924,41.967659,29.655418,14.390659,56.938763,49.823227,37.993069,24.563885,61.535053,54.531784,43.448467,35.430222,63.396721,57.046909,47.00758,-34.9365,-69.241015,-96.246323,-114.601293,-78.522503,-93.91932,-81.148995,-74.718987,-64.950102,-77.510939,-67.36902,-63.180582,-49.113715,-62.381656,-52.648031,-48.280578,-33.941793,-48.06862,-40.344076,-33.772875,62.567139,429.490788,-143.907051,-15.108504
55,0.450439,-0.938112,-1.46616,4.872756,-32.076759,-63.99044,-90.91198,-113.113461,-64.354477,-99.265423,-118.559475,-132.932796,-54.995956,-93.689804,-115.638599,-132.390404,-44.732437,-80.223312,-102.230186,-118.838482,-34.771042,-60.300064,-76.104984,-89.378529,-14.313807,-9.830666,2.140269,11.395606,28.821326,48.0672,53.998142,56.287168,46.619894,64.163001,69.665148,72.412794,57.776835,76.289423,82.582531,85.238416,63.621943,82.673242,89.590585,93.418061,-0.546856,4.771385,7.006016,-3.147926,3.767109,48.710461,41.380177,28.237953,10.473347,57.180119,47.95887,35.453396,19.201355,59.4841,51.05175,39.865437,29.693241,59.408283,52.606773,42.687492,-30.966133,-66.141731,-93.551195,-112.469761,-71.571877,-85.51231,-71.737275,-66.954181,-55.676425,-67.662798,-57.32476,-53.912741,-38.141964,-51.068857,-41.373208,-37.796161,-22.186398,-36.511259,-29.423485,-23.942889,63.767996,428.988279,-144.622793,-9.800145
56,-0.130806,-0.42052,0.040112,5.204572,-31.812744,-63.691177,-90.631256,-112.738724,-64.971313,-99.707623,-118.862286,-133.056107,-55.469627,-94.201241,-116.16188,-132.644577,-44.987297,-80.680618,-102.946873,-119.651527,-34.544678,-59.971504,-75.863342,-89.225922,-14.385685,-10.187645,1.839174,10.989536,28.797428,47.562576,53.748608,56.281301,46.868316,63.743654,69.212208,72.045564,58.151907,76.109853,82.213325,84.779796,63.950332,82.686766,89.53538,93.369278,-0.009785,5.109501,7.470474,-1.830425,1.505756,46.16684,40.009918,27.45924,7.667885,54.46249,45.828094,34.215317,16.136112,57.260685,49.347496,38.70472,27.022877,58.866405,52.020779,42.17989,-28.711719,-62.40404,-89.159814,-107.973745,-66.05846,-78.026586,-65.641985,-62.196065,-49.813779,-60.85429,-50.706413,-48.048582,-32.226984,-44.472184,-35.188009,-32.932236,-16.430951,-29.181948,-22.57345,-18.661283,64.550629,428.825504,-143.669243,-4.337828
57,-0.238724,-0.636461,-0.432529,3.856035,-31.74202,-63.459091,-90.604992,-112.651978,-64.113922,-99.324474,-118.647766,-132.553539,-54.59507,-93.83028,-115.964584,-132.344971,-44.173164,-80.324821,-102.783165,-119.496059,-33.845329,-59.330063,-75.256233,-88.472729,-13.949233,-9.650663,2.215173,11.58271,29.497369,48.172484,54.170611,56.380967,47.580483,64.42155,69.79717,72.488994,58.785836,76.650848,82.70313,85.22551,64.492933,83.154463,90.01901,93.866554,1.103325,6.55798,8.948536,0.33886,2.803345,47.432957,42.249699,29.562492,8.560524,55.971909,48.151016,36.317368,16.489105,58.399315,51.256084,40.42551,26.98288,60.091324,53.352528,43.20219,-27.711763,-60.953616,-87.950525,-108.31223,-66.280515,-75.378327,-63.759647,-61.12769,-49.358802,-58.446425,-47.798308,-44.902337,-31.044649,-41.418039,-31.897669,-29.583017,-14.656182,-26.219873,-20.035384,-16.604933,66.31073,428.455511,-142.102947,-0.215324
58,1.150818,0.272937,0.155811,1.899751,-31.949387,-63.890991,-91.009426,-112.684135,-64.541702,-98.89904,-118.191662,-132.629356,-55.143929,-93.350773,-115.821075,-132.746372,-44.85363,-79.873924,-102.435608,-119.437923,-34.456673,-59.417381,-75.367241,-88.821316,-13.525625,-9.14715,2.804951,12.144207,29.863549,48.554225,54.438854,56.788334,47.406224,64.666452,69.936047,72.856903,58.265713,76.665668,82.738945,85.439414,63.835538,82.597351,89.335494,93.105666,1.777611,8.996372,13.672886,6.877728,6.311703,51.340427,45.423317,32.296143,11.086979,58.933525,50.787506,38.335247,18.072338,60.758858,53.313789,41.987171,27.995968,61.47543,54.985313,45.064602,-26.879182,-59.661643,-86.477809,-107.432471,-66.461413,-73.141727,-61.714226,-60.16991,-49.741624,-56.797442,-46.116227,-43.618855,-31.205972,-40.51284,-30.877089,-28.347144,-14.294912,-24.744193,-18.62837,-15.191528,69.614267,428.15244,-139.794416,1.10842
59,1.738358,-0.965468,1.764908,1.445855,-32.584648,-64.487114,-90.83456,-112.710915,-65.960541,-97.512703,-115.763168,-130.606842,-56.439285,-91.787853,-113.843193,-131.549835,-45.750389,-78.01403,-99.617672,-116.654835,-34.474411,-57.739792,-72.919121,-86.251259,-11.881335,-6.752222,6.559499,15.041289,30.970981,49.344878,55.789645,59.077175,47.876391,65.12464,70.959004,74.991676,58.626644,77.355173,84.051388,87.620747,64.33195,82.914131,90.31041,94.924524,3.801498,13.015881,20.468159,16.171703,7.428875,53.107452,46.624947,33.662167,10.687122,59.329548,50.832939,38.686695,16.481266,59.770145,51.89352,40.825481,25.887623,60.041771,53.193398,43.218212,-26.735211,-58.395018,-83.907695,-104.163806,-64.9024,-68.790237,-57.960141,-57.45107,-48.223521,-52.55522,-42.569376,-40.969175,-30.131515,-36.855795,-27.644795,-26.041168,-13.229655,-21.032098,-15.617328,-13.372052,72.841501,425.828958,-136.540632,1.19626
60,0.952492,-3.618204,2.237778,3.004003,-32.648621,-62.491608,-85.95932,-107.705784,-65.910187,-94.414101,-109.876442,-122.587223,-53.796272,-86.21664,-105.250397,-120.159473,-39.931412,-69.984512,-89.199314,-103.918819,-26.075134,-47.441826,-61.334267,-73.629971,-9.993995,-2.275503,14.673133,23.058036,32.375926,54.112627,62.785472,67.769225,49.83919,71.409473,79.587636,84.470303,60.828664,82.581481,91.012018,95.308056,66.009338,86.312256,94.66579,99.4378,7.380524,19.182529,28.778572,28.862572,8.757534,53.98098,48.83852,37.506924,8.805943,58.295631,51.086025,39.315891,12.50988,57.375584,50.334263,38.774014,20.283051,56.161194,49.953976,39.378719,-29.41802,-58.645601,-82.213788,-100.20684,-60.568169,-62.497191,-53.502656,-53.427383,-43.721669,-45.924553,-37.212002,-35.64453,-25.862771,-31.615902,-22.990666,-20.925702,-9.031554,-15.730856,-10.672231,-7.794693,75.967054,420.36488,-132.129793,2.354389
61,3.831253,-6.802487,-1.461182,4.647429,-31.446419,-60.667191,-83.735847,-103.671799,-61.043015,-87.738991,-101.192379,-111.669388,-47.353249,-76.634274,-93.35701,-105.370731,-32.063942,-56.995468,-71.989746,-83.187847,-17.251167,-34.622269,-45.020714,-54.878883,-7.600735,1.827442,19.154669,27.97164,32.7179,55.490834,67.37711,75.440787,49.288067,74.086601,85.499497,91.878438,60.244628,86.333189,97.415597,102.987708,65.881021,89.428737,100.162812,106.39633,12.740479,27.117062,39.074707,45.454102,9.580822,53.211365,51.063423,40.589333,7.527294,57.778702,53.129711,41.356087,9.597988,55.961266,49.599953,38.30698,14.984264,52.107925,46.199512,35.847073,-27.099076,-53.881897,-76.371922,-95.150531,-57.137347,-59.293517,-48.866744,-48.606929,-40.333053,-43.399641,-32.48788,-29.36618,-22.670738,-26.639159,-17.608161,-15.075962,-6.015262,-9.171696,-4.795444,-3.639353,81.287956,412.663492,-132.101326,6.102917
62,5.876541,-11.506819,-7.047329,2.71603,-30.107002,-60.645905,-83.529797,-103.67878,-59.424934,-85.032578,-97.979107,-108.733749,-44.074974,-71.262817,-86.074677,-98.297367,-27.313843,-50.016861,-64.836044,-77.652855,-10.615768,-23.692818,-31.87706,-41.301041,-11.744867,-3.518971,11.947531,20.569556,26.717304,53.657588,67.947683,76.968492,42.288843,69.774508,82.958591,91.128541,52.860329,79.570161,93.650181,102.664568,58.252683,84.087883,98.777441,110.326003,13.34713,30.461369,48.822327,60.301609,7.147865,49.130917,63.19891,63.432369,6.098957,53.037472,65.132561,63.572044,9.716549,51.645641,62.456131,61.338558,17.714367,50.600624,59.360104,59.54567,-28.54104,-51.444978,-67.163299,-80.682255,-53.99808,-63.107408,-52.691472,-45.949068,-37.394598,-47.920697,-38.52355,-31.170682,-18.685273,-29.784292,-24.821165,-20.327989,0.663138,-9.599781,-11.173583,-10.932509,88.896046,399.850266,-137.417107,7.51254
63,0.459251,-13.46795,-11.990719,3.811112,-29.49234,-54.176102,-71.878052,-88.710251,-53.152199,-82.881031,-90.45599,-89.011517,-39.128494,-69.300385,-76.848907,-75.46978,-23.415871,-51.111259,-60.643158,-62.832527,-9.319839,-28.611145,-36.647415,-38.905792,-14.238286,-11.353678,-0.731557,5.988987,15.581852,48.244485,55.312623,53.990052,34.26907,67.084968,71.838947,68.943717,47.846874,77.033454,80.198162,78.120014,56.827793,81.127568,84.00631,82.287364,12.690468,30.673714,51.585503,69.704075,6.768894,35.170326,56.527977,67.254925,6.710701,45.103741,67.499313,76.62735,11.732769,46.770573,66.807804,76.050911,20.120602,49.343376,64.68544,73.498135,-28.415903,-47.584343,-58.173983,-66.45428,-53.227589,-69.424136,-69.018034,-64.105418,-38.789602,-52.101323,-49.841567,-44.662066,-21.010022,-30.892928,-29.85407,-27.661221,-3.450644,-10.388611,-10.883263,-11.547265,91.491165,385.641434,-147.271957,10.58277
64,39.539108,-71.018284,-24.954815,33.308543,-37.14901,-65.332489,-85.64106,-96.082764,-72.56424,-94.831009,-91.448593,-84.310684,-66.158295,-90.739288,-86.74324,-77.597809,-57.653618,-80.953445,-78.269348,-70.453606,-47.163277,-66.963387,-67.522316,-62.345352,2.239193,15.525536,26.01761,32.156774,47.238201,70.909171,65.098458,56.87639,55.251119,78.453219,70.749917,62.709025,59.25551,78.984396,70.924732,61.864094,59.744265,77.235748,72.925446,66.873844,27.508335,45.457535,65.024872,80.100574,18.454227,42.351379,63.511562,75.86832,12.815952,52.129784,75.242844,87.088394,14.726372,54.82687,78.148727,91.452999,22.666168,53.569393,71.613407,83.682518,-38.870001,-64.191344,-80.184608,-91.681423,-86.469658,-112.746434,-111.136199,-102.837469,-76.147181,-98.76435,-93.401327,-81.255082,-61.07159,-78.711429,-75.947573,-66.864519,-42.073828,-59.382407,-59.591278,-54.974231,132.571163,314.210194,-170.685883,43.478357
65,21.362,-46.909627,-11.830444,-1.617429,-30.555382,-59.626923,-81.862679,-93.331604,-74.878922,-103.917274,-96.746407,-84.243622,-72.843246,-92.368469,-81.934319,-70.473633,-65.863266,-81.947708,-71.852074,-60.688019,-56.308365,-72.087822,-63.887444,-53.361969,-21.166744,-21.90565,-9.36902,4.6009,-13.548164,-0.306035,2.864787,1.408527,7.21251,20.325086,19.925499,15.0826,25.779068,36.847706,34.944867,30.026014,41.802497,51.197575,47.804575,42.474403,29.373837,48.435001,69.075623,85.763111,11.599731,37.819977,60.824089,69.199791,7.555218,44.718819,68.842392,74.874115,10.905533,48.037376,72.21199,79.820137,21.132545,49.490147,68.305378,77.276859,-34.468802,-58.878524,-71.688215,-81.270551,-83.472972,-111.45054,-102.250716,-87.888095,-73.749258,-103.267097,-92.640685,-79.524404,-58.973897,-85.727726,-78.664838,-67.155703,-42.107513,-64.515812,-66.285393,-62.458504,155.006361,267.495344,-181.443129,42.055705
66,9.234695,-58.350002,-3.816319,-3.592361,-32.421341,-61.55571,-83.341713,-93.560257,-64.871063,-82.595673,-77.894783,-71.097679,-54.281845,-70.285034,-65.014458,-57.236595,-41.42807,-56.995926,-52.308655,-44.428596,-28.143196,-43.987999,-41.389618,-33.979454,7.465131,0.793555,-9.326103,-14.900189,-22.101522,-35.946088,-26.274121,-17.910892,-34.300254,-45.894203,-35.626838,-28.840777,-42.952166,-52.75208,-42.999899,-36.260398,-47.736773,-56.498231,-47.96278,-41.074151,30.125141,47.304955,67.052307,80.410595,6.004658,31.730919,54.238071,61.860237,1.153793,37.08046,60.398197,64.808292,3.61187,39.64674,61.979084,67.317066,13.558559,41.383324,59.523354,66.500072,-32.796045,-56.840822,-70.040096,-80.475206,-85.09392,-110.189257,-99.978456,-86.208268,-75.358072,-102.377799,-90.128061,-75.719251,-60.506049,-85.468529,-76.33342,-62.966278,-43.900159,-64.737866,-65.699598,-60.577247,165.123682,211.436189,-184.376822,40.754191
67,7.300186,-63.301829,-2.069435,-3.534686,-25.424767,-50.916939,-73.715172,-84.386101,-32.138901,-57.571106,-63.97007,-61.359329,-25.861931,-55.603981,-61.151962,-54.880257,-22.316551,-52.924004,-58.053246,-51.282234,-19.701691,-46.903839,-53.688927,-50.639191,-22.465417,-35.77788,-30.968202,-17.709956,-56.248852,-62.527387,-43.294511,-30.59912,-45.779285,-44.525382,-27.946137,-17.667843,-32.292563,-26.891749,-13.295543,-6.006277,-17.299007,-11.422529,-2.469708,2.575363,29.439182,43.79076,61.994247,72.810402,0.784378,30.753765,52.96566,58.90583,-3.956337,35.183659,57.834435,60.713882,-0.462456,37.026215,58.24276,61.085472,10.923214,38.611164,54.792309,59.388027,-31.864756,-55.676827,-70.439158,-82.372178,-84.706653,-106.285797,-95.330996,-82.748516,-76.009508,-101.667978,-88.863289,-74.669802,-62.475269,-87.599227,-77.378886,-63.749088,-47.594161,-69.569342,-67.750638,-59.723763,172.841692,150.379744,-186.028433,39.464889
68,2.726898,-37.301016,3.255787,-1.556728,-26.466408,-49.436874,-70.839386,-78.388252,-24.874992,-58.714256,-64.797363,-58.403206,-16.54232,-59.226723,-63.854485,-55.319023,-13.644905,-54.935188,-57.428741,-49.052582,-14.53434,-46.857948,-50.414314,-45.70118,-22.584256,-43.358669,-47.348425,-39.605788,-72.613483,-73.705755,-53.005658,-44.552089,-60.750827,-53.646905,-37.1978,-31.396132,-44.016589,-35.525259,-21.97725,-16.455929,-24.274982,-18.840946,-9.891613,-4.988692,28.233891,40.746975,56.271343,66.903648,-2.591743,29.174881,50.101204,56.258354,-7.338924,32.034817,54.032879,58.297691,-3.801613,32.50843,53.853149,58.504257,6.454926,33.696785,50.71867,56.86821,-30.563181,-54.246872,-70.265022,-82.128079,-83.725222,-102.758861,-94.784845,-84.592723,-75.951339,-98.489869,-87.354479,-74.618827,-63.483499,-86.25668,-78.295879,-66.644287,-48.826143,-68.725955,-69.427316,-64.632242,176.67449,114.220046,-181.666746,39.049479
69,2.045631,-10.736544,6.977234,2.103034,-31.012115,-52.428246,-71.733856,-89.955482,-22.09156,-51.521873,-66.042938,-72.424393,-14.611015,-51.793671,-66.107025,-72.996368,-12.911224,-48.781242,-61.76548,-68.287354,-16.729546,-42.458496,-53.632393,-61.381989,-28.690909,-50.927356,-62.694977,-71.017605,-68.113236,-75.824412,-73.214561,-69.82153,-59.646421,-65.43191,-62.899958,-61.651766,-46.418958,-53.997061,-54.251504,-53.54616,-30.719471,-39.057815,-43.515484,-45.839307,28.087749,39.885178,53.199749,60.651455,-0.010586,32.004662,49.672451,53.998375,-4.577408,32.146111,52.308769,54.986401,-1.79718,31.240654,52.079773,56.247768,6.709328,31.236935,50.24025,59.50264,-28.852355,-53.531587,-68.877027,-79.219449,-85.315388,-101.829177,-92.638277,-82.577622,-77.423624,-98.075246,-86.637279,-74.719913,-64.728356,-86.555398,-80.079509,-69.705995,-49.492708,-67.108279,-70.682084,-68.624807,180.486546,103.776214,-172.923088,41.445225
70,-10.515747,-23.678381,4.184017,1.731543,-30.785866,-54.027328,-76.960258,-91.387253,-20.136681,-64.035759,-71.901054,-62.89959,-13.934555,-68.98716,-72.873116,-59.658165,-15.330048,-66.824226,-72.086678,-61.891823,-21.74057,-56.644592,-71.748505,-75.554695,-24.361001,-49.560201,-61.418195,-64.098255,-87.469273,-100.39666,-77.644351,-66.520045,-75.76862,-86.777792,-65.799726,-57.45601,-58.516821,-73.465978,-55.611927,-47.28016,-37.407041,-53.38249,-52.323193,-51.830177,27.197571,42.721539,55.44199,66.03241,12.929707,41.752396,62.937984,74.565983,9.571495,41.596127,66.058788,76.625347,12.502728,43.094616,66.765347,77.468319,19.682865,41.489124,58.488007,67.940197,-24.57654,-48.478643,-61.440641,-71.678705,-80.280259,-99.777057,-96.47094,-86.955263,-73.311664,-97.260326,-91.386905,-80.853859,-60.919159,-84.387372,-82.654007,-74.874937,-45.823931,-64.004642,-69.802233,-69.02884,170.003386,80.026187,-168.706484,43.105122
71,-0.220413,-5.310258,0.610828,5.267588,-33.183403,-57.573624,-79.19632,-98.530998,-39.698639,-74.442673,-97.495193,-109.936295,-35.293808,-75.937042,-101.724815,-114.436684,-35.718269,-73.37986,-99.129753,-112.943001,-39.724617,-70.019989,-91.285286,-105.632858,-22.242437,-43.079465,-51.966275,-56.257342,-79.508225,-98.072344,-92.098856,-80.654837,-71.08834,-94.258361,-87.49172,-75.215336,-55.145835,-77.673589,-73.95853,-65.775921,-35.244449,-50.341684,-53.944759,-54.47893,19.54073,37.316723,50.9618,63.355808,36.292477,57.750378,75.548115,89.776325,35.955906,59.850426,81.608677,99.268913,37.401409,60.730019,81.828861,98.288898,40.126362,58.075619,72.467136,84.747219,-23.818091,-46.407812,-60.210727,-68.209165,-68.736329,-91.468014,-99.988089,-104.235467,-63.204325,-90.008265,-99.055071,-104.446468,-53.344236,-78.07929,-87.311501,-93.89462,-40.129678,-56.383622,-64.75352,-71.533283,169.69368,72.443082,-168.184948,46.099863
72,-22.689857,-15.732863,-2.963619,-3.346286,-30.434647,-53.860931,-71.680756,-89.602318,-48.214874,-75.708733,-94.662781,-109.140244,-43.24791,-73.902512,-95.811424,-111.585846,-39.703789,-70.904846,-91.436005,-106.112709,-39.152069,-66.936722,-84.3964,-97.912445,-17.351094,-33.737924,-42.119647,-45.958701,-60.825514,-83.332582,-94.794416,-102.95356,-56.25021,-81.262647,-93.26245,-100.703622,-42.733323,-58.587957,-67.418976,-74.387912,-22.46375,-22.622819,-24.81113,-28.613319,33.321362,61.278248,82.200737,102.060585,58.969517,83.496952,102.367516,119.102669,54.44149,82.847042,104.529076,123.07972,50.503922,78.223743,100.964642,118.875217,46.299076,68.837128,85.825939,100.316505,-13.484129,-26.678833,-31.707077,-33.799613,-53.052002,-71.901809,-84.575495,-94.313442,-46.867204,-65.154342,-77.457031,-87.629886,-35.726596,-49.059004,-57.945259,-66.240686,-21.386699,-29.89535,-37.533907,-44.973998,146.958132,54.345704,-171.194258,40.389061
73,-5.967979,3.147542,41.607571,-1.990031,-32.422943,-57.643433,-77.282982,-95.955048,-48.955078,-74.328575,-93.527527,-109.416618,-43.62442,-74.555855,-96.731873,-115.852776,-40.417213,-71.856766,-93.040924,-110.202942,-39.427414,-66.468658,-86.740723,-105.548401,-15.312003,-31.321106,-38.377387,-42.369891,-59.603474,-81.981576,-94.247616,-103.490788,-55.019277,-79.31578,-91.207026,-100.531678,-41.817657,-58.21622,-68.61644,-78.011271,-21.943904,-23.781998,-24.627639,-26.919413,29.807854,55.611706,73.663616,86.583996,59.654503,90.268135,106.136055,112.514706,57.807827,91.925125,109.631653,116.817055,54.686279,89.894371,106.703339,113.788948,51.083164,78.256016,91.415863,98.286896,-32.982037,-59.491397,-75.664077,-85.05758,-58.69778,-77.630673,-88.63154,-96.710747,-46.135215,-66.738734,-76.659215,-82.801961,-29.364791,-42.927775,-52.018207,-59.834142,-8.68572,-13.158581,-19.45879,-27.305847,140.950069,56.960201,-129.62677,37.865986
74,-5.672607,-2.856883,-10.613937,3.608818,-28.955956,-54.051018,-73.889809,-93.510933,-47.768784,-71.872902,-91.489449,-108.710632,-43.091125,-72.010574,-94.434128,-114.217873,-40.867081,-71.848412,-93.081551,-109.998665,-40.504646,-67.368965,-86.858025,-104.681854,-15.693188,-30.960607,-37.307067,-40.630783,-59.272584,-81.733494,-93.441495,-101.452561,-54.885464,-79.912906,-92.334063,-101.447899,-41.711415,-57.345415,-67.806182,-76.243481,-22.103313,-22.868987,-23.146741,-24.319937,31.774349,59.05592,77.832985,91.874199,51.777477,75.227909,93.561172,106.426449,46.974621,74.589386,95.591297,111.161957,43.541794,72.8088,92.425575,105.595493,41.366272,62.738914,77.330246,88.506374,-20.482025,-38.252836,-43.768322,-48.796874,-59.929022,-79.121513,-88.24455,-95.771122,-51.364487,-69.674472,-75.366748,-79.912968,-35.995705,-47.465133,-50.257549,-53.021683,-15.354518,-22.153856,-26.202398,-31.221904,135.210314,54.225692,-140.307856,41.597177
75,-3.925667,-1.912102,-7.576103,1.708078,-36.232338,-61.430511,-81.982613,-102.176971,-45.449867,-66.672363,-88.920593,-108.031082,-38.035126,-64.806862,-90.200272,-111.693649,-33.370514,-62.017365,-85.179176,-102.953682,-32.740631,-58.057137,-77.144508,-92.464828,-8.702733,-23.777274,-30.07066,-34.964102,-62.339171,-85.472944,-93.036289,-93.535634,-59.218491,-83.436601,-90.574671,-91.913018,-47.403754,-65.855394,-73.891716,-77.182612,-29.054464,-34.50789,-35.818079,-34.618269,27.971764,53.765888,73.472614,91.972675,41.662731,64.835415,85.858784,100.739422,37.194271,67.550526,91.165352,109.569111,35.786419,67.728252,91.378212,108.389854,36.378307,60.404034,76.613617,89.595909,-21.198114,-37.68498,-43.490321,-47.373558,-65.651927,-86.166648,-92.619443,-94.184569,-57.547401,-75.336552,-77.407167,-76.26602,-43.659147,-56.72186,-58.27726,-57.348534,-25.418353,-32.846403,-36.786666,-38.944781,131.215124,52.891976,-147.953482,43.88364
76,-1.359444,0.879357,0.703239,-3.724476,-34.751015,-56.795769,-75.001259,-95.852165,-35.587807,-57.030144,-79.758339,-96.828346,-28.687592,-54.797058,-81.86554,-98.411751,-25.276108,-51.772842,-77.131233,-92.907829,-27.558289,-50.540886,-69.956589,-83.692131,-13.630354,-31.255465,-40.076604,-46.048826,-67.959231,-93.961032,-95.76362,-89.757126,-65.345058,-94.153725,-93.647155,-84.431554,-55.005816,-80.511391,-80.842343,-73.225121,-38.601418,-52.804074,-55.49102,-53.718073,35.600567,57.907505,76.816578,94.168739,32.088375,52.827244,73.930378,84.84684,25.378819,53.623466,79.547997,95.047531,22.798119,51.869946,77.225132,92.540359,25.44651,49.546738,67.88744,80.072021,-20.860246,-37.424239,-44.905579,-49.410241,-71.53424,-91.696892,-87.376462,-76.238232,-62.993633,-84.759758,-79.350267,-69.64372,-48.570034,-67.066381,-65.349442,-59.775634,-29.510954,-43.026329,-47.165829,-48.445298,129.700699,53.881202,-147.405224,40.269034
77,2.926483,-5.34845,-3.932304,-1.171498,-35.018349,-54.586945,-70.941353,-85.600204,-27.950363,-45.06134,-65.259819,-77.377167,-21.278229,-46.933479,-71.644363,-83.566818,-19.63932,-47.352676,-70.641289,-82.395401,-24.669342,-49.957466,-68.159523,-79.27803,-16.870429,-35.46604,-45.655815,-52.872833,-73.272267,-98.18791,-94.961451,-84.338497,-70.413099,-97.35008,-91.113567,-78.909061,-59.194624,-81.673472,-76.572518,-66.750991,-42.71313,-56.724145,-56.34932,-52.740718,31.028137,48.812084,65.237617,80.133705,22.42115,39.590206,58.761063,69.582481,16.850967,40.588589,63.366451,75.492325,15.133495,41.260643,64.119186,77.498302,19.213028,39.950809,55.588074,66.616974,-20.817855,-39.141209,-48.818147,-58.162188,-71.245155,-92.423293,-91.243891,-81.528976,-66.311267,-91.709952,-89.564156,-80.189301,-55.423094,-77.231611,-77.309632,-71.954853,-38.802261,-52.753377,-58.500395,-62.197145,132.4195,49.252314,-151.54521,39.817098
78,3.35186,-1.954771,2.809925,-3.249245,-31.58329,-49.401512,-67.541656,-79.523163,-17.107544,-43.339119,-60.826149,-64.490204,-9.065666,-44.060326,-63.109474,-64.944534,-6.939926,-41.704102,-60.707817,-63.552361,-12.428513,-41.154213,-59.940948,-68.982811,-19.363509,-41.320875,-55.391015,-66.001434,-78.242064,-98.852437,-88.355083,-75.847722,-75.467031,-96.8629,-82.988787,-69.852437,-63.687368,-84.391355,-73.699333,-61.99269,-46.631441,-63.36713,-62.445382,-57.302499,28.517303,40.229073,51.689301,58.84798,6.495609,30.12228,50.396862,58.365955,-0.115986,32.300835,53.439217,60.141106,-0.472927,31.153393,53.284836,63.155079,7.781754,34.001942,51.749268,62.308273,-21.613293,-42.153641,-55.554005,-64.604887,-72.628581,-94.282968,-87.990107,-76.370563,-66.918767,-89.933084,-82.333708,-70.454781,-54.919334,-76.301619,-72.029077,-61.797188,-39.409669,-53.378044,-55.376689,-52.246437,135.662613,48.234204,-148.844032,37.504514
79,7.116394,-0.313785,-1.721878,3.417978,-33.003044,-51.260605,-69.620819,-78.494225,-16.722908,-50.499229,-63.105354,-58.948059,-8.723602,-49.58828,-61.881294,-55.424652,-7.392426,-46.56395,-60.323524,-57.271042,-14.787941,-44.788513,-61.435776,-66.466942,-17.342418,-43.171627,-58.796334,-70.09385,-81.460773,-96.012288,-78.893561,-66.534927,-77.079056,-93.950813,-76.114175,-64.537424,-65.822111,-85.198742,-71.802051,-60.342719,-49.684752,-65.544975,-63.301551,-58.211836,27.541866,39.314175,49.928513,56.051102,2.188282,31.594677,51.278572,58.335571,-4.330902,32.357197,53.788033,60.036678,-3.281422,30.780487,55.034466,65.641422,4.792099,33.241997,52.749596,63.699875,-20.86426,-42.459892,-54.9855,-61.095919,-74.967594,-94.366547,-87.292791,-76.754527,-68.573277,-93.483825,-84.663057,-72.473093,-56.492488,-79.551234,-76.936938,-68.57587,-40.857098,-56.054122,-58.297514,-55.645797,142.678013,48.401208,-150.666904,41.403281
80,2.080536,0.699107,-2.267246,2.879545,-32.087517,-52.938766,-73.203964,-96.589508,-25.706177,-55.481529,-75.909691,-84.421692,-19.356079,-52.44873,-75.304184,-83.349953,-18.246231,-48.048248,-71.367645,-81.764259,-23.035927,-46.245117,-62.68261,-71.364098,-12.542589,-34.327394,-45.676471,-53.623409,-73.705353,-92.652819,-86.371073,-75.116443,-71.494195,-95.229911,-86.790513,-74.138749,-61.069058,-86.223243,-81.069615,-71.861424,-45.527776,-61.451818,-63.479825,-62.869978,27.219715,46.913223,62.787495,78.959885,20.936966,46.568584,66.709614,80.937881,14.635735,42.467766,65.124664,80.458202,14.034119,38.563843,60.97229,75.867863,17.676201,36.009865,52.633324,64.541759,-16.707438,-40.755889,-57.761181,-70.89253,-68.533756,-91.25022,-94.132791,-91.037428,-65.693454,-91.098407,-93.038049,-90.202007,-58.202202,-83.093547,-86.680968,-84.330654,-48.981446,-68.31093,-74.783701,-75.13997,144.175758,49.10771,-153.516941,44.290221
81,-0.449409,3.660472,-0.235462,2.721433,-31.204491,-56.559677,-78.561401,-100.684319,-42.040672,-62.907944,-80.058517,-94.098473,-35.827217,-61.558342,-80.830193,-94.91066,-31.878548,-56.765213,-72.543182,-82.230492,-30.85556,-49.329529,-59.426994,-65.137367,-9.162217,-24.65024,-29.740419,-28.865631,-59.728333,-89.177413,-103.61645,-114.751285,-57.326149,-85.670237,-100.271801,-111.615043,-49.276921,-71.841016,-84.523069,-93.508618,-38.364327,-53.683462,-60.911193,-65.504127,30.996666,54.058743,73.770332,92.327499,45.319118,60.615349,75.3685,89.659653,40.013981,57.506733,74.437981,90.212688,36.388664,53.15237,67.094536,79.204617,34.250164,48.255672,57.736816,65.677185,-8.635208,-27.349504,-34.707931,-39.409267,-55.067782,-81.951751,-97.914819,-107.805197,-52.138466,-83.021515,-98.252995,-109.843084,-45.437559,-73.033602,-87.948704,-98.571133,-35.367456,-54.715651,-66.673278,-76.365993,141.809092,49.416354,-155.669661,43.659826
82,-2.519417,6.983663,8.84428,2.378348,-36.275024,-61.419182,-81.554489,-102.359047,-46.618423,-65.846443,-80.52166,-93.029366,-38.681488,-58.914986,-76.216049,-90.904198,-33.320618,-55.268326,-70.956116,-83.028603,-33.20652,-52.337837,-66.795044,-77.622757,-9.991927,-24.353838,-27.943636,-28.720487,-59.702954,-80.535134,-97.44039,-112.438608,-56.045755,-82.641379,-99.907504,-114.832332,-45.305475,-66.617456,-82.438097,-95.463914,-28.738703,-37.573891,-45.298466,-51.161204,34.109974,60.024433,79.029064,96.778221,46.275902,66.145878,79.201012,89.488163,40.330639,58.132153,74.417782,89.844475,35.857201,55.652847,70.274677,80.136166,33.161087,54.335117,69.487438,80.660019,-12.789684,-27.681536,-30.941402,-32.230751,-54.980745,-78.089849,-95.541102,-108.584364,-47.772496,-74.709817,-92.342616,-107.324316,-34.598756,-54.542564,-66.222778,-74.570569,-17.150899,-24.753795,-31.24682,-37.302467,137.257776,54.575956,-148.857279,44.214113
83,-3.202858,2.072251,4.461937,2.229066,-33.036346,-58.8097,-78.834,-98.863678,-41.845207,-61.668663,-76.852341,-91.026649,-33.781242,-55.681229,-73.205223,-88.618927,-28.342438,-50.644684,-66.298027,-79.457703,-29.006424,-49.94442,-64.888115,-76.790085,-8.947079,-23.094067,-26.370513,-28.512759,-59.070722,-82.933767,-101.148225,-116.294273,-54.295841,-82.680622,-100.964548,-117.153221,-42.517289,-64.663704,-80.73465,-93.823422,-23.96234,-31.900788,-36.575973,-39.17017,34.875927,62.720375,83.305149,101.63372,45.253429,65.268803,80.054913,91.299076,38.789921,57.513142,75.403347,91.238136,33.767509,55.075378,71.065292,80.715008,30.58136,51.951256,66.684666,75.928516,-15.344916,-30.208672,-32.910314,-33.696397,-55.542334,-79.767608,-97.218922,-110.997354,-47.006482,-75.232688,-92.663317,-107.16926,-31.36393,-50.969778,-61.428353,-69.635538,-11.811989,-20.162281,-25.002495,-29.750916,132.094088,56.268843,-146.356173,46.063816
84,0.866318,1.1049,0.518417,0.640012,-32.611084,-56.784325,-77.2649,-98.228073,-41.996956,-61.792259,-76.817436,-90.466461,-33.02845,-55.475578,-72.706833,-87.487564,-26.990547,-49.815674,-65.797462,-79.271851,-27.491112,-48.182487,-62.911148,-74.266663,-9.014572,-23.215654,-26.485338,-28.753925,-59.192988,-82.524022,-100.471965,-115.299844,-54.626792,-83.032506,-100.985234,-116.472917,-43.146495,-65.417337,-81.267247,-94.111426,-24.815515,-33.34797,-37.795636,-39.884776,36.087055,63.070221,84.184513,103.292542,47.476501,67.879086,82.584915,94.572029,40.027771,59.727058,77.184048,92.991829,33.741646,55.688038,71.242905,82.079315,29.411774,50.207405,63.60815,72.339764,-14.009995,-28.378853,-31.160061,-31.220916,-55.486296,-79.984413,-97.431344,-112.262187,-47.534788,-75.709556,-95.133673,-112.049179,-32.564666,-53.158058,-67.027571,-78.178492,-13.347321,-24.489071,-33.067716,-40.726373,131.175499,57.124503,-147.622662,46.454588
85,3.010368,-0.320392,-2.338657,-2.144746,-34.344063,-58.336372,-78.230438,-97.928467,-39.09565,-60.195122,-76.442757,-90.588112,-30.004807,-54.949379,-74.165268,-90.753708,-24.803009,-50.702248,-67.272148,-80.759926,-27.083931,-50.746994,-66.631622,-78.865013,-8.508682,-22.55264,-26.283569,-28.552804,-59.199008,-82.463198,-100.356862,-114.022475,-54.541051,-84.155931,-102.59692,-117.576736,-42.815667,-66.058646,-82.788716,-95.745064,-24.493857,-32.804196,-36.665851,-38.405453,33.752861,64.032612,87.309036,107.079792,47.873726,66.836014,80.03191,91.185036,41.416855,60.925026,77.857647,94.695225,36.874466,59.842472,76.425991,89.044189,33.619423,54.495678,68.396244,79.163361,-16.847025,-31.549891,-34.62185,-35.819284,-55.13154,-81.081595,-99.313589,-115.011686,-46.2137,-72.629322,-91.258618,-108.441905,-30.418037,-48.097149,-58.926442,-68.254984,-10.781344,-19.472807,-25.981455,-32.89358,132.248468,56.763372,-151.898718,44.269102
86,0.717545,0.441145,2.857761,1.416894,-33.159142,-56.576614,-76.199913,-96.296196,-37.644882,-58.09227,-75.113411,-90.573578,-29.178658,-54.16317,-73.238754,-90.761604,-24.814911,-50.754318,-67.141914,-81.296654,-27.371063,-52.122688,-69.427071,-84.156189,-8.528133,-22.479342,-27.693732,-31.204336,-58.788584,-81.145722,-98.595277,-111.09566,-53.903231,-82.464032,-100.773986,-115.745466,-41.300435,-62.957046,-79.487014,-92.712871,-22.491106,-30.163594,-35.114187,-38.229371,34.468517,63.863869,85.913086,105.691223,46.540947,66.640949,79.863224,91.067848,38.690472,59.252758,76.763191,93.79509,33.346024,56.923542,73.342838,85.347061,30.218582,52.058201,67.189178,78.706913,-16.812291,-32.052354,-34.87864,-36.433577,-55.635207,-81.976821,-101.181168,-117.228557,-47.181329,-74.841098,-93.47305,-110.221583,-31.716308,-51.426916,-63.864808,-74.233258,-12.335942,-22.237744,-29.137395,-35.93945,130.297279,57.254087,-151.70969,45.735566
87,-0.88131,3.292038,0.746613,0.6724,-22.21138,-41.440086,-58.506889,-75.22007,-30.916443,-55.595627,-72.156372,-86.352081,-26.510696,-56.361351,-75.364037,-92.698288,-25.416756,-55.554771,-73.274117,-88.307877,-28.358574,-55.397186,-73.101768,-88.973236,-23.077951,-42.261334,-52.169743,-59.834451,-59.65803,-81.41199,-95.76257,-108.014747,-52.009223,-75.26131,-89.904895,-102.519948,-37.734843,-55.330901,-69.09479,-81.767981,-18.609907,-23.377841,-27.089998,-31.886122,34.469376,62.585335,84.073792,104.124126,47.574234,68.680973,84.96769,98.512859,40.943527,60.07616,77.237549,93.813457,35.453911,56.972637,73.731308,86.449757,31.360645,50.901604,64.687786,74.771233,-16.169345,-31.791644,-35.629617,-37.873102,-56.021826,-80.972852,-98.267012,-112.503477,-47.047762,-73.448317,-90.472072,-106.460952,-30.972185,-49.976862,-60.753513,-70.473275,-11.125325,-20.051779,-25.368737,-30.764271,126.236115,60.475081,-154.142933,46.336923
88,-1.870079,8.935686,3.91674,4.531214,-25.643692,-49.274483,-72.369347,-91.324196,-33.293953,-63.025818,-82.290802,-97.125664,-31.708145,-64.795647,-86.311913,-102.184982,-32.113838,-62.073441,-82.736664,-98.477669,-33.997421,-56.709595,-73.498306,-87.524414,-17.529923,-33.063764,-37.650369,-43.770267,-55.525415,-76.094045,-84.995089,-91.250838,-48.916762,-68.032189,-76.976304,-83.698639,-36.189508,-52.438018,-61.517798,-69.055146,-19.688532,-28.395526,-33.792759,-39.55648,36.673737,62.772102,83.468399,104.549503,46.06493,67.847672,84.64119,98.72366,39.536762,58.22628,75.970631,92.762718,35.458317,55.547276,71.090984,82.73798,33.834,53.384743,67.442322,78.445187,-15.987398,-32.250542,-37.123113,-40.763516,-59.501832,-81.373798,-96.620715,-108.355918,-52.013051,-78.518366,-95.225341,-109.18643,-37.567963,-58.488199,-72.33363,-82.772321,-18.596229,-30.273232,-38.750421,-46.642649,122.71019,69.517116,-151.882038,50.974487
89,-8.876495,12.051735,4.735966,1.896386,-18.71109,-42.467766,-63.173103,-79.783859,-40.225296,-72.44957,-95.147324,-109.454041,-38.767319,-74.578285,-98.203697,-113.957748,-37.922516,-70.341339,-93.41526,-109.688416,-37.326393,-59.29287,-76.748886,-91.41037,-22.764042,-39.402845,-43.297289,-44.330497,-56.102997,-67.474305,-69.406506,-69.385109,-45.165332,-55.808849,-57.756488,-59.25798,-30.02657,-39.061427,-42.331019,-44.441339,-13.484499,-16.369108,-17.512015,-20.133351,40.621376,64.308643,83.176174,103.459854,41.566658,60.775909,76.928558,92.546539,33.553677,52.968636,72.533913,91.64938,27.978802,48.18306,67.058659,83.72303,25.866623,42.293072,56.88549,69.478111,-19.389228,-35.569102,-42.989525,-53.738667,-64.898788,-86.377279,-100.013098,-111.529549,-59.584979,-82.251919,-95.20555,-106.534806,-47.658659,-65.166229,-76.908749,-86.688192,-29.827734,-40.193745,-49.008091,-56.815937,112.393913,81.368225,-148.585854,52.670245
90,-13.638725,35.906197,8.359051,2.581105,-29.223404,-59.711266,-87.726288,-107.865715,-56.449471,-102.556801,-116.501026,-113.008919,-51.977806,-100.091515,-111.545792,-107.343121,-47.61692,-91.256905,-94.224014,-85.113029,-43.012276,-76.780472,-78.530731,-71.056595,-32.756185,-48.45595,-45.941195,-38.746871,-57.144325,-63.042169,-45.707933,-34.874965,-40.007907,-42.126594,-28.079333,-21.468025,-19.978111,-19.679239,-12.891448,-11.1181,1.791688,3.641422,6.192146,6.262295,35.791969,53.511429,69.389935,84.180222,26.710052,38.36689,50.261192,60.732136,14.405308,39.822636,64.442139,80.310974,6.449432,36.21769,57.271957,69.24305,4.151402,30.304756,45.441113,53.668041,-22.107111,-42.84821,-57.258378,-71.888286,-78.356178,-101.451203,-118.691115,-131.866183,-72.264686,-88.228186,-86.400343,-77.159949,-59.471359,-68.530947,-64.918486,-57.157879,-40.70936,-46.092669,-45.548895,-42.732767,96.999464,117.847589,-141.982527,55.824518
91,-4.866314,42.445041,2.243328,-0.442967,-31.759873,-65.206948,-92.324581,-113.048373,-70.814438,-117.817097,-132.081785,-131.39617,-66.810837,-116.433335,-127.650261,-124.991513,-61.058407,-107.325754,-112.807188,-106.561375,-53.840847,-89.683457,-94.413328,-89.593849,-29.815291,-41.171763,-37.957392,-30.031556,-46.500654,-44.727923,-28.473501,-18.37859,-28.813669,-22.281015,-8.3862,-2.614821,-8.737004,-1.544903,6.450386,8.13855,12.065753,19.922751,24.576973,24.463939,24.090328,38.712845,50.016518,54.859142,13.463402,18.21888,24.220676,29.634933,0.185394,25.874805,48.106499,62.981358,-8.216057,20.568752,42.887306,57.195969,-11.26545,14.114685,32.985649,45.35574,-23.7087,-44.802517,-58.931197,-70.903089,-80.566504,-107.390172,-128.448329,-146.681496,-75.150684,-92.37769,-91.127615,-83.560905,-64.496515,-79.006781,-76.968276,-68.767883,-50.06992,-61.725557,-61.499798,-56.54689,91.019297,162.137872,-140.853052,57.226793
92,-4.866314,42.445041,-0.437565,-4.221196,-34.296341,-70.702629,-96.922874,-118.23103,-85.179405,-133.077393,-147.662544,-149.783421,-81.643867,-132.775154,-143.75473,-142.639904,-74.499893,-123.394604,-131.390362,-128.00972,-64.669418,-102.586441,-110.295925,-108.131104,-26.874397,-33.887576,-29.973588,-21.316242,-35.856982,-26.413677,-11.239069,-1.882214,-17.61943,-2.435436,11.306933,16.238382,2.504103,16.589433,25.792221,27.3952,22.339817,36.204081,42.961799,42.665583,23.824139,35.812168,44.759846,47.575035,1.510735,6.962986,8.767891,9.087353,-10.345116,13.969402,34.08268,44.503727,-17.146397,7.920799,28.651543,40.92247,-18.169212,2.051411,21.212482,35.025845,-25.966727,-53.71023,-73.84812,-89.862534,-79.054483,-110.007464,-134.205721,-156.071233,-73.213048,-94.95259,-86.509363,-73.67948,-62.37088,-80.856854,-75.36292,-63.859775,-48.20407,-64.566169,-65.868238,-60.644524,85.396957,204.526689,-142.046642,52.949373
93,3.814774,24.545604,6.714878,-4.855064,-37.228203,-75.250511,-104.464931,-123.92704,-93.102837,-134.423847,-156.223526,-170.571327,-88.036079,-132.745743,-155.058517,-166.984978,-79.081993,-121.342735,-142.097282,-154.263096,-67.992439,-100.751724,-119.30912,-134.017696,-22.882356,-29.008244,-27.730319,-23.585199,-18.50629,-4.94732,10.017708,21.744111,-1.288608,15.654223,31.859446,43.242208,17.187363,31.149872,46.15973,57.374963,34.480627,48.380028,60.567027,69.04857,23.235912,34.62307,41.343384,37.193241,-0.292912,1.371002,1.102467,0.152321,-13.02784,9.039974,28.675404,38.655796,-20.855026,0.564251,20.506325,33.013,-23.772411,-6.164246,12.647781,27.410431,-26.712456,-53.237809,-73.441803,-88.748989,-80.100288,-111.734314,-135.696808,-156.737921,-73.991721,-94.352561,-83.089872,-68.394201,-62.810111,-79.3934,-70.555094,-58.071261,-48.390865,-61.849367,-62.105539,-57.275082,89.762392,228.745046,-134.781103,47.767062
94,-28.426094,51.953462,7.220879,1.447244,-41.060829,-79.840965,-106.284885,-122.35651,-95.79174,-144.283504,-148.701096,-143.243637,-86.638927,-136.280823,-139.354534,-134.224091,-75.317402,-121.626148,-126.691589,-122.387867,-62.996178,-98.743572,-106.676331,-105.361061,-18.978619,-17.708413,-8.27721,4.34056,-4.853521,24.195787,39.771464,45.668196,15.300147,45.479611,56.317672,56.978464,34.655257,60.718254,67.148818,64.771674,50.621876,72.89068,77.175603,74.025221,25.941582,38.084621,45.26825,42.76577,7.18626,7.087898,8.066883,7.611694,-7.070503,14.731007,30.796051,38.305893,-16.037693,6.892262,23.906593,33.064899,-20.422955,-0.381775,18.193188,30.919876,-25.540958,-49.094727,-66.681182,-78.33296,-81.342336,-114.586349,-137.812038,-157.859371,-75.627459,-93.310646,-82.50454,-68.730833,-64.506148,-78.786949,-69.213876,-57.59853,-49.930426,-61.653032,-58.939101,-53.043604,61.42642,280.015811,-127.470102,48.531609
95,0.582275,24.359611,6.825428,3.058004,-44.24881,-79.838505,-105.92205,-122.909489,-102.065506,-139.863682,-151.103039,-154.788666,-96.524906,-139.513893,-153.214073,-157.732544,-85.93586,-125.769768,-138.954277,-143.97789,-70.954514,-99.748478,-110.43314,-116.187515,-16.662361,-13.439607,-3.952026,5.818988,8.425103,24.911783,39.489697,49.462204,28.397224,50.22797,63.086876,69.662122,46.166646,68.248346,79.163287,83.937767,60.548255,79.614189,89.180501,92.536697,31.079693,44.155426,50.694294,50.685825,15.612946,18.530045,21.143131,21.790581,0.793762,29.893456,46.204548,52.483635,-8.53878,21.246014,38.774529,46.630898,-12.845764,12.693729,31.509819,43.202705,-25.168449,-47.494557,-64.742683,-77.533817,-84.387218,-117.317632,-140.113105,-160.552738,-79.977837,-93.877021,-81.437246,-66.786529,-69.186798,-80.648971,-68.967738,-56.489339,-54.813371,-64.031133,-59.241091,-52.302074,62.107401,304.349672,-120.545969,51.563863
96,0.127602,30.197927,8.732414,2.002658,-47.777138,-81.599064,-107.81599,-127.165947,-103.904858,-137.591057,-151.026077,-157.01746,-96.369038,-136.278877,-151.05114,-157.988892,-84.599648,-119.977741,-134.950104,-144.433823,-69.82172,-95.287056,-107.363892,-116.757088,-14.082367,-11.089571,-1.879744,6.551472,15.483237,34.294388,48.315498,58.84734,34.295191,57.267209,70.978455,80.709764,50.830222,73.334913,85.533274,92.982288,63.308869,82.312682,92.633954,98.502219,33.478718,45.484142,51.947079,56.059341,19.993343,24.080601,27.01395,28.36298,4.645786,39.427986,57.536316,64.115009,-5.057602,29.484673,48.078175,56.069069,-9.548607,17.9916,38.2057,50.867386,-26.982182,-50.273295,-67.905755,-81.391273,-87.723592,-118.925458,-141.335763,-162.166863,-82.698622,-92.807195,-80.424014,-65.836653,-70.398742,-79.954063,-68.737595,-56.010032,-53.442728,-61.224206,-58.567487,-53.024214,62.642527,334.467371,-111.406031,53.486293
97,0.535583,22.850122,4.113007,0.118777,-48.774605,-83.991508,-110.889301,-128.782654,-99.235096,-133.568115,-147.265434,-154.519215,-90.072842,-129.719009,-146.399002,-154.886742,-77.4119,-112.776489,-131.277351,-143.197002,-62.781715,-87.762623,-101.764297,-114.178219,-12.364161,-7.820937,2.488603,11.516081,22.72267,43.512984,54.717843,62.92404,41.901792,65.164345,77.582971,85.81041,56.982477,79.731823,90.738464,96.917642,67.395573,87.356826,97.344708,102.922623,31.996651,46.004505,53.474865,55.792809,19.657402,24.748764,27.698536,28.947086,3.721218,40.723801,55.531998,58.287621,-5.989151,29.465046,44.355698,48.784561,-10.263634,17.250366,36.956406,48.680134,-26.345906,-51.377362,-69.95451,-82.143115,-87.19822,-119.416713,-142.531622,-163.781451,-82.750708,-91.961647,-77.603163,-62.852595,-71.456558,-79.603228,-66.55376,-53.374154,-55.58735,-63.590111,-61.49177,-56.295905,62.493238,357.14612,-107.977896,53.433697
98,-1.323967,21.078565,-4.556923,0.594626,-45.563507,-78.815861,-105.249252,-124.815674,-91.631699,-126.998291,-141.186333,-149.757156,-82.696896,-121.266289,-139.069176,-149.048996,-71.404209,-105.375881,-124.096355,-136.122494,-58.237038,-82.449245,-95.709229,-107.068062,-13.017296,-8.75028,3.832231,13.755645,23.040993,44.270538,55.925804,64.285081,43.236218,68.298302,79.697613,87.293099,57.943561,82.164666,92.18929,98.042179,67.752367,89.315672,98.472888,103.820597,27.148361,41.509552,50.068874,51.665211,16.408768,18.599567,21.052151,22.166805,2.447262,31.583576,47.651768,53.696308,-6.710987,21.549225,38.333244,46.521664,-11.890812,10.960865,30.763607,44.126015,-25.169931,-49.463099,-66.466538,-78.905448,-85.453771,-120.823419,-143.367383,-162.76189,-80.573234,-94.71905,-84.557247,-72.360368,-71.084049,-83.413846,-74.483934,-61.898891,-57.600692,-69.749097,-69.164074,-62.373721,60.536585,378.195246,-113.167505,53.998883
99,-0.774078,15.634772,-8.661289,-2.290261,-41.227684,-74.628296,-102.43309,-124.118843,-82.43082,-119.021473,-134.405079,-144.435654,-72.8302,-113.584671,-133.239098,-146.475677,-61.879005,-97.748108,-117.276936,-131.466808,-49.86557,-74.928417,-88.271084,-99.819603,-11.94148,-8.000322,5.231557,14.899325,23.604157,44.018102,54.329865,61.149086,42.846758,67.5983,78.823351,86.988423,57.411581,81.695857,91.865594,98.579778,67.178644,88.853409,97.609185,103.425395,25.699997,40.452518,49.671364,48.127327,13.396339,14.657307,16.158886,15.774307,-1.192188,26.726418,41.94706,47.008839,-10.273933,18.377209,34.849491,42.251587,-14.639454,7.660618,26.966629,39.717636,-27.362009,-51.819217,-69.938208,-79.325475,-85.735569,-121.563991,-144.29296,-163.162681,-80.029429,-94.458339,-84.168158,-72.269317,-69.797818,-81.904017,-74.477573,-63.197471,-56.171324,-69.521578,-70.281324,-64.802611,58.890266,393.891181,-122.701035,51.769786
100,-0.150146,8.129195,-2.905025,-0.485945,-38.06076,-71.317348,-99.119282,-121.594791,-78.185463,-114.326248,-131.578903,-143.385372,-68.116436,-108.023071,-128.176575,-142.42527,-56.535873,-91.222801,-110.919971,-125.250263,-44.150391,-68.847313,-83.019447,-95.319958,-11.150951,-7.336813,5.377164,13.22595,26.388915,45.721734,54.761686,60.113285,45.02945,68.351408,79.624316,88.149763,58.340431,82.172323,92.3491,99.441258,66.72237,88.158717,97.422328,103.908653,23.841419,37.717724,44.793606,40.144558,6.245556,5.715981,5.596676,3.844414,-7.550926,16.559315,32.220554,38.107853,-16.242714,8.445511,25.306435,33.875542,-20.695896,-1.795807,17.018623,30.740089,-29.245088,-55.53406,-75.318182,-85.353704,-85.570356,-122.155807,-144.749696,-163.505334,-78.991158,-94.890438,-83.559608,-71.546312,-68.376478,-82.795354,-74.679343,-63.24363,-54.46905,-69.240274,-70.574885,-65.529815,58.12583,403.029779,-126.22035,52.293244
101,-0.538216,6.895916,-1.300106,2.482922,-36.153831,-69.21627,-97.076511,-119.563923,-76.920033,-111.318512,-127.870674,-139.984818,-67.398663,-105.457706,-125.044441,-139.751701,-55.633278,-89.134197,-108.272839,-122.685184,-42.531853,-66.464882,-80.55748,-92.769585,-12.524774,-8.222685,4.742432,11.089818,27.719575,44.55743,52.20034,56.645011,46.706715,68.073778,77.382714,84.582318,59.522334,81.847825,90.313003,96.107044,66.946647,87.122113,95.623292,101.207134,24.576645,37.17247,43.697491,40.81398,5.52166,4.329643,3.661251,1.900463,-8.936176,14.181576,29.901638,36.829777,-18.33744,5.917168,23.226185,33.158684,-22.632408,-1.792431,18.109818,33.172417,-29.330211,-56.418017,-76.068233,-90.063192,-86.83556,-123.350338,-146.652258,-166.161158,-81.170515,-98.096241,-85.628216,-71.848179,-70.582265,-85.373835,-76.062953,-64.151731,-56.115378,-67.855984,-67.77966,-62.93886,56.898909,410.080102,-128.209162,54.930573
102,1.760101,3.594121,0.205879,2.506604,-35.360413,-68.781281,-97.07674,-119.201775,-75.988026,-110.738811,-127.974014,-140.592842,-66.657486,-104.168415,-124.181843,-139.215946,-55.013123,-87.800732,-106.958542,-120.820255,-42.305603,-65.796661,-79.825459,-91.519203,-12.840504,-8.794926,3.607089,9.592185,28.589267,44.93806,52.589059,56.896768,47.528736,67.73168,76.796826,83.375468,59.885117,81.324675,89.466343,94.159313,66.417261,86.327508,94.047792,98.343583,27.003593,38.854465,44.502697,41.667938,8.528938,6.466827,6.432323,5.474911,-6.263466,18.055515,34.441795,41.06369,-14.90181,11.118164,28.481827,37.671432,-17.858448,3.426018,22.382298,35.495338,-29.89427,-56.339841,-75.497999,-89.25951,-88.895955,-123.652421,-146.795457,-166.874715,-83.37201,-99.432026,-87.639735,-73.976808,-72.637905,-85.327491,-75.019124,-63.091106,-57.856802,-68.428812,-66.371936,-60.566873,58.595781,413.782178,-128.066511,57.545132
103,1.557884,1.604893,6.222725,3.127442,-35.197563,-69.065437,-97.099514,-119.73793,-76.342163,-110.663395,-128.240948,-141.490059,-66.680031,-103.406124,-123.437691,-138.989124,-54.747849,-87.159519,-106.563435,-121.101093,-41.799202,-64.455643,-78.443642,-90.586796,-13.124062,-9.841719,2.27081,8.333403,28.866527,44.543598,51.803409,55.816938,48.011378,66.359277,74.800497,80.90082,60.440439,80.181428,87.86355,92.164157,67.066196,86.287803,94.008271,98.380386,28.287392,40.436897,46.074429,42.9879,10.189819,9.685593,10.550594,9.854794,-5.344963,21.760826,36.872177,41.284046,-14.420242,13.256207,30.24456,38.024139,-17.752934,4.393787,23.693447,36.539383,-28.545517,-54.458738,-73.703408,-85.234155,-89.444453,-123.990505,-147.008341,-167.080344,-83.45525,-98.374273,-86.47043,-72.852735,-71.914437,-84.752317,-74.389548,-62.276711,-56.70565,-67.685645,-66.136081,-60.686205,60.165796,414.976493,-121.831656,60.261995
104,-0.149345,0.145052,4.150829,3.296175,-34.923134,-68.88382,-97.222824,-120.108719,-75.777855,-110.800896,-128.516693,-142.239933,-65.989838,-103.198071,-123.349571,-139.348068,-53.932228,-87.323627,-107.322464,-122.77977,-40.28595,-62.929459,-76.958141,-89.40731,-13.071883,-9.45794,1.782055,6.902461,29.466494,43.965058,51.148299,56.052146,48.409174,65.089751,72.912602,79.219048,60.636002,79.458578,87.004972,91.777785,67.026182,86.634408,95.300522,101.320879,29.277763,43.085632,50.445786,47.113724,12.249756,13.985653,15.67915,14.959316,-3.231869,26.446724,41.306477,44.289265,-11.919365,18.641682,35.116253,40.995827,-14.339504,10.509682,29.662228,40.894032,-28.888819,-54.844493,-74.91949,-87.566592,-89.814461,-123.446422,-146.233158,-166.261286,-84.227963,-98.900726,-85.83687,-72.386396,-72.871476,-84.99512,-73.273842,-61.112839,-57.762879,-68.126111,-65.54973,-59.41001,60.453243,414.219957,-117.244034,62.656584
105,0.256577,0.790714,-0.453587,0.04446,-34.531403,-68.220062,-96.672306,-119.663143,-74.587498,-110.053654,-128.204956,-142.586575,-65.333405,-103.209686,-123.679333,-140.694923,-53.978004,-87.475777,-107.669449,-123.688374,-41.072845,-63.385506,-77.445889,-90.099964,-13.531985,-10.516342,0.777191,6.391168,28.91463,42.997553,49.560634,53.919472,47.75746,63.359319,70.362618,76.271577,59.961688,78.215048,85.505734,90.339124,66.363662,85.919091,94.590331,100.943398,30.199413,43.406181,50.022583,49.311447,14.767685,15.933037,17.438507,17.746124,0.002403,32.23217,48.442726,53.161926,-8.67136,22.834225,39.296665,45.822659,-12.192879,13.038998,32.539845,44.560089,-28.252048,-53.703253,-71.737337,-83.533642,-89.603584,-123.491407,-146.235195,-166.510171,-84.09554,-96.246662,-82.531186,-68.330011,-72.646951,-82.627825,-70.371665,-57.325007,-56.692714,-64.239571,-61.436164,-55.525878,60.911121,413.67041,-117.496319,61.360782
106,-0.020142,0.675735,-2.78389,1.687515,-34.265671,-68.009262,-96.275826,-119.187584,-74.187813,-110.32465,-128.565731,-143.034096,-64.620552,-103.015251,-123.54126,-140.513821,-53.057098,-87.071972,-107.536411,-123.807049,-40.017586,-62.412987,-76.428795,-88.811703,-14.176227,-11.051718,0.125045,5.506593,28.547833,42.719306,49.169692,53.216196,47.523055,62.747311,69.67089,75.318398,59.611069,77.421185,84.699273,89.533651,65.684222,84.96128,93.66531,100.141199,27.097607,41.235294,49.129257,51.327953,11.797771,12.408028,13.763466,13.958359,-2.756138,27.479496,41.302299,44.724369,-10.987015,19.719944,34.592056,40.48502,-14.314957,10.212364,28.984909,40.636368,-27.458525,-52.46031,-70.23109,-83.136772,-88.221671,-123.125134,-145.720413,-165.322711,-82.784764,-95.430661,-83.304486,-71.28023,-72.044823,-82.70807,-72.533053,-60.823662,-57.171835,-67.190562,-66.574107,-61.237482,61.947498,414.058017,-119.22369,62.76017
107,-0.275574,0.918599,-7.258987,-0.532536,-33.897057,-67.747536,-96.153374,-118.691711,-73.538589,-109.225159,-127.437916,-141.684608,-64.137268,-102.233562,-122.83596,-139.631195,-52.67395,-86.854477,-107.397995,-123.735981,-39.635468,-62.289619,-76.41449,-88.842773,-14.002832,-11.281677,-0.610279,5.084838,28.452243,42.999344,49.479802,53.386751,47.282229,62.644496,69.389308,74.823036,59.447739,77.079767,83.975682,88.393615,65.802783,84.968999,93.530447,99.781626,24.165287,36.919785,44.064331,41.398544,8.886967,7.593384,7.73386,6.493835,-4.612713,22.430191,37.088413,41.410561,-12.592049,15.002918,29.875202,36.112347,-16.423817,5.273037,23.934059,35.770226,-28.140496,-52.49949,-70.491275,-80.091705,-86.824753,-124.114561,-147.330339,-165.984675,-81.152762,-95.520601,-83.757734,-71.728785,-71.05376,-84.422755,-75.123483,-63.245822,-57.732992,-71.797081,-71.280353,-64.925834,62.234058,415.308679,-125.920544,62.559697
108,-0.944252,0.974854,-6.661491,-0.707042,-33.556366,-66.802826,-94.769897,-117.144184,-72.19883,-108.525696,-126.788349,-140.801411,-62.557755,-101.314144,-122.075043,-138.756695,-50.940056,-85.325089,-106.090965,-122.427979,-37.985344,-61.132164,-75.508289,-88.037224,-14.256626,-11.15867,0.157772,6.18134,28.743397,43.195031,49.522101,53.601889,47.671503,63.241252,70.144825,76.07237,59.72648,77.662443,84.558297,89.317587,65.79457,85.439105,93.914473,100.05197,23.201351,35.699387,42.446079,39.093132,3.247833,1.922894,1.679935,-0.472183,-9.872818,14.247837,29.992847,34.996204,-17.281895,8.907051,25.079155,32.06171,-19.922447,0.287704,18.740444,30.888748,-30.931275,-57.515816,-77.785172,-88.18175,-87.796983,-123.78926,-146.498067,-165.534237,-81.068781,-97.072358,-85.415918,-73.729035,-70.428012,-84.174704,-75.077077,-63.620307,-56.69895,-71.556316,-71.521797,-65.671965,61.807251,416.429156,-132.06459,61.998278
109,1.487617,0.240086,-2.860508,-1.512823,-33.807793,-67.433968,-95.858631,-117.98996,-71.568031,-107.490578,-126.212254,-140.999851,-62.381516,-100.708466,-121.902008,-139.244328,-51.497955,-85.175114,-106.291065,-123.116341,-39.440918,-61.245918,-75.505199,-87.966557,-14.031793,-10.645401,0.699076,7.443024,30.292714,44.027735,49.604291,52.829824,49.144498,63.467753,69.373871,74.500143,60.969269,78.293594,84.715452,89.021246,66.667721,85.503017,94.065885,100.633226,23.50502,34.3717,40.46545,39.752426,-0.107288,-3.087673,-4.595718,-6.61171,-13.170033,8.956547,27.351093,36.731415,-20.457573,3.061409,21.805515,32.911949,-23.048115,-4.471378,14.707603,28.781204,-30.607456,-57.653581,-76.582521,-89.454796,-87.512221,-123.041277,-145.762064,-165.029952,-79.857454,-99.721265,-90.119941,-77.224077,-68.581922,-84.576452,-76.633836,-64.711252,-53.970632,-68.983577,-69.355284,-64.022271,63.53159,417.314332,-134.688377,61.130546
110,-0.812073,0.49635,0.80452,-0.615034,-33.520432,-66.94725,-95.148411,-117.13726,-70.7341,-106.706371,-125.436115,-140.203915,-61.328201,-100.191364,-121.374664,-138.886013,-50.36808,-84.393311,-105.286732,-122.154236,-38.289757,-60.311279,-74.426193,-86.795311,-14.349437,-10.811077,0.347284,7.190835,30.111662,43.914114,49.490856,52.694344,48.816232,63.305287,69.450009,74.815441,60.443279,77.817622,84.720824,89.595402,66.088996,85.421877,94.295596,101.297043,24.244823,34.783916,40.361938,38.108025,1.361275,-1.648121,-3.472996,-5.617447,-13.005123,10.369835,29.018097,38.108883,-21.107712,2.635918,22.395802,34.024544,-23.330898,-5.24128,14.647121,29.882183,-30.474075,-58.417248,-77.810058,-91.449242,-88.336712,-123.044334,-146.469044,-166.811544,-80.953864,-99.589119,-88.621598,-74.991121,-68.663278,-83.993435,-74.840388,-63.028399,-52.875921,-65.626918,-65.930112,-61.627992,63.333035,418.279615,-133.27034,60.984444
111,0.03685,0.836903,1.969528,0.944226,-33.484383,-66.800995,-95.20895,-117.287865,-70.32423,-106.810513,-125.657387,-140.434856,-60.943451,-100.340424,-121.471596,-138.879776,-50.037346,-84.503288,-105.385666,-122.239723,-38.129196,-60.35717,-74.403591,-86.466122,-14.8519,-11.601297,-0.526731,6.616989,29.782471,43.687428,48.984688,52.031453,48.479446,62.676668,68.421371,73.511457,60.081298,77.207343,83.933939,88.706875,65.57233,84.846301,93.590406,100.435687,25.831203,37.680244,44.295444,41.689911,5.370197,2.69125,1.782475,0.446033,-9.813766,14.285374,31.667747,39.568119,-18.691864,5.64743,24.732513,35.975189,-21.629047,-2.682438,17.639465,33.555679,-31.04397,-58.1411,-78.37069,-91.85627,-89.283871,-124.14769,-147.749161,-168.082645,-82.565364,-99.566241,-87.67799,-73.936547,-70.63185,-85.119547,-75.381414,-63.634973,-54.967839,-67.235701,-67.490113,-63.684713,63.919573,419.356665,-130.751123,62.168817
112,-0.604706,0.243852,2.837849,1.048182,-33.366966,-66.65554,-94.854698,-116.785812,-70.830059,-106.959629,-125.611839,-140.239391,-61.270638,-100.256882,-121.239738,-138.461494,-50.068703,-84.193897,-104.934883,-121.570129,-37.851105,-60.066605,-74.154224,-86.224308,-15.224317,-11.877321,-0.634794,6.596303,29.864599,43.981978,49.249906,52.252334,48.588559,62.94874,68.738521,73.821197,60.192387,77.425507,84.072568,88.685262,65.629696,84.907557,93.610722,100.395796,27.300453,39.60371,46.771431,43.633575,6.578693,5.415287,5.211582,3.930073,-8.39859,20.208435,38.141098,44.604378,-16.841812,11.7659,30.768929,40.095062,-19.419136,3.122177,23.469887,37.490616,-31.493605,-58.475139,-78.302857,-90.95283,-90.499088,-124.96048,-148.284506,-168.917789,-83.695181,-100.165158,-86.505998,-71.442942,-71.578793,-85.782283,-74.040041,-61.036762,-55.713846,-67.276858,-65.266203,-59.535054,63.794317,419.383743,-127.433825,63.000225
113,-0.130119,-0.823318,2.035275,1.238065,-33.694267,-67.24102,-95.430965,-117.200146,-71.260529,-107.015476,-125.521259,-140.20174,-61.673012,-100.205383,-121.144524,-138.479176,-50.34256,-84.036083,-104.779186,-121.479206,-37.913246,-59.801674,-73.839054,-85.946445,-14.814356,-11.050236,0.494312,7.418015,30.541383,44.606151,49.959665,53.207675,49.22959,63.520488,69.460939,74.952033,60.811559,78.168365,84.940594,89.834376,66.145683,85.625591,94.53599,101.6116,28.661442,41.445065,48.723965,46.171989,7.545891,7.238503,7.903862,7.422523,-7.051849,24.589119,42.830257,48.324337,-15.044632,15.939217,34.787121,42.762966,-17.1595,7.23444,27.452259,40.057297,-31.981928,-59.098788,-78.973405,-91.492467,-91.251177,-125.301559,-148.30862,-168.874502,-84.490403,-100.562121,-86.096068,-70.60891,-72.445367,-86.837968,-74.073509,-60.586448,-56.510859,-68.242048,-65.764498,-59.720151,64.10079,418.741184,-124.961958,64.419049
114,-0.795135,-0.644674,0.621529,0.847092,-33.420753,-67.038574,-95.062065,-116.858597,-70.535889,-106.59605,-125.405903,-140.230064,-60.805664,-99.825726,-120.889721,-138.219566,-49.532204,-83.762741,-104.682999,-121.457233,-37.264252,-59.386597,-73.358288,-85.544987,-14.494859,-10.374748,1.447738,8.109682,30.992532,45.595763,51.463534,55.081676,49.699696,64.095199,70.178355,75.675315,61.315442,78.634827,85.556246,90.498563,66.697361,86.201414,95.157447,102.298697,27.87014,40.22049,47.314911,45.343723,7.086754,6.391239,6.707897,6.166191,-7.031593,24.805984,42.528934,47.93993,-14.846878,16.187439,34.716969,42.700996,-16.846905,7.071362,27.278423,40.338135,-31.581075,-58.355251,-77.23439,-89.701705,-91.251332,-126.193327,-149.254729,-169.820981,-84.414141,-100.212922,-86.894006,-72.229426,-72.596687,-86.855073,-75.493831,-62.528776,-56.990659,-68.47849,-67.335335,-62.117796,63.663769,418.348683,-123.982315,65.518314
115,0.146027,0.17815,-1.032829,0.660112,-33.671036,-67.259102,-95.162373,-116.683273,-71.142254,-106.650467,-125.206146,-139.914265,-61.459122,-99.881916,-120.785751,-138.120689,-50.060463,-83.731728,-104.47649,-121.27985,-37.498398,-59.387054,-73.423119,-85.791321,-14.687088,-10.903641,0.764717,8.057256,30.727931,45.439535,51.291806,54.990162,49.470787,63.994854,70.102032,75.696002,61.218679,78.548624,85.44281,90.36438,66.787455,86.14837,95.013074,101.985931,28.434677,40.342312,46.887932,46.274815,8.226814,6.986275,6.833267,5.910416,-5.899773,24.345703,42.377815,48.88361,-13.999214,15.634804,34.537983,43.58923,-16.713581,6.265011,26.428757,40.087566,-30.99812,-57.469441,-75.861678,-88.607117,-90.828094,-126.372897,-149.08825,-169.391939,-84.435661,-100.580152,-87.835793,-73.535385,-73.208479,-87.09062,-76.125568,-63.442373,-58.060423,-69.220112,-68.154609,-63.152301,64.078331,418.81161,-124.746609,66.463203
116,0.441628,0.198898,-0.22253,0.16299,-33.745537,-67.469215,-95.340271,-116.890526,-71.135845,-106.591759,-125.225086,-140.171986,-61.694298,-99.937363,-120.884743,-138.383675,-50.504837,-84.149094,-104.88018,-121.710777,-37.931328,-59.653587,-73.613091,-85.964985,-14.798054,-11.29662,0.491286,7.865767,29.924558,44.611338,50.618109,54.447808,48.758805,63.258234,69.55412,75.290919,60.73116,77.902714,84.980546,89.984553,66.627398,85.910446,94.955029,101.972778,28.220272,40.242405,46.813545,45.772419,7.841721,6.978722,6.758366,5.590553,-6.121559,26.073704,43.532181,48.872051,-14.068909,17.163219,35.447903,43.351822,-16.592503,7.29332,27.441616,40.548191,-31.632606,-57.620143,-75.836329,-88.102493,-91.20613,-126.847418,-149.58497,-169.802364,-84.69035,-100.374862,-87.088706,-72.429158,-73.551379,-87.301683,-75.58059,-62.450631,-58.725105,-70.659329,-69.21863,-63.8109,65.081749,419.162244,-124.407349,66.77793
117,-0.711479,0.22965,-0.247993,-0.191118,-33.341904,-66.598892,-94.377422,-116.020832,-70.796642,-106.643772,-125.309486,-140.061665,-61.092339,-99.843349,-120.717945,-138.01054,-49.714622,-83.951626,-104.704914,-121.454487,-37.125664,-59.516602,-73.555641,-85.861988,-14.884134,-11.483292,0.094231,7.453769,29.730971,44.673459,50.889873,54.785398,48.625547,63.143872,69.467423,75.221758,60.609882,77.732036,84.830308,89.931386,66.410777,85.804791,94.804667,101.819328,28.399429,40.184612,46.926155,46.691895,8.926392,7.616901,7.603626,6.82085,-5.018234,26.888065,44.307976,49.684296,-13.187485,17.883854,36.344433,44.419842,-15.999126,7.524261,27.887077,41.265678,-31.75904,-57.666085,-76.054555,-88.648397,-91.323734,-127.212734,-150.337399,-170.900286,-84.706066,-100.744192,-87.204982,-72.578069,-73.514545,-87.614387,-75.859084,-62.914685,-58.658229,-70.875085,-69.673484,-64.747623,64.806433,419.563205,-124.219179,66.758123
118,0.129433,0.131961,-0.456734,0.341665,-33.307457,-66.342659,-94.034214,-115.461788,-70.213394,-106.622429,-125.50581,-140.25238,-60.605507,-99.87854,-120.879421,-138.146095,-49.385262,-83.983669,-104.836349,-121.600456,-37.034683,-59.508362,-73.537045,-85.72998,-14.922358,-11.402337,0.24694,7.907079,29.764007,44.456036,50.417359,54.156964,48.655434,63.068536,69.196956,74.799262,60.528371,77.668618,84.660494,89.796955,66.26801,85.582983,94.388716,101.253077,29.011402,41.226254,48.57439,48.481464,9.21484,8.705177,8.843365,8.02557,-4.805431,27.95969,45.782433,51.209564,-12.693558,18.816376,37.6478,45.865059,-14.746113,9.244995,29.729977,43.103714,-32.398373,-58.232398,-76.404804,-88.971259,-92.066839,-127.617786,-150.282101,-170.531049,-85.44034,-101.64408,-88.082825,-73.112117,-74.101976,-88.385588,-76.64634,-63.541174,-59.10098,-71.216256,-70.033211,-65.081414,65.169754,419.840187,-124.442024,67.244809
119,-0.201988,0.040755,1.665173,-0.094663,-33.512535,-66.57383,-94.351387,-115.5863,-70.438786,-106.576252,-125.264912,-139.988823,-60.8004,-99.72662,-120.617867,-137.926197,-49.491119,-83.885136,-104.57737,-121.245346,-37.055283,-59.220428,-73.097191,-85.307522,-14.754705,-11.422776,0.100036,7.686753,29.110997,44.431583,50.614404,54.39353,47.993717,63.093236,69.449083,75.061825,59.962738,77.582168,84.834692,90.104163,65.846379,85.435709,94.480971,101.560285,28.368244,41.03159,49.096298,47.701092,8.308926,7.40427,7.605114,7.197876,-5.625172,26.982422,44.644203,49.866314,-13.516445,18.058205,36.4147,44.178257,-15.460167,8.262234,28.908978,42.495289,-33.150678,-59.570684,-78.690032,-92.056372,-92.282039,-128.286944,-151.450388,-171.843956,-85.536825,-102.038943,-88.487105,-73.462397,-74.072027,-88.846431,-77.086312,-63.838965,-59.126915,-72.356323,-71.663854,-66.725859,65.167036,419.921975,-122.577581,67.191179
120,-0.166054,0.18062,-0.069408,0.416229,-33.307686,-66.337166,-94.152718,-115.678711,-70.506992,-106.598225,-125.452538,-140.32568,-60.826378,-99.873791,-120.850925,-138.13036,-49.493408,-84.161854,-104.963379,-121.602859,-37.045097,-59.652672,-73.65406,-85.771694,-15.148549,-11.944382,-0.384273,7.169408,28.838677,44.222187,50.504365,54.354936,47.885839,62.821843,69.167007,74.711823,60.032392,77.419579,84.582442,89.6532,66.049105,85.558963,94.482638,101.325016,29.15411,41.290913,48.557281,47.948227,9.457111,8.800621,9.280128,8.819675,-4.515438,27.240486,44.933968,50.222969,-12.353153,18.927727,37.483921,45.250969,-14.273014,10.167046,30.6106,43.484917,-32.736641,-58.790499,-77.519491,-90.426809,-92.376579,-128.56198,-151.173746,-171.300799,-86.130339,-103.3642,-89.662308,-74.565475,-74.99921,-89.928175,-77.810891,-64.38842,-59.937235,-72.142018,-70.650993,-65.210041,65.153589,420.033728,-122.494383,67.538541
121,0.241013,0.018278,0.780315,-0.665206,-33.568268,-66.518326,-94.334621,-116.378117,-71.045551,-106.834717,-125.554218,-140.281677,-61.312523,-100.04591,-121.150074,-138.441181,-49.811325,-84.379921,-105.432129,-122.116928,-37.10289,-59.707031,-73.990402,-86.460171,-15.309409,-11.884793,0.08608,7.400725,28.300337,43.841743,50.416371,54.644854,47.472976,62.328581,68.882893,74.708798,59.801754,77.116014,84.462955,89.832153,66.13006,85.514379,94.638002,101.932331,29.089737,40.509052,47.121162,46.341534,8.761826,8.9221,9.368534,8.830891,-5.332203,27.660942,45.012589,49.928799,-13.05851,19.0872,37.3526,44.558887,-14.91766,10.203609,30.475216,42.699509,-32.834361,-58.972693,-77.25523,-89.301161,-92.720467,-128.516378,-151.10826,-171.144509,-86.273785,-102.660863,-89.082318,-73.860934,-74.951971,-89.098434,-76.973803,-63.409923,-59.907502,-71.892825,-70.292346,-64.600842,65.559597,419.879136,-121.549072,66.700464
122,-0.262299,0.577058,0.265102,0.421416,-33.452682,-66.427002,-94.147968,-116.235352,-71.221447,-107.068577,-125.779095,-140.491791,-61.360703,-100.13752,-121.159172,-138.401928,-49.637947,-84.68811,-105.655117,-122.180958,-36.814613,-60.208054,-74.604206,-86.896305,-15.675157,-12.392505,-0.43108,6.678369,27.755699,43.679277,50.307628,54.319429,47.122727,62.021311,68.690047,74.414186,59.521593,76.463806,83.999826,89.368716,65.824519,85.070455,94.094537,101.039482,28.322239,40.573483,47.507401,45.964508,8.962841,8.378162,8.661232,8.18264,-5.392456,27.909966,45.075989,50.009251,-13.431072,19.172516,37.320213,44.907932,-15.621128,9.92569,30.260525,43.091698,-33.212243,-59.462991,-78.271148,-90.701815,-92.839861,-128.692582,-151.181589,-171.218146,-86.08838,-101.949313,-88.767915,-74.085736,-74.537502,-88.577446,-77.097643,-63.899975,-59.355978,-70.455769,-68.935536,-63.441262,65.389709,420.308718,-121.191559,66.974404
123,-0.7164,0.039026,-1.749687,2.44933,-33.370171,-66.646957,-94.368553,-116.030273,-71.447754,-106.726627,-125.166435,-139.649334,-61.612473,-100.103645,-121.145782,-138.192616,-49.924393,-84.901314,-105.79977,-122.375908,-36.864967,-59.988899,-74.236908,-86.63475,-15.205545,-12.168721,-0.579219,6.453906,28.416613,44.503954,51.332191,55.516646,47.424563,62.393296,69.006456,74.587335,59.744326,76.93206,84.428621,89.702477,66.087329,85.22619,94.227979,101.311987,28.315487,39.590092,46.191559,47.330303,10.238514,9.895363,10.402508,9.668655,-4.111118,27.853146,44.303398,49.218349,-11.779118,19.935436,37.27644,44.293785,-13.982964,11.410961,30.924053,42.646122,-32.216363,-57.686586,-74.990472,-86.293916,-92.889323,-127.945001,-149.51158,-168.482788,-86.571608,-101.826213,-89.502128,-75.667133,-74.898248,-88.300341,-77.459902,-64.868129,-59.065813,-69.857901,-68.336464,-62.713502,64.68936,420.430906,-122.925196,69.506897
124,-0.774307,0.215385,-1.202602,3.186877,-33.471336,-66.582813,-94.31551,-116.077995,-71.477222,-106.223087,-124.717484,-139.202156,-61.705399,-99.566517,-120.504284,-137.35239,-50.095024,-84.524403,-105.154381,-121.402931,-37.18277,-60.277405,-74.561119,-86.947746,-14.909822,-12.088878,-0.764594,6.375668,29.043257,45.505608,52.371636,56.581779,47.690028,62.857844,69.321383,74.674588,59.764704,77.030737,84.239048,89.156171,66.02527,85.018399,93.883412,100.746168,28.82103,39.222794,45.189857,47.60931,10.280914,9.490471,10.293102,9.852276,-3.445816,29.357815,46.122723,51.046658,-10.454865,21.683064,38.81258,45.416737,-12.162724,12.970676,31.56189,42.062817,-31.223818,-56.277874,-73.218297,-85.037758,-92.104043,-127.120139,-148.567107,-167.395796,-85.984114,-101.279907,-89.198964,-75.649565,-74.945055,-87.814767,-77.004555,-64.616773,-59.872582,-70.616876,-68.285612,-62.536062,63.972244,420.622626,-124.070606,72.670108
125,-0.334167,0.726926,0.085373,5.805033,-33.636703,-66.489944,-94.040279,-115.778217,-70.233135,-105.155239,-124.072838,-138.603916,-60.620728,-98.623753,-119.925842,-136.787968,-49.213486,-83.572369,-104.062901,-120.037193,-36.7939,-60.004692,-74.28669,-86.523399,-15.102237,-12.731144,-1.016968,6.743886,28.600197,46.527453,53.987459,58.235455,47.368185,63.513448,70.718301,76.66116,59.512145,77.378886,84.776276,89.688089,65.806241,84.947881,93.683588,100.217646,28.925056,39.329281,45.257835,46.906815,10.193939,8.846912,10.317192,10.080929,-3.031254,27.550163,41.64505,44.99033,-9.155102,22.519741,37.428303,42.754669,-9.620075,15.615005,32.995491,42.698536,-29.123686,-54.256536,-70.906609,-82.534458,-90.43036,-124.909999,-145.780712,-162.980394,-84.734533,-99.93276,-88.560743,-76.343918,-73.763739,-86.767573,-76.526298,-64.895237,-59.058465,-70.861315,-68.992099,-63.315476,63.6448,421.320529,-123.97851,78.446118
126,-1.716156,0.588543,1.114025,9.393812,-32.933578,-65.914593,-93.385677,-114.884834,-69.376373,-104.058552,-122.775421,-137.250423,-59.671898,-97.38739,-118.749046,-135.654602,-48.234215,-82.314091,-102.924442,-119.026737,-35.697556,-59.266434,-73.865433,-86.598701,-14.265704,-11.676447,-0.636214,6.76803,30.027311,47.852864,55.347574,59.478306,48.337049,65.382571,72.90865,78.709483,59.948844,78.265436,85.725318,90.49986,65.863977,84.966714,93.651478,100.204987,28.861141,40.0177,43.664246,42.293015,12.401218,7.619133,8.838959,9.712372,-1.202717,23.08239,39.801693,46.767597,-7.647285,18.79858,34.056187,39.955215,-9.210262,14.143524,30.098991,37.854366,-22.216069,-48.685816,-65.895378,-75.828672,-86.120089,-120.583333,-140.276095,-155.797432,-80.504012,-95.773994,-87.756567,-77.724132,-69.788926,-80.270132,-70.866811,-60.31453,-55.863189,-63.857799,-59.817624,-53.429884,62.011843,421.758618,-122.781286,87.689475
127,-0.350189,0.938915,-2.029495,12.699868,-33.458633,-66.374073,-93.691177,-114.88203,-68.906078,-103.422089,-122.398968,-136.676788,-58.802605,-96.369553,-117.867393,-134.34185,-47.225876,-81.172829,-102.073059,-117.945213,-34.974747,-59.275475,-74.284744,-86.898365,-13.737552,-11.098031,-0.148263,7.908499,30.895707,49.738969,57.693039,61.977592,48.882058,67.135851,75.420409,81.487881,60.104825,79.037872,87.049988,91.784454,65.610245,84.454248,93.25788,99.563956,29.13866,41.844635,49.093895,48.865128,15.800972,14.94833,17.595577,19.498158,3.291035,32.396679,42.515717,42.893887,-1.202087,31.049538,35.611954,31.705055,-0.771961,27.083759,34.663754,32.681408,-23.528945,-48.682852,-63.164188,-70.359253,-81.701908,-114.98112,-133.166276,-146.199473,-73.81283,-82.191095,-71.144873,-61.818831,-59.605172,-64.115669,-53.702635,-46.350662,-43.163816,-46.643699,-42.046936,-38.323788,61.786966,422.460735,-124.685469,100.152546
128,-1.328087,1.800704,11.464062,7.894481,-33.035889,-65.867157,-93.286057,-114.976044,-67.731972,-102.437325,-121.770744,-136.132507,-57.377586,-95.489101,-117.714443,-134.408627,-46.092453,-80.291691,-101.802521,-117.996597,-34.754219,-59.457779,-74.584236,-87.168503,-13.400086,-10.686032,0.309925,9.043101,30.58325,51.254386,60.003184,64.454771,48.423068,68.889686,77.531286,83.322239,59.555,80.356614,88.561206,93.2748,65.084255,84.884586,93.319137,99.122564,27.981377,45.542564,55.31147,54.67844,14.901009,11.550007,13.129864,14.792061,0.086746,14.633045,26.196442,29.820957,-6.992397,20.142632,30.243988,28.613834,-8.249931,15.145454,24.223938,23.366032,-18.019974,-38.010435,-44.680468,-45.666251,-73.776119,-108.241247,-122.262821,-130.740103,-63.943107,-76.09917,-76.790311,-77.128241,-47.182903,-47.854192,-38.482147,-32.554261,-28.679979,-30.78573,-25.849062,-20.618123,60.221729,423.334967,-113.458557,107.120555
129,-0.291481,2.594814,-4.365292,28.872486,-33.77861,-66.252136,-93.475685,-115.03973,-67.819061,-100.693245,-119.3577,-133.370647,-57.442818,-94.406719,-116.286163,-132.590103,-46.529961,-79.970856,-100.664806,-115.778503,-35.998535,-60.928459,-75.662212,-87.421074,-13.24781,-10.011903,2.203502,11.074936,30.740281,53.191187,62.968686,68.485097,48.324205,70.076035,79.530085,86.304908,59.507205,80.974859,89.71915,95.20166,65.139336,84.834939,93.315247,99.268419,23.528738,42.42837,52.573243,54.420233,33.419695,45.838652,45.382405,42.837525,23.095494,44.833489,49.416676,48.797322,15.76232,42.730236,46.178828,42.923871,11.086693,34.042283,37.748452,35.434514,-24.387631,-45.198477,-56.789245,-64.509976,-51.590246,-63.117381,-67.893636,-71.504893,-38.081232,-38.368248,-37.904734,-37.769701,-22.107157,-17.235976,-13.015243,-10.977618,-6.092605,-3.625861,-2.780668,-2.141829,59.51108,424.026865,-118.243018,134.090124
130,-0.788956,1.021228,-4.365291,28.872486,-33.60672,-65.891705,-92.177067,-113.693275,-65.823669,-98.064365,-116.610146,-131.140652,-54.823494,-91.242828,-113.441391,-130.446625,-43.95504,-76.864414,-98.000736,-113.868084,-33.575478,-57.218285,-72.461071,-85.216541,-11.660083,-6.283969,7.241286,15.236852,33.826073,57.214474,68.480157,75.687295,50.667016,73.852937,85.071752,93.414479,61.095549,83.740351,94.324928,101.85644,65.784628,86.345786,95.642867,102.816041,19.076099,39.314175,49.835014,54.162025,51.938381,80.127296,77.634945,70.882988,46.10424,75.033932,72.636909,67.773685,38.517036,65.317841,62.113667,57.233906,30.423317,52.93911,51.272964,47.502995,-30.755287,-52.386518,-68.898022,-83.353701,-29.404373,-17.993514,-13.524452,-12.269683,-12.219357,-0.637326,0.980844,1.588838,2.968589,13.382241,12.451662,10.599026,16.49477,23.534008,20.287727,16.334466,58.487492,423.854318,-122.842941,161.768836
131,-0.081367,1.924081,-7.621765,44.384529,-33.87085,-65.977421,-91.940117,-113.24049,-63.718071,-94.51458,-113.182068,-127.772369,-52.281532,-87.497177,-109.861507,-127.425213,-41.541595,-73.368874,-94.82254,-111.204586,-31.642227,-54.911613,-69.920139,-82.343845,-10.706039,-3.867675,10.526222,19.266561,36.534878,61.611041,74.435058,83.197874,52.777892,78.071293,90.688261,100.48768,62.45165,86.624775,98.435899,106.939734,66.233368,87.812482,97.904599,105.993347,25.434494,51.952858,72.501354,82.400551,63.666916,98.563557,95.548954,85.415726,61.161461,96.47953,91.582432,80.572586,55.552597,87.477779,83.587303,73.865891,47.623901,75.779457,74.961376,68.450661,-26.644932,-37.667998,-41.020552,-38.880838,-13.181058,-0.71544,-1.888019,-3.818831,4.839256,16.311001,13.799426,13.329938,20.175589,28.590379,25.335144,24.402034,33.111497,36.58539,32.931989,32.184438,58.293514,424.944013,-130.577316,205.318977
132,0.151405,2.146074,-2.797108,22.110106,-33.626633,-66.201038,-91.867619,-113.542557,-60.566483,-90.477791,-109.273911,-123.992901,-48.337212,-83.588676,-106.30434,-123.42556,-37.580109,-69.978619,-91.812801,-108.054371,-27.990532,-52.471619,-68.199692,-81.2047,-9.335366,-0.491533,15.284277,23.807871,39.492044,67.539081,82.744379,94.707039,55.11533,82.630141,96.897141,108.406492,64.28292,89.901066,103.863822,114.344967,67.717601,89.868524,100.765187,110.287039,19.416389,45.720406,72.338219,90.328617,56.087437,91.735439,89.815178,82.591438,60.239239,95.800896,94.514694,88.213921,61.589584,95.042439,94.83942,88.454475,60.501823,89.379101,93.470936,90.722637,41.635277,69.231227,82.9434,86.793909,48.07461,76.338947,87.615437,88.997102,25.578503,59.046485,73.763708,77.076555,8.170074,39.982404,54.320664,57.512111,-4.773122,17.954673,31.512594,36.342155,57.898436,425.789962,-133.920908,226.128959
133,-0.448723,0.120969,20.006275,35.091586,-35.352402,-67.025757,-91.528072,-113.174572,-58.623505,-83.366718,-99.502831,-113.323574,-45.087433,-75.044518,-94.756908,-110.225658,-33.704681,-61.155281,-80.56818,-95.578136,-24.417,-46.670952,-61.884785,-75.171719,-5.899758,5.611383,23.738958,33.972792,43.547626,74.614628,90.336962,103.222112,58.014265,89.551868,104.283911,115.167235,66.58689,96.437409,110.155263,119.601347,70.190397,94.964477,105.319033,113.415932,21.763973,42.675819,55.151482,61.950531,60.331192,79.439163,77.152691,71.460171,55.301971,77.189655,74.491539,69.214325,45.414619,66.512947,66.70435,63.847103,31.604862,51.64032,57.900467,59.933224,33.159909,62.209835,83.708858,98.888962,63.900685,99.882403,115.02842,120.136785,57.9908,97.64605,113.461195,119.159894,53.78041,91.274272,106.54731,112.191174,50.614466,77.745312,91.051106,97.034844,56.528578,424.559354,-114.835768,259.868967
134,-0.738602,1.714253,-10.356846,4.821225,-34.576492,-66.410179,-90.772305,-112.767906,-55.378876,-77.512836,-91.944866,-104.395409,-41.058655,-67.516594,-85.735588,-99.729652,-29.519691,-53.486824,-71.643448,-85.587444,-20.413513,-40.566788,-55.142555,-67.761555,-4.787942,9.206863,28.07217,39.047441,48.164889,80.174821,96.245983,109.290634,61.344959,94.974357,109.902333,119.460989,68.512823,99.82164,113.230989,121.075144,70.621044,96.461986,106.695449,113.304411,31.258278,51.50425,61.158257,69.266911,60.165195,77.437248,84.661846,90.372047,50.704193,67.736149,76.763706,85.434151,40.169849,56.104488,65.631123,74.043789,28.35474,44.716301,55.352097,64.335194,24.42272,50.669239,72.343448,88.466234,59.38673,97.178167,120.142837,142.000321,60.154781,101.065664,129.330001,156.916504,61.257829,99.69604,128.132722,152.868949,62.12147,91.317065,110.278702,125.050821,55.568676,425.327313,-125.413914,263.743898
135,0.435677,1.878386,9.478855,50.493065,-35.199509,-63.109818,-84.123917,-98.993111,-51.076241,-73.502712,-87.420502,-99.107952,-35.62603,-62.938728,-81.645985,-95.855255,-23.769722,-48.260536,-66.629276,-80.669918,-15.834846,-36.442451,-51.790009,-64.514065,-3.186383,10.724935,28.763465,42.405243,50.037717,84.51217,100.573205,110.943137,62.838763,98.983934,112.583104,117.846153,69.014298,101.920722,113.494355,117.254214,70.243872,97.686435,107.185007,110.670632,33.845558,52.117252,57.001762,61.965179,49.248447,70.509281,79.489231,82.002983,37.116508,57.99139,69.018745,74.240799,23.541756,42.085533,53.286724,60.497417,8.216171,26.987114,38.146076,45.439911,23.056739,55.579076,80.431517,98.760768,73.947909,122.177204,141.420176,148.678196,75.256277,127.033318,149.681887,156.264049,72.354934,121.052605,142.608624,151.457952,66.143954,103.662825,121.859869,132.204977,55.775499,426.709148,-116.163912,313.740413
136,1.158943,3.150136,-3.420696,9.548713,-35.157623,-64.033928,-84.685078,-91.708431,-51.476784,-75.463943,-90.038624,-100.603924,-35.033798,-62.931747,-80.738926,-92.334652,-22.372513,-47.789726,-65.393944,-77.677917,-14.135056,-34.314651,-49.469604,-61.450996,-4.621154,9.204022,28.547586,48.373914,46.983233,84.782513,101.650317,111.668148,60.932157,100.239506,112.565629,114.647976,68.351902,103.383775,113.820521,114.977353,70.94511,99.913031,108.998925,109.870903,30.756283,45.878391,51.027088,52.403984,50.399151,60.362148,67.082462,70.064335,39.820919,50.903721,61.153793,67.663307,29.943752,42.19471,51.351471,58.369675,20.604343,34.424229,43.794537,52.201309,19.942604,48.420659,72.077304,89.280104,75.023169,115.662288,137.887311,153.088102,81.247302,127.225794,152.292942,170.694564,84.313642,127.271304,151.158092,169.015447,83.618271,117.152264,135.338007,149.732337,56.839514,429.122617,-119.679537,322.552459
137,-0.252686,2.497742,10.843277,33.672191,-35.372314,-64.543533,-84.407101,-92.703781,-52.286224,-78.082523,-94.623127,-107.10268,-35.525208,-65.416775,-85.052032,-97.591095,-22.532158,-50.265541,-69.644909,-82.439861,-14.583435,-35.851707,-51.634254,-63.863354,-5.852087,8.429302,28.22142,46.69103,42.507069,82.308606,99.816762,109.727765,57.73645,99.552162,110.00274,109.983597,66.366564,104.013197,111.794428,110.160265,69.815819,100.554803,108.272184,107.494314,8.895264,20.843525,29.334927,38.605785,20.182686,40.203953,51.412697,55.828342,24.010677,42.255363,53.059444,58.949718,28.463116,42.464962,52.88744,59.316845,32.786293,46.609726,54.225998,59.944496,27.832022,56.561463,76.538154,89.108438,76.032356,119.413441,135.582107,145.534668,75.331859,125.761198,145.934008,156.423797,71.193347,118.712635,139.49276,150.93857,63.372904,100.463413,118.934258,131.996075,56.399689,431.455763,-109.023399,356.060054
138,-0.770187,-2.15583,-3.197651,9.91656,-36.13781,-64.82975,-81.865768,-87.944927,-53.255081,-78.700962,-95.628891,-108.298073,-36.142273,-65.39463,-84.957161,-97.394485,-22.494621,-49.913292,-69.014339,-81.112347,-13.731422,-34.615402,-49.957581,-61.621571,-4.002847,10.954461,30.180576,45.773296,44.086892,81.972252,98.947996,108.520792,59.746241,100.096553,110.05708,110.148903,68.41711,105.712259,112.517093,110.368179,71.501543,102.519022,110.038678,109.378567,38.264179,56.155987,60.071869,60.882282,61.776295,74.853687,77.930374,77.878132,43.408642,59.399643,65.414257,68.612881,23.165646,39.831333,48.109932,53.390751,3.235245,19.766979,29.262943,37.075596,14.424834,40.573479,64.765067,79.257457,66.214843,104.420564,123.110129,132.444321,77.222657,118.894984,142.103938,155.967338,82.635513,121.175612,141.32471,152.331103,83.800558,113.831203,127.80631,136.857315,55.66884,429.196794,-112.181711,365.873476
139,-0.175667,-1.037036,-0.095501,13.471099,-36.484108,-65.19619,-82.035484,-86.493587,-56.336517,-81.501675,-97.412853,-109.436646,-39.355659,-68.640461,-87.140522,-99.107094,-25.001335,-52.705193,-70.918121,-82.652607,-14.922295,-35.49408,-50.245056,-61.858864,-3.908492,10.890117,30.499702,46.27051,43.139455,79.749607,97.053925,107.322216,59.40192,97.701317,108.732595,110.481738,68.668496,104.192829,112.96997,112.333447,72.20241,102.266895,111.680807,113.669664,41.45113,62.782917,69.209976,69.947319,64.723206,81.189594,84.000378,81.93964,44.535999,63.878288,70.111713,72.597141,23.915806,44.3993,52.821121,57.533112,5.3722,24.736061,34.758053,40.917606,13.017975,39.256095,64.298604,81.407359,63.956878,102.574844,114.033189,115.341927,75.003285,115.22102,127.988473,130.816519,80.704948,117.769089,130.319057,133.838028,81.873142,109.372206,117.067728,118.426978,55.606585,428.111608,-112.163801,379.296425
140,-2.483826,2.322618,-0.541077,10.221237,-36.772842,-63.951416,-78.496628,-82.331772,-58.520393,-85.09037,-101.279984,-113.034554,-41.463432,-71.086464,-88.932896,-99.795227,-26.638412,-54.386101,-72.452774,-83.747463,-15.586395,-36.572571,-51.406288,-62.708359,-4.137586,10.179802,29.348118,43.857427,42.454149,76.812449,92.409121,101.592457,58.906126,95.227966,104.613102,105.960496,68.464102,102.050151,109.615873,108.810586,72.061496,101.092526,109.02696,109.868556,-1.841354,12.324829,29.334641,47.073727,20.571842,47.140732,55.414925,55.303345,37.412109,62.824745,66.725292,63.065014,53.922901,76.740074,77.288189,70.582867,68.983097,87.67622,86.342297,79.25703,40.034706,68.29046,83.651492,89.896065,84.440539,116.534142,125.525558,128.351875,76.452074,112.445771,119.984817,121.137574,66.157107,100.87078,106.852419,103.707409,54.080332,81.83356,89.182292,86.826575,53.326893,430.275219,-112.500744,389.358655
