YashyHoby/handMotion-similar-search/workspace/NewProject/handData/tgt/d4_feature_d2/19.csv
,vel_0x_L,vel_0y_L,vel_0x_R,vel_0y_R,posFromWrist_1x_L,posFromWrist_2x_L,posFromWrist_3x_L,posFromWrist_4x_L,posFromWrist_5x_L,posFromWrist_6x_L,posFromWrist_7x_L,posFromWrist_8x_L,posFromWrist_9x_L,posFromWrist_10x_L,posFromWrist_11x_L,posFromWrist_12x_L,posFromWrist_13x_L,posFromWrist_14x_L,posFromWrist_15x_L,posFromWrist_16x_L,posFromWrist_17x_L,posFromWrist_18x_L,posFromWrist_19x_L,posFromWrist_20x_L,posFromWrist_1y_L,posFromWrist_2y_L,posFromWrist_3y_L,posFromWrist_4y_L,posFromWrist_5y_L,posFromWrist_6y_L,posFromWrist_7y_L,posFromWrist_8y_L,posFromWrist_9y_L,posFromWrist_10y_L,posFromWrist_11y_L,posFromWrist_12y_L,posFromWrist_13y_L,posFromWrist_14y_L,posFromWrist_15y_L,posFromWrist_16y_L,posFromWrist_17y_L,posFromWrist_18y_L,posFromWrist_19y_L,posFromWrist_20y_L,posFromWrist_1x_R,posFromWrist_2x_R,posFromWrist_3x_R,posFromWrist_4x_R,posFromWrist_5x_R,posFromWrist_6x_R,posFromWrist_7x_R,posFromWrist_8x_R,posFromWrist_9x_R,posFromWrist_10x_R,posFromWrist_11x_R,posFromWrist_12x_R,posFromWrist_13x_R,posFromWrist_14x_R,posFromWrist_15x_R,posFromWrist_16x_R,posFromWrist_17x_R,posFromWrist_18x_R,posFromWrist_19x_R,posFromWrist_20x_R,posFromWrist_1y_R,posFromWrist_2y_R,posFromWrist_3y_R,posFromWrist_4y_R,posFromWrist_5y_R,posFromWrist_6y_R,posFromWrist_7y_R,posFromWrist_8y_R,posFromWrist_9y_R,posFromWrist_10y_R,posFromWrist_11y_R,posFromWrist_12y_R,posFromWrist_13y_R,posFromWrist_14y_R,posFromWrist_15y_R,posFromWrist_16y_R,posFromWrist_17y_R,posFromWrist_18y_R,posFromWrist_19y_R,posFromWrist_20y_R,posFromBody_0x_L,posFromBody_0y_L,posFromBody_0x_R,posFromBody_0y_R
20,0.361061,-0.521235,-5.710773,-4.07034,-34.349098,-66.327267,-85.664177,-95.197048,-62.765808,-99.072762,-119.171619,-133.875732,-51.205788,-91.872025,-113.931713,-129.041348,-41.029243,-79.457703,-99.318466,-112.58709,-33.592415,-62.401314,-78.116798,-89.404964,-15.114401,-5.318007,11.409932,24.414013,28.505534,52.141492,59.77057,63.393776,47.948701,69.485763,72.37525,71.170499,58.408294,77.346096,78.1943,74.151809,61.421468,76.292264,75.991292,71.854508,37.198277,63.154793,76.599998,76.859722,76.788483,87.331352,73.660183,60.274601,64.425602,74.078693,61.590614,48.573246,50.485382,58.34198,46.695499,34.458618,35.555077,42.839241,36.759796,30.807323,-3.584488,8.806165,24.202518,35.684884,38.219862,63.230631,72.44052,73.506517,52.080544,76.972938,81.864003,77.456629,61.280368,79.763748,82.609022,76.981645,65.791853,80.954543,81.029076,76.311344,54.796715,378.862382,-103.558331,362.83321
21,0.356483,0.063356,-3.490162,-3.168352,-34.308014,-66.051636,-85.467567,-95.413685,-63.606606,-99.342728,-118.773937,-133.302612,-52.148666,-92.218037,-113.91243,-129.33403,-41.875877,-79.842281,-99.45116,-112.671661,-34.052353,-62.709732,-78.336353,-89.450512,-15.002571,-5.538024,10.950942,23.664116,28.684054,52.045717,59.609896,63.194198,47.889915,68.520665,71.027732,69.729121,58.367786,76.286829,77.075135,73.231543,61.709657,75.719652,75.480431,71.628872,38.312359,65.334492,74.614048,66.779938,70.628757,84.502029,74.250641,64.46537,56.185627,69.581108,65.29232,58.832645,41.666222,54.007187,50.355434,42.912941,27.670784,40.032806,40.322571,37.4473,-7.049612,5.318563,23.97009,34.309393,41.027715,57.260231,57.492227,54.269164,57.216264,74.611417,74.304765,68.475526,65.934435,80.455291,79.490441,72.396677,68.68591,82.197641,79.918309,72.59644,54.586229,378.961862,-107.615461,359.700982
22,0.146484,0.14499,-4.355106,2.071356,-33.663712,-64.97715,-83.499126,-92.669506,-64.630966,-99.593067,-118.74836,-132.885075,-53.270187,-92.780457,-114.277382,-129.347477,-42.673187,-80.06361,-99.425068,-112.488441,-34.209023,-62.705956,-78.067818,-88.883228,-15.553509,-6.78353,8.444801,19.858809,27.917238,50.961195,58.733596,62.50352,46.955446,67.379456,69.872197,68.598347,57.469626,75.032802,76.188708,72.630588,60.869728,74.612591,74.340642,70.447217,40.158863,67.379265,81.828861,77.359943,73.088722,88.375053,82.165375,74.043789,59.147072,73.471756,70.852203,64.512119,44.873714,58.741722,55.603523,47.860565,31.230297,43.92025,43.140678,37.899284,-9.443676,-0.490113,14.897163,24.86757,34.518542,42.867568,38.749927,35.073864,50.917228,61.265301,57.794372,52.21516,60.415059,70.935477,68.278542,62.643076,64.947169,76.334563,71.990545,65.015959,54.127579,379.175379,-112.575703,361.840865
23,-0.244331,-0.232676,1.693439,-0.576131,-33.433914,-65.175018,-83.397446,-92.160645,-63.688889,-98.944473,-118.792706,-133.07333,-52.560196,-92.457619,-114.256554,-129.112244,-42.255249,-80.175018,-99.748764,-112.769966,-34.233856,-63.256531,-79.008007,-90.50211,-15.766239,-6.872265,8.385335,19.339797,28.06655,51.718008,59.382284,62.908047,47.302915,68.126513,70.46852,68.954771,57.758865,75.725395,76.722726,72.89278,60.831257,75.318768,75.530881,71.849815,39.106407,64.66713,77.431927,72.751293,73.294888,81.897182,74.875202,66.531487,58.862858,68.505878,62.718487,54.323158,42.997227,53.383026,49.410439,41.435566,28.326759,39.488525,36.817532,29.810143,-8.734596,-1.164675,11.905294,20.935304,37.198078,31.469677,23.889567,20.757833,53.545202,46.064634,36.666654,31.189577,61.818029,55.374188,46.729439,41.162022,65.240484,64.898263,56.564304,49.389029,53.28578,378.962819,-111.479731,361.284849
24,0.498505,0.426942,4.359512,0.631151,-33.622742,-65.422611,-84.314632,-93.498917,-64.10202,-99.540024,-118.991718,-132.992249,-52.819633,-92.803745,-114.249344,-128.827858,-42.435379,-80.220909,-99.508152,-112.164803,-34.424858,-63.443527,-79.248734,-90.656204,-16.273765,-7.331873,8.346309,20.42858,28.228707,51.745487,58.909646,62.126781,47.363554,67.729519,69.578388,67.783242,57.59146,75.090045,75.597942,71.549708,60.502992,74.361452,74.22665,70.451786,36.828117,61.082039,73.40641,69.354744,70.877552,76.111393,68.774014,61.16518,57.325401,64.448891,59.183006,51.274452,41.187172,50.324192,46.227779,38.632164,25.454636,35.386906,32.930775,26.425495,-7.669463,-0.923848,12.767083,22.838019,37.404386,27.396064,20.786671,18.175184,52.846373,39.722435,31.6758,26.85618,60.159721,49.223168,40.838388,36.157398,62.760278,57.725582,49.197541,43.181754,53.389978,379.521814,-107.514524,362.048053
25,0.365868,0.107013,0.427419,-0.142316,-33.72242,-65.33123,-83.834381,-92.330475,-64.379883,-99.644337,-119.197598,-132.788086,-53.216171,-93.517456,-115.181179,-129.724731,-42.785568,-81.173,-100.700226,-113.719597,-34.558983,-63.86982,-79.823284,-91.370773,-16.126552,-7.730843,7.8662,19.780448,27.289051,50.720183,57.672106,60.16707,46.584202,67.417371,70.014223,68.556728,56.988467,74.858975,75.918735,72.213649,60.159104,74.365404,74.587396,70.943813,36.993665,61.306559,73.318471,69.626435,70.938584,77.149746,70.074986,62.291926,57.082439,65.383618,60.328586,52.29398,40.813575,51.071905,47.25232,39.698802,24.963939,35.991713,34.234754,28.130559,-6.734751,1.280243,15.811749,26.232801,38.638406,32.49834,27.447194,25.36554,53.772131,44.778967,38.28612,33.664116,61.067728,53.83894,47.006523,42.688435,63.56244,61.191642,54.143431,48.708644,53.41238,379.627068,-107.430571,361.903977
26,-0.357056,-0.138877,0.427419,-0.142315,-33.226318,-64.585876,-82.867413,-91.016865,-64.794731,-99.719009,-119.433975,-132.979431,-53.678169,-93.642311,-115.194111,-129.458199,-43.137589,-81.256371,-100.500469,-113.141899,-34.68338,-63.510246,-79.094868,-90.177441,-16.468958,-8.533228,6.427168,18.118497,27.287878,51.105752,57.94177,60.057771,46.729316,67.635535,69.926475,68.079212,57.298084,75.146238,75.852292,71.744593,60.517627,74.820195,74.618457,70.535952,37.159213,61.531079,73.230532,69.898127,70.999617,78.1881,71.37596,63.418672,56.839476,66.318345,61.474166,53.313508,40.439978,51.819618,48.276862,40.76544,24.473243,36.59652,35.538734,29.835623,-5.800041,3.484333,18.856414,29.627581,39.872426,37.600614,34.107716,32.555895,54.697887,49.835499,44.896439,40.472051,61.975734,58.454711,53.174657,49.219472,64.364601,64.657702,59.08932,54.235534,52.698355,379.491217,-107.360122,361.764688
27,-0.179443,0.018896,0.427419,-0.142316,-33.082466,-64.228592,-82.696667,-91.329861,-65.130386,-99.821091,-119.322453,-132.877178,-54.071732,-93.800354,-115.235825,-129.502716,-43.528061,-81.473866,-100.752869,-113.472748,-35.00885,-64.071121,-79.712276,-90.849495,-15.869794,-8.165998,6.46181,17.964059,27.560135,51.314407,57.94177,59.828183,46.992064,67.978435,69.939628,67.616886,57.619742,75.531004,76.016486,71.628564,60.984645,75.100789,74.717875,70.309451,37.32476,61.755599,73.142593,70.169819,71.060649,79.226453,72.676933,64.545417,56.596514,67.253072,62.619747,54.333036,40.066382,52.567331,49.301403,41.832078,23.982547,37.201327,36.842713,31.540688,-4.865329,5.688424,21.90108,33.022363,41.106446,42.702889,40.768239,39.746251,55.623645,54.892031,51.50676,47.279987,62.883741,63.070484,59.342792,55.750509,65.166763,68.123762,64.03521,59.762424,52.279072,379.483745,-107.172542,361.596005
28,0.529633,0.433488,0.427419,-0.142316,-33.137512,-64.387436,-82.923603,-91.74448,-65.372543,-100.055981,-119.573936,-133.070526,-54.431877,-94.182129,-115.64003,-129.946518,-44.009056,-81.818504,-100.986214,-113.624554,-35.61882,-64.509315,-80.098,-91.130962,-16.137235,-8.537056,6.150897,17.368106,27.63121,51.16034,57.387313,59.020056,46.959151,67.798618,69.361274,66.837226,57.374346,75.176434,75.277395,70.697738,60.541895,74.464822,73.892766,69.41512,37.490308,61.980119,73.054655,70.441511,71.121681,80.264807,73.977907,65.672163,56.353552,68.187799,63.765327,55.352564,39.692785,53.315044,50.325944,42.898716,23.491851,37.806134,38.146693,33.245752,-3.930618,7.892515,24.945746,36.417144,42.340467,47.805165,47.428763,46.936607,56.549403,59.948564,58.11708,54.087922,63.791748,67.686256,65.510927,62.281546,65.968925,71.589823,68.9811,65.289314,52.643223,379.924041,-106.910605,361.460497
29,0.108719,0.145484,0.42742,-0.142316,-33.441353,-64.963303,-83.204327,-91.457233,-65.718956,-100.46196,-119.891109,-133.314972,-54.69738,-94.38446,-115.483303,-129.344673,-44.161491,-81.861305,-100.666294,-112.946262,-35.547981,-64.32106,-79.716854,-90.533123,-16.448148,-8.721381,6.025049,17.119252,27.952559,51.765,57.528413,58.668758,47.076723,68.264525,68.990277,65.513667,57.047007,75.077818,74.528486,69.259262,59.77162,73.640392,72.718273,67.94861,37.655855,62.204638,72.966715,70.713201,71.182713,81.303159,75.278879,66.798908,56.110589,69.122525,64.910906,56.372091,39.319188,54.062756,51.350485,43.965353,23.001154,38.410941,39.450672,34.950815,-2.995906,10.096606,27.990412,39.811926,43.574487,52.90744,54.089286,54.126963,57.475161,65.005096,64.7274,60.895858,64.699755,72.302028,71.679062,68.812584,66.771087,75.055883,73.92699,70.816204,52.641106,380.092882,-106.594021,361.341538
30,0.48317,-0.189327,0.427419,-0.142315,-33.122063,-64.716454,-83.245525,-92.11544,-65.725937,-100.840931,-120.377254,-133.899765,-54.628029,-94.675312,-115.882931,-129.747162,-44.151192,-82.168179,-101.035309,-113.28867,-35.682106,-64.820709,-80.542202,-91.690006,-16.546702,-8.923614,5.780209,17.001432,28.208144,51.752897,57.537799,58.924404,47.553437,68.615885,69.089942,65.362688,57.608256,75.496609,74.943882,69.494222,60.279455,73.774143,72.87586,68.117867,37.821403,62.429158,72.878776,70.984893,71.243745,82.341512,76.579852,67.925654,55.867626,70.057253,66.056486,57.391619,38.945591,54.81047,52.375026,45.031991,22.510458,39.015748,40.754651,36.655879,-2.061196,12.300696,31.035078,43.206706,44.808507,58.009714,60.749808,61.317318,58.400917,70.061628,71.337719,67.703793,65.60776,76.9178,77.847196,75.34362,67.573248,78.521942,78.872879,76.343093,53.076582,379.978505,-106.214295,361.274172
31,0.187225,-0.563534,0.427419,-0.142316,-33.916397,-65.505753,-84.220676,-93.383675,-65.526695,-100.590591,-119.761047,-133.04987,-54.286308,-94.149799,-115.111198,-128.976402,-43.835335,-81.6152,-100.31559,-112.275581,-35.608635,-64.753532,-80.592098,-91.740475,-15.599327,-7.42629,7.195652,17.860195,29.417402,52.920597,58.896246,60.693739,48.404913,69.163858,69.638842,66.261094,58.300663,75.931209,75.01545,69.437474,61.052262,74.300874,73.392588,68.720428,37.986951,62.653678,72.790837,71.256585,71.304778,83.379866,77.880826,69.0524,55.624664,70.99198,67.202066,58.411146,38.571995,55.558183,53.399567,46.098629,22.019762,39.620555,42.058631,38.360944,-1.126484,14.504787,34.079744,46.601487,46.042527,63.11199,67.410331,68.507674,59.326675,75.11816,77.948039,74.511728,66.515767,81.533572,84.015331,81.874658,68.375409,81.988003,83.81877,81.869984,53.234825,379.427583,-105.815858,361.144469
32,-0.03685,-0.150177,0.427419,-0.142316,-34.070091,-65.668602,-84.5327,-93.624687,-65.326996,-99.742413,-118.887634,-132.167015,-53.648872,-92.959042,-114.092045,-128.24667,-42.92347,-80.069447,-98.353271,-109.898415,-34.545135,-63.19622,-78.689976,-89.360332,-15.109214,-6.47169,8.889034,20.011888,30.291294,53.806036,60.103158,62.209588,49.370813,69.786487,71.18464,68.743708,59.287188,76.897418,75.976719,70.419429,62.099734,75.12129,74.035718,69.16676,38.152498,62.878198,72.702898,71.528277,71.36581,84.418219,79.181799,70.179146,55.381702,71.926707,68.347647,59.430674,38.198398,56.305896,54.424109,47.165267,21.529066,40.225362,43.362611,40.066008,-0.191773,16.708878,37.12441,49.996269,47.276548,68.214265,74.070855,75.69803,60.252433,80.174693,84.558359,81.319664,67.423774,86.149344,90.183466,88.405695,69.177571,85.454063,88.76466,87.396874,53.179693,379.287224,-105.406721,361.011971
33,-0.459366,1.799654,0.42742,-0.142315,-33.533478,-65.315552,-84.49007,-93.646832,-62.711678,-98.149166,-118.38232,-132.203922,-51.439476,-92.092266,-113.802967,-127.874794,-41.643448,-80.073338,-99.365959,-111.496639,-34.504166,-64.310532,-80.561428,-91.938744,-15.501391,-6.799523,8.281286,18.829738,30.386575,54.303127,59.909262,60.837556,49.596943,70.661676,71.512349,68.057908,59.368822,77.40692,76.260586,70.316614,61.806975,75.169147,74.193182,69.090683,38.318045,63.102717,72.614958,71.799967,71.426842,85.456572,80.482772,71.305891,55.138739,72.861433,69.493226,60.450201,37.824801,57.053608,55.448649,48.231904,21.038369,40.830169,44.666589,41.771071,0.742938,18.912968,40.169075,53.391049,48.510568,73.316539,80.731377,82.888385,61.17819,85.231224,91.168678,88.127599,68.33178,90.765116,96.3516,94.936731,69.979732,88.920123,93.710549,92.923763,52.674952,381.049998,-105.024677,360.832776
34,-1.583633,2.135453,0.427419,-0.142316,-32.971687,-63.772774,-82.658329,-91.320076,-60.202675,-95.546207,-115.982552,-129.298096,-49.072266,-89.689922,-111.522675,-125.236816,-39.698067,-77.606678,-97.695122,-110.728912,-33.013802,-62.071381,-78.777122,-90.667992,-14.67974,-5.424403,11.379366,23.43459,32.089528,56.556214,61.099254,60.922833,50.770201,73.429144,73.984836,70.196633,59.828924,79.659019,79.212317,73.853493,61.803209,76.386803,75.734904,70.765972,38.483593,63.327237,72.52702,72.071659,71.487874,86.494925,81.783745,72.432637,54.895776,73.796161,70.638806,61.469729,37.451204,57.801321,56.47319,49.298542,20.547673,41.434976,45.970569,43.476135,1.677649,21.117059,43.213741,56.785831,49.744588,78.418815,87.3919,90.078741,62.103947,90.287757,97.778999,94.935535,69.239787,95.380888,102.519734,101.467769,70.781894,92.386183,98.656439,98.450653,51.020851,383.120505,-104.667725,360.625514
35,-0.696945,0.390757,0.427419,-0.142316,-33.287315,-62.798767,-81.296368,-90.628967,-58.676949,-93.083839,-113.908081,-128.359566,-47.457047,-87.05349,-108.831768,-123.336525,-38.011093,-73.750305,-93.999996,-107.731991,-30.999985,-57.490425,-73.604679,-85.128994,-12.155322,-2.863799,12.940972,24.434453,35.883905,59.358572,65.835572,68.034134,53.694885,76.390941,78.62328,77.188694,62.614547,83.784441,85.632137,82.238458,65.148352,82.784084,84.477651,81.13504,38.649141,63.551758,72.439081,72.343351,71.548907,87.533279,83.084718,73.559383,54.652814,74.730888,71.784386,62.489257,37.077607,58.549034,57.497732,50.36518,20.056977,42.039783,47.274549,45.1812,2.612361,23.32115,46.258407,60.180612,50.978609,83.52109,94.052423,97.269097,63.029705,95.344289,104.389319,101.74347,70.147794,99.99666,108.687869,107.998806,71.584056,95.852244,103.602329,103.977543,50.317097,383.528737,-104.247115,360.500673
36,1.554108,-0.933419,0.427419,-0.142315,-33.909302,-62.618065,-80.923977,-90.290794,-53.864937,-84.333801,-104.454517,-119.203205,-42.344513,-78.375549,-100.515518,-115.678253,-33.892937,-67.300072,-88.006325,-102.480125,-28.532295,-54.444466,-70.944614,-83.794212,-9.61034,0.473502,17.3305,29.655512,37.480956,66.249547,78.118594,85.381492,55.221726,83.599684,90.833189,92.260611,64.997619,90.949341,96.685399,96.117295,68.425261,90.969287,96.058756,95.484971,38.814689,63.776278,72.351142,72.615043,71.609939,88.571632,84.385692,74.686128,54.409852,75.665615,72.929967,63.508785,36.704011,59.296748,58.522273,51.431818,19.566281,42.64459,48.578528,46.886264,3.547071,25.52524,49.303072,63.575393,52.212628,88.623364,100.712946,104.459452,63.955462,100.400821,110.999638,108.551405,71.0558,104.612432,114.856003,114.529842,72.386217,99.318303,108.548218,109.504432,51.82929,382.620203,-103.86161,360.383244
37,1.52916,-0.817143,0.427419,-0.142316,-34.484825,-63.373375,-80.392685,-83.840733,-52.915993,-79.36512,-98.219204,-112.4576,-41.454163,-73.661728,-95.003529,-111.778965,-32.588768,-62.747841,-82.249374,-97.796516,-26.337662,-48.135681,-62.253571,-74.385166,-8.724654,1.102554,17.694828,29.607408,42.340714,72.557537,86.717771,95.85183,58.787627,88.692858,101.625061,109.429943,67.504315,94.251259,105.85867,112.080888,70.559047,94.139059,104.227656,110.842792,38.980236,64.000797,72.263203,72.886734,71.670971,89.609985,85.686665,75.812874,54.166889,76.600342,74.075546,64.528313,36.330414,60.04446,59.546814,52.498455,19.075584,43.249397,49.882507,48.591328,4.481783,27.729331,52.347739,66.970174,53.446649,93.72564,107.373469,111.649808,64.88122,105.457354,117.609958,115.359341,71.963807,109.228204,121.024138,121.06088,73.188379,102.784364,113.494108,115.031323,53.34918,382.195515,-103.44346,360.633382
38,1.004906,0.495856,2.393703,-15.834349,-34.0765,-63.055801,-82.579193,-88.725071,-47.899704,-74.376755,-92.739315,-106.205692,-35.924034,-69.241104,-92.546482,-109.967709,-27.584381,-58.505287,-80.964432,-98.700199,-22.400551,-45.105171,-61.936226,-76.497574,-8.082203,1.766741,19.36919,35.591394,43.875952,77.327386,92.963084,103.168575,59.902593,95.034069,109.320768,116.954725,68.725306,100.734991,113.162323,119.128463,72.200002,100.111682,110.203861,115.16563,37.286854,56.722183,60.91713,57.410088,53.765659,74.575539,75.362549,71.130581,35.894108,62.643471,66.274452,63.173733,17.176952,42.481899,49.456673,50.506439,-1.789398,22.001839,33.53754,39.635868,8.76473,35.009828,60.634212,77.862885,52.873173,99.000484,121.87722,133.216078,60.560729,112.98689,138.215144,148.687582,65.653223,114.28723,135.957364,145.517007,68.605202,104.406485,119.891759,128.149642,54.415627,383.273136,-100.988216,345.380799
39,4.474983,-1.156091,5.524063,-16.365465,-34.985619,-62.780228,-83.62833,-95.020866,-48.443184,-75.238209,-92.466774,-105.832672,-36.436043,-69.095192,-91.550331,-108.612728,-27.825851,-58.349876,-80.369968,-97.624397,-22.475739,-44.809341,-61.600227,-75.60894,-7.55331,3.110121,21.706073,40.004881,44.522603,79.662601,96.366952,107.361366,60.624887,96.319342,111.340501,119.359533,69.391161,102.525135,116.102692,122.806873,72.925261,102.239663,112.974725,117.780822,-12.81435,-7.487354,1.060181,12.297764,1.844273,23.001595,29.942608,30.42738,19.141273,38.997402,42.811489,42.211304,32.614861,46.364937,49.948082,50.62048,42.319622,54.408703,57.116547,58.641243,33.532573,60.103096,80.398913,94.68555,69.232956,115.406518,135.940012,146.139637,63.950764,115.817591,140.966743,152.853697,56.033188,103.540806,127.203008,138.791955,46.023817,82.880538,101.618454,112.044147,58.849812,382.24317,-95.504951,329.141459
40,2.637863,-1.109161,2.600727,-12.890399,-34.98436,-62.491264,-83.038101,-99.495392,-47.962074,-73.818512,-91.118546,-105.584049,-35.216675,-66.546593,-88.247223,-105.8531,-26.919937,-56.252632,-77.305183,-94.45816,-22.481575,-44.397583,-60.430527,-74.064903,-6.301938,8.34952,29.369731,46.135338,46.041539,81.238595,98.120911,109.92197,61.99692,99.131827,114.594315,123.273706,70.545029,104.797427,118.836074,126.442799,73.71511,102.501979,113.959583,119.988275,15.643787,28.532181,35.814571,42.326202,37.406445,53.111515,54.612122,50.807018,31.836319,47.301521,45.981846,38.580894,22.309799,32.420197,33.581543,30.675888,10.051861,16.819324,21.124992,21.357536,23.415818,47.29921,67.959972,84.032739,54.559268,95.584389,109.157624,113.481079,56.56066,101.474514,113.368755,110.290064,56.241658,98.515558,109.559372,109.500709,54.325481,87.078702,97.594735,99.780206,61.200571,381.279818,-93.191328,316.396869
41,0.50148,-0.819922,-10.035953,-69.070676,-34.491119,-63.903236,-86.250629,-104.762878,-49.185333,-76.114998,-93.515396,-107.050896,-35.84301,-68.884506,-90.174408,-106.243172,-26.832047,-57.339478,-77.611256,-92.974434,-21.788177,-44.708633,-60.483627,-73.250427,-6.558758,8.848031,30.935845,48.330504,46.879678,83.315014,99.379816,109.867877,61.578499,99.13053,113.953346,122.212649,69.507993,104.76155,118.430868,125.641155,72.917974,102.153151,113.68152,119.998526,32.377939,57.29599,72.257909,80.562,66.050548,85.383653,88.581848,86.147318,53.830547,74.312381,77.107401,72.909507,38.378906,55.775613,59.894371,58.741006,21.354332,34.980697,42.115287,44.018297,6.762102,25.611663,47.520771,64.997866,38.841318,77.390371,93.00353,99.036422,47.781388,89.52479,102.917312,103.557756,54.332366,93.052437,103.347373,102.990888,58.475016,89.102016,97.806292,98.389865,61.545696,381.076057,-103.383636,247.942354
42,2.004204,0.179014,-10.035954,-69.070676,-35.925865,-65.328484,-88.068581,-106.738644,-52.468872,-80.265083,-97.953186,-111.736679,-39.060745,-72.495232,-93.293152,-108.992672,-29.054375,-60.09613,-79.863167,-94.698658,-22.789993,-45.766182,-60.651855,-72.891884,-6.760682,8.040768,29.382822,46.154419,46.41902,81.900065,96.823473,105.596169,60.856884,96.302855,109.769941,116.772129,68.423285,102.044779,114.742701,120.898785,71.411202,99.837819,110.8494,116.738475,49.112091,86.059799,108.701248,118.797798,94.694653,117.655792,122.551575,121.487617,75.824776,101.323242,108.232956,107.238121,54.448013,79.131031,86.207199,86.806126,32.656803,53.142071,63.105583,66.679058,-9.891613,3.924115,27.081569,45.962993,23.123368,59.196353,76.849437,84.591766,39.002116,77.575067,92.46587,96.825449,52.423074,87.589316,97.135374,96.481067,62.624551,91.12533,98.017849,96.999523,64.292994,381.499171,-112.676497,179.115777
43,1.056061,-0.652146,4.82254,-43.659085,-36.285324,-66.474037,-89.724369,-108.700275,-56.02272,-83.822536,-101.61232,-115.880527,-42.752266,-75.545654,-96.221523,-112.235641,-32.229538,-62.216492,-81.81776,-97.074909,-24.96254,-46.941261,-61.314697,-73.399773,-7.26296,7.078758,28.386726,45.406375,44.869578,79.524033,93.470055,101.458767,59.290276,93.610105,106.331863,112.79287,66.997221,99.856591,112.666097,119.015953,70.13797,98.093555,109.238764,115.601217,38.83215,78.413315,108.218651,121.895599,88.559303,128.677368,126.926537,116.692543,76.72308,117.558975,115.466423,106.051483,63.076,100.399818,96.951256,86.438084,49.597435,80.460091,78.283825,70.010777,-30.534344,-37.327568,-25.680638,-7.715652,-26.516738,-4.333891,2.217704,1.216483,-3.285616,18.267501,20.448649,17.392868,19.078099,37.666949,35.700383,30.399296,39.237262,52.226646,46.641198,40.012291,66.04846,381.794384,-107.154551,136.404051
44,-0.947571,0.227242,9.637241,-48.384721,-35.471306,-66.315765,-90.481224,-109.740429,-57.133484,-86.220303,-104.541435,-119.147987,-43.774452,-78.353691,-99.689026,-115.671616,-33.091736,-65.096855,-85.602837,-101.179676,-25.690842,-48.619881,-63.261108,-75.301552,-8.448568,5.062299,25.856318,42.930121,42.661754,76.4756,90.12238,97.643333,58.1679,91.891344,104.38444,110.123215,66.550889,98.820049,111.09461,116.904398,69.726466,97.457711,108.221611,114.39517,39.838943,74.609528,98.871861,112.507496,79.721603,111.330585,116.627254,114.420147,71.036739,106.397266,106.402302,99.982853,62.378826,99.162083,95.094166,87.697048,55.049229,84.516964,81.777592,74.686546,-24.418182,-40.37844,-43.987227,-41.103729,-60.893563,-71.418797,-70.769029,-70.75671,-46.375208,-50.698694,-46.001988,-43.777368,-27.441235,-27.89334,-23.767394,-22.046935,-5.21121,-7.287166,-6.490462,-5.275492,66.366177,382.803386,-96.252022,88.801091
45,-1.608353,-1.134664,43.038483,-53.858864,-35.777321,-67.052078,-91.482296,-110.885296,-59.693527,-88.343525,-105.833244,-119.944496,-46.720276,-80.883636,-102.029858,-117.977428,-35.401611,-67.373886,-87.756729,-103.15361,-26.837311,-49.628448,-64.224243,-76.425304,-8.116906,4.863895,25.150078,41.869126,41.412543,74.3688,87.858424,95.117926,57.197245,90.136829,102.222991,107.594165,66.166369,97.840811,109.815142,115.356747,70.057818,97.453821,107.914958,113.713013,39.03574,57.539921,58.384953,53.64378,58.586025,79.643612,91.199284,99.994297,38.282604,52.848072,62.654858,68.660259,17.561989,24.938564,25.704803,25.259914,-0.445862,5.863667,8.327465,8.201122,-17.97042,-47.778362,-72.244277,-90.08922,-83.851564,-118.170868,-138.786521,-155.295463,-87.102075,-121.193612,-135.421154,-145.333825,-81.73266,-99.509832,-90.619378,-81.153287,-71.395919,-81.048805,-71.482586,-61.775081,65.403271,383.005865,-52.568092,36.27937
46,-1.66832,-1.333562,-9.038887,-17.106338,-35.949554,-67.536392,-92.307014,-112.071533,-61.510391,-90.226021,-107.56897,-121.531048,-48.74588,-82.331028,-103.099365,-118.684731,-37.01683,-68.276939,-88.269424,-103.395538,-27.49855,-49.778366,-63.969612,-75.80864,-8.50192,4.584845,25.144027,40.767684,41.483062,74.272037,87.174477,93.79795,56.943328,89.581693,101.595853,107.368652,65.643714,96.923447,109.066727,115.228739,69.14311,95.898266,106.416584,112.699998,45.824433,69.197674,75.400744,74.509993,67.289372,87.725974,95.543347,100.57643,43.73786,59.316016,66.632681,70.507865,20.83045,30.065675,31.745296,31.228767,1.261769,9.498411,12.868438,12.630659,-23.311715,-56.833296,-85.617734,-106.572034,-90.972135,-129.240162,-141.21936,-148.926888,-95.591845,-132.607736,-139.168112,-142.092345,-92.18313,-116.111415,-106.067737,-94.477999,-83.746704,-100.390211,-90.736314,-79.413724,64.12179,384.615436,-61.220141,22.116165
47,-1.00399,-1.616626,-9.038887,-17.106339,-36.225815,-67.723274,-92.430668,-113.088226,-62.532234,-92.337971,-109.752502,-123.636131,-49.420624,-84.011421,-104.385738,-119.643803,-37.486496,-69.77108,-89.637394,-104.267521,-28.07373,-51.218834,-65.558395,-77.233086,-7.975621,5.077675,25.152734,40.033224,41.890738,73.455388,85.626394,91.83194,57.220402,88.734169,100.361339,105.863177,65.949749,95.978418,107.287883,112.572421,69.637916,95.589206,105.632354,111.282517,52.613125,80.855427,92.416535,95.376206,75.992718,95.808335,99.88741,101.158562,49.193116,65.783959,70.610505,72.355471,24.098912,35.192786,37.785788,37.197619,2.969399,13.133154,17.409411,17.060194,-28.653009,-65.888229,-98.99119,-123.054847,-98.092706,-140.309455,-143.652198,-142.558313,-104.081616,-144.021859,-142.915068,-138.850864,-102.633599,-132.712997,-121.516096,-107.802711,-96.097488,-119.731617,-109.990042,-97.052366,63.744764,384.748554,-69.632063,6.75957
48,-0.380173,-1.280704,-9.038887,-17.106338,-36.233711,-67.946892,-92.992115,-113.976974,-62.446976,-92.65543,-110.312634,-124.235229,-49.416504,-84.731369,-105.086575,-120.089493,-37.803612,-70.785141,-90.625591,-104.831886,-28.737602,-52.573471,-67.160912,-78.753948,-8.040027,4.864944,25.210347,40.318079,42.096244,73.257478,85.092191,91.209681,57.376754,88.204906,99.261256,104.488057,66.015636,95.221111,105.829832,110.670694,69.812114,95.014433,104.69066,110.264376,59.401818,92.51318,109.432326,116.242419,84.696064,103.890696,104.231472,101.740694,54.648371,72.251902,74.588328,74.203077,27.367373,40.319896,43.82628,43.166471,4.677029,16.767898,21.950384,21.48973,-33.994304,-74.943164,-112.364647,-139.537661,-105.213277,-151.37875,-146.085037,-136.189739,-112.571387,-155.435983,-146.662026,-135.609385,-113.08407,-149.31458,-136.964455,-121.127424,-108.448273,-139.073023,-129.24377,-114.691008,63.647718,385.531627,-78.387823,-8.282992
49,-0.934982,0.04514,-9.038887,-17.106338,-36.130142,-68.151855,-93.294353,-114.29615,-63.284912,-94.276142,-112.262192,-125.794945,-49.857101,-86.089153,-106.48447,-120.9268,-37.824898,-71.537247,-91.211529,-104.700623,-28.448753,-53.303032,-68.0793,-79.305954,-8.81728,3.784559,23.898521,39.155566,41.827321,72.439902,84.132466,90.207225,57.114809,87.520341,99.1443,105.150207,65.56881,94.093178,105.093335,110.259745,69.317184,93.294251,102.931391,108.676958,66.19051,104.170933,126.448116,137.108631,93.39941,111.973057,108.575535,102.322826,60.103626,78.719845,78.566151,76.050682,30.635834,45.447006,49.866772,49.135323,6.384659,20.402641,26.491356,25.919266,-39.335599,-83.998097,-125.738103,-156.020474,-112.333849,-162.448044,-148.517876,-129.821164,-121.061158,-166.850107,-150.408983,-132.367905,-123.53454,-165.916163,-152.412815,-134.452136,-120.799058,-158.41443,-148.497499,-132.329651,62.829294,385.79331,-87.310152,-25.172787
50,-0.814362,-0.813747,5.726452,-3.648647,-36.102448,-68.018417,-92.713394,-113.14682,-62.508888,-94.13641,-112.431965,-126.092606,-48.974419,-86.233578,-106.977825,-121.579971,-37.112045,-71.513386,-91.677418,-105.53627,-28.172379,-52.864037,-67.79995,-79.280663,-8.381569,4.327716,24.842438,40.049156,42.688183,73.191281,84.32062,89.813813,58.031617,88.131485,99.16122,104.419267,66.40133,94.742113,105.341139,110.079742,69.913508,93.953993,103.554947,109.166145,64.875984,99.235153,115.2388,115.173569,74.615479,95.349312,96.707726,92.376022,41.829185,62.068119,64.627705,63.288288,14.783478,33.37944,39.334545,38.260803,-7.188263,5.918255,14.882298,16.294899,-43.955703,-81.310411,-118.951023,-148.24406,-89.172257,-144.609477,-142.187981,-129.69439,-95.091034,-150.248077,-143.852571,-129.474559,-98.097384,-150.588352,-144.741422,-129.837312,-98.066015,-141.460653,-139.289879,-126.637868,61.261024,384.565464,-82.337608,-29.235532
51,0.537415,-0.822021,-3.763161,-1.603843,-36.268959,-68.132629,-92.456589,-112.265396,-62.81662,-94.130402,-112.408333,-126.328354,-49.157639,-85.731583,-106.165638,-120.687675,-37.278786,-71.210747,-91.102123,-104.902782,-28.395882,-52.810936,-67.641449,-79.285126,-7.876636,5.237238,25.475626,40.353647,43.692307,74.085242,85.301463,90.858383,58.786516,88.838959,99.730682,104.66948,66.833829,95.281503,105.762709,110.044483,69.880409,93.811349,103.294051,108.35104,-20.229492,-14.841213,-1.360245,10.391521,13.596668,34.842453,37.965145,35.578537,36.178093,61.773891,59.287891,51.875153,54.130726,83.626556,80.093422,73.137932,68.992825,95.353775,94.396133,88.123398,-46.894652,-84.655801,-112.918007,-133.306635,-93.505314,-141.987076,-151.510054,-145.776035,-85.039518,-136.61093,-146.398432,-142.09412,-73.502689,-119.969441,-131.227391,-131.026347,-60.380572,-94.833411,-108.81071,-114.949997,61.384506,383.307084,-86.514702,-31.275735
52,1.545181,-0.291153,-8.156548,6.062902,-35.97084,-67.805214,-92.487259,-112.499371,-61.866989,-93.747082,-112.08807,-125.954247,-48.378868,-85.672588,-106.135941,-120.700035,-36.903992,-71.315346,-91.28643,-105.317459,-28.651886,-53.558121,-68.632393,-80.487614,-7.792223,5.216304,25.538612,40.903041,43.99581,74.390042,85.376984,90.923159,59.122067,88.953815,99.627003,104.56117,67.141285,95.334053,105.762956,110.022685,70.285801,94.213839,103.745323,108.673871,-17.863026,-15.073071,-3.160801,3.33046,14.655819,32.445717,39.649258,44.27496,32.564106,56.549606,66.011066,71.556644,46.70517,74.187813,85.553741,91.818466,57.147789,83.072205,95.012856,102.298737,-44.094425,-82.293169,-109.903476,-133.945381,-93.872915,-134.562422,-152.905784,-166.031976,-82.936361,-123.286396,-145.069224,-161.229585,-67.47202,-101.785273,-122.416116,-140.090427,-47.805563,-70.204136,-85.601478,-100.621061,62.999125,383.272658,-94.601812,-24.956105
53,1.473541,-0.26917,-0.594921,2.082008,-35.669861,-67.487183,-91.916656,-111.972084,-61.457062,-93.482952,-112.126179,-126.078529,-47.9702,-85.529995,-105.999928,-120.496159,-36.482964,-71.155472,-91.003761,-105.011845,-28.183365,-53.386688,-68.284492,-80.033112,-7.765361,5.419895,26.036011,41.265269,43.847547,74.832854,86.125337,91.894802,58.92601,88.902933,99.772487,104.913147,66.810858,95.185728,105.98958,110.513045,69.851943,93.794121,103.481649,108.63503,-12.767887,-12.305202,-4.325294,-0.42841,12.485447,28.550434,34.593773,37.742844,28.952007,47.073841,54.511528,59.206753,43.271084,64.421654,76.138401,83.150196,54.669685,77.164249,89.421787,97.559338,-41.077733,-75.693532,-105.156907,-127.600681,-89.37875,-128.320042,-147.563678,-162.592015,-81.091691,-122.17847,-144.259429,-162.649103,-68.436932,-103.426722,-124.895148,-144.020146,-52.115186,-73.331393,-87.057367,-101.294542,64.661093,382.540452,-95.008307,-23.337133
54,1.061211,0.751503,0.097389,-2.224435,-35.544548,-67.512932,-92.147026,-111.952229,-61.073227,-93.2127,-111.903648,-125.724564,-47.280006,-84.772797,-105.083771,-119.322338,-35.814056,-70.296249,-90.027065,-103.873444,-27.862129,-53.299713,-68.284264,-79.902534,-8.280977,4.901439,25.389238,40.925518,43.77178,74.890467,86.129228,91.634709,59.172332,89.411015,100.156019,104.769269,67.082622,95.468916,105.777653,109.607661,69.989522,93.90663,103.082927,107.486596,-13.254604,-14.450684,-7.769909,-4.21566,14.102726,28.307533,33.685856,35.881519,31.519432,48.63224,56.643162,60.938816,45.355797,64.6661,76.157627,82.991753,55.319366,76.218967,87.354298,94.357738,-37.850471,-69.963618,-98.965965,-120.707637,-82.636902,-121.186202,-141.362053,-157.857209,-74.420516,-115.896168,-138.749471,-157.467626,-62.08229,-98.281709,-120.477092,-139.757392,-46.378851,-69.35022,-83.481679,-97.367957,65.769081,382.502939,-94.86414,-26.350583
55,2.164192,0.882722,-0.249195,2.071448,-35.390968,-67.280045,-91.934738,-111.659203,-61.345024,-93.12252,-111.927967,-126.035614,-47.623329,-84.723816,-104.969559,-119.292469,-36.385117,-70.508881,-90.075359,-103.879051,-28.62648,-54.286423,-69.587517,-81.223469,-8.941892,4.431333,25.053315,41.040065,44.065341,74.817355,85.890439,91.572032,59.435451,89.487709,99.561671,103.522157,67.183831,95.980086,105.568875,108.604834,70.014284,94.196734,102.64067,105.960125,-13.782635,-15.094757,-11.091213,-11.222363,13.859024,29.190273,34.983788,37.787361,30.384178,49.616718,59.407997,65.44241,43.409271,63.181057,74.451427,81.094379,53.109341,73.668823,85.119038,92.938728,-34.489612,-65.511784,-92.589278,-111.885386,-80.574253,-117.847666,-137.675075,-154.002363,-72.727381,-111.57966,-133.417786,-151.891749,-59.901821,-95.134167,-117.065042,-135.7191,-43.246098,-64.191931,-77.513069,-90.602891,67.971468,382.932104,-95.07514,-24.732692
56,1.325569,0.018031,-0.125198,2.4024,-35.606117,-67.091904,-91.54129,-110.986176,-60.125198,-92.110577,-110.746593,-124.640064,-46.365738,-83.804626,-104.236794,-118.504887,-35.503693,-70.019531,-89.756069,-103.559074,-28.249397,-54.273262,-69.967461,-81.693993,-8.475738,5.091568,25.95907,42.130701,44.513031,75.197367,85.973864,91.224007,59.882277,90.184007,99.452558,102.409909,67.592371,96.707999,105.407089,107.429785,70.31964,94.664246,102.303637,104.398952,-14.79126,-16.677647,-12.399673,-11.870556,10.898094,25.794811,31.716099,34.329414,27.63319,46.16724,55.92001,61.760731,41.001148,59.923668,70.861988,77.028179,51.154175,70.928249,81.506538,87.999001,-33.04703,-63.475255,-90.602983,-109.855434,-78.278466,-116.431915,-137.247639,-154.059698,-70.830162,-110.570689,-133.625267,-152.963474,-58.411413,-94.73495,-117.306949,-136.339507,-42.301317,-64.678092,-78.629887,-91.935989,69.477711,381.483995,-95.019665,-23.796432
57,2.051811,0.578972,-0.152836,1.088969,-35.445671,-67.220535,-91.853657,-111.377735,-58.848724,-91.742649,-110.968552,-125.057316,-45.21492,-83.514805,-104.545441,-119.033661,-34.888802,-69.984512,-90.178299,-104.416122,-28.319664,-54.739265,-70.989075,-83.243008,-8.83951,4.964486,25.590297,41.701906,44.54261,75.39466,85.739459,90.270457,59.887587,90.330664,98.845428,101.056216,67.467018,96.760734,105.079626,106.797276,70.100611,94.532224,101.784748,103.48838,-15.628109,-18.327885,-14.334927,-14.669037,8.772583,22.922173,28.756084,31.497803,25.628242,43.112411,52.716351,58.40126,39.361782,57.093315,67.39048,73.254662,50.082722,69.317436,79.984131,86.863804,-32.280213,-61.552903,-88.665008,-107.855647,-77.631692,-114.994489,-135.632958,-152.331042,-70.644046,-109.680927,-132.778206,-151.990905,-58.349508,-94.127048,-116.401811,-135.025828,-42.063053,-64.409416,-78.747954,-92.478065,72.171164,380.848429,-94.530859,-23.922002
58,0.995636,0.171913,-0.626221,2.492308,-35.793228,-67.152672,-91.358013,-110.600567,-58.937531,-91.57877,-110.688229,-125.089931,-45.403748,-83.000908,-103.912239,-118.802662,-35.085068,-69.38221,-89.52713,-103.967457,-28.403549,-54.361153,-70.742798,-83.31831,-8.128701,5.582978,25.989452,42.05166,44.937257,74.762459,84.964985,89.923049,60.222336,90.002893,98.154009,100.639401,67.728161,96.751225,104.644101,106.196568,70.22263,94.436572,101.394547,102.919906,-17.107887,-19.244385,-14.960175,-15.83559,7.322502,21.418133,27.51646,30.755081,24.652691,42.733383,53.071117,59.253731,38.680973,56.614494,67.121716,73.213005,49.842224,68.466511,78.564548,85.049057,-31.271366,-60.434387,-87.104081,-106.393799,-76.122203,-114.43114,-135.483522,-152.354568,-69.20946,-108.577602,-131.830028,-150.903588,-57.110949,-93.373107,-116.051872,-134.812975,-41.227014,-64.255811,-78.901558,-92.623395,73.824749,380.142143,-94.49913,-22.307892
59,0.804863,-0.019698,-1.293411,2.037208,-35.552673,-66.570053,-90.56488,-109.606876,-59.235306,-90.971317,-109.594517,-123.83234,-45.779686,-82.477341,-103.020344,-117.985783,-35.147095,-68.737106,-88.432045,-102.805653,-27.932739,-53.160095,-69.060631,-81.584129,-7.545468,6.149477,26.559717,42.590432,44.879273,74.437343,84.69773,89.685557,59.990155,89.406754,97.878232,100.831568,67.445776,96.209797,104.508559,106.602021,69.919374,93.99481,101.532436,103.744582,-17.778683,-20.183887,-15.310707,-15.566826,5.053596,20.320244,27.152767,30.892067,23.292561,42.24432,52.594814,58.705273,37.951927,56.144085,66.097927,71.543369,49.526138,67.255268,76.251011,81.626587,-30.593871,-58.845889,-85.848387,-105.776974,-73.255008,-113.824565,-135.41183,-152.220076,-66.10394,-107.490054,-131.437265,-150.2436,-54.127478,-92.119913,-114.878861,-132.797163,-38.866419,-63.773108,-78.914371,-92.192408,75.837364,379.897473,-94.584789,-20.495656
60,0.477905,-0.234219,-1.871624,3.417854,-35.489845,-66.168709,-89.590073,-108.565235,-60.147285,-91.451912,-109.657059,-123.384476,-46.233902,-82.89299,-102.986927,-117.688293,-34.868546,-68.652191,-87.737045,-101.594296,-26.898994,-51.995544,-67.491074,-79.754791,-7.488905,6.300765,27.039456,42.952722,44.457703,73.666018,84.103752,89.328887,59.71907,88.431653,96.954075,100.247595,67.446393,95.442919,103.861908,106.284747,70.238562,94.058228,101.905223,104.623167,-17.363777,-19.149456,-13.900509,-14.176998,4.455814,18.693695,25.608158,29.92075,22.348938,41.365986,52.203712,58.899078,37.19902,56.25658,66.993542,73.238354,49.390869,68.766632,78.819637,85.547962,-31.033503,-59.794962,-86.07498,-105.703954,-73.141819,-113.090322,-134.687714,-151.918611,-65.897137,-106.578895,-129.81363,-148.23279,-54.296304,-91.745428,-114.093457,-132.041863,-39.470863,-64.457149,-79.282774,-92.517215,77.556238,379.307664,-95.215445,-17.433392
61,2.684441,-1.266563,-0.2528,4.390053,-37.301903,-67.754631,-90.689049,-109.102364,-63.323822,-93.855515,-110.094337,-122.87281,-49.111176,-84.253807,-102.795353,-117.353497,-37.176018,-69.816399,-88.245621,-101.69878,-28.271713,-53.421936,-69.111786,-81.243782,-8.074422,5.405693,26.316852,41.835904,42.085746,70.909233,81.37105,87.05005,57.573985,86.213393,94.482515,97.947577,66.017304,93.981657,101.934122,104.269955,69.705347,93.585466,100.553506,102.448627,-17.62722,-20.044899,-14.750862,-14.469051,2.898674,18.460236,26.558018,32.107143,20.309086,39.551182,50.558338,57.765541,35.063896,54.028072,65.05394,71.899395,47.341347,65.929527,75.570889,82.34087,-31.940154,-60.903629,-87.806986,-108.273697,-72.476675,-113.383698,-135.256034,-152.51938,-63.91251,-105.212976,-128.873542,-147.245432,-51.439544,-89.312338,-111.739964,-129.232435,-36.44605,-63.066869,-78.575547,-92.301212,82.133617,377.211531,-93.575306,-13.872909
62,1.854744,-9.928293,-1.405449,5.938197,-33.257217,-63.925896,-87.067108,-104.292068,-59.497604,-91.902122,-108.512306,-121.814461,-46.47686,-83.759422,-102.630558,-117.366486,-35.105896,-69.59919,-88.54351,-102.691383,-26.712456,-51.898613,-66.515808,-78.236275,-10.063712,4.000006,25.780921,41.924886,37.18406,67.831593,79.333224,85.341169,53.239106,84.539957,94.558035,98.071325,62.899587,91.374802,100.579442,103.18111,67.619418,92.254004,100.353373,103.507276,-18.057804,-19.6661,-13.809929,-12.883701,4.228764,19.584732,27.297535,32.807064,22.216015,41.165028,51.692219,58.894615,37.141514,56.894245,68.300972,75.652828,49.474812,69.908123,80.864754,88.651657,-31.084602,-60.966738,-87.307673,-107.98415,-71.258277,-111.014304,-132.252154,-148.780084,-62.302553,-103.308563,-126.468703,-144.074116,-49.437719,-87.060362,-109.416852,-127.118657,-34.118801,-60.003771,-75.974743,-90.619934,86.728792,367.073935,-92.240324,-8.144015
63,3.563118,-5.744332,-0.670223,3.172273,-35.032425,-65.346336,-87.293015,-104.808254,-59.313126,-90.337601,-107.013359,-121.532593,-47.208366,-82.352028,-102.340965,-119.203949,-36.257744,-69.260559,-88.662071,-104.250298,-27.537117,-51.876411,-66.38649,-79.050522,-8.48463,4.134375,25.593385,40.790778,35.508031,64.624338,76.63362,83.287844,51.32756,80.877355,91.441863,96.240178,61.084372,89.446769,99.098173,103.013272,66.450359,91.472367,99.7807,103.614598,-17.189598,-19.076557,-13.432045,-12.645836,6.457672,21.719971,28.858852,33.921318,24.928493,44.652843,55.617256,63.187981,39.717407,58.562622,69.490814,76.478291,51.234512,71.290398,81.981583,89.941235,-32.516594,-61.850726,-88.821484,-109.212643,-70.552192,-109.551931,-131.094272,-148.222107,-61.03244,-101.136091,-125.293902,-144.196413,-48.423315,-85.513576,-108.389695,-126.332729,-33.807795,-59.049603,-74.187995,-87.637204,91.302509,360.197409,-91.899948,-6.103936
64,2.539787,-12.706444,-0.283241,6.711313,-32.650452,-63.074455,-85.229874,-102.865391,-55.780334,-88.280411,-106.608982,-122.499847,-43.835793,-80.509186,-101.635551,-119.189129,-32.84935,-66.221352,-87.534714,-104.540176,-24.13044,-48.973846,-64.877243,-78.416519,-11.750918,-0.609044,17.282088,30.8757,31.522412,61.210899,74.312422,81.206732,47.625314,78.526887,89.891001,95.06303,57.747071,86.821079,96.795932,100.767348,63.262803,88.658586,97.093013,100.950191,-17.457733,-18.437634,-12.745686,-12.322369,5.703163,22.746048,31.417065,37.449245,24.058285,45.138245,56.954556,65.012913,38.984528,60.194035,72.256451,80.192585,50.584888,71.786098,83.327637,91.596966,-31.308262,-61.086225,-88.176377,-109.200509,-69.990263,-108.204722,-129.299527,-145.704234,-60.52902,-100.068827,-123.276701,-141.380347,-47.115256,-82.895606,-104.730582,-122.540605,-31.248364,-55.358719,-70.059517,-83.812908,95.347309,347.48831,-90.678177,0.604722
65,2.36618,-14.068226,-0.928173,8.508497,-32.42981,-60.422974,-80.121574,-97.286797,-61.370544,-93.206863,-109.753017,-122.379913,-50.233383,-84.236069,-102.423477,-116.412735,-38.586502,-68.754616,-88.012619,-102.068138,-26.578674,-50.289001,-65.043755,-75.663071,-13.153579,-7.760668,5.468863,20.954879,28.663553,54.007343,66.258563,72.793547,44.260966,71.379709,81.66245,87.805875,54.4814,79.574915,88.826486,94.017719,60.885906,83.732756,90.561363,93.785661,-16.173477,-15.960445,-9.329338,-8.844566,7.420464,24.275837,32.240067,37.434883,25.306606,45.073528,55.644035,62.895927,40.009117,60.380001,72.332954,80.842094,51.072178,72.642002,84.640503,93.381271,-30.66192,-61.858074,-87.75243,-108.328933,-70.687209,-106.086467,-125.86145,-141.674557,-60.322588,-96.834588,-118.582929,-136.02671,-45.558898,-79.741055,-100.471934,-118.226042,-28.028265,-50.740252,-65.05585,-78.767961,101.796312,333.293387,-87.523527,8.986522
66,-1.293755,-17.069605,0.992775,10.642931,-28.775711,-51.338539,-68.62587,-84.044952,-58.851357,-89.429512,-102.810345,-110.235214,-50.10807,-81.647186,-95.844841,-103.937759,-40.08522,-68.583755,-82.96772,-91.344109,-30.472412,-52.295036,-63.745537,-70.253334,-11.848731,-10.452986,-4.87748,2.453097,24.268715,48.497045,59.08687,63.666898,40.949353,64.823483,74.317794,78.965748,51.958834,74.191329,80.992581,84.581701,58.358153,79.260174,86.06828,88.900895,-13.899307,-11.883202,-4.138184,-4.686871,6.546822,24.665909,31.862698,36.126537,23.184185,43.90377,53.211594,59.146099,37.234783,58.565998,69.642677,76.636333,47.635632,68.719425,79.759998,87.742081,-30.643889,-62.826969,-89.199149,-110.230969,-67.807911,-103.367504,-122.275078,-137.678595,-56.852493,-93.361312,-114.477051,-132.097037,-41.966414,-76.008644,-96.004292,-112.445092,-25.453365,-47.625345,-60.66379,-72.878454,101.944828,316.38279,-85.088482,19.78846
67,-13.597527,-14.25323,3.268204,9.540686,-23.439445,-35.061951,-43.31234,-48.954277,-41.122513,-65.285683,-68.696594,-66.126595,-35.518799,-62.294769,-64.926109,-59.324684,-28.06366,-52.312317,-57.03907,-54.158936,-19.381943,-34.980583,-41.722298,-42.23465,-2.819339,0.551308,4.874269,8.46487,17.849204,35.333215,36.192719,33.204802,28.931241,49.88081,49.514815,43.051523,36.060079,56.976796,57.120181,52.633396,39.287279,57.660188,61.482106,60.810879,-10.071888,-7.56958,-0.436878,0.1577,4.836388,20.713634,27.969589,32.36681,16.6329,36.245327,46.639481,52.760754,27.461014,47.977524,58.081284,63.184719,37.203884,55.691013,65.546036,71.419373,-34.218929,-63.753256,-88.499579,-110.044576,-69.310731,-101.952308,-120.760464,-135.503437,-59.567751,-92.698082,-112.126645,-127.057154,-46.442855,-76.081972,-93.413738,-107.471776,-31.216871,-49.943702,-61.695176,-72.073414,90.106831,301.943429,-80.060749,29.143014
68,24.047699,-62.623625,1.839123,6.970757,-14.400444,-34.835815,-50.681534,-63.812943,-41.637268,-52.409248,-58.987541,-65.776634,-36.606789,-49.180984,-56.909294,-63.780785,-30.749245,-43.598328,-52.903404,-61.011772,-23.071747,-34.859161,-41.661072,-48.121834,-21.533295,-29.260618,-30.870636,-32.954157,9.921315,24.384805,32.505911,38.593575,25.56677,46.530603,58.292018,69.421357,36.967193,59.124476,73.403023,87.823474,43.665445,66.803016,80.848332,94.023833,-0.576668,1.916256,5.179882,5.64703,-0.510693,17.155838,25.359535,29.400272,1.291981,23.905621,35.195389,43.307076,7.56031,31.69178,42.292271,47.338657,18.883953,40.202866,49.454269,54.656811,-33.250374,-64.08924,-88.979997,-109.713377,-71.238208,-102.726503,-123.755143,-140.860316,-62.36489,-97.111044,-117.987716,-134.707042,-48.041574,-78.531982,-96.580083,-111.281807,-30.200644,-49.407709,-60.44189,-68.325349,115.254364,239.523704,-77.121792,36.317671
69,0.914383,-26.409354,-1.006393,-2.601668,-12.273903,-25.88459,-40.061073,-53.234596,-20.419807,-22.799034,-26.960907,-31.005478,-20.027618,-24.310913,-30.497475,-36.022682,-20.406075,-26.351738,-31.873856,-36.042366,-19.434013,-28.535042,-36.61171,-42.980804,-20.51676,-34.304886,-43.476674,-48.380769,-17.97573,-8.470057,-1.621504,5.071253,-1.340601,15.019306,24.289092,31.9827,11.975504,28.30077,40.346114,50.671153,22.718779,40.449113,52.708484,65.018367,1.65659,4.974232,8.185444,7.296524,6.053696,18.960342,26.076736,32.273083,7.390537,22.715263,31.608181,39.085522,10.88562,25.085506,34.224472,40.709667,18.478889,31.452827,38.413353,43.951435,-36.993035,-68.330011,-92.473712,-113.734441,-71.789516,-100.209711,-122.445201,-143.310788,-61.293953,-91.591823,-113.501395,-133.66417,-45.768201,-71.853829,-91.427598,-109.381284,-26.165564,-40.404252,-51.993075,-61.158442,116.139708,213.68057,-78.157225,34.282223
70,-3.108444,-27.66721,-2.731647,-3.21519,-9.591179,-24.306679,-38.41713,-49.55452,-24.737778,-23.170967,-19.428406,-18.653297,-24.228973,-20.814629,-17.247734,-16.949959,-23.062935,-23.306122,-21.080132,-21.538467,-19.159012,-29.607353,-38.712959,-46.265717,-20.098833,-34.71392,-46.457428,-57.621718,-17.966159,-7.151747,-2.630506,0.025318,-2.160215,12.010146,14.630525,15.218327,10.446194,24.34158,29.536704,33.106866,20.475078,36.971268,48.328095,60.082039,4.06477,7.654381,11.037483,12.110424,8.204441,18.619308,24.392395,29.773006,9.60783,21.757336,29.408398,36.626244,13.751221,27.678967,35.326881,40.490227,22.334232,36.353302,42.944984,47.342091,-36.173793,-65.20791,-86.801319,-107.37949,-68.302748,-97.690973,-119.44586,-138.489594,-58.327185,-90.178017,-112.791481,-133.736541,-43.538579,-70.802837,-91.617172,-110.073907,-24.704518,-40.280535,-51.517813,-59.732872,113.087626,186.302367,-80.83251,31.356041
71,3.578911,-30.931399,-1.54129,-2.294614,-12.831001,-32.336197,-48.519173,-57.250214,-51.110802,-49.38961,-41.495819,-37.784958,-50.882263,-43.759346,-34.559669,-30.099792,-46.24855,-41.948547,-33.535881,-28.950233,-36.624985,-51.188393,-61.569443,-67.899742,-21.498344,-37.46027,-49.912488,-61.392877,-20.359173,-5.229889,-2.63205,-4.807949,-4.630663,13.220454,13.966091,12.608446,9.621517,25.272653,26.997527,26.37181,22.133447,41.043955,53.657341,65.594931,17.937641,23.288555,24.707336,26.061058,8.820648,16.097374,20.081806,22.168694,4.671249,15.061226,20.953045,25.293617,4.971828,18.2864,25.910282,30.084229,10.798588,30.065346,40.257626,46.385593,-34.384575,-65.087188,-89.508673,-111.450416,-69.104392,-96.564955,-119.697431,-139.889445,-60.28563,-89.320643,-111.626745,-132.197567,-45.50709,-69.860896,-89.817117,-107.112697,-27.072924,-39.966102,-49.408234,-55.25995,116.546116,156.814368,-82.494221,30.504827
72,-21.508827,-27.53525,0.032101,1.055006,-4.915924,-22.199364,-36.136665,-42.504959,-38.599892,-38.07724,-32.308388,-30.039711,-39.730911,-32.378998,-25.182953,-21.434212,-35.791855,-31.783791,-26.341095,-23.39447,-28.763237,-34.78466,-41.955528,-46.254044,-24.929321,-38.054309,-44.990609,-48.479847,-26.218237,-16.701696,-13.194211,-13.526675,-8.761581,4.993077,7.06647,6.986997,7.813897,20.654648,23.485164,25.974138,23.015799,35.60856,44.111592,52.896514,16.627808,21.15778,22.884007,25.036411,8.184586,14.131508,15.368729,14.598885,3.763161,10.108566,13.382835,14.358616,4.748211,18.024445,23.245411,23.050117,11.489811,30.631886,38.736305,41.073017,-25.601844,-49.482797,-65.527376,-77.576209,-67.35772,-98.5414,-120.480364,-138.122426,-57.195671,-88.271596,-109.481165,-127.244041,-42.377208,-65.369511,-77.092055,-84.366809,-24.887546,-36.261108,-38.354262,-37.062536,94.996862,131.381412,-82.502546,33.662126
73,-4.926338,-32.042968,-5.538387,27.613776,-5.777092,-20.331459,-32.913551,-38.620605,-33.852997,-43.067207,-38.355789,-35.111618,-37.537766,-44.692383,-38.528023,-33.288803,-37.215958,-46.666946,-41.772423,-37.304535,-32.907486,-44.780159,-53.388863,-58.579445,-25.748903,-42.827616,-54.074959,-62.835428,-29.789263,-26.678061,-22.366462,-22.903722,-11.781021,-7.436849,-4.634121,-5.660506,4.773369,9.520185,13.927991,16.776475,19.305649,29.528615,39.087579,47.511076,21.322975,28.93507,32.837372,34.886513,17.089806,23.342838,24.952068,24.482975,10.187073,17.477627,20.526829,20.937061,7.4543,21.40028,24.928989,24.043579,10.2845,28.080845,34.461403,35.482426,-29.430246,-56.083453,-73.972589,-87.365039,-63.619731,-91.313185,-110.889064,-126.494329,-51.152096,-76.400553,-94.578073,-109.814761,-34.388804,-50.9247,-59.575192,-65.463629,-15.767288,-21.21703,-21.429101,-19.955345,89.782534,100.803734,-88.328924,62.741192
74,13.783264,-12.354436,-5.538387,27.613776,-27.638397,-55.043449,-72.677078,-84.349937,-47.024803,-57.296333,-64.150658,-69.935875,-36.758308,-46.186523,-55.005798,-60.466232,-28.201561,-39.442635,-47.690735,-52.932472,-20.451508,-30.906143,-39.083176,-44.605293,14.138529,22.07815,33.480425,47.565509,0.056903,-4.622018,-4.037489,-2.144314,-12.79697,-24.415804,-31.648136,-37.031135,-22.064132,-37.36891,-46.268657,-52.284969,-28.692422,-41.8548,-51.32543,-58.827117,26.018142,36.71236,42.790737,44.736614,25.995025,32.554168,34.535408,34.367065,16.610984,24.846687,27.670822,27.515506,10.160389,24.776115,26.612568,25.03704,9.079189,25.529804,30.1865,29.891834,-33.258649,-62.684109,-82.417802,-97.153869,-59.881742,-84.08497,-101.297764,-114.866233,-45.108522,-64.52951,-79.674982,-92.385481,-26.400401,-36.47989,-42.058329,-46.560449,-6.647031,-6.172952,-4.503941,-2.848156,103.254004,88.972633,-94.179105,90.878303
75,-9.067726,-39.008353,-5.538388,27.613775,-5.784187,-21.743088,-34.096069,-37.332573,-33.437691,-50.761642,-46.401558,-39.505806,-39.883347,-56.282959,-51.548309,-44.028969,-43.814507,-59.829254,-57.493973,-52.412224,-43.929062,-61.011429,-69.190407,-74.212646,-33.119679,-59.643951,-81.419369,-96.996775,-48.853622,-53.593738,-50.876844,-49.101735,-27.416874,-30.278357,-28.480124,-26.985331,-6.883998,-6.662406,-1.635058,2.493543,11.565636,23.140164,32.751894,39.930132,30.71331,44.489651,52.744102,54.586716,34.900246,41.765499,44.118748,44.251156,23.034897,32.215748,34.814816,34.093952,12.866478,28.151951,28.296146,26.030502,7.873878,22.978764,25.911598,24.301243,-37.08705,-69.284765,-90.863014,-106.942698,-56.143752,-76.856755,-91.706463,-103.238136,-39.064947,-52.658467,-64.771891,-74.956201,-18.411997,-22.035079,-24.541466,-27.657269,2.473228,8.871126,12.421219,14.259035,93.45849,50.468828,-100.44528,118.996625
76,18.281708,-4.960935,12.925644,2.695714,-16.07872,-37.510872,-57.568588,-68.873749,-35.448074,-44.142609,-48.379898,-52.366333,-39.928551,-52.806702,-56.675835,-59.240456,-44.730492,-67.573128,-71.432419,-71.518135,-48.397408,-70.334473,-80.044556,-86.382408,-30.449715,-47.225511,-53.463939,-55.690968,-54.137049,-74.439381,-88.449561,-102.179518,-41.916952,-58.467204,-70.043307,-81.388649,-24.904867,-27.149248,-24.160651,-22.126624,-4.349051,4.609329,12.838837,18.019141,19.416733,35.136395,49.965363,59.05283,25.63448,24.558964,28.518848,33.149815,17.672081,16.070309,21.987705,26.252403,9.842091,12.079983,18.193073,22.633896,7.311058,13.1464,17.536697,18.887672,-31.791026,-58.942837,-78.411785,-96.179292,-50.296421,-61.575597,-71.289245,-78.91258,-30.710116,-29.098431,-34.575599,-40.87831,-9.202232,0.183275,0.706425,-1.87746,10.964897,26.747561,34.273455,37.408091,109.2342,45.357962,-90.025635,121.54241
77,6.886711,-11.420553,-1.060295,12.145256,-16.875458,-37.516823,-56.7556,-70.659485,-34.008865,-44.523582,-48.513107,-52.232323,-37.024956,-48.513908,-53.327637,-57.672043,-41.816711,-63.134651,-72.482643,-78.328629,-47.03476,-70.872459,-82.743645,-92.579384,-27.66014,-39.404543,-37.746205,-34.24261,-45.889325,-64.992803,-80.294555,-93.438315,-37.310803,-54.777833,-70.483804,-84.926052,-23.879224,-26.497071,-26.229167,-25.269102,-6.668026,-0.146441,6.669816,11.837863,21.194716,37.888527,49.490233,56.5131,28.34467,29.671927,35.487528,41.191549,23.316021,24.740868,32.72913,38.677168,18.044586,24.895792,33.021498,38.073807,16.228037,27.001705,34.200812,38.536005,-28.879093,-53.716915,-75.465086,-97.354989,-45.005414,-50.192155,-55.660062,-59.052135,-25.774637,-20.808175,-20.129955,-19.678019,-5.386581,5.804446,10.010544,12.24029,13.460015,29.667862,38.975841,45.962622,113.810349,33.795136,-93.396492,133.545393
78,-3.20343,-3.185055,-1.060295,12.145256,-13.918304,-29.6101,-46.797409,-61.330032,-19.797363,-29.460411,-34.195061,-38.037758,-23.298569,-33.457146,-41.779518,-48.854942,-31.063728,-49.022942,-60.719147,-70.533829,-40.887337,-62.254257,-74.559746,-86.542854,-26.833302,-40.18618,-41.567537,-41.574916,-47.779721,-69.595308,-86.72444,-101.272652,-40.043722,-61.420819,-80.759813,-97.799778,-25.977812,-35.847967,-41.873232,-46.685504,-7.215134,-6.584817,-1.821977,3.468243,22.972698,40.640659,49.015102,53.97337,31.054859,34.784889,42.456207,49.233284,28.959961,33.411427,43.470554,51.101933,26.247082,37.711601,47.849922,53.513718,25.145016,40.85701,50.864925,58.184338,-25.96716,-48.490993,-72.518387,-98.530686,-39.714407,-38.808714,-40.030878,-39.19169,-20.839159,-12.51792,-5.684311,1.522271,-1.57093,11.425617,19.314664,26.35804,15.955133,32.588162,43.678228,54.517154,110.044699,30.8332,-95.019007,145.913769
79,-3.971901,-0.620129,5.61224,-4.823942,-4.561501,-18.77243,-31.78688,-40.410004,-14.074402,-24.039001,-28.124771,-30.798683,-18.013916,-28.485031,-34.517784,-40.56324,-24.216156,-43.652802,-52.039375,-58.397369,-30.995407,-51.349983,-65.817146,-79.166565,-30.996082,-50.761679,-58.519507,-62.718134,-49.126312,-71.804058,-90.437153,-108.699065,-35.763986,-51.721744,-67.477732,-83.138377,-19.016657,-23.026667,-30.489636,-37.780044,-0.278278,3.574299,5.968177,8.584851,15.982075,33.216476,44.498177,55.002708,28.539219,37.003841,47.609997,57.696304,29.997311,38.686867,49.667702,57.167358,29.449139,41.34716,52.164116,59.168644,29.23914,42.869225,52.670918,60.62273,-26.380949,-45.216276,-61.180023,-77.429366,-37.275327,-43.532558,-49.741377,-55.589357,-18.265278,-16.193799,-13.592007,-10.534929,1.055809,11.088521,17.216385,21.925534,19.246307,32.754086,44.527111,55.802304,105.008154,30.882848,-90.471411,141.759603
80,-10.70652,3.608107,-6.819878,-9.182533,-20.367966,-34.734306,-44.722252,-51.532516,-25.753899,-27.162666,-27.507706,-28.359718,-18.024788,-20.116768,-21.235886,-21.859131,-10.794525,-13.410072,-15.184708,-16.657677,-3.665543,-5.114822,-8.778763,-11.93985,0.189265,-5.811177,-10.152354,-14.219267,-34.489272,-57.052966,-70.639013,-82.703685,-37.236394,-60.37557,-74.391833,-87.773641,-36.145326,-58.866482,-73.131476,-86.336925,-33.333181,-50.271782,-61.464847,-71.014209,16.386395,35.16489,52.374916,65.96529,34.196205,44.991875,53.04245,59.548302,37.126465,51.905079,62.645245,69.614124,39.01823,58.052788,66.42334,70.106564,39.764099,57.087708,65.576363,69.497681,-24.116685,-35.001554,-37.304381,-39.599304,-38.8227,-50.627804,-61.190428,-70.914111,-23.908278,-26.650305,-26.645797,-25.460992,-6.235742,-0.432809,5.200805,10.3159,11.388011,23.874994,33.350286,40.488448,92.614632,34.217926,-98.978291,132.30404
81,-16.806679,9.916005,-6.555776,-22.545956,-2.619781,-5.07534,-6.538811,-7.147408,-10.584984,-10.966415,-8.183441,-5.181885,-9.580994,-10.179634,-5.929413,-2.145424,-6.45401,-6.998863,-4.001541,-1.614418,-0.980415,-0.564651,-0.05825,0.012131,-20.723006,-38.367538,-49.893561,-60.021277,-42.019056,-59.939921,-71.233948,-81.415232,-38.949319,-59.059113,-71.855157,-83.653221,-35.285328,-53.850311,-66.305493,-77.027433,-30.500751,-44.134532,-53.802331,-61.981389,15.689563,34.729614,51.275882,62.020569,38.074236,54.268312,62.182359,64.857444,42.014379,63.345737,74.825449,79.386921,43.440742,66.306581,72.146415,71.730823,43.715543,64.828405,71.850929,73.13384,-31.21508,-48.674144,-57.240702,-61.763317,-50.684074,-67.655109,-76.871652,-84.179906,-35.302787,-45.028168,-47.782654,-48.94685,-15.589632,-11.526054,-5.911969,-2.508517,4.946455,16.930898,24.207567,28.164039,73.930979,41.769708,-107.411041,107.393862
82,11.885433,39.263459,-6.555777,-22.545955,-5.392799,-15.963993,-23.604412,-26.333428,-23.073349,-28.565598,-24.735775,-22.517395,-21.895866,-26.404553,-22.181511,-21.29591,-18.680477,-23.372784,-20.67318,-20.30016,-12.884159,-22.270031,-28.495789,-33.901863,-24.804214,-45.088916,-60.343815,-75.828826,-39.458189,-39.172531,-41.390267,-44.920013,-29.626767,-27.439119,-30.843358,-35.524085,-20.417048,-18.00466,-20.996838,-25.23182,-10.747813,-8.351882,-7.433761,-5.719832,14.992733,34.294338,50.176849,58.075848,41.952267,63.54475,71.322269,70.166588,46.902294,74.786396,87.005653,89.159718,47.863255,74.560375,77.869492,73.355083,47.666988,72.569103,78.125496,76.77,-38.313475,-62.346736,-77.177023,-83.927331,-62.545449,-84.682415,-92.552876,-97.445701,-46.697298,-63.406033,-68.919511,-72.432708,-24.943523,-22.619299,-17.024743,-15.332936,-1.495101,9.986802,15.064847,15.839629,84.993754,80.275875,-114.789476,84.090615
83,11.885433,39.263459,7.800121,-19.372571,-8.165817,-26.852646,-40.670013,-45.519447,-35.561714,-46.16478,-41.288109,-39.852905,-34.210739,-42.629471,-38.433609,-40.446396,-30.906944,-39.746704,-37.344818,-38.985901,-24.787903,-43.97541,-56.933327,-67.815857,-28.885422,-51.810294,-70.794069,-91.636376,-36.897322,-18.405143,-11.546586,-8.424794,-20.304215,4.180873,10.16844,12.60505,-5.548769,17.840991,24.311816,26.563792,9.005124,27.430768,38.934808,50.541724,14.007111,28.260327,38.213768,39.876137,43.434906,61.884585,67.886753,67.677527,46.250267,67.454453,75.208912,75.025034,45.136013,64.935637,68.999119,66.119643,42.325516,59.315043,63.903037,63.257189,-36.436046,-64.191745,-83.751157,-95.351065,-62.369151,-86.699878,-90.498084,-91.533222,-45.952943,-63.820826,-67.14272,-65.940162,-24.200866,-28.729225,-27.177159,-24.865254,-0.388935,7.667132,11.707801,14.166224,95.350628,119.938396,-108.517914,65.117106
84,-4.409752,12.272092,7.800122,-19.372571,-11.453819,-28.904114,-42.672157,-51.543617,-36.572685,-51.123505,-54.252434,-54.569893,-37.634468,-49.554863,-54.480171,-56.088181,-36.410179,-48.331947,-54.610176,-57.210503,-32.177925,-48.763733,-62.529259,-72.545815,-24.228515,-44.902275,-59.65837,-71.505958,-31.968497,-18.804668,-11.65008,-7.9043,-13.641963,3.057757,8.787084,10.722403,2.751413,19.034503,27.355309,33.020539,16.990317,34.276974,46.050246,57.473455,13.021488,22.226315,26.250687,21.676426,44.917545,60.224419,64.451237,65.188465,45.59824,60.122509,63.41217,60.89035,42.408772,55.310898,60.128746,58.884201,36.984043,46.060982,49.680576,49.744377,-34.558618,-66.036755,-90.325292,-106.774799,-62.192854,-88.717342,-88.443293,-85.620744,-45.208588,-64.235619,-65.365929,-59.447616,-23.45821,-34.83915,-37.329575,-34.397573,0.717231,5.347462,8.350755,12.492818,89.690208,132.810872,-101.96846,46.344919
85,-6.409378,0.422064,7.613983,-12.729292,-10.569191,-28.022346,-42.203751,-51.639175,-30.670853,-47.298775,-57.484932,-62.420654,-31.126671,-48.953705,-60.961418,-67.777176,-29.093285,-47.152634,-58.006439,-63.989639,-24.762955,-40.49469,-50.477829,-56.844749,-24.805387,-43.964163,-57.186408,-68.324145,-26.871433,-20.29804,-14.326157,-8.958194,-8.730829,3.14359,12.300312,18.489988,6.766116,19.143307,30.19274,37.795451,20.06135,31.104794,39.468085,45.879506,5.647545,8.814125,10.713043,8.956718,5.9202,8.547764,17.246418,20.128384,7.504177,15.519905,26.477451,27.850285,9.550209,19.345264,31.203861,33.932533,13.031445,21.46574,28.694515,30.811844,-29.515431,-55.470179,-76.422835,-91.27279,-41.71688,-53.956738,-57.251092,-58.92036,-24.224872,-32.684894,-35.824038,-34.67298,-4.76355,-6.714122,-8.008967,-9.612656,14.921246,26.484813,32.689649,35.582069,81.655312,134.423391,-95.979996,34.806083
86,9.694519,-5.518202,-12.191219,13.666015,-14.312325,-34.182587,-49.212914,-58.200874,-45.436478,-66.075325,-74.173164,-75.438766,-47.619896,-67.947578,-73.107719,-72.378273,-46.873741,-66.695251,-72.795525,-75.318832,-42.664719,-64.297485,-77.731819,-88.790016,-26.031812,-44.848336,-60.273157,-75.904409,-35.650983,-29.009294,-20.229929,-11.403078,-18.227548,-4.75824,3.664702,8.0031,-1.584454,12.011443,22.646717,28.940998,13.614175,26.891193,38.678791,48.228677,11.205883,18.660507,23.238544,23.862705,17.396107,18.701992,23.61414,27.200432,13.515987,15.337429,18.792801,20.483036,10.676537,16.087875,21.546993,24.911785,12.083015,18.313808,25.101299,28.990402,-34.775794,-62.096214,-81.81451,-99.957553,-50.244272,-53.89931,-61.907258,-67.038656,-30.785143,-25.314458,-28.878753,-30.744696,-7.781108,1.347795,-0.724301,-1.777208,13.724369,26.112026,29.852372,33.269763,90.413904,129.247811,-109.107141,48.81472
87,-5.364532,-27.70531,1.90567,12.67455,-11.432076,-28.408585,-42.604294,-50.228577,-46.45443,-68.729897,-63.429451,-55.775185,-48.791428,-67.687454,-62.05925,-54.591064,-48.269005,-67.116165,-62.330017,-54.328423,-43.544312,-64.730415,-78.56884,-88.358116,-26.664785,-48.020609,-66.283849,-81.500077,-38.92783,-26.761424,-21.057662,-20.840455,-20.569525,-5.010367,-1.131515,-1.535486,-2.303537,11.619081,16.008671,16.741525,14.978797,29.350156,41.46182,52.456357,12.55537,19.23975,24.547749,27.320881,17.094898,17.760944,24.815998,28.673344,13.0196,13.542767,17.520676,17.666245,9.003925,11.920853,15.895615,17.066402,7.933903,10.428085,13.104115,12.904072,-35.059476,-59.477781,-75.584172,-91.037799,-53.874734,-57.903639,-67.654986,-72.91995,-36.15184,-31.689354,-39.318926,-43.533855,-16.206025,-8.956897,-11.235951,-13.878961,3.941992,16.090799,20.305913,21.514276,84.400663,101.419957,-107.85018,61.366726
88,8.260918,-20.619543,-11.377402,35.940346,-9.906693,-28.006897,-44.83223,-49.080162,-49.121475,-74.77272,-73.622818,-68.212166,-57.204666,-78.504066,-73.386726,-65.978966,-59.650726,-78.442268,-74.300423,-67.73243,-55.364456,-81.120529,-93.092766,-99.900284,-34.050597,-58.326444,-79.416155,-96.966425,-55.351402,-55.136881,-45.508448,-39.819691,-36.473776,-26.803569,-18.360466,-14.386364,-15.868096,-2.262134,5.971975,10.563334,5.249186,24.145986,37.058244,47.491655,14.577742,28.432074,40.480728,48.367596,28.544484,35.608063,42.941323,46.581345,26.472531,33.560143,38.2689,39.588261,24.812823,35.724707,39.930296,40.450545,25.087424,35.690489,41.377402,43.63349,-32.153039,-52.924936,-64.541114,-73.717658,-54.133607,-65.442485,-77.142042,-86.030119,-37.875249,-38.896014,-43.188501,-47.105963,-18.274664,-11.432997,-8.339409,-7.875988,1.781885,13.471192,20.621318,24.797452,92.634945,80.679862,-119.254217,97.186519
89,4.017792,-22.304604,-11.377401,35.940345,-9.723816,-26.495132,-40.107765,-40.824566,-39.140282,-65.65813,-66.092148,-61.616535,-46.27922,-72.476864,-69.302673,-62.645416,-49.966392,-73.863773,-71.436539,-65.721359,-49.023399,-76.522693,-87.207126,-92.41642,-35.997974,-62.479762,-85.001141,-102.418462,-60.834422,-65.351079,-55.839941,-50.214169,-41.549861,-37.513082,-28.461645,-23.527695,-19.825449,-11.074057,-1.876765,3.260391,2.250354,16.075623,27.026905,35.300487,16.600113,37.624397,56.413708,69.41431,39.994068,53.455181,61.066647,64.489346,39.925461,53.577518,59.017124,61.510277,40.621719,59.528561,63.964977,63.834686,42.240944,60.952892,69.650688,74.362907,-29.246601,-46.372089,-53.498056,-56.397516,-54.39248,-72.98133,-86.629097,-99.140286,-39.598656,-46.102672,-47.058075,-50.678069,-20.343303,-13.909095,-5.442867,-1.873013,-0.378221,10.851585,20.936724,28.080629,96.557064,58.362121,-130.727291,133.113727
90,4.017792,-22.304604,11.528893,8.922008,-9.540939,-24.983368,-35.383301,-32.56897,-29.159088,-56.543541,-58.561478,-55.020905,-35.353775,-66.449661,-65.21862,-59.311867,-40.282059,-69.285278,-68.572655,-63.710289,-42.682343,-71.924858,-81.321487,-84.932556,-37.94535,-66.633079,-90.586125,-107.870498,-66.317442,-75.565276,-66.171433,-60.608647,-46.625945,-48.222595,-38.562824,-32.669025,-23.782801,-19.885979,-9.725505,-4.042552,-0.748477,8.005262,16.995566,23.10932,19.511032,41.118965,57.584209,70.507679,38.954487,51.650333,59.232101,65.946922,36.021709,48.914909,61.01841,71.257954,33.196106,51.403542,65.684681,76.881237,31.876431,50.570583,63.343678,74.914169,-30.563305,-50.881506,-62.95788,-74.97698,-51.749501,-67.422897,-76.046836,-84.249514,-35.730147,-41.714873,-37.655957,-34.695704,-15.585372,-11.492184,-3.437584,3.081407,5.953419,14.908711,23.034509,29.828228,100.443478,35.991953,-119.329777,141.970172
91,5.981941,-1.607024,11.689396,5.951813,-6.056213,-20.903091,-34.233627,-41.935959,-18.846931,-25.778275,-28.755226,-30.725899,-25.718651,-37.857857,-42.977371,-45.562019,-34.359856,-56.390419,-63.938713,-66.173744,-42.700081,-67.690086,-80.890732,-89.566383,-33.6951,-59.577477,-77.074394,-87.92672,-55.434086,-75.964461,-91.407776,-107.273248,-43.279536,-59.13204,-70.971879,-82.098593,-27.221125,-30.629285,-29.962257,-29.610156,-7.789845,-0.229465,6.053733,9.938297,18.397694,38.923073,54.343929,65.898113,35.250092,48.001785,57.722054,67.681561,33.184834,46.908817,62.075329,76.623516,30.613976,49.051208,65.108814,79.419708,29.354267,47.472324,61.520061,75.113869,-29.358739,-51.407341,-67.040323,-84.813882,-47.635441,-58.48329,-64.68825,-68.344028,-30.104993,-30.980305,-25.416099,-19.570188,-9.756133,-4.059719,2.557023,9.630471,10.538943,18.850487,25.691815,32.558213,106.63064,35.000442,-107.43516,148.537498
92,0.801888,-3.171656,8.36792,-2.692812,-7.133217,-19.642868,-32.798996,-43.611488,-9.3013,-15.981903,-17.440109,-18.084297,-14.857635,-22.440033,-27.191505,-32.707787,-23.735619,-38.14785,-45.077019,-51.048889,-34.918785,-54.466782,-68.489113,-80.80925,-30.170788,-50.440546,-60.523864,-67.876794,-50.699558,-69.607102,-84.799587,-99.352862,-39.839544,-56.292725,-70.282744,-83.649208,-26.280821,-33.836694,-44.137465,-53.809865,-10.092179,-8.139167,-7.388066,-7.676163,16.195107,35.328484,49.297199,59.8423,32.716885,46.745052,56.239185,66.315422,32.98502,49.41267,64.221439,78.370056,31.827621,52.599449,67.29475,80.804787,30.841827,50.705223,62.902336,75.163364,-28.052409,-51.886463,-71.104241,-90.254526,-44.059969,-45.77768,-47.917826,-49.144189,-24.210608,-18.650353,-14.177154,-10.024315,-3.143405,6.569873,13.005193,18.341848,15.932656,28.251925,36.374265,43.260918,108.272295,32.512626,-98.227472,146.528525
93,-3.682365,-2.415275,1.221771,-8.405034,-21.632881,-38.330383,-52.664223,-67.866096,-24.224854,-25.950623,-28.623505,-32.174377,-15.436592,-18.076744,-22.122574,-25.356789,-7.977905,-10.735016,-15.83931,-19.641151,-0.921364,-3.591614,-7.846069,-10.677681,6.477865,8.428993,11.277447,14.675819,-17.147904,-35.239694,-50.76205,-63.096046,-26.941983,-49.070181,-65.755636,-81.28074,-32.900496,-56.097934,-74.181202,-89.221133,-36.738531,-57.145344,-72.455371,-85.216402,15.783463,36.232052,51.46431,63.445358,31.837692,44.068165,54.697266,63.990669,31.488018,47.030182,62.840824,75.490952,30.69397,49.322777,64.730701,76.310978,30.09573,47.410755,60.6003,71.856937,-26.677228,-48.769858,-65.528951,-81.183267,-42.860529,-45.820998,-48.421925,-50.911702,-21.829697,-18.806582,-14.866597,-11.439758,0.251448,6.323674,12.19441,16.800002,20.070119,31.602564,40.442568,47.636985,104.504929,30.532707,-97.090702,138.558847
94,-11.771965,26.688929,-8.425026,-4.223666,-12.847939,-20.245857,-23.737106,-26.643791,-18.633728,-19.642296,-18.688889,-18.190842,-15.125198,-14.822273,-12.606926,-10.205841,-10.352211,-10.647125,-9.198875,-7.761726,-3.633614,-3.264656,-3.534851,-4.33445,-14.035004,-31.224405,-41.97157,-49.560171,-49.350806,-69.76682,-81.53262,-92.100925,-49.349694,-72.096138,-84.762228,-96.623124,-46.285021,-68.171405,-80.519203,-91.779606,-40.827026,-58.029764,-68.558518,-78.88998,22.002468,44.158459,63.230152,74.873028,37.874222,55.137863,65.47451,72.410603,33.746281,55.90456,56.313114,54.554043,29.738388,57.414379,53.661232,46.650867,28.194981,47.868576,54.187374,56.188545,-28.936614,-46.642927,-56.456086,-66.494696,-45.038929,-57.08029,-69.967478,-83.944189,-28.539744,-31.838018,-33.467303,-37.328834,-9.744956,-4.562923,-4.43053,-8.419175,9.530188,19.87894,23.924827,24.335714,92.168026,57.199561,-106.080666,134.313105
95,7.28714,66.857356,16.712265,-29.577089,-9.461288,-22.791367,-35.902519,-42.960091,-24.277725,-31.698532,-33.777008,-33.890076,-25.105019,-34.299088,-37.937851,-40.361023,-25.195427,-37.580223,-42.276306,-43.557129,-24.564629,-38.690414,-44.826164,-47.826233,-26.537147,-49.793093,-61.740625,-71.085314,-65.996247,-91.10662,-105.920358,-118.941668,-56.014169,-77.380151,-84.502722,-90.350887,-41.914883,-52.060476,-46.9803,-42.859911,-25.672549,-26.053116,-20.047827,-14.419894,21.542645,35.67627,43.952751,52.570896,45.031643,56.213665,59.371891,60.719719,40.252533,51.53595,52.446671,52.218704,33.254642,41.498108,42.199631,41.51556,25.259857,29.290752,30.565395,30.430641,-20.441702,-40.627109,-55.261123,-64.165965,-74.501625,-101.822261,-107.105565,-104.862327,-74.540682,-105.526545,-108.764057,-105.208808,-70.37818,-98.022048,-99.069984,-94.458525,-62.172353,-80.630446,-83.325234,-81.755045,99.493761,123.5162,-89.329805,104.195299
96,-13.043404,18.022722,-12.703743,3.575781,-10.134659,-25.261002,-37.234497,-41.225052,-45.207825,-72.205353,-64.836502,-56.207657,-49.136467,-71.781921,-62.071381,-53.088112,-47.796478,-66.912918,-57.701454,-49.332275,-42.375183,-60.861855,-57.8405,-53.513031,-32.692212,-56.899825,-76.245426,-91.083803,-39.924482,-35.324447,-32.274038,-32.14498,-16.262033,-5.518696,-5.509187,-7.867373,7.036459,16.120377,15.149537,12.902131,27.924771,38.780185,39.942266,40.210139,32.855244,51.947994,61.863499,71.452904,37.129097,38.238831,37.285709,34.241581,20.412655,17.963448,16.460037,12.323284,3.869247,0.383263,-3.136311,-7.574387,-11.263676,-21.889744,-29.478836,-36.370811,-16.892813,-43.884011,-66.194527,-83.829766,-70.555033,-103.707964,-121.810376,-135.690417,-64.438253,-96.843665,-114.030781,-126.979441,-51.605591,-78.296188,-97.227938,-112.560318,-34.793733,-48.974653,-61.648956,-73.40503,86.547117,142.417569,-101.936789,108.649726
97,-8.973999,46.922841,-7.336464,-2.363806,-18.717957,-41.467896,-58.430214,-63.769569,-87.794151,-106.584606,-97.914448,-86.698666,-88.178387,-108.253326,-98.081646,-86.340523,-80.811996,-98.45787,-88.331738,-77.096786,-68.052521,-84.837112,-77.300377,-66.023483,-39.658585,-60.286865,-72.971944,-79.054174,-25.722813,-12.74862,-8.630299,-10.515601,1.12818,13.894645,13.675061,9.161229,23.43459,34.315692,32.461018,28.851151,41.296082,52.346936,49.387733,43.996242,32.347298,52.96217,62.892551,72.159576,26.514301,27.116261,25.97929,24.368763,8.195171,6.419849,4.955864,2.351131,-8.273621,-11.904716,-13.250084,-14.976826,-22.75629,-33.406734,-39.955101,-45.954723,-20.702103,-48.467003,-70.963543,-88.986728,-74.471676,-105.442935,-123.138473,-140.103194,-73.214098,-105.970191,-125.967321,-146.027374,-64.952016,-95.530172,-114.281024,-132.654149,-50.081653,-69.137459,-83.209915,-97.617799,77.845459,189.264951,-109.000912,106.210462
98,-11.9244,36.009073,-5.116081,-9.560446,-23.981781,-48.977852,-68.368034,-78.519917,-85.404167,-119.386024,-121.982117,-115.572968,-82.550926,-118.541565,-120.164967,-114.134216,-72.845764,-106.112137,-107.651024,-102.284145,-57.403221,-85.240688,-89.846134,-86.801319,-29.938082,-44.85729,-50.06143,-45.626762,-10.01672,3.859648,11.300634,12.585351,13.378968,30.296481,34.712685,33.341888,32.8816,50.837447,52.209788,47.919493,47.964818,65.378125,67.148757,62.650795,30.096245,49.225388,58.166084,67.273636,20.584202,21.147823,21.372528,20.609322,2.800369,1.065731,0.271969,-2.059536,-13.071213,-18.069477,-18.813515,-19.685841,-27.170391,-39.793224,-46.744995,-52.954159,-19.289779,-47.142271,-69.349109,-84.791621,-76.158913,-106.944612,-125.098029,-141.941041,-75.241735,-107.392982,-127.708219,-146.084771,-67.454174,-97.395529,-117.225624,-134.720133,-53.366589,-72.931127,-87.289394,-101.926897,65.998793,224.879686,-114.039259,96.255678
99,3.793831,27.766999,-3.238564,-5.483313,-36.391411,-66.040421,-88.862228,-101.13699,-80.60812,-114.85096,-135.044346,-149.748116,-73.114815,-110.618191,-133.156872,-150.471725,-63.819237,-98.555832,-118.867893,-134.824505,-52.951813,-79.627934,-95.864353,-111.093349,-23.471949,-35.859143,-39.918307,-35.178469,-9.413912,4.588735,17.041693,27.677152,9.500548,24.461746,37.499605,48.30074,25.737139,38.4103,50.845104,60.87862,38.656314,50.642563,60.603522,68.737903,29.010887,47.403889,55.451603,63.271694,18.727169,16.607666,15.170345,13.014793,0.439968,-2.564049,-4.24078,-6.54253,-15.996552,-21.369495,-23.221321,-24.330883,-30.943394,-43.269997,-49.672909,-54.79454,-16.090089,-44.425161,-67.29421,-83.661249,-74.245453,-106.659449,-125.135882,-141.475844,-72.720157,-107.575146,-129.562183,-148.376144,-64.306231,-96.506848,-118.223202,-136.872382,-49.559121,-70.88515,-85.365375,-99.371109,70.19454,252.296869,-116.875906,90.422549
100,-18.274498,44.984805,-3.927212,3.633116,-28.706245,-59.834461,-85.105877,-103.334827,-83.436813,-126.599922,-141.472836,-146.095848,-79.554634,-126.424713,-144.075851,-149.830227,-70.835438,-113.989506,-130.491943,-136.828823,-59.857578,-92.773933,-105.433216,-111.211224,-24.979647,-32.628115,-31.005685,-25.420977,-1.751736,12.207809,21.19552,26.695938,19.788537,35.135799,41.085019,44.406203,37.47509,52.574239,57.281102,59.353076,50.83368,66.090416,69.019238,69.180654,28.105774,46.078148,54.654293,63.900089,18.877716,16.112823,14.332809,11.731453,0.39093,-2.795277,-4.890976,-7.235355,-16.385651,-21.85112,-24.427643,-25.556488,-32.130661,-43.359261,-50.403557,-56.208115,-16.124916,-44.707514,-69.402122,-87.239469,-73.753673,-105.966918,-125.064067,-142.674883,-72.409336,-107.259694,-129.029863,-147.937098,-64.411021,-96.460226,-118.15188,-137.558213,-50.053402,-71.900482,-85.836592,-99.689618,51.927624,297.216002,-120.795536,93.989993
101,3.974075,15.941919,-2.766438,6.241824,-35.849075,-68.311901,-96.10239,-117.403851,-85.228786,-123.312378,-141.964817,-155.369568,-80.270748,-120.533981,-143.667526,-161.309509,-72.2612,-108.513393,-131.37989,-148.460026,-61.754036,-88.871326,-104.713383,-118.367558,-22.775775,-26.960292,-19.370795,-12.969995,2.08704,16.080857,25.957341,33.982981,22.556252,38.211093,47.304212,54.829117,39.565218,54.812877,62.915087,68.44039,52.64272,66.809067,73.664907,77.378639,27.762222,45.148659,52.238102,61.592903,17.961445,15.52866,14.081726,11.72596,-1.036892,-3.556595,-5.204544,-7.332802,-17.9603,-23.453922,-26.133556,-27.787457,-33.931389,-44.497948,-51.000938,-56.610947,-14.871043,-42.372608,-67.086018,-85.596075,-72.628889,-104.736665,-123.360712,-140.207892,-71.323177,-106.29648,-127.930243,-146.372559,-63.319552,-95.460085,-117.072112,-136.127085,-49.188958,-71.659655,-85.512248,-99.007677,56.044521,312.862677,-123.419151,99.936573
102,-5.053253,18.151657,-1.816349,7.439628,-35.414772,-68.093204,-94.831467,-116.254292,-83.508625,-119.414291,-138.27919,-153.772087,-78.468018,-117.019787,-139.932461,-158.59251,-70.34317,-104.366226,-126.202412,-143.549938,-59.636879,-83.933315,-99.265709,-113.756275,-22.093865,-24.483977,-14.631328,-9.691727,3.906702,18.917671,28.413032,37.088038,25.112102,41.660224,50.540119,58.14604,41.834175,58.321659,66.42535,71.935278,54.236745,68.329486,75.601709,79.839639,27.791634,45.06649,51.922531,60.940647,16.363678,13.516331,11.682758,8.862991,-2.698517,-5.766392,-7.847157,-10.41029,-19.58519,-25.26329,-28.502312,-30.789528,-35.275784,-46.040611,-52.81992,-58.531723,-14.787556,-41.417113,-65.854283,-83.667517,-70.552779,-103.023862,-121.719849,-138.363809,-68.833833,-104.168221,-125.344413,-143.259999,-60.750117,-92.592829,-113.285392,-131.505067,-47.09318,-69.732517,-83.024787,-95.857696,51.242323,330.754056,-124.984446,107.115923
103,-4.042282,13.689511,-1.560173,5.897782,-31.904869,-64.029121,-91.264458,-112.275352,-79.01762,-115.870056,-134.734497,-148.880253,-73.532467,-114.270344,-137.067661,-153.882351,-65.121002,-101.873531,-124.238491,-141.188393,-54.031563,-80.77034,-96.511402,-110.258446,-20.012753,-22.358157,-14.055814,-8.990613,7.979697,21.780914,29.492306,36.427988,27.549514,43.211889,50.235751,56.264135,43.081348,58.279236,64.555054,69.029304,54.921681,68.939271,74.62068,77.735865,27.69207,45.777969,53.487797,62.035389,16.598568,13.46632,11.591663,8.785801,-2.564621,-5.904293,-7.956905,-10.603008,-19.434872,-25.013695,-28.502712,-31.190586,-34.975548,-46.045189,-52.938194,-59.025478,-14.161345,-39.624375,-63.121024,-81.004499,-67.966949,-99.670753,-118.402339,-135.473426,-65.808649,-100.602042,-121.916031,-139.656029,-57.717523,-89.254509,-110.304205,-128.650654,-44.035299,-66.320406,-79.893856,-92.926095,47.386923,344.045662,-126.357737,112.615801
104,-0.208054,7.019787,-0.795879,5.586004,-31.458549,-63.233471,-91.016979,-113.610363,-76.771145,-113.973198,-132.918262,-147.114944,-70.314789,-111.594772,-133.479652,-149.73793,-61.17588,-98.648071,-120.363007,-136.640511,-50.091934,-78.332977,-94.703922,-108.79303,-18.73878,-19.202711,-9.706362,-7.555101,11.789265,25.807164,32.245942,37.376722,31.287081,46.515844,53.438868,59.094465,46.163249,61.915162,68.096008,72.448918,56.396775,71.200633,77.50498,81.43175,27.261314,45.51527,53.754101,62.045174,16.626148,13.965569,11.975269,8.914547,-2.289219,-4.736252,-7.089844,-9.894161,-19.161644,-24.258099,-27.999916,-30.69912,-34.82317,-45.195236,-52.335777,-58.597527,-14.029076,-39.154979,-62.325524,-80.07744,-66.800145,-97.436284,-115.462341,-131.988325,-65.172651,-98.500367,-119.567662,-137.664485,-57.38861,-87.695125,-108.33165,-126.409948,-43.899788,-65.425025,-78.764874,-91.843981,47.016821,350.857288,-127.315664,117.993644
105,2.291336,4.479375,-0.758686,3.310193,-31.505814,-63.711033,-91.844215,-114.419689,-77.34724,-112.735004,-130.960007,-144.85199,-71.631546,-110.760098,-132.067795,-148.937302,-62.766266,-99.288197,-120.217323,-136.469421,-51.327324,-79.301205,-94.959984,-109.058132,-18.105036,-17.614429,-6.926667,-5.11349,11.97075,25.858417,32.652506,38.136128,31.102633,45.348762,52.211949,58.227304,46.059879,60.685156,65.921035,69.95556,56.67212,70.759735,76.874199,81.371111,27.798672,46.46656,54.540939,63.363876,17.148743,14.172134,11.855793,8.829517,-1.495514,-4.471378,-7.02919,-9.547462,-18.126354,-23.776588,-27.141552,-29.309864,-33.327942,-44.458809,-51.452179,-57.31699,-14.86246,-40.621428,-63.951073,-82.546561,-66.424486,-96.786947,-114.814023,-131.728819,-64.717303,-97.216329,-118.298506,-137.128955,-56.917423,-86.728577,-107.361242,-125.942559,-43.348727,-64.230494,-77.848961,-91.536341,49.327612,354.917594,-128.054895,120.884768
106,2.680893,4.094855,0.031471,2.313232,-30.764465,-63.841209,-92.844028,-115.531197,-77.113838,-113.288956,-131.543655,-145.10519,-71.328106,-111.196117,-133.120136,-150.235806,-62.280693,-100.070171,-121.198139,-136.947784,-51.028862,-79.958267,-95.544548,-109.219036,-19.70857,-19.710423,-9.766383,-7.762397,11.265251,24.299096,30.791966,35.331857,30.621165,42.353373,48.191689,52.758132,45.291828,58.02007,62.458874,65.135076,55.263161,69.054312,74.754246,78.703617,28.114471,47.168312,55.19846,63.536797,18.036175,15.126343,12.560291,9.007359,-0.669079,-3.84304,-6.410065,-8.960953,-17.429237,-23.203125,-26.462231,-28.595467,-32.693424,-43.910007,-50.266056,-55.237026,-15.77581,-41.539965,-64.612544,-83.305042,-67.033808,-97.702891,-115.794434,-132.695893,-65.242645,-97.632712,-118.888717,-137.713361,-57.371629,-87.150394,-107.664344,-125.950308,-43.796171,-65.241348,-79.178231,-92.725839,52.167835,358.302443,-127.864094,122.487994
107,2.030983,2.884053,0.052757,0.740449,-29.631729,-63.497429,-93.075142,-115.576172,-76.750317,-113.730183,-132.98069,-147.245293,-71.023121,-111.375332,-133.723869,-150.919819,-62.428265,-100.526276,-122.047749,-137.733822,-51.961441,-81.569939,-97.306652,-110.223255,-21.581213,-22.242375,-12.268757,-9.421137,10.54203,23.249709,29.487983,34.116485,30.643086,41.258106,46.333989,50.71197,45.41996,56.626363,60.367573,62.847779,55.270509,67.593915,72.149181,75.4088,28.063202,47.130146,55.10994,62.898273,17.775993,15.432301,13.029671,9.556389,-0.871639,-3.527641,-5.76107,-8.223495,-17.625389,-22.994728,-25.853233,-27.805653,-32.938557,-43.790703,-49.699459,-54.176159,-16.099753,-41.859678,-64.594204,-83.332088,-67.213625,-97.980799,-116.123255,-132.501286,-65.432435,-97.978638,-119.393156,-137.876629,-57.48315,-87.460258,-107.93725,-125.836472,-43.911552,-65.186977,-78.942529,-92.220597,54.287596,360.84037,-127.722559,122.882316
108,0.89447,1.341281,-0.443573,-0.035383,-29.878464,-63.334351,-92.581787,-115.009804,-77.633629,-113.90379,-133.130322,-147.421303,-71.919594,-111.623669,-133.781662,-150.903282,-63.258247,-100.446339,-121.524067,-136.981258,-52.622681,-81.332531,-96.712589,-109.672794,-21.533048,-22.581138,-12.953754,-10.130093,9.720873,22.342843,28.545919,33.143237,29.602962,40.100594,45.391925,49.974238,44.358223,55.820211,59.682329,62.258309,54.348699,66.678774,71.266768,74.724668,28.27343,47.528744,55.527077,63.158855,18.578053,16.190586,13.741035,10.210075,0.032043,-2.748356,-5.190353,-7.834911,-16.618538,-22.096939,-25.240288,-27.478409,-31.828537,-42.869396,-49.029408,-53.878613,-16.196763,-41.444345,-63.922359,-82.254266,-66.901353,-97.839638,-115.811107,-131.984373,-64.985207,-97.723948,-118.971431,-137.160509,-56.855272,-86.95199,-107.262936,-124.931272,-42.979491,-64.020141,-77.660529,-90.859618,55.505819,362.003593,-127.842379,122.668876
109,0.048637,0.957193,1.27058,0.925083,-29.978371,-63.056946,-92.738743,-115.067654,-76.700706,-114.129753,-133.187771,-147.484646,-70.803738,-111.578808,-133.251057,-150.161934,-62.180214,-100.681114,-121.308346,-136.532879,-51.699257,-81.851063,-97.390137,-109.935894,-22.4916,-23.577975,-14.52135,-10.861527,9.888155,22.086146,27.854746,32.220068,30.202991,40.306099,44.778188,48.73361,45.091201,56.043439,59.265267,61.484391,54.776753,66.978017,71.044219,74.057578,27.17371,46.019325,54.147491,62.139359,17.857876,15.533638,13.230743,9.962025,-0.780087,-3.432312,-5.590553,-7.800007,-17.459679,-23.182583,-26.474419,-28.847809,-32.61692,-43.474674,-49.777164,-54.912758,-15.745491,-41.071187,-63.72059,-82.180536,-66.735924,-97.447368,-115.430447,-132.005214,-64.911817,-97.590536,-118.71458,-137.075757,-56.95577,-86.953349,-107.518366,-125.679965,-43.164402,-64.362701,-78.426821,-92.261785,55.643578,362.844556,-126.482677,123.477729
110,0.383034,0.145546,1.616478,-0.986648,-29.607239,-62.978325,-92.624702,-114.983082,-77.362232,-115.085392,-134.184265,-148.356228,-71.284904,-111.974602,-133.332253,-149.751606,-62.57143,-100.80328,-121.498146,-136.692753,-52.403984,-82.630978,-98.382626,-110.943489,-22.999064,-24.431242,-15.952107,-12.549968,9.779969,21.894473,27.129426,30.81432,30.44283,40.421943,44.169576,47.260616,45.434162,56.110438,58.839312,60.402277,54.976392,66.836485,70.190273,72.31986,26.887264,45.154266,52.906837,60.697117,16.546211,14.51889,12.11895,8.482533,-1.846676,-4.381199,-6.738052,-9.401951,-18.431625,-24.087009,-27.640114,-30.536842,-33.469334,-44.177399,-50.386963,-55.38517,-15.748887,-40.971306,-63.240851,-81.414553,-66.45709,-97.358787,-115.406827,-131.896286,-64.241794,-97.051795,-118.454086,-136.80248,-55.958532,-86.173225,-106.886505,-124.867114,-41.892437,-63.358238,-77.469906,-91.196158,56.119938,362.823731,-124.772873,122.32471
111,0.240211,0.077991,0.016537,-0.12912,-29.474716,-62.896442,-92.717171,-115.475578,-77.618179,-115.424652,-134.685059,-148.922539,-71.683273,-112.438774,-133.756428,-149.956055,-63.057117,-101.183681,-121.818466,-136.71484,-52.911301,-82.969036,-98.618259,-110.999622,-22.887173,-24.576602,-16.46056,-13.55261,9.787749,21.682237,26.872297,30.492045,30.379968,40.100594,43.850203,46.910429,45.282689,55.855285,58.653999,60.234131,54.736059,66.61585,70.050779,72.16184,27.134399,45.802174,53.750153,61.858921,16.974277,14.752464,12.458496,9.221764,-1.405449,-4.028034,-6.363087,-8.925819,-17.846947,-23.444138,-26.831017,-29.471455,-32.756996,-43.306675,-49.560471,-54.60474,-15.621249,-40.930952,-63.299236,-81.674831,-65.967193,-96.687097,-114.762894,-131.599267,-63.875182,-96.575915,-117.985987,-136.689076,-55.637461,-85.690429,-106.134416,-124.163159,-41.798946,-63.26904,-77.244578,-91.027394,56.303101,362.846748,-124.813385,122.140617
112,0.33577,0.501413,0.782776,-0.259352,-29.309921,-62.719574,-92.754822,-115.51403,-77.865543,-115.968647,-135.288162,-149.483929,-71.942368,-113.235226,-134.730091,-151.062527,-63.368912,-101.982136,-122.784462,-137.862225,-53.244324,-83.75124,-99.448471,-111.93346,-23.119231,-25.266787,-17.573735,-14.611629,9.400697,21.032067,26.232995,29.987729,29.923138,39.437456,43.202194,46.473051,44.729775,55.184491,57.901385,59.600448,54.052235,65.701574,69.107788,71.429666,27.041531,45.384636,53.183727,60.648022,16.781387,14.756985,12.580719,9.229946,-1.575623,-3.98735,-6.170654,-8.707066,-18.019867,-23.538208,-27.037182,-29.867477,-32.908916,-43.429413,-49.561787,-54.411678,-15.609084,-40.845428,-62.952754,-81.257738,-66.328865,-97.008631,-115.138676,-131.950071,-64.152843,-96.781081,-118.308942,-136.999279,-55.711098,-85.755483,-106.441192,-124.499205,-41.565715,-62.870441,-76.943144,-90.632438,56.514359,363.284235,-124.155121,121.817338
113,0.008583,-0.563287,0.107632,-0.406503,-29.324341,-62.653198,-92.576351,-115.450401,-77.694969,-115.629158,-134.89357,-149.269466,-71.855507,-112.880516,-134.336929,-150.907745,-63.404274,-101.892414,-122.744465,-137.999668,-53.291245,-83.433723,-99.164028,-111.870461,-22.556314,-24.860345,-17.37953,-15.255316,9.959106,21.491181,26.978323,31.118009,30.250477,39.518288,43.461113,47.016331,45.011172,55.143241,57.732683,59.376356,54.496221,66.119748,69.632173,71.99956,27.383423,46.102753,53.874722,61.428566,17.193089,15.044346,12.762623,9.352283,-1.147099,-3.863354,-6.035156,-8.525734,-17.586708,-23.116035,-26.172123,-28.649654,-32.55518,-43.259583,-49.157867,-53.804512,-15.871832,-40.925302,-63.231588,-82.178838,-65.538738,-96.394678,-114.545347,-131.342478,-63.207042,-95.675409,-116.962814,-135.472407,-54.779254,-84.363382,-104.786312,-122.62687,-40.8441,-61.994974,-76.233107,-89.999064,56.534815,362.674233,-124.035616,121.364121
114,-0.961075,-0.30128,1.612415,0.017043,-29.378357,-62.719803,-92.522278,-115.090027,-77.689362,-115.509167,-134.860382,-149.213104,-71.678181,-112.499199,-133.887634,-150.151005,-63.114452,-101.079826,-121.70351,-136.751003,-53.019104,-83.332787,-98.937893,-111.445942,-22.476285,-25.008423,-17.544095,-14.715741,8.868038,21.239919,27.220631,31.794176,29.398383,39.30883,43.604127,47.350339,44.572868,55.242907,58.384891,60.365844,54.468186,66.195021,69.685587,71.957261,27.142467,45.600872,53.398876,61.412201,16.281109,14.266949,12.181149,9.26199,-2.032471,-4.740658,-6.671391,-8.702717,-18.366566,-24.172897,-27.162266,-29.348145,-33.100376,-44.113884,-50.227375,-55.028858,-15.900793,-41.263478,-63.706789,-82.311972,-65.858389,-96.084629,-113.854051,-130.556025,-63.631515,-95.49269,-116.441517,-134.712291,-55.252107,-84.351557,-104.593836,-122.346091,-41.285492,-62.184919,-76.407953,-90.186508,55.535746,362.300751,-122.461195,121.308962
115,-0.092583,-0.274666,0.718975,-0.282879,-29.236336,-62.329617,-92.240982,-114.682846,-77.278347,-115.234737,-134.542351,-148.783321,-71.546116,-112.501888,-134.195194,-150.633831,-63.072052,-101.289539,-122.122364,-137.239609,-53.006516,-83.452549,-99.230118,-111.761398,-22.621399,-25.250731,-18.066565,-14.560191,8.675192,20.45433,26.165255,30.492662,29.180713,39.150811,43.49594,47.135571,44.224287,55.180971,58.247867,60.010656,53.957386,65.788518,69.207268,71.190938,27.292957,45.848351,53.373585,61.35498,16.962032,14.712296,12.604637,9.570351,-1.667576,-4.227448,-6.197605,-8.324089,-18.289948,-23.762741,-26.886292,-29.201717,-33.407879,-44.044247,-50.120602,-54.953499,-15.488732,-40.693954,-62.977887,-81.697802,-66.427481,-96.861017,-114.872809,-131.542951,-64.335222,-96.512992,-117.975027,-136.447107,-56.081076,-85.626301,-106.098385,-124.015575,-42.219251,-63.271973,-77.155102,-90.788821,55.325718,361.901674,-121.859665,120.901672
116,0.347214,-1.076865,0.280437,-0.555507,-29.14341,-62.48703,-92.327328,-115.078239,-76.931305,-114.770222,-134.236393,-148.623447,-71.066093,-111.977406,-134.0728,-150.899391,-62.637005,-101.028214,-122.37093,-137.867146,-52.680702,-83.196716,-99.324589,-112.262249,-22.243178,-24.617419,-17.272393,-14.308311,9.605462,21.696131,27.420394,31.541246,29.832983,39.811417,44.044222,47.518424,44.55953,55.44094,58.522594,60.282234,54.055878,65.664277,69.205786,71.482339,27.718563,46.531105,53.974915,61.902122,17.845688,15.346527,13.202076,10.187988,-0.755196,-3.577023,-5.579739,-7.774544,-17.318687,-22.810936,-26.068783,-28.532925,-32.402916,-43.157444,-49.380798,-54.380894,-15.461686,-41.154457,-63.683231,-82.1747,-66.526745,-97.328221,-115.629098,-132.460222,-64.378293,-96.840145,-118.462947,-136.949755,-56.13131,-86.061055,-106.78755,-124.920404,-42.252503,-63.667484,-77.772112,-91.647368,55.60667,360.605795,-121.645489,120.127152
117,-0.696945,0.083487,1.224861,-1.601744,-29.462357,-63.270435,-93.375206,-116.038284,-76.84845,-114.333458,-133.710308,-148.505802,-70.912457,-111.860161,-133.79425,-150.736828,-62.48251,-100.88768,-121.967125,-137.560787,-52.521515,-83.404827,-99.609604,-112.894192,-22.283007,-24.70035,-17.31778,-14.926124,8.819132,21.135746,27.098736,31.47647,29.538433,39.746888,43.909853,47.227024,44.707422,55.749877,58.488261,59.889255,54.652017,66.532673,69.844656,71.902859,27.52676,46.185322,53.52705,61.276531,17.40675,15.287876,13.260155,10.311699,-1.121006,-3.911591,-5.918312,-8.095551,-17.518387,-23.049717,-26.155987,-28.472157,-32.451096,-43.388557,-49.708328,-54.818745,-15.141757,-40.747985,-63.125686,-81.207843,-66.630948,-97.531534,-115.980488,-132.769684,-64.648359,-97.475495,-119.283394,-137.569853,-56.468066,-86.860013,-107.664869,-125.567055,-42.477892,-63.736027,-77.786407,-91.460635,54.872332,360.559575,-120.458021,118.395701
118,-0.319176,0.14005,0.469608,-0.893158,-29.377098,-63.172817,-93.10358,-115.677795,-76.956882,-114.298439,-133.695946,-148.166428,-71.0602,-111.737194,-133.648968,-150.424805,-62.584248,-100.593452,-121.518803,-136.795979,-52.481117,-82.742443,-98.459244,-111.188049,-22.205572,-24.864977,-17.713723,-14.891297,8.986229,21.174957,27.187842,31.641837,29.584869,39.581644,44.011618,47.636244,44.720513,55.534801,58.636586,60.439512,54.592551,66.336368,69.987855,72.454599,27.690468,46.384964,54.020119,62.151318,18.058777,15.762234,13.729076,10.688267,-0.334682,-2.871723,-4.969769,-7.330627,-16.729488,-22.177334,-25.706348,-28.294258,-31.708889,-42.424622,-48.681564,-53.664436,-14.924951,-40.527475,-63.054797,-81.271076,-66.65747,-97.752816,-116.423424,-133.433223,-64.603219,-97.774707,-119.732104,-138.259265,-56.387543,-87.02535,-108.089033,-126.45308,-42.324998,-63.584862,-77.737069,-91.540571,54.493876,360.722179,-120.047693,117.525098
119,-0.053215,0.158143,0.632744,-0.10547,-29.189873,-62.881508,-92.579498,-115.209789,-77.343578,-113.601036,-132.728348,-147.006569,-71.480827,-111.290588,-133.212204,-150.123539,-62.886829,-99.911041,-120.842285,-136.241341,-52.407417,-81.895981,-97.670975,-110.730114,-21.377066,-23.60286,-15.877513,-13.974983,10.139603,21.848407,27.787068,32.491894,29.875652,39.51168,44.053361,48.304507,44.481477,55.237349,58.562856,60.932713,54.212663,65.916712,69.87868,72.873575,27.611504,46.289005,53.918037,61.860752,18.488503,16.932507,14.985695,11.949978,0.099907,-2.190228,-4.301205,-6.626244,-16.284828,-21.35994,-24.633007,-26.973782,-31.234417,-41.606941,-47.639179,-52.357063,-15.382398,-40.63137,-62.904465,-81.106943,-66.684301,-98.142369,-116.797971,-133.769547,-64.8463,-98.147618,-120.084544,-138.633689,-56.887413,-87.417032,-108.372745,-126.54691,-43.081904,-64.364461,-78.46983,-92.169529,54.328022,360.818093,-119.527588,117.357399
120,0.069923,2.147865,-0.67749,0.793061,-29.023361,-62.330303,-92.015533,-115.261917,-75.461998,-112.46521,-132.32357,-147.139149,-69.399948,-110.751858,-133.110924,-150.040112,-61.062927,-99.607944,-120.900993,-136.344852,-51.403999,-81.672935,-97.600365,-110.408077,-21.980677,-24.516334,-16.432402,-13.306164,9.697161,22.404099,28.106873,32.130407,29.973156,40.777008,45.10954,48.55262,44.737371,56.319896,59.26045,61.009284,54.148875,66.277335,70.372437,73.40679,27.785053,46.799583,54.938679,63.116512,20.073452,18.691864,17.042255,14.575081,1.9384,-0.348759,-2.134151,-4.192486,-14.316616,-19.257374,-22.3102,-24.520054,-29.096031,-38.994198,-44.576511,-49.071465,-15.576727,-40.367912,-62.396074,-80.464554,-67.16018,-98.489684,-116.96445,-133.999907,-65.380194,-98.286155,-119.812472,-138.21817,-57.299319,-87.240951,-107.905294,-125.916685,-43.312665,-63.972007,-78.085032,-91.676483,54.269571,362.930112,-120.333452,118.114613
121,-0.125999,1.773225,0.438709,3.135562,-29.838638,-62.954121,-92.444458,-115.371838,-76.598682,-112.446899,-131.48695,-145.791378,-70.188732,-110.061607,-131.888466,-148.475304,-61.136398,-98.484249,-119.268322,-134.290466,-50.718727,-80.412369,-96.032352,-108.660278,-21.921705,-23.503689,-14.563835,-11.316442,10.557715,24.239568,30.076526,33.926664,30.740837,42.492682,47.051344,50.635894,45.445401,57.460858,60.586355,62.433248,54.92446,66.8074,70.759674,73.341829,28.048725,47.405548,55.863419,64.328556,21.434155,19.761486,18.767281,17.347183,3.107014,0.942078,-0.303612,-1.658077,-13.087807,-18.005676,-20.608635,-22.317982,-27.642117,-37.837143,-43.644962,-48.469048,-14.555807,-39.019807,-60.685341,-77.843619,-66.748614,-97.263383,-115.319018,-132.277935,-65.200716,-97.163038,-117.636079,-136.016706,-57.332602,-86.114531,-106.131174,-124.399786,-43.63667,-63.215224,-76.457971,-89.781425,54.164686,364.465999,-119.873629,121.012838
122,0.338402,1.284717,-0.591831,4.861919,-30.317459,-63.352375,-92.586365,-115.799961,-76.12484,-111.332359,-129.872246,-143.722515,-69.33609,-108.904438,-130.526848,-146.333542,-59.811516,-96.954403,-117.844162,-132.76125,-49.15844,-78.306084,-94.165993,-106.960487,-20.130696,-20.636247,-11.267289,-7.635809,13.801032,28.299164,34.002185,37.248775,33.407652,46.038143,50.573711,53.384034,47.380103,60.57666,63.853014,65.200655,56.093086,68.715611,72.88679,75.07825,27.921467,48.476372,58.530521,67.926693,22.968922,22.274609,21.996002,21.449604,5.126896,3.866558,2.685699,1.356869,-11.142082,-14.406567,-16.763477,-18.386536,-26.248283,-34.38755,-39.415569,-43.78624,-13.578792,-37.123082,-57.909567,-74.588168,-63.711482,-94.412922,-112.232454,-129.024769,-61.780021,-93.718786,-113.509021,-131.774144,-53.958992,-82.43575,-101.413381,-119.291823,-41.124663,-60.593703,-72.866937,-84.943002,54.506979,365.717911,-120.461569,125.841952
123,1.857033,1.246,-0.778542,6.549743,-31.763535,-64.404144,-92.256031,-114.774742,-75.016193,-109.772129,-128.371296,-142.65707,-68.069973,-106.844616,-128.740082,-145.442619,-58.670425,-95.209522,-116.399746,-131.874619,-48.211555,-76.365852,-92.50185,-105.721436,-18.31122,-17.101715,-5.559451,0.357658,17.680563,32.226182,37.395185,40.418732,36.878952,50.211607,54.545806,57.464316,50.201665,64.223084,67.552604,69.039554,58.384335,72.217724,76.752613,79.034661,27.528591,49.340687,61.71999,71.383095,26.387386,26.320095,26.117706,26.45668,8.992367,6.707897,5.907497,5.230808,-6.859646,-10.937977,-12.457809,-12.840214,-21.477013,-29.825249,-34.411812,-37.234383,-11.438832,-33.466686,-51.524451,-67.505489,-59.006996,-89.495397,-106.243498,-122.376442,-56.035936,-86.833985,-105.25157,-121.954655,-47.235391,-72.997756,-90.228899,-106.212438,-33.467365,-50.610452,-61.345823,-71.484778,56.360378,366.921334,-121.243744,132.349118
124,-0.041885,3.560405,0.315571,5.236682,-31.614761,-64.535408,-92.939186,-115.615654,-72.258625,-107.486343,-126.427174,-140.531445,-64.87112,-105.142536,-127.440376,-143.617172,-55.765343,-93.255329,-114.392452,-129.635239,-46.074486,-74.69696,-90.469494,-103.082256,-17.502969,-15.348435,-3.249615,3.507917,19.347886,34.88818,40.527289,43.493964,38.6791,53.038973,57.46481,59.92859,51.713315,66.586828,70.163226,71.373967,59.357151,73.715604,78.167747,80.440718,27.220516,49.001656,62.465973,73.72427,29.316387,29.551964,29.083786,30.457077,11.274662,10.784512,9.887352,9.019833,-5.142174,-6.834354,-8.115406,-8.213139,-19.738541,-26.239643,-30.177097,-32.725239,-6.899312,-25.372689,-40.748726,-54.96574,-48.474166,-76.622196,-90.919176,-105.58422,-44.392495,-71.87927,-88.887341,-103.761409,-34.873669,-56.790156,-72.025835,-85.504993,-21.260543,-35.025698,-44.593863,-53.18245,56.243362,370.003868,-121.003304,137.107929
125,1.030769,4.358159,1.785793,7.518977,-31.404877,-64.520073,-92.673054,-115.312443,-71.718864,-107.247963,-126.680889,-141.117668,-63.597107,-104.019413,-126.391754,-142.679386,-54.325333,-91.531048,-112.987976,-128.364429,-45.189972,-73.687363,-89.4631,-101.731625,-17.991909,-14.881355,-2.175344,4.637024,20.526948,37.189371,43.024353,46.150158,39.6408,54.850236,59.885488,63.146898,52.170144,67.89112,71.901315,73.595314,59.149732,73.95501,78.634457,81.504369,28.022633,47.230053,58.788185,70.801105,31.152477,32.191601,31.509476,33.298359,14.614677,13.922997,11.844978,10.731812,-0.50806,-2.662697,-3.853512,-2.589855,-13.167629,-19.500103,-23.156433,-23.750267,-5.38056,-17.686491,-28.206662,-38.90276,-46.264891,-72.548799,-82.339759,-86.375241,-41.264775,-67.463282,-75.743117,-77.589578,-30.376757,-51.249075,-60.765369,-64.687354,-16.362192,-26.9133,-33.508182,-37.157569,57.15414,373.566682,-119.337502,143.83156
