YashyHoby/handMotion-similar-search/workspace/NewProject/handData/tgt/d4_feature_d2/3.csv
,vel_0x_L,vel_0y_L,vel_0x_R,vel_0y_R,posFromWrist_1x_L,posFromWrist_2x_L,posFromWrist_3x_L,posFromWrist_4x_L,posFromWrist_5x_L,posFromWrist_6x_L,posFromWrist_7x_L,posFromWrist_8x_L,posFromWrist_9x_L,posFromWrist_10x_L,posFromWrist_11x_L,posFromWrist_12x_L,posFromWrist_13x_L,posFromWrist_14x_L,posFromWrist_15x_L,posFromWrist_16x_L,posFromWrist_17x_L,posFromWrist_18x_L,posFromWrist_19x_L,posFromWrist_20x_L,posFromWrist_1y_L,posFromWrist_2y_L,posFromWrist_3y_L,posFromWrist_4y_L,posFromWrist_5y_L,posFromWrist_6y_L,posFromWrist_7y_L,posFromWrist_8y_L,posFromWrist_9y_L,posFromWrist_10y_L,posFromWrist_11y_L,posFromWrist_12y_L,posFromWrist_13y_L,posFromWrist_14y_L,posFromWrist_15y_L,posFromWrist_16y_L,posFromWrist_17y_L,posFromWrist_18y_L,posFromWrist_19y_L,posFromWrist_20y_L,posFromWrist_1x_R,posFromWrist_2x_R,posFromWrist_3x_R,posFromWrist_4x_R,posFromWrist_5x_R,posFromWrist_6x_R,posFromWrist_7x_R,posFromWrist_8x_R,posFromWrist_9x_R,posFromWrist_10x_R,posFromWrist_11x_R,posFromWrist_12x_R,posFromWrist_13x_R,posFromWrist_14x_R,posFromWrist_15x_R,posFromWrist_16x_R,posFromWrist_17x_R,posFromWrist_18x_R,posFromWrist_19x_R,posFromWrist_20x_R,posFromWrist_1y_R,posFromWrist_2y_R,posFromWrist_3y_R,posFromWrist_4y_R,posFromWrist_5y_R,posFromWrist_6y_R,posFromWrist_7y_R,posFromWrist_8y_R,posFromWrist_9y_R,posFromWrist_10y_R,posFromWrist_11y_R,posFromWrist_12y_R,posFromWrist_13y_R,posFromWrist_14y_R,posFromWrist_15y_R,posFromWrist_16y_R,posFromWrist_17y_R,posFromWrist_18y_R,posFromWrist_19y_R,posFromWrist_20y_R,posFromBody_0x_L,posFromBody_0y_L,posFromBody_0x_R,posFromBody_0y_R
2,-1.343708,4.598985,-3.347912,-4.108193,24.279385,35.663166,39.918652,38.438129,47.379742,78.959599,82.127323,79.725094,34.051723,57.142353,54.101429,47.177753,16.585522,25.736446,11.962395,-2.294998,-1.729946,-3.425217,-15.8424,-28.356915,25.572142,54.760945,82.464649,100.902334,51.319347,67.77188,73.14997,76.950152,52.324767,77.212345,90.817257,101.895034,51.217829,81.105399,99.067915,114.94234,48.926704,72.193086,86.678683,100.934074,35.544834,67.164917,92.149887,111.282578,71.749992,111.868858,122.113152,121.449394,58.805351,101.945229,112.682762,112.678413,43.542023,81.903305,94.173203,96.756821,27.620316,51.455154,62.357941,67.281876,-13.420217,-9.546675,1.89512,10.712894,18.358891,47.814332,57.499822,59.780636,37.785818,68.58186,74.325575,71.810604,52.521381,81.081996,87.30971,86.415009,61.677855,87.445808,96.331445,99.093541,-31.413403,368.839255,-55.100784,370.134409
3,-3.145638,4.328457,0.14225,-0.188586,35.428905,59.745884,78.015232,92.047176,54.627399,83.676052,87.101727,86.433849,34.456615,51.153202,49.929028,45.582333,13.283157,12.933655,1.861439,-8.985271,-6.835041,-16.597424,-26.130867,-34.742889,4.151727,17.944176,35.227622,46.855286,38.362196,59.782241,68.524123,72.980095,51.445812,79.988026,93.752131,103.671161,58.499253,90.416806,106.224849,119.731332,60.662431,85.11189,98.488017,110.70441,35.953159,66.803741,91.956711,112.450447,72.229729,109.819336,121.240311,122.679405,59.240227,99.784584,112.849617,116.676407,44.107075,82.935104,98.505478,104.847336,28.83482,58.633118,74.340134,84.231262,-12.123767,-7.937707,5.000054,14.527834,19.283727,47.8499,55.969647,56.223997,38.210599,66.083809,72.258109,70.763996,52.30192,77.941802,84.259363,83.401835,61.608633,84.354953,91.157687,91.835521,-35.272694,372.957282,-55.672188,369.735393
4,3.987122,2.591356,0.342522,-0.851044,33.442554,60.004749,83.26086,98.826313,48.563862,81.909428,90.129833,92.242527,27.945271,53.400135,57.114773,55.614109,8.749638,12.686062,1.585922,-9.579849,-8.03896,-17.61137,-28.717518,-39.653778,-8.149449,-3.641978,10.018881,20.159719,29.6565,49.704142,59.440761,63.126149,47.964447,71.483882,84.8011,95.210428,59.131515,87.050729,103.861476,118.525099,63.47047,85.908779,97.946219,108.588655,35.913219,67.220764,92.433014,111.948624,70.543671,106.624146,119.778099,124.887657,57.801361,97.077942,111.178093,116.498795,43.097649,81.035042,97.6577,105.907745,28.085117,57.441444,73.307877,84.52549,-11.711645,-8.136049,4.519513,13.847839,18.208035,44.806161,54.938724,58.822763,37.245564,63.6811,71.609483,72.582052,51.989586,76.570573,84.270231,84.921637,62.323332,84.285113,91.327871,92.809325,-31.777983,375.624561,-55.822077,368.960271
5,-1.481266,0.943546,0.661983,-0.249842,35.584831,59.817238,78.441582,89.501839,50.431137,84.695091,91.169472,90.825119,30.563736,57.850571,58.601189,52.815628,10.823421,18.578053,8.46468,-4.241753,-7.382298,-13.998814,-25.477867,-37.480888,2.805568,12.450118,28.168006,37.740926,32.541294,53.65129,60.885659,63.696167,45.902972,70.329767,82.071176,90.599957,53.930216,84.741511,100.976929,114.265618,56.893495,81.007957,93.881313,104.491886,35.294437,65.575047,90.11816,109.542217,69.571896,103.771191,116.879368,122.655315,56.868496,93.904438,108.235302,114.525661,42.010975,76.823788,93.00951,102.066822,26.679039,53.518124,68.463535,79.636402,-11.782967,-8.766459,3.93276,12.984383,19.164549,42.994651,53.470793,58.414531,38.069314,62.149443,71.120049,73.669477,52.502053,76.185559,84.897122,87.07265,62.378167,84.088994,91.16979,93.003407,-33.590899,376.51179,-55.491743,368.654112
6,0.084515,-2.986682,0.963421,2.256731,35.06155,62.17432,84.971294,99.652119,51.566563,87.836666,92.807178,90.951176,30.792332,61.558743,62.749157,56.914387,10.582294,20.323391,9.436684,-3.622513,-7.801208,-15.411873,-26.827183,-38.820934,-4.689326,3.585167,18.598977,29.384922,30.935598,52.606226,61.995993,65.410297,48.172978,72.113366,83.520087,91.182758,59.327141,89.8169,106.590844,119.621972,63.90581,88.586524,102.137034,113.284157,33.363934,62.776566,87.488708,107.939873,68.769608,102.72583,115.682144,122.008324,56.9981,93.705139,107.650337,113.929138,42.644463,76.809082,92.611656,102.077866,27.136345,53.392754,67.614899,79.544563,-13.345314,-11.731776,-0.03952,8.293698,16.902817,39.201261,50.122192,56.184168,35.870691,57.919725,67.867902,72.273547,50.34721,72.499738,81.882034,85.804667,60.660332,81.70092,89.004203,92.299514,-33.856287,373.682186,-54.878225,371.06792
7,1.759701,-1.690232,3.36937,0.910078,32.087173,59.466476,83.929482,98.902016,45.698547,79.989967,90.662155,93.652267,26.274147,55.199089,62.552605,61.1586,7.657814,14.6315,5.468216,-6.367493,-8.104649,-15.828209,-26.708393,-39.446754,-8.359771,-3.171686,10.818672,22.003092,31.327404,53.361125,62.608804,67.005496,50.057848,73.761361,87.796427,99.118118,61.294015,88.83476,106.681185,121.982011,65.497859,89.608555,102.387494,113.621005,31.910191,60.320091,84.265251,104.725227,65.635414,100.430603,112.712173,117.668266,53.35865,90.867805,104.641342,109.918556,38.942242,73.77903,89.6735,98.529968,23.914833,50.541458,65.005074,76.266975,-14.091815,-12.569173,-0.898407,7.729731,15.777169,40.158331,51.54733,57.195269,34.613576,58.437749,68.082978,71.486105,49.297392,72.608419,81.624597,84.953685,59.609587,81.211548,88.24455,90.85406,-32.396679,372.08566,-51.808949,372.071704
8,0.277061,-1.50813,0.982418,0.420335,33.596649,60.989571,84.699211,98.217659,49.319229,83.923416,89.851456,88.204079,29.127045,57.861099,61.313095,56.40358,8.666096,16.079178,4.805546,-8.832607,-9.582253,-17.196693,-28.725185,-41.796227,-7.440863,-0.542663,11.645634,20.169475,32.255636,54.136216,63.714137,67.86926,50.444035,74.475937,87.598393,96.963276,61.38028,90.662078,108.370059,123.051651,65.13983,90.839981,104.660218,116.403973,31.770687,59.798641,83.252392,103.519192,65.070248,99.141598,111.91824,117.763424,52.711086,89.173336,102.950764,108.525753,38.267727,72.378101,88.088894,96.927967,23.108711,49.706783,63.858089,74.086704,-14.410755,-12.894598,-1.248532,7.058628,15.389685,39.796782,51.207085,56.841501,34.089624,58.384212,68.036851,71.142773,48.887616,72.617743,81.24335,84.057254,59.274838,81.245326,87.754807,89.557549,-32.372961,370.491218,-51.079874,372.405728
9,1.256161,-1.318124,0.810471,0.332526,33.794231,59.623432,82.118397,92.55415,46.790485,82.944202,87.186298,83.052235,26.892071,56.38773,57.697964,51.113377,7.083893,15.336628,3.345051,-10.884647,-9.73011,-16.580029,-28.292885,-41.722584,-7.600426,-2.320025,9.315544,16.638155,36.4157,59.433969,65.245362,66.244483,54.426072,79.240784,89.701674,97.840317,64.832005,94.51481,110.330202,124.270419,67.762556,93.579106,106.552188,118.430621,31.514282,59.119434,82.116909,101.999531,63.871365,98.123989,110.913563,116.536388,51.451778,87.97308,102.015553,107.737827,36.963615,70.966358,86.976528,96.176205,21.874065,48.068562,62.344723,73.142567,-14.492513,-13.228729,-1.514305,7.052206,15.307927,39.236829,50.290091,55.538444,33.884057,57.901077,67.28152,69.899861,48.532181,72.504617,81.233161,83.989082,58.734151,80.977329,88.009342,90.179684,-31.204548,369.193672,-50.357151,372.758832
10,-1.608295,0.204147,0.289307,0.159934,31.927643,57.943726,81.154976,95.64045,46.096344,81.536522,92.633286,95.102005,26.187859,55.35965,61.45134,59.214363,7.323532,14.02422,4.612141,-7.010193,-8.375759,-17.456417,-28.241386,-40.663891,-7.845575,-2.108344,12.3239,24.349546,36.088423,58.313816,65.727941,68.627617,54.728464,79.481981,92.200096,102.61492,65.307915,94.023956,110.997415,125.301219,68.507266,92.655443,104.719189,115.30957,30.92886,58.620815,81.60593,101.259899,63.475399,97.297955,110.138912,116.132984,50.937481,87.553082,101.758518,107.886829,36.32246,70.574055,86.730595,96.168766,21.110401,47.756023,62.20705,73.383923,-14.95138,-13.459861,-1.411614,7.187501,14.740194,38.731279,50.0978,55.714556,33.536711,57.642281,67.314495,70.20182,48.31803,72.330913,81.043525,83.806733,58.502587,80.582126,87.83039,90.222971,-32.858763,369.411435,-50.113764,372.932382
11,-3.090534,1.824725,0.367641,-0.203035,35.723248,62.464428,85.546017,101.300869,50.98177,88.86961,96.58659,96.284351,29.523411,62.124538,66.030407,61.539059,9.492817,20.571327,11.662102,-0.141048,-7.618046,-15.441227,-25.586758,-37.164345,-7.342556,-0.226192,13.455538,23.243102,30.882246,54.082184,62.87674,65.750171,49.66598,74.535341,85.82239,93.196748,61.549167,91.907708,109.211408,121.996522,66.304937,91.346335,105.552696,117.160353,30.954037,58.680954,81.461906,100.962067,63.741188,97.116966,109.709816,115.671387,51.011353,86.89579,100.954399,107.514267,36.274452,69.881401,85.82119,95.463066,21.037674,47.328758,61.624603,72.967529,-15.155527,-13.706986,-1.471883,7.304456,14.350857,38.363987,49.96726,55.699366,33.374307,57.54595,67.787009,70.988335,48.296479,72.473618,81.498935,84.367241,58.54643,80.763981,88.169461,90.481211,-35.98938,371.206118,-49.786205,372.699305
12,-1.360474,0.148695,0.662441,0.300416,36.202641,62.731419,84.202824,97.712917,52.712002,90.688648,97.439632,96.763172,31.810284,66.37682,70.022221,64.966679,11.525574,25.47987,17.623901,5.764675,-6.524563,-12.928677,-23.415699,-35.544376,-2.836876,6.928211,22.577556,33.770498,31.150675,54.682028,65.147611,69.66595,47.870587,73.406049,85.322706,93.040087,58.219215,90.017898,108.02438,121.339127,62.301967,88.484944,102.626715,114.30026,30.216808,57.907963,80.380955,99.965343,62.313137,96.711788,109.467831,115.347691,49.737911,86.771564,101.153698,107.481022,35.110531,69.605083,85.921726,95.611095,20.151157,46.522579,60.999699,72.483959,-15.401726,-13.797944,-1.680105,6.455141,13.870316,38.241845,49.522842,54.896363,32.769894,56.717445,66.336677,69.160461,47.685582,71.694698,80.345067,83.359722,58.010807,80.437383,87.649214,90.089652,-37.389193,371.35137,-49.163103,372.996278
13,2.07962,-0.278124,0.452671,-0.238357,35.773258,62.138042,84.516048,98.153286,51.635342,85.802937,92.520847,91.921177,30.159817,54.594326,56.161366,51.686153,9.83757,14.231815,4.577236,-5.709515,-7.592125,-17.686558,-27.9673,-38.327923,-6.411792,0.827394,14.975586,25.47575,37.199683,59.326276,65.660263,66.711811,54.846222,80.770156,92.118462,100.37548,65.067521,95.202216,111.467027,124.476666,68.429398,92.677982,106.281351,118.014794,30.806866,58.395309,80.693092,99.840546,62.158813,95.396461,108.342133,114.492645,49.477272,85.722885,100.18959,106.692009,34.885826,69.019661,84.990349,94.249535,19.848289,45.745468,60.028038,70.88768,-15.425315,-13.708715,-1.380307,6.705539,13.531615,37.630022,49.09306,54.573347,32.487571,57.026073,67.450963,70.530641,47.579063,72.555993,81.230259,83.887194,57.952453,80.948739,88.157235,90.249586,-35.395803,371.057732,-48.796663,372.742406
14,1.364708,-0.299551,0.524483,0.080955,34.965076,61.111851,83.261662,98.122845,50.930271,82.889271,89.272327,88.704014,29.822216,50.95396,51.773815,47.031727,9.481373,11.316319,1.251812,-9.310226,-7.982311,-19.656715,-30.101223,-40.470085,-5.758596,1.991451,16.505329,27.555504,39.510137,61.415045,67.148324,67.852032,56.547693,83.739857,95.290087,103.944345,66.248312,96.985629,113.135647,126.544255,69.116186,93.12345,106.435789,118.004111,30.932407,57.845993,79.946823,99.22142,61.873741,94.676514,107.701378,114.19075,49.236488,84.861603,99.242477,106.036949,34.549656,67.803383,83.645668,93.256874,19.387035,44.512596,58.532295,69.783669,-15.313608,-14.330974,-2.289705,6.031965,13.433185,37.151765,48.766338,54.634295,32.2875,56.03078,66.876314,70.888361,47.301927,71.632763,80.661352,84.037926,57.843402,80.5544,87.954138,90.252488,-34.079561,370.729111,-48.320646,372.794292
15,-0.409298,1.272738,1.484127,0.725691,35.149269,61.305084,83.691101,98.054695,51.791039,86.238213,92.104225,90.89962,30.792732,56.620674,58.041115,53.359795,10.360451,15.302811,4.445,-6.998005,-7.611351,-17.510605,-28.37574,-39.298668,-7.82495,-1.450332,11.54004,21.183479,33.74802,55.200237,62.636777,64.61983,52.374785,77.122127,88.142909,96.413759,63.5957,93.394534,109.880474,123.247339,67.505365,91.675094,105.467604,117.371293,30.423489,56.975155,79.16502,98.636227,60.534153,94.088001,107.058163,113.161182,47.814159,84.557133,98.979092,104.996853,33.00848,67.143116,83.175373,92.211399,17.790241,43.586254,57.919636,69.070187,-15.44384,-14.558215,-2.810447,5.213464,12.294631,36.553712,48.955912,55.524056,31.047675,55.276931,66.141607,70.509523,46.271436,70.843531,79.814322,83.42209,57.230405,80.01958,87.125509,89.378905,-34.536953,371.9899,-46.884613,373.508034
16,1.18372,0.674994,-0.179558,0.630286,33.695011,59.294872,81.546307,96.248188,50.038776,83.818531,91.263485,91.778011,28.999043,54.33672,56.768818,53.389378,9.005184,13.097019,2.073841,-9.236813,-8.006344,-18.413601,-29.153538,-40.076752,-8.697237,-3.734294,9.369267,19.425198,32.645467,54.080764,62.47178,65.321438,51.853735,76.619294,88.68977,97.765661,63.269102,92.123649,108.748095,122.190912,67.446085,91.228268,104.461196,115.810181,29.637051,56.493473,78.62669,97.985287,61.277905,94.125195,107.272968,113.617687,48.786564,84.453907,99.000378,105.228138,33.920746,67.348309,83.284664,92.323322,18.494053,44.136829,58.357258,69.270458,-16.090984,-15.242533,-3.49779,4.312155,11.772654,35.78881,48.043735,54.48103,30.792646,54.709013,65.212881,69.030045,46.281872,70.587637,79.12389,82.061357,57.544715,80.383969,87.136192,88.767082,-33.354063,372.660942,-47.065001,374.134369
17,-0.692539,-1.008508,0.430412,0.557791,34.177437,60.555267,82.485123,96.341057,51.774445,83.499756,90.643959,91.226006,30.438995,51.879845,53.81115,50.295868,9.758606,11.51453,1.455803,-8.784313,-8.343945,-19.686642,-30.005836,-40.058384,-6.715975,0.045942,13.979182,24.158737,37.208452,57.93788,64.885727,66.770288,54.818187,80.719089,93.032615,102.823699,64.786433,94.26645,110.808891,124.836918,67.658259,91.466624,104.689919,116.402614,29.645691,56.467953,78.609295,98.085766,61.619511,94.469891,107.299175,113.206043,49.060192,84.361897,98.457928,104.485645,34.040909,66.88448,82.556934,91.61459,18.416805,43.543797,57.503071,68.403111,-16.675205,-16.027999,-3.817719,4.249108,10.825403,34.763321,47.234002,54.064585,29.904181,53.452268,64.374187,68.875051,45.4383,69.575795,78.525776,82.077907,56.763757,79.313155,86.415256,88.564602,-34.034472,371.638602,-46.622458,374.678328
18,0.716972,3.425419,1.173077,-0.07021,35.564804,62.077446,83.313904,95.78373,52.519569,84.495392,87.674332,84.767647,30.717659,52.105522,50.2351,43.687019,9.432507,12.314873,0.542622,-11.062145,-9.306335,-19.35957,-30.919132,-41.614208,-5.562848,1.609895,14.674121,23.321463,34.39782,54.947307,63.290961,66.283757,51.090685,76.865246,88.601529,97.653954,60.767654,91.063888,106.740898,120.405338,64.034004,87.875221,101.19991,113.381784,29.116116,56.038399,77.85656,97.362785,60.824318,93.498573,106.238823,111.713676,48.06839,83.091774,97.245827,103.118362,33.029423,65.537109,81.196976,90.011902,17.700176,42.431145,56.027184,66.238632,-16.688913,-15.563883,-3.360025,4.241945,10.887153,35.384345,47.900165,54.435335,29.765242,54.166226,64.971807,69.005406,45.18432,70.01237,78.860093,82.039992,56.147427,79.028857,86.160041,88.340572,-33.306055,375.05709,-45.437937,374.601186
19,-0.619583,-0.709636,0.563049,0.443985,36.949654,63.729401,84.29409,96.778221,54.157104,86.370277,88.833847,85.251846,31.710663,53.83049,50.436859,42.501526,9.90303,13.607655,1.458206,-10.840302,-9.293518,-18.714294,-30.173607,-40.760994,-2.773026,6.415312,20.476622,29.523798,36.097315,57.837535,65.436479,67.264539,51.840397,78.495518,89.949293,98.121466,60.300204,91.92685,107.288377,119.838531,62.611583,87.231534,101.024292,112.934958,29.048424,56.053619,77.662697,96.986618,60.357513,93.098488,105.932579,111.468544,47.525597,82.811737,97.055168,102.928505,32.40612,65.354919,81.006088,89.726486,17.005177,42.37278,56.131325,66.574059,-17.211631,-15.964828,-3.691995,4.05268,10.191226,34.968517,47.706392,54.586253,29.078763,53.540818,64.621003,69.137984,44.652711,69.399868,78.322741,81.726917,55.964707,78.810198,85.734396,87.752214,-33.88504,374.356238,-44.83429,375.053956
20,-0.502052,0.865926,0.109463,0.471897,37.09568,63.547668,84.23069,96.703262,53.765602,84.277496,87.241058,84.424095,32.194405,52.427216,50.392914,43.697433,11.02684,14.194908,3.1703,-8.412495,-8.083706,-17.621384,-28.853588,-39.469185,-0.210322,8.851366,22.083862,29.888681,36.501533,57.720024,65.734734,68.246555,50.76489,78.161325,90.08817,98.72909,58.374702,89.906562,105.448338,118.606672,60.665642,84.423805,98.23484,110.425668,29.232159,55.982723,77.709789,97.22208,60.199299,92.723751,105.828266,111.782513,47.524281,82.717953,97.147923,103.216496,32.620068,65.414143,81.050663,89.822102,17.411671,42.352467,55.9231,66.130428,-17.189771,-16.259871,-4.097572,3.643027,9.841904,33.16979,45.769405,53.109368,28.779706,52.372809,63.536234,68.373391,44.294806,68.550738,77.35789,80.796524,55.496269,78.158608,84.980238,86.803172,-34.3612,375.219061,-44.698935,375.52275
21,-0.088234,-0.360375,-0.04549,0.143323,36.190567,62.381744,83.170052,94.744377,53.089027,84.478455,88.233376,86.260414,32.142105,52.689743,51.530113,45.126343,11.094074,15.455189,5.699158,-5.256443,-8.080215,-16.0532,-25.972366,-35.722904,-0.306097,9.698458,24.453287,34.114571,38.639826,57.756087,64.963039,67.173271,52.634816,78.186272,89.679197,97.638269,60.065305,90.259466,105.578878,118.708004,62.186987,86.095759,99.791198,112.010246,28.971004,56.393394,78.68557,98.742142,60.353394,92.707214,105.928459,112.275581,47.641983,82.289085,96.554146,102.848969,32.709961,64.873352,80.393486,89.256134,17.508144,41.999817,55.350723,65.595016,-17.220893,-16.100864,-3.885645,3.492727,9.604844,32.659855,45.415452,53.085594,28.530358,51.822737,63.352897,68.916486,44.17149,68.183014,77.253594,81.12553,55.578026,78.320703,85.443181,87.686141,-34.391727,374.935889,-44.686718,375.743276
22,-0.665188,1.229698,0.465145,0.00883,34.872036,60.418339,81.189823,93.824329,52.236614,87.178173,92.853527,92.405033,31.700649,60.467663,62.446575,57.487965,11.393909,21.840649,13.129749,1.794777,-6.87727,-12.495575,-22.503948,-33.261852,-1.854859,7.593819,22.938981,33.190476,31.987948,52.086287,60.527877,64.724127,46.457552,70.161744,81.072054,88.769861,55.250749,84.964615,101.886204,115.665067,58.682652,83.292846,97.697982,110.403932,28.665047,56.400433,78.992901,99.024525,59.846935,92.773533,105.874271,112.144489,47.307415,82.036686,96.778507,103.597698,32.54591,64.593029,80.450077,89.92281,17.468491,41.802921,55.185986,65.622196,-17.325437,-16.014784,-3.610361,3.980308,9.329005,32.025246,44.603496,52.156868,28.257421,50.751799,61.985002,67.581812,43.929181,67.459608,76.606388,80.790287,55.388638,78.121311,85.002591,87.051717,-35.005646,376.267923,-44.170303,375.854442
23,-0.356655,-4.747804,0.83559,0.049524,24.259186,43.635063,57.503471,63.362617,47.141418,83.67691,89.41761,88.9674,33.298645,67.758751,70.261917,64.921646,18.731575,37.773056,28.376198,15.051613,4.363575,6.969109,-3.080692,-14.560947,14.045069,32.750072,52.344651,63.962126,40.722174,63.375745,70.609744,74.425919,46.537272,72.3742,81.843255,88.557995,48.118638,81.171905,98.181982,111.58954,47.096669,73.386721,88.077083,100.385237,28.434334,55.908051,78.467903,98.562813,59.005051,91.930389,105.311165,112.170296,46.408882,81.090088,96.229591,103.490524,31.821785,63.694496,79.612312,89.290924,16.990414,41.156044,54.438972,64.799194,-17.000506,-15.957047,-3.701381,4.20403,9.808065,32.143312,44.738791,52.37355,28.741729,50.719195,61.491431,66.688037,44.424605,67.619295,76.463189,80.325245,55.818297,78.627355,85.294547,86.826266,-35.272036,371.63888,-43.244448,376.022727
24,-0.168743,4.912986,0.898933,0.631521,35.621395,62.092609,82.626743,94.724178,54.097652,90.609684,95.729084,94.123592,33.113651,64.210567,65.83334,59.912167,12.539692,24.865665,16.016579,4.324265,-5.841064,-12.004051,-22.390194,-33.519058,-3.369102,5.031732,19.16776,29.033747,29.48119,50.308246,58.960034,62.77621,45.475041,69.515218,80.196372,87.243946,55.109587,85.65517,102.609919,115.68668,58.816959,83.662299,98.178462,110.229487,27.793121,55.237656,77.545052,97.352943,58.481827,92.034874,105.324211,111.857872,45.793762,81.208076,96.563644,104.012718,30.969315,63.639793,79.942474,89.94381,15.882339,40.399132,54.077568,64.956779,-17.683033,-16.352374,-4.021063,4.025942,9.115658,31.348523,43.89281,51.462855,28.084705,49.959356,60.758021,65.817294,43.732939,66.835435,75.883229,79.922014,55.178933,77.936986,84.555704,86.010914,-35.310116,376.709392,-42.214851,376.811774
25,2.031155,-4.489811,-0.909977,0.738411,32.882538,59.543037,80.877914,95.595589,50.484467,84.693947,92.897873,94.130287,29.216194,57.399559,62.126884,58.40435,8.913689,17.082939,10.314045,-0.120678,-9.0271,-17.757282,-26.847839,-37.244911,-3.975924,6.241052,23.565377,37.317071,32.325476,54.686474,64.731413,69.202884,49.658693,75.191933,87.832057,96.479708,60.674164,91.377642,108.974781,121.991459,64.820087,89.389464,103.517217,114.877996,27.938633,55.348721,77.589512,96.537037,59.539318,92.307415,105.735111,112.443409,46.916142,81.147137,96.038303,102.987385,31.954594,63.410854,79.493465,89.15308,16.656075,39.692287,53.028316,63.82719,-17.52347,-16.477974,-4.34445,3.334646,9.108803,30.320317,42.401044,50.340109,28.295212,49.250153,60.008001,65.529167,43.784994,65.9198,74.982229,79.358542,54.746866,76.512898,83.919921,86.654724,-33.270693,372.145558,-43.11656,377.476162
26,0.923138,0.964912,1.223545,0.49777,31.112423,57.164097,79.104023,93.560772,47.717915,82.950153,91.902294,93.46796,27.601604,57.039127,62.241039,58.976269,8.345032,17.784748,10.631161,-0.165081,-8.666267,-16.590328,-25.857067,-36.843281,-5.027657,5.148935,22.847529,36.615648,32.141769,53.890202,62.977454,67.073915,49.596202,73.669168,85.436573,93.755157,60.552145,89.957383,107.002596,119.749054,64.300581,88.636974,102.602015,113.691833,27.728233,54.785843,77.159386,96.372986,58.891525,91.851196,104.998055,111.336365,46.584091,80.920372,95.912704,103.30307,31.859207,63.253098,79.344978,89.238396,16.733322,39.76902,53.211937,64.271736,-17.652652,-16.669215,-4.547918,3.37571,8.893912,29.721894,41.946376,49.824123,27.784845,48.491796,59.162082,64.730178,43.15125,65.300011,74.368429,78.827735,54.242056,76.362906,83.454323,85.639362,-32.321234,373.094878,-41.866693,377.95834
27,-0.207424,0.267379,-0.23243,0.531486,32.614059,58.962135,81.160927,95.621681,49.112892,84.439545,93.481522,95.541458,28.781433,58.187714,63.70903,60.672913,9.077797,19.045773,12.277966,1.663284,-8.648872,-16.606979,-26.073589,-37.296524,-4.790412,4.688338,21.752077,35.086646,31.356242,52.807038,61.77573,65.680146,48.907253,73.023629,84.214471,91.557521,60.137429,89.859138,106.72262,118.971987,64.293541,88.946714,102.950843,113.886964,27.496891,54.714317,77.091522,96.326523,58.74733,91.542664,105.160675,111.950226,46.171303,80.350685,95.544319,102.958374,31.266747,62.653885,78.925667,88.689308,16.211529,39.080429,52.375374,63.208809,-17.72453,-16.893925,-4.802947,3.027129,8.450235,29.428456,41.304357,49.099729,27.524752,48.491549,59.216484,64.940377,42.974767,65.100001,73.805327,78.014853,53.940282,75.819441,83.204605,85.772002,-32.478132,373.306805,-42.048597,378.434374
28,-1.958828,-2.719179,0.83456,0.339442,32.660351,59.040012,79.449406,92.763004,51.409664,85.867252,94.736309,96.568851,31.504841,58.935642,63.719845,59.954395,11.577129,20.455341,13.941193,3.195992,-7.193184,-13.877277,-23.255596,-34.07032,1.371044,14.026977,32.67134,46.954581,36.172527,58.103803,67.509502,71.83623,51.327375,76.857589,89.415646,98.182167,60.485146,91.395735,108.45194,121.512399,63.411251,88.600603,102.30271,113.236732,27.208099,54.502773,76.877003,96.025715,58.537159,91.099834,104.119778,110.35532,45.992146,80.165577,95.25507,102.582264,31.059666,62.309246,78.398952,88.139591,15.949974,38.961239,52.335606,63.295383,-18.001912,-16.924553,-4.987951,2.523245,8.621407,29.283466,41.259464,48.922567,27.593913,48.612147,59.0597,64.310275,42.999776,65.400788,74.098271,78.151815,53.958127,75.976348,83.158971,85.385938,-34.413443,370.596935,-41.190519,378.783125
29,1.700592,-0.099048,0.070496,0.2935,32.743549,58.531094,78.383617,90.629253,50.67461,84.211521,90.365124,89.502239,30.538387,57.096691,58.933353,53.136578,10.670815,19.193287,10.572739,-1.472969,-7.630463,-14.016895,-24.148636,-35.326309,1.17085,14.600144,33.720788,48.142535,37.154976,60.638781,70.440733,74.651493,51.772904,77.876223,90.365491,98.9023,60.290879,91.574255,108.665164,122.130212,62.857165,88.519463,102.794799,114.592339,27.301083,55.095005,77.903194,97.030735,58.364582,91.316814,104.661884,110.887585,45.565395,80.41872,95.864811,103.346043,30.534954,62.587452,78.911076,88.572521,15.539532,38.919125,52.37154,62.997036,-18.470413,-17.302589,-4.952507,2.807359,8.004768,28.828859,40.468318,47.907946,27.237613,48.420659,58.839004,64.147192,42.593149,64.814344,73.459278,77.570188,53.1613,74.784812,81.951504,84.208172,-32.714911,370.520287,-41.122084,379.099025
30,2.274227,-1.165601,-0.445633,0.041743,33.395691,58.760033,78.274498,89.48925,50.492706,82.196274,88.419342,87.873459,30.142708,54.627228,58.073502,52.793884,9.442978,16.139717,8.366318,-3.921032,-9.682961,-17.967625,-28.052387,-40.272903,0.299366,13.862597,33.036409,48.265172,37.383329,59.154548,68.524679,72.539876,52.695826,78.31885,90.706292,99.24094,61.833343,93.625357,110.960859,124.295305,64.669971,90.571305,105.071722,116.89884,27.361393,55.315075,78.380299,97.56712,57.965755,91.237049,105.116215,112.018604,45.296574,80.535336,96.656055,104.682827,30.749989,63.333836,79.677029,89.013119,16.549816,40.923786,54.439831,64.205761,-18.596754,-18.115657,-6.032645,1.774645,6.990085,27.627011,39.188911,47.019542,26.431152,47.670886,58.324005,64.178315,42.235059,64.541222,73.11397,77.104405,53.482341,74.792099,81.644851,83.380655,-30.509319,369.508337,-41.636353,379.294418
31,-0.782375,-1.432857,1.183949,-1.513997,16.934338,35.292606,49.574947,57.327061,40.592937,72.860584,77.766094,77.22559,31.162319,60.717258,62.805004,57.878551,21.57938,37.867069,28.325558,15.195351,11.127148,15.139389,6.793156,-3.571758,20.962659,44.075283,65.254563,76.683082,47.428145,71.365754,79.354096,83.583629,49.282139,75.676118,87.249504,95.223149,47.529539,80.650175,98.36112,112.480598,43.336069,68.625579,83.858233,96.527935,27.629585,55.115547,77.942848,97.204056,58.030128,90.611,103.980446,110.648232,45.242958,79.820137,95.460663,103.488007,30.444946,62.158699,78.243942,87.672615,15.934696,39.93885,53.342171,63.418236,-18.105097,-17.539834,-5.029077,3.015643,7.008116,27.908037,39.875143,47.989147,26.318273,48.06862,59.040125,65.242892,42.238949,65.175831,74.1896,78.504781,53.795353,75.509886,82.711528,84.964059,-31.411943,368.2829,-40.572653,377.987841
32,0.117645,-2.610746,1.081524,-1.471142,13.907948,28.47353,40.013866,44.735699,37.287312,68.855381,69.850101,66.236172,30.807438,61.331463,60.063114,53.07478,23.75742,42.877178,30.979328,16.019783,15.023117,24.607258,16.24157,5.442238,26.798073,54.582795,78.575176,91.663547,54.594527,77.898886,84.859022,89.206683,51.841015,78.010036,90.190058,99.075449,45.953483,78.037083,96.189296,111.434608,38.23604,63.585449,78.770802,91.781799,27.562237,55.73679,78.49371,97.744045,57.712498,90.424175,103.838825,110.210667,44.535656,79.229336,94.664326,102.025738,29.634876,61.568127,77.517529,86.418972,15.199242,39.854107,53.385487,63.090878,-18.246753,-16.205902,-2.946668,4.97875,7.951601,30.691931,42.914375,50.805831,26.819933,49.711737,60.781178,66.444493,42.509292,66.531746,75.233244,78.767776,53.792328,76.424101,83.315261,84.914041,-31.336298,365.956901,-39.533129,376.801446
33,-1.919746,3.46284,-0.419884,-3.657292,31.058636,52.149639,65.76376,74.588413,50.774517,82.540226,85.95892,83.278828,33.819637,57.784138,55.951939,49.021854,16.118259,24.226513,12.135715,-1.122608,-0.589256,-3.35043,-14.754753,-26.134644,10.824662,27.696912,45.423418,56.409557,42.101431,63.804169,71.651905,75.643761,48.795917,77.006407,89.913787,99.428167,50.277062,83.367934,100.063208,114.347252,48.0919,74.270061,88.694957,101.629816,26.860542,54.484005,77.138271,96.316624,57.167873,89.920521,103.454418,109.973545,44.726429,78.902721,95.040607,103.216038,29.713612,61.076603,77.618008,87.338619,14.601116,38.938808,52.830448,63.386478,-18.662765,-15.963284,-3.530024,3.754549,8.745896,29.334286,41.13516,49.123008,27.399461,50.749576,62.274364,67.836039,42.573019,67.509441,77.41785,81.675726,53.09109,76.75286,84.727432,87.251047,-33.430595,369.704641,-40.127563,373.429056
34,9.073105,-1.828553,-0.101452,-10.487072,28.246937,39.73772,44.944439,44.127331,41.133785,62.79768,58.317318,51.158695,25.043049,31.629353,21.197147,10.445251,7.907124,3.779926,-10.967045,-24.268913,-8.132687,-17.29414,-29.200401,-39.424038,21.054359,46.399321,70.009097,88.583066,47.445867,66.526868,75.439552,82.690285,49.841536,79.540397,97.520944,114.23289,50.293673,82.763768,100.596176,118.02313,49.186982,74.67854,89.984306,105.329777,28.690796,56.371307,77.588539,94.970169,58.437309,88.237839,101.031876,107.948685,44.728317,76.269836,92.540932,101.996384,28.762779,57.355385,74.247551,84.860344,12.627182,35.950241,50.402184,61.608467,-16.772091,-10.981508,2.939011,11.050545,12.473707,34.896887,47.591969,56.664648,30.400098,55.592043,68.63194,76.114175,44.568175,71.802329,83.603698,88.930041,54.138315,78.790562,88.014838,91.032457,-24.358034,367.909711,-40.229559,362.975606
35,61.708775,13.006057,1.672897,-11.918447,-32.699089,-56.3237,-76.49992,-89.024105,-22.538223,-48.768196,-66.176319,-79.78466,-6.17363,-35.637589,-46.156197,-52.372799,5.544891,-25.7761,-35.992012,-40.65834,13.055191,-13.589172,-24.937592,-28.352509,20.742519,46.064881,66.633017,84.02323,48.810737,50.09533,61.729787,75.399229,39.760349,29.305202,34.893182,42.606982,28.629714,16.892072,26.208666,37.670839,15.452547,10.523505,22.828448,35.547304,28.96946,54.119225,73.155098,89.105759,55.561867,86.131439,98.255424,102.573853,42.943497,75.357513,88.83316,92.944221,27.710152,57.159576,71.25206,77.104454,12.440243,35.776749,49.082336,55.774384,-15.254266,-7.015773,8.247076,19.752104,9.622999,35.690256,50.128923,58.549024,28.548142,57.809439,71.493083,77.028884,43.970925,73.619582,83.892689,86.855474,55.080935,79.346748,88.103018,91.217647,37.06953,380.987707,-38.837872,351.129098
36,23.258286,-20.082839,-10.915604,-46.133424,-44.046707,-72.735672,-94.520473,-109.517555,-75.691223,-109.489059,-123.035946,-134.203262,-63.884926,-101.63681,-119.345341,-134.197197,-50.508728,-84.081287,-102.562408,-117.008629,-35.026131,-59.812202,-73.573723,-85.233994,0.198219,13.997707,32.818677,45.90186,39.234792,70.562505,85.675671,95.858252,56.108956,88.601405,105.591722,117.460646,69.065613,99.535613,115.810551,126.116757,78.761971,104.177947,117.481826,127.238823,57.538719,88.149719,103.484001,102.208672,106.989326,88.761063,67.959709,46.972046,84.683304,64.701462,40.313416,15.953579,59.17923,41.45771,18.370285,-0.958157,35.014973,24.754257,8.965015,-5.580196,12.141613,39.872241,64.425378,83.016019,64.558574,119.094006,147.72761,163.508916,71.627514,129.556193,157.896853,173.011625,77.749017,130.274103,156.228234,170.940578,80.717175,126.076187,146.35212,159.146064,60.130949,360.935234,-49.950342,305.02604
37,6.398621,2.947285,-13.091984,-26.567374,-39.558792,-70.032349,-96.64238,-115.715961,-72.596626,-108.736324,-124.250565,-135.319233,-60.890923,-98.690128,-117.222748,-131.274605,-47.097015,-81.709957,-100.684547,-114.633808,-33.34259,-58.65612,-72.733498,-85.752926,-1.531287,11.097784,31.343583,47.311931,37.19641,65.908129,80.56391,90.802993,54.321899,85.675547,101.024971,111.952879,66.940225,97.007118,111.049594,120.143639,74.740167,100.792048,113.178625,122.07124,43.916645,77.434902,95.953617,98.59354,102.716274,129.277782,131.055393,126.386089,88.678265,107.702694,104.935741,100.086994,68.95483,80.971928,77.256145,70.858326,46.931763,57.948933,56.606655,52.285137,-0.766323,19.139972,41.127689,57.563919,39.281228,74.468774,87.207266,89.505061,50.845042,81.070449,84.627334,80.109427,58.569031,79.840504,78.203562,70.907689,63.010614,75.670437,70.493344,62.653203,66.531601,363.863129,-63.040295,278.439277
38,0.762405,3.813273,-9.415569,-21.53064,-39.756203,-68.737793,-94.173203,-114.318523,-69.84066,-106.323395,-122.611141,-133.474503,-56.567688,-95.280132,-113.896351,-127.312946,-42.562866,-77.713966,-96.355991,-109.857845,-29.08802,-54.931641,-68.921013,-81.384087,-2.931663,5.947861,25.827913,41.399267,32.755136,61.826982,76.302576,85.85592,50.248842,83.033618,98.575208,109.504599,62.937625,93.913732,107.873956,117.298613,70.737629,97.363418,109.452482,118.519048,34.304123,68.893433,97.103691,112.109642,84.115448,114.110756,102.564354,88.351479,77.811584,103.346786,90.014305,76.363106,68.434753,87.600632,76.871452,64.343033,57.233562,75.223732,67.823181,57.452831,10.706039,18.260091,22.663698,20.147739,18.721613,15.802548,12.513783,11.770925,12.061029,7.173422,4.270844,3.18521,4.201375,2.146136,1.317507,0.978374,-3.30976,-4.595589,-5.206362,-5.201978,67.900944,367.061816,-71.848927,256.294051
39,1.375008,1.120152,-11.30579,-38.013739,-38.705635,-67.967262,-92.447948,-112.294521,-68.353729,-103.302956,-119.873772,-132.139893,-55.564957,-92.454472,-111.172199,-126.085854,-41.772766,-75.315628,-94.404259,-109.107571,-28.37574,-52.867928,-66.425858,-78.99868,-4.206747,6.090567,26.135368,40.912303,33.06821,60.390606,74.473899,83.887564,50.335601,81.424031,96.738319,107.572676,62.584043,92.508848,106.615915,116.391376,69.902454,96.248268,109.10248,118.778893,19.782715,51.955547,82.976589,97.723675,58.883514,81.301746,70.606441,58.873329,59.577827,78.434887,63.988209,51.838646,57.476234,74.944439,59.086933,46.612072,52.383728,67.296066,54.902916,44.211731,-32.950267,-46.05389,-41.13479,-29.975317,-27.912792,-38.363308,-37.949889,-33.955625,-6.47416,-22.900079,-26.391076,-23.301209,13.5586,-2.020473,-7.914242,-4.924472,31.002103,15.270753,8.259612,10.162698,69.684534,367.799317,-82.746134,217.89766
40,0.530205,3.274316,-21.207275,-31.094173,-37.450676,-66.177979,-89.998913,-109.048576,-66.009064,-100.031891,-117.102585,-130.035725,-53.014755,-88.968029,-107.534695,-122.192459,-39.134102,-71.68705,-89.77026,-103.382664,-25.79567,-49.978294,-62.931747,-74.525528,-6.734191,3.114753,23.322266,38.905847,32.582543,60.123536,74.057207,83.877067,50.199936,81.108302,95.93686,106.842724,62.0943,91.818725,106.092642,116.45646,68.522703,94.609103,107.362045,117.012152,12.49403,38.726234,67.829189,86.356602,43.824921,80.836601,89.560661,89.484215,48.241482,69.96294,53.395386,42.790833,49.739513,69.046097,50.478287,39.41082,49.44334,65.494308,51.330242,40.662575,-31.688521,-56.935918,-66.73682,-69.265746,-59.790763,-60.942655,-61.535829,-62.321974,-43.195463,-27.584403,-22.568294,-26.078434,-22.259109,-8.003718,-3.675076,-4.093064,-0.5447,9.44207,11.418886,11.53226,71.209145,371.191035,-102.959003,186.92089
41,0.644417,1.583342,-11.948719,-17.389657,-36.488914,-64.469147,-87.76886,-106.977482,-63.671837,-97.697582,-114.794941,-127.853622,-50.724792,-86.567974,-105.546684,-120.49736,-37.000694,-69.387245,-87.82505,-101.713772,-23.897552,-47.592888,-60.757942,-72.600403,-6.76803,2.785191,23.197901,38.899487,32.923344,59.313185,73.008685,82.647307,50.808918,80.687843,94.890438,105.177315,62.644373,91.661571,105.327184,115.093382,68.836148,94.325607,106.623325,115.864583,-3.258991,12.207127,39.250145,58.074131,9.794369,33.569984,37.975559,37.355862,25.762711,45.765209,35.156078,26.098137,40.200577,56.820545,41.79245,32.554035,51.940441,61.976967,49.091148,41.333828,-35.573918,-70.712527,-91.12215,-101.284477,-65.964569,-83.049982,-83.469545,-82.582531,-51.193129,-66.912685,-56.038684,-49.272938,-35.54045,-49.704142,-38.381339,-29.457664,-20.270993,-32.248967,-24.761174,-18.775892,72.260771,372.787963,-114.500513,169.544818
42,0.33577,2.100502,-14.259253,-10.603657,-35.709,-63.420181,-86.347618,-104.464703,-62.101135,-96.903934,-114.336147,-127.453194,-48.84407,-85.273304,-104.169044,-118.163795,-35.124664,-67.741585,-86.586514,-100.284348,-22.399292,-45.970917,-59.336586,-70.896606,-7.821554,1.87993,21.954186,37.761921,33.33633,58.837089,72.519746,82.180845,51.365598,80.633009,94.344008,103.773358,62.893165,91.928703,105.155209,114.037573,68.295523,93.955598,105.445312,113.589512,-10.257597,-1.99708,20.400467,39.286194,-2.65892,17.536383,21.645928,21.973028,16.132107,33.538285,29.17162,25.137863,34.406462,47.683068,36.069889,29.100466,50.338583,55.938635,44.870281,39.276695,-34.302663,-70.531475,-94.049197,-104.995939,-63.575461,-91.703654,-85.52764,-78.761477,-52.137386,-87.3693,-87.746857,-85.465627,-40.572522,-69.892621,-58.026816,-45.628923,-29.608026,-54.134456,-46.44582,-37.398165,72.826109,374.933527,-128.530197,158.986223
43,2.814674,0.277939,-14.259252,-10.603657,-35.511246,-63.57296,-86.805553,-103.999214,-61.599998,-96.81427,-114.924202,-128.330154,-48.451996,-86.036682,-106.064587,-120.918045,-35.028992,-68.712044,-88.201675,-102.437325,-22.828445,-47.090721,-61.078949,-72.722168,-7.946228,1.944891,21.443942,37.31071,34.224116,59.217163,72.402482,82.079389,52.470869,79.120556,92.029233,101.340701,64.063274,90.931125,103.829119,112.801762,69.380231,93.827096,104.729007,112.797502,-17.256203,-16.201286,1.550789,20.498257,-15.112209,1.502781,5.316296,6.590195,6.501503,21.311359,23.18716,24.177589,28.612347,38.545589,30.347328,25.646896,48.736725,49.900303,40.649414,37.219563,-33.031407,-70.350423,-96.976243,-108.707401,-61.186353,-100.357325,-87.585735,-74.940423,-53.081642,-107.825914,-119.45503,-121.658315,-45.604594,-90.0811,-77.672293,-61.800183,-38.945059,-76.019944,-68.130465,-56.020437,75.856276,375.921626,-142.573957,149.092726
44,-1.142349,2.558567,-5.984688,2.419813,-33.778267,-61.477089,-84.672203,-102.268467,-59.65004,-95.417519,-113.367691,-126.265354,-46.141663,-85.169907,-105.541363,-119.851685,-33.053627,-67.925377,-87.671585,-101.573696,-21.932259,-47.801628,-62.346497,-74.018097,-10.063279,-0.396376,19.01499,35.302402,32.031421,58.018835,71.547979,81.235693,50.984598,78.743199,90.683259,98.225331,63.149676,90.627807,102.194832,109.287423,68.957982,93.959427,103.761379,110.427459,-21.528168,-25.103416,-11.51207,9.295292,-18.588123,-11.298008,-3.98838,0.725269,4.212456,9.349594,12.057037,11.388302,25.44342,29.339848,24.646397,20.187035,44.225407,40.684605,33.270321,29.143353,-29.314217,-62.887391,-91.696521,-104.932537,-56.664802,-103.282813,-96.191179,-83.962313,-52.196697,-108.150011,-133.882334,-152.192752,-47.547508,-96.062368,-84.758862,-69.049465,-44.724218,-84.002914,-78.042394,-64.255441,74.809713,378.956999,-148.462858,151.989346
45,2.848206,1.355792,-2.668304,-0.081634,-34.389267,-61.844673,-85.075836,-103.506203,-60.361862,-96.197777,-114.526806,-127.798233,-47.159386,-86.198387,-106.870708,-121.586437,-34.21772,-69.311028,-89.327259,-103.33477,-23.070946,-48.833199,-63.722305,-75.442429,-9.775399,-0.649614,18.517343,34.180273,31.689632,56.940487,69.959141,79.417761,50.516962,77.121757,89.052986,96.891954,62.469187,89.036437,100.981622,108.4851,68.326213,92.553185,102.182297,108.596621,-23.678112,-29.546585,-18.130589,0.016422,-27.350578,-21.069031,-11.784611,-6.71236,-3.748627,-1.443329,1.343479,0.77219,19.208393,21.766262,19.010925,15.433388,39.819202,36.520443,31.109047,27.721367,-26.542797,-58.792413,-87.262471,-101.915319,-52.818709,-100.594076,-98.154997,-88.225314,-50.49606,-105.685274,-132.078574,-151.827313,-47.863362,-95.944425,-83.226835,-67.978682,-46.602789,-84.414851,-76.668262,-63.455495,77.150259,380.650674,-151.638823,152.245594
46,0.202789,1.727838,-4.005947,0.188709,-34.019279,-61.876831,-85.291214,-102.490711,-59.377899,-95.533905,-114.150925,-127.34642,-46.085815,-86.032333,-106.79203,-121.369743,-33.537941,-69.376488,-89.228954,-103.247452,-23.161354,-49.382401,-64.067459,-75.820427,-10.937109,-1.949028,17.397129,34.317915,31.139127,56.833721,69.873617,79.079862,50.543268,77.026352,88.497356,95.664726,62.829006,88.909046,100.227835,106.959309,68.772731,92.628397,101.973828,108.191044,-25.686779,-34.784946,-25.476723,-8.265381,-23.355618,-20.788994,-13.664761,-10.624981,0.858593,1.334953,1.882954,-0.224876,22.138996,21.104279,15.783863,11.286221,39.924431,34.565563,27.252274,23.805885,-25.506193,-56.488351,-85.88482,-103.371857,-46.154728,-97.325318,-92.771195,-81.37142,-43.194969,-102.218514,-127.812392,-145.342068,-41.798051,-93.39333,-82.301999,-67.044429,-42.713933,-84.157537,-78.371894,-65.340457,75.267076,382.631056,-157.730742,152.686847
47,1.831284,0.805966,-1.83466,-1.02234,-34.265099,-62.225418,-85.790405,-102.6301,-59.770546,-95.896912,-114.45322,-127.956276,-46.633759,-86.096649,-106.743107,-121.373749,-34.219666,-69.692688,-89.421673,-103.253632,-23.83358,-50.05291,-64.684067,-76.166153,-10.496088,-1.259585,18.125475,34.990562,31.778862,57.394723,70.467038,79.906577,50.760568,76.848079,88.896819,96.908318,62.70248,88.521747,100.754813,108.557718,68.472068,92.104506,101.76826,108.460029,-24.798946,-35.352516,-30.696087,-18.088646,-23.292675,-21.833324,-15.626106,-12.23568,0.703926,-2.35508,-3.770885,-5.945091,22.097454,18.190327,14.180889,12.219887,40.401649,32.940331,26.933613,25.412807,-25.210161,-55.941057,-84.939946,-101.854896,-43.518418,-92.057977,-90.185242,-81.580322,-42.228637,-98.140578,-124.404696,-144.615822,-42.124093,-92.822262,-81.379942,-66.648146,-44.090659,-84.15377,-77.642683,-65.074344,74.916143,383.556463,-161.747618,151.783948
48,-0.70015,1.983485,-1.002216,-7.820751,-33.593788,-61.70517,-85.063591,-102.208786,-58.937073,-94.881535,-113.449116,-126.82045,-45.366554,-85.000076,-105.980587,-120.653172,-32.776566,-68.006516,-88.122368,-102.369576,-22.413826,-48.775291,-63.689117,-75.460625,-10.689799,-1.155288,18.73878,35.546439,32.354005,57.723544,70.496061,79.387626,51.485332,77.549811,88.915591,96.324529,63.283366,89.413485,100.859294,108.0639,68.595075,92.407454,101.795431,108.461635,-25.75613,-37.337093,-34.170513,-19.547768,-22.742329,-22.221279,-16.301422,-12.486362,1.035404,-4.636631,-7.105579,-9.883862,21.875324,16.279049,11.042805,8.125134,38.5219,30.15049,24.209919,21.849804,-23.138682,-54.027072,-84.27971,-102.593678,-43.12269,-90.909142,-92.182188,-85.515521,-43.206177,-98.101243,-127.068485,-148.090888,-44.311015,-93.768803,-86.743274,-73.495989,-47.148477,-86.661146,-81.601008,-70.05047,72.447453,384.99216,-164.518375,143.415409
49,0.649796,1.347888,-3.176365,-12.312106,-33.930588,-61.873283,-85.149994,-101.54583,-57.994423,-94.506741,-113.073235,-126.582298,-44.452972,-84.324188,-105.172062,-120.035362,-31.885071,-67.477798,-87.379189,-101.454163,-21.622467,-48.420982,-63.64975,-75.705986,-10.258719,-0.67203,19.267487,36.723588,32.015057,57.756148,70.429926,79.481734,50.865605,77.574079,89.474247,97.366506,62.580276,88.964251,100.99002,108.562597,68.222534,92.129824,101.80352,108.463178,-25.700111,-32.713966,-28.058624,-21.119385,-26.09848,-25.098267,-19.949856,-14.927101,-1.798897,-0.401287,0.536213,-1.19379,19.613342,19.295712,14.6315,9.223309,36.880016,34.413185,27.91563,22.254353,-26.140802,-58.162898,-86.89694,-107.931291,-52.904264,-94.681444,-112.162954,-122.36298,-52.572016,-98.839747,-123.641985,-141.176138,-51.45387,-96.235856,-95.215183,-86.740186,-51.322558,-89.15191,-88.62237,-80.813011,70.717735,386.017139,-170.074253,130.780395
50,-0.499077,2.077778,3.900204,-33.193039,-33.038635,-61.043358,-84.375114,-101.353455,-58.018913,-94.423885,-112.971668,-126.287556,-44.734383,-84.102173,-104.871254,-119.381332,-32.058907,-67.100258,-86.960106,-101.120224,-21.375847,-47.068291,-61.808052,-73.520508,-11.121187,-1.446442,17.744784,34.128588,32.397909,58.075583,70.456294,79.117654,51.369056,78.049124,89.607937,97.046515,62.834811,89.063237,101.137048,108.577972,67.846104,91.781366,101.52342,108.194873,-25.974884,-36.177006,-31.743164,-24.126835,-31.692181,-30.247593,-22.202225,-18.306656,-7.488041,-7.25441,-5.249462,-6.821823,14.987411,15.893383,12.951679,9.12426,34.926796,30.629711,24.408016,20.623341,-23.241558,-56.041,-86.399324,-106.082577,-54.438237,-106.23899,-105.203961,-94.892939,-52.774526,-111.15843,-137.562412,-156.174202,-50.072575,-102.887888,-94.973894,-80.569221,-48.836487,-91.367422,-88.21386,-76.906958,69.363928,389.479145,-167.02878,98.971584
51,0.544052,0.225266,-3.947182,-12.964252,-33.938713,-61.988869,-85.737305,-102.154312,-58.548317,-95.837803,-114.472961,-127.880974,-45.124626,-85.74955,-106.373692,-121.084671,-32.288589,-68.697853,-88.613548,-102.945728,-21.660919,-49.034958,-64.253082,-76.409798,-10.932663,-1.275949,17.733669,34.774745,32.065322,57.179338,69.180592,77.800641,50.808795,77.011903,88.643457,96.318231,62.202672,88.289257,100.42945,107.932866,67.537167,90.717345,100.193748,106.898361,-23.949909,-30.351105,-24.947548,-16.409454,-21.103363,-20.99596,-18.540974,-14.653988,-1.046562,0.956039,2.427177,2.906914,18.07766,18.53508,15.897617,13.343353,35.747852,33.787537,28.181019,22.605114,-32.753746,-64.915892,-93.544341,-115.984409,-75.328648,-107.445408,-122.906476,-131.881096,-76.735261,-115.078624,-138.131627,-153.719716,-74.589064,-112.424035,-114.816987,-109.366556,-70.849181,-104.570031,-110.073351,-106.423717,66.663866,392.030935,-174.220076,88.333856
52,-0.838165,0.215015,4.355564,-53.665153,-34.18396,-62.321091,-85.897751,-102.371864,-59.210701,-96.378822,-114.694519,-127.819977,-45.852585,-86.607857,-107.243557,-122.170715,-32.901993,-69.435081,-89.414062,-103.918476,-22.058945,-49.803658,-65.073395,-77.306671,-11.377081,-1.694431,17.369835,34.108705,31.990974,57.065655,68.855229,77.176529,50.806016,76.383963,88.015641,95.973355,62.353961,87.73443,99.578282,106.995062,67.862344,90.33758,99.478061,106.012613,-23.451519,-28.655262,-21.13884,-11.951237,-27.337933,-24.7019,-18.041039,-12.896576,-5.284653,-4.764633,-1.805592,-0.87822,16.209068,19.686642,17.300262,15.057392,36.391296,33.874741,27.86911,25.142326,-29.990415,-59.561391,-84.807367,-100.424479,-71.107267,-115.072263,-112.902755,-103.385195,-69.898255,-123.715191,-152.298283,-172.542909,-64.429176,-109.037704,-99.195306,-84.378109,-58.086112,-94.20402,-88.396363,-76.108,62.437019,396.200137,-173.253193,38.622891
53,-0.201187,-0.123748,2.261009,-39.730925,-34.62616,-62.797394,-86.073189,-102.108421,-59.83532,-96.504021,-114.877396,-128.387947,-46.746826,-86.838913,-107.428493,-122.511063,-34.033585,-70.220604,-90.216408,-104.713383,-23.165588,-50.532761,-65.774574,-77.9702,-11.175898,-1.436623,18.223905,35.017671,32.124108,56.840081,68.773719,77.2263,50.993675,76.117201,87.689846,95.598406,62.629306,87.308661,99.019441,106.156677,68.349679,90.226429,99.153069,105.268768,-23.137665,-27.623978,-21.289387,-14.987125,-26.014023,-21.007347,-15.742149,-11.948376,-4.807034,-2.710075,0.949345,2.8022,16.071568,20.713177,18.029766,15.187969,36.736679,36.061306,30.605106,28.115273,-28.637309,-57.763713,-82.831725,-98.86738,-71.706307,-112.715343,-113.598775,-106.024624,-71.988291,-122.779981,-151.148398,-170.992109,-67.171388,-108.249151,-97.922754,-83.681966,-60.40697,-93.068646,-86.324575,-74.668506,60.178614,397.126841,-173.049402,-0.057582
54,-1.007881,0.664867,2.995148,-36.094227,-34.509773,-62.447205,-85.751266,-101.474018,-60.131264,-97.040291,-115.011864,-127.792397,-47.022285,-87.337933,-107.789326,-122.398968,-34.202042,-70.708694,-90.670738,-105.090981,-23.272018,-51.060333,-66.376877,-78.431396,-11.530778,-2.175591,17.521803,35.007852,31.738539,57.414298,69.39184,77.597173,50.633794,76.46288,87.662367,94.91662,62.229039,87.291864,98.733351,105.827239,67.755763,89.840366,98.602317,104.837009,-22.345505,-25.989361,-17.768211,-8.54599,-23.565788,-19.06311,-13.978615,-9.716778,-3.091736,-0.769844,3.498802,5.453396,17.329903,22.653065,20.232182,17.509403,38.193226,38.344574,32.449951,30.044518,-29.014944,-57.615821,-80.016585,-92.935636,-77.854858,-117.111725,-113.337061,-102.729097,-75.746822,-127.875084,-152.772449,-168.442805,-68.628729,-110.815375,-100.605624,-87.306931,-59.273171,-94.068663,-88.92825,-78.354758,58.340836,398.452407,-170.884151,-35.491111
55,-0.680923,-0.225327,0.02409,-15.599976,-34.543076,-62.360916,-85.618057,-100.983353,-60.475845,-97.272949,-115.154057,-127.782669,-47.684555,-87.980232,-108.281937,-122.588196,-34.852638,-71.576614,-91.273785,-105.287991,-23.673706,-51.245384,-66.33831,-78.229408,-11.39468,-1.932294,17.998454,35.922932,32.107188,57.770968,69.652674,77.791687,51.133417,76.731247,87.613337,94.311589,62.844691,87.84805,98.978871,105.343795,68.447985,90.474295,99.170853,104.944949,-17.876759,-19.127426,-12.979546,-5.085182,-20.207405,-15.134525,-7.483349,-1.414948,-1.916771,2.42403,9.619675,13.538132,16.93531,24.307652,25.380363,23.413582,36.040993,40.394154,38.460732,35.392857,-31.713406,-61.264621,-84.506674,-100.06256,-86.873968,-121.774406,-129.004175,-128.518755,-88.892435,-133.439398,-160.764481,-181.803973,-85.372044,-120.704981,-109.793313,-96.567147,-78.253055,-106.883479,-100.52331,-88.58041,57.299252,398.772011,-171.220722,-50.546155
56,0.11364,-0.042052,7.153759,-37.46132,-34.79599,-62.481194,-85.732727,-101.63578,-61.162605,-98.33353,-116.130924,-128.859386,-48.454514,-88.743153,-108.938484,-123.36525,-35.490303,-72.104301,-91.839981,-105.946083,-24.014511,-51.523361,-66.790123,-78.768997,-11.309773,-1.998367,18.223349,36.134612,32.659237,57.624311,69.173429,77.348628,51.487741,76.745512,87.499346,94.575078,62.990854,87.813408,98.88359,105.443151,68.462435,90.37358,98.833078,104.331644,-21.528339,-22.189636,-10.003967,0.716801,-21.487312,-14.260426,-8.5742,-4.613972,-0.752449,4.126911,9.620018,11.537704,19.453297,27.262001,25.711327,22.833939,39.292889,42.425365,37.274895,34.421196,-31.848948,-60.12721,-78.535023,-88.237495,-83.61966,-120.154199,-118.255759,-108.834931,-82.287318,-131.896425,-153.954738,-165.492632,-75.597679,-114.700124,-105.796595,-93.519378,-65.833735,-97.910542,-93.388591,-83.369339,56.36939,399.563405,-165.110464,-87.174029
57,0.1894,0.057057,-2.454815,-12.685233,-34.838333,-62.634659,-86.19381,-102.423706,-61.969414,-98.933773,-116.663189,-129.370079,-49.260292,-89.276104,-109.38343,-123.833599,-36.332817,-72.672501,-92.373619,-106.474342,-24.930954,-52.121773,-67.273178,-79.406204,-11.263707,-2.18368,17.784613,35.406451,32.165172,57.346867,69.199858,77.433967,50.993428,76.608426,87.691513,94.751932,62.74552,87.700776,99.126022,105.75215,68.565434,90.612308,99.665782,105.665205,-16.404476,-15.324326,-5.484009,5.762672,-14.998684,-7.310543,0.235977,4.248047,4.826546,12.556114,19.759655,23.063564,24.809017,33.396034,31.696815,27.974453,44.405079,46.051826,42.085133,39.231949,-34.213372,-61.912846,-80.770403,-91.912432,-83.897213,-118.877617,-117.690743,-108.540521,-84.006326,-128.625012,-152.170768,-168.758411,-78.304879,-110.733417,-100.284305,-88.15018,-69.947934,-95.494449,-88.365534,-76.882814,56.199188,400.351679,-167.924881,-99.128044
58,-0.175552,-0.486223,3.701992,-12.413284,-34.617233,-62.736168,-86.396599,-102.624836,-61.93737,-98.930283,-116.660442,-129.180851,-49.265213,-89.365368,-109.566364,-123.925438,-36.329041,-72.474174,-92.129745,-105.95993,-24.932213,-51.967392,-67.019234,-78.843384,-10.326027,-0.852279,18.962378,36.375253,33.316756,57.748183,69.288902,77.386604,51.854229,76.862529,87.906466,95.138242,63.385995,88.226025,99.643244,106.58646,68.884005,90.91612,99.941251,106.030459,-15.556812,-14.367599,-3.332291,8.875694,-16.104069,-6.365719,0.532837,3.391399,4.357853,13.652401,21.522961,25.409317,24.678555,34.615116,32.206936,27.944298,44.309635,46.416836,42.208443,39.069214,-34.54653,-61.380975,-78.925826,-88.569542,-82.817275,-116.932031,-113.986706,-104.22903,-82.813323,-125.671721,-146.827629,-161.392143,-76.914553,-105.591815,-94.45326,-82.951397,-68.56386,-90.643121,-83.038234,-72.461006,55.05435,400.313687,-165.192175,-111.093098
59,-0.357742,-0.159563,0.81562,-6.339359,-34.509773,-62.216034,-85.378647,-101.806126,-61.302567,-98.254509,-116.295719,-129.211349,-48.76339,-88.784981,-109.373646,-124.123878,-35.988693,-72.175827,-92.20253,-106.41243,-24.612236,-51.097641,-66.221924,-78.308945,-10.327695,-0.715193,19.517823,36.860859,33.449395,57.956405,69.51812,77.647809,52.056585,77.250815,87.865958,94.695492,63.567912,88.836119,100.159353,106.991851,68.992933,91.82947,101.294758,107.637081,-15.352478,-15.72504,-4.440308,8.532887,-15.076504,-5.254326,0.178642,1.362762,5.663967,14.69656,22.653294,26.345673,25.895061,34.958611,32.745552,28.925285,44.960346,45.761662,41.777058,39.647141,-32.80574,-57.181036,-72.587578,-78.778351,-80.906578,-112.233396,-106.982187,-95.588773,-80.74964,-122.0529,-142.343592,-156.442469,-74.160716,-100.399949,-89.66853,-79.021184,-64.125811,-84.474749,-77.558873,-67.915233,53.813152,400.130798,-165.26001,-117.455783
60,0.452385,0.425275,-0.417595,3.171192,-34.635086,-61.976967,-85.204926,-101.903629,-60.997353,-98.413467,-116.63681,-129.810905,-48.69278,-89.263344,-109.821339,-124.891949,-36.054382,-72.531166,-92.505455,-106.960487,-24.726906,-51.350899,-66.324463,-78.478889,-10.422852,-1.522456,18.213037,35.381875,32.149796,56.292849,67.66042,75.715144,50.864247,75.540329,86.289717,93.73058,62.7801,87.766293,99.223279,106.535825,68.793293,91.70282,101.218929,107.792816,-15.961761,-16.295586,-4.934864,6.549053,-14.612961,-1.270809,4.008865,4.983044,4.998722,16.422958,24.968777,29.961948,24.463863,36.232624,34.017105,30.10397,44.140491,47.042713,42.424164,39.399719,-31.974116,-57.631243,-75.298082,-83.207306,-77.445252,-111.773109,-107.069039,-96.620391,-76.295876,-119.752203,-140.869393,-154.344599,-70.035264,-98.164584,-88.086808,-77.259167,-61.248921,-83.363226,-76.245627,-66.578553,53.67837,400.400447,-166.264772,-114.440217
61,-0.100937,0.478504,-1.500378,6.068676,-34.924049,-62.676888,-85.79258,-102.261944,-61.463013,-97.754288,-116.078053,-129.482117,-49.320831,-89.037151,-109.646301,-124.862938,-37.049675,-72.637939,-92.46151,-106.88158,-25.95932,-52.200737,-67.100716,-79.073524,-11.741162,-2.920856,16.887626,33.718689,31.658201,55.005044,66.257636,74.238074,50.688628,74.818466,85.528828,92.831247,62.620414,86.914508,98.033843,104.96687,68.629408,90.713949,99.600018,105.651991,-15.748901,-15.875816,-4.062366,8.216629,-13.267765,1.914196,6.445084,6.301632,6.818104,21.531143,30.674858,36.049004,26.292744,39.099712,36.293678,32.028866,45.416794,50.28677,45.662384,42.333126,-28.755839,-53.711959,-70.64153,-77.769503,-76.316223,-107.765275,-100.966478,-90.978935,-73.684729,-116.835824,-136.453096,-148.707018,-65.949502,-93.635021,-84.132188,-74.423079,-55.949239,-79.011628,-72.33735,-63.694979,53.557348,401.068401,-167.785234,-108.182091
62,1.002045,-2.25352,-0.323238,10.229295,-35.129242,-63.769798,-88.346157,-105.418282,-60.932579,-97.552986,-116.159134,-130.227242,-48.861237,-89.085331,-109.677372,-125.004387,-36.686783,-72.539749,-92.602329,-107.087975,-26.051445,-52.602654,-67.756577,-79.841995,-11.383627,-3.665257,14.349437,30.366383,29.712569,52.785672,64.813603,74.027876,48.97172,72.832944,84.405403,92.396647,61.423752,85.72044,97.073315,103.82881,68.355051,90.158442,98.596204,104.021039,-18.010998,-15.991631,-2.10743,10.327492,-13.600388,4.208965,9.719868,10.235653,6.445885,26.267223,36.874466,42.811317,26.135788,40.748348,37.321701,33.161831,45.424347,52.041149,46.753178,42.992363,-28.172946,-54.475503,-71.526043,-78.928296,-72.977718,-104.101299,-96.897836,-87.648365,-68.056086,-112.078542,-128.125992,-137.098296,-59.275039,-89.204306,-79.874667,-70.870346,-49.221331,-72.610056,-65.536052,-57.554549,54.563055,398.651119,-168.104811,-98.116557
63,-0.04303,-5.792312,-3.523235,12.558212,-35.436287,-64.112892,-88.197441,-103.862457,-60.121193,-96.879845,-116.139793,-131.55201,-48.567581,-88.341465,-109.096527,-125.606403,-37.040291,-72.614594,-92.848206,-108.007164,-27.061043,-53.415642,-69.264107,-82.112389,-11.916718,-5.209882,11.618772,27.956696,29.333236,50.100826,61.060351,69.079445,47.9663,70.460308,80.841663,87.404127,60.275503,83.621852,93.688281,98.664561,67.387669,88.901883,96.729489,101.041273,-17.285957,-12.120609,5.333691,20.142746,-8.517494,13.422432,19.336109,17.92963,10.321598,37.236843,47.387981,50.668087,29.008942,51.380882,47.312222,40.277367,45.748959,60.604362,55.516548,49.603958,-29.194422,-56.944223,-76.358136,-83.873346,-73.223963,-104.616436,-94.309089,-83.469668,-62.858971,-103.073711,-106.066691,-102.630219,-48.646481,-77.555754,-67.166232,-57.288111,-33.220919,-58.681911,-52.930138,-45.810006,54.665108,392.615897,-171.482964,-85.801256
64,0.191231,-10.608474,3.64666,13.839224,-32.928429,-62.828407,-86.496048,-104.769173,-55.411377,-93.22031,-114.182453,-129.451733,-43.182907,-85.893517,-107.580357,-122.626476,-33.396606,-72.140236,-94.564991,-109.792957,-26.894188,-57.960892,-77.038078,-91.957626,-16.493906,-8.67723,8.297526,24.829655,21.172055,45.230633,58.079659,67.368341,41.518754,69.97779,77.798665,80.21607,55.405187,83.385966,89.032485,88.228742,63.741307,86.183753,90.954775,90.992381,-10.146732,2.001286,25.041218,42.264061,-1.661739,23.211937,28.121395,25.020161,13.040485,42.422161,42.985439,36.18988,28.084545,52.605286,46.517086,38.461761,41.61129,56.394653,49.131145,41.842747,-33.437261,-60.000158,-76.104558,-79.208859,-60.196988,-95.478101,-84.144539,-73.335376,-46.789306,-81.891019,-70.790981,-59.226302,-32.93909,-62.336917,-52.985188,-43.171751,-18.949164,-41.008078,-37.024652,-30.652503,55.466108,384.150764,-167.226534,-69.81869
65,5.489731,-13.009639,-3.184833,47.632415,-32.384377,-65.524864,-90.273285,-108.087788,-50.846443,-92.192917,-114.092159,-127.619362,-41.882401,-86.409874,-109.332333,-123.428879,-36.619606,-75.976982,-97.738781,-109.695339,-35.061493,-64.763603,-83.864937,-95.120144,-21.392813,-17.702299,-3.196881,13.952012,16.71244,41.275643,46.564133,47.957037,38.960373,64.293726,63.253047,60.209986,52.766468,74.901088,70.724723,64.35523,59.231921,75.691,72.877404,68.162266,-6.972284,6.961698,30.953121,47.728615,1.675959,30.543308,41.269054,42.871771,16.553621,48.913422,50.876398,44.773149,31.99296,59.40794,53.896723,45.840683,46.272297,62.84955,56.027956,48.787851,-37.629126,-68.188973,-87.259469,-95.256093,-69.067666,-104.468305,-102.635746,-97.622199,-54.519176,-90.348525,-82.416916,-71.966153,-39.464688,-71.331174,-63.240172,-52.582189,-25.008886,-49.747321,-46.116396,-39.073515,63.960629,372.343684,-167.406578,-20.983716
66,0.807953,-16.772215,-3.184834,47.632415,-30.112038,-60.04921,-84.558334,-99.175415,-50.906296,-96.060562,-106.633129,-104.832516,-44.980202,-92.545738,-104.161491,-100.358334,-40.981979,-83.317451,-95.839634,-93.728027,-40.128365,-71.514359,-84.674149,-85.557518,-21.744358,-22.359083,-12.472595,2.415182,10.3406,31.649062,24.859543,18.425891,30.802341,50.15776,40.60738,33.381964,44.449305,60.811188,48.796472,39.639689,51.019178,62.75188,54.111763,46.291999,-3.797836,11.922112,36.865025,53.193169,5.013657,37.87468,54.416714,60.723381,20.066757,55.404682,58.767357,53.356419,35.901375,66.210594,61.27636,53.219604,50.933304,69.304447,62.924767,55.732956,-41.820991,-76.377788,-98.414379,-111.303327,-77.938344,-113.458509,-121.126953,-121.909022,-62.249047,-98.806031,-94.042852,-84.706004,-45.990287,-80.32543,-73.495155,-61.992628,-31.068608,-58.486563,-55.208141,-47.494527,68.312302,355.983298,-167.047691,27.060528
67,11.517105,-38.370039,9.314175,16.337029,-27.348518,-58.496132,-86.39843,-99.127579,-48.0653,-98.042679,-99.445839,-88.160133,-47.563019,-99.72496,-100.500069,-86.947289,-48.939743,-95.427132,-96.089745,-84.804153,-50.99247,-87.0821,-89.144325,-79.848404,-27.292509,-34.303033,-22.29301,-4.815606,11.710039,24.046043,2.969701,-8.575341,33.049314,40.265591,18.76101,9.463745,45.639668,48.456783,29.422342,22.239658,50.971137,52.503535,38.51756,32.369319,-2.699947,9.250431,27.48436,40.645294,11.644878,38.737736,47.744522,51.429806,21.990566,47.297974,43.649597,38.498154,33.849506,54.268513,46.401787,41.566143,46.187325,58.339348,50.781441,46.619053,-39.238157,-68.438383,-86.851059,-93.135954,-66.686647,-97.806478,-106.27036,-105.915048,-51.047429,-81.385005,-74.153322,-63.41227,-33.824313,-61.478371,-52.496372,-42.85494,-15.798503,-38.150393,-34.473155,-27.423728,84.948034,313.562463,-152.614889,39.34676
68,3.305855,-26.889402,11.411133,14.275769,-11.110725,-34.598122,-59.640427,-75.855331,-43.406296,-77.818909,-71.361237,-61.255531,-53.170967,-91.050911,-82.180824,-67.777176,-60.85865,-94.417191,-85.533028,-72.232819,-66.498985,-90.06958,-84.242477,-73.747101,-27.573041,-35.231512,-29.157371,-18.346727,-4.249416,-7.14267,-18.539388,-22.948491,12.443387,9.662519,-3.481056,-7.862124,22.409966,17.455545,3.960795,-1.229945,26.118881,20.158484,9.442626,4.757807,-12.326889,-6.217461,11.197472,23.565445,22.052593,42.540207,37.787361,30.563908,34.525166,41.449528,27.95929,19.354191,40.823708,42.364655,28.71048,19.7925,43.41156,45.108948,34.579353,25.224838,-21.611039,-45.204358,-56.850455,-62.274951,-60.198686,-84.621869,-83.274228,-74.932334,-47.04733,-54.179719,-42.052864,-31.851387,-28.394352,-30.185608,-19.373821,-10.185329,-9.593235,-7.665727,0.120259,7.727138,92.489948,282.416374,-136.967697,49.365842
69,5.85331,-31.351425,-10.572453,57.088349,-6.669273,-26.719894,-49.440308,-61.170502,-44.016151,-70.286636,-59.130249,-48.457603,-53.978119,-81.958466,-65.964088,-52.566605,-59.913368,-86.343269,-70.09861,-57.573967,-62.138557,-80.479431,-69.797516,-59.60392,-20.921348,-37.218579,-40.548038,-31.914404,-18.876916,-18.605584,-16.417582,-15.927037,-8.199281,-9.340985,-8.94819,-8.786343,0.431635,-1.714624,-3.442894,-4.549338,7.007375,5.039575,1.663,-0.037853,-7.7211,4.450665,29.712124,47.739315,21.061707,45.006523,34.871006,24.974442,37.350941,55.202122,41.928806,34.465313,51.192398,66.142387,50.216331,42.299252,62.386379,71.478424,58.05685,50.779266,-41.476609,-74.141373,-90.495414,-89.032176,-67.805102,-89.199365,-82.7148,-73.587935,-50.565961,-71.272356,-65.012625,-55.682415,-33.87078,-54.939465,-49.071416,-38.972538,-17.941088,-38.97896,-35.064539,-26.37073,101.121998,248.969448,-144.76141,104.35869
70,-6.718941,-23.415262,10.280914,10.795022,5.299187,-0.089149,-13.572006,-24.946976,-16.686516,-34.552002,-32.958412,-27.323914,-29.525871,-46.61087,-40.819359,-33.216019,-38.691444,-54.885063,-46.573448,-37.286911,-44.636993,-54.491615,-48.761902,-42.619743,-10.169058,-24.626435,-34.584121,-40.309804,-46.937229,-46.073526,-30.539099,-22.394466,-46.218701,-42.499042,-24.559127,-17.806966,-41.994788,-38.323047,-22.963249,-17.360079,-35.884461,-31.362046,-21.32958,-17.827714,-13.872356,-8.666668,8.585987,22.054653,18.749886,34.591827,23.063679,14.461155,35.915737,45.858765,30.110664,21.474037,48.16,54.193325,37.8792,29.984379,56.903572,62.120819,47.76804,39.729309,-23.588843,-53.538009,-68.891631,-71.244167,-64.237904,-77.955295,-65.288525,-56.988652,-50.725524,-56.168422,-42.562027,-36.199327,-35.165717,-36.801115,-26.541994,-21.65766,-19.02487,-19.009556,-11.78451,-9.257467,95.633469,225.681207,-133.250084,115.280733
71,-2.636261,-22.411324,10.929565,6.999286,18.718529,27.605667,24.456253,18.180084,2.110519,-17.250938,-15.124054,-7.807961,-18.259735,-37.809906,-28.834648,-17.481194,-33.24955,-49.493179,-38.84285,-27.613564,-42.936516,-53.589706,-45.29686,-36.521416,-7.923319,-21.443695,-32.216857,-38.032079,-58.718158,-67.168887,-51.965627,-42.616368,-55.020667,-51.427781,-31.858026,-26.093192,-45.771999,-39.545396,-23.105337,-19.617488,-34.639511,-28.640335,-17.128206,-14.717346,-14.585037,-15.528259,2.570057,21.826401,18.534565,22.972641,10.329609,4.92485,38.230991,29.350605,14.382534,10.920982,49.614429,37.74725,21.85936,17.970829,56.203194,44.435635,28.187428,21.098671,-19.180141,-48.712801,-65.32749,-66.125058,-47.347221,-52.479699,-44.469899,-40.052707,-35.423,-29.386558,-22.003061,-19.191534,-22.033381,-12.562751,-8.897802,-8.882488,-9.941631,1.822749,4.663206,3.069675,94.034901,203.386329,-121.282825,122.396464
72,2.710419,-22.661845,7.031822,20.209057,16.767597,23.626156,17.071094,4.302006,-3.80928,-19.10614,-15.877247,-9.442692,-23.296223,-39.099197,-29.908962,-18.989239,-37.640648,-50.429363,-39.985027,-29.098606,-46.514912,-54.670773,-45.733395,-36.762314,-13.901994,-33.141199,-47.868549,-53.283149,-58.749219,-62.913697,-46.365976,-35.72462,-55.124871,-51.94684,-32.890462,-23.256101,-46.366501,-42.438835,-25.619907,-18.111026,-35.547829,-32.167951,-20.177935,-14.949034,-16.203575,-14.802418,0.414333,19.269791,19.35339,21.36446,10.605583,7.716808,38.26973,35.50581,22.961884,18.161545,50.097485,44.629326,32.744064,27.735729,57.374439,53.739166,42.018127,35.538197,-26.454803,-54.21152,-74.885682,-76.704664,-33.780995,-62.894122,-56.378342,-47.740139,-27.998007,-54.923256,-50.155198,-42.340559,-25.383927,-47.917208,-44.85553,-39.240133,-24.800262,-43.504246,-39.169213,-33.035421,98.448429,180.78117,-112.547894,142.662208
73,2.710419,-22.661846,6.520443,1.0174,14.816666,19.646645,9.685936,-9.576073,-9.72908,-20.961342,-16.63044,-11.077423,-28.33271,-40.388489,-30.983276,-20.497284,-42.031746,-51.365547,-41.127205,-30.583649,-50.093307,-55.751839,-46.16993,-37.003212,-19.880669,-44.838703,-63.520241,-68.53422,-58.780279,-58.658507,-40.766325,-28.832873,-55.229074,-52.465898,-33.922898,-20.419009,-46.961003,-45.332274,-28.134476,-16.604562,-36.456146,-35.695567,-23.227664,-15.180721,-18.146496,-13.936272,5.298271,26.492043,16.228409,19.751759,10.5126,9.674091,34.230194,35.727711,24.043121,19.40546,45.894413,42.437325,31.257019,29.403133,53.762512,51.81879,40.504417,35.856915,-23.270828,-46.133856,-62.782755,-64.22648,-20.862809,-56.648686,-52.155726,-42.868001,-19.790266,-53.394871,-48.338346,-39.397319,-22.330184,-48.676121,-43.666155,-37.02002,-26.903172,-46.940934,-39.333932,-31.284117,102.24618,158.23946,-104.940119,143.799744
74,-9.585228,-16.363489,5.571899,-1.612489,18.576736,24.214897,16.46553,0.505142,14.521637,10.788231,7.141914,2.747154,-5.066071,-14.475517,-15.738487,-14.653473,-21.684494,-32.092552,-28.69812,-23.467369,-34.25663,-41.744843,-38.941727,-33.424873,-19.144418,-38.316069,-55.391015,-65.759434,-9.275653,-22.634922,-38.555815,-48.049478,-4.315057,-21.857485,-41.271691,-51.842466,-4.05305,-24.218882,-40.548717,-48.629129,-6.119898,-24.927098,-37.023818,-41.719288,-17.486458,-16.261368,2.138214,24.009132,7.154331,22.048302,26.18248,32.60376,28.820457,40.962296,30.948715,23.236084,42.789516,46.313667,34.911003,30.805492,50.829906,50.328083,39.880085,35.769596,-21.808022,-46.555766,-64.889896,-66.492411,-15.600686,-38.147861,-38.233354,-32.784467,-13.099547,-43.841558,-45.089842,-38.617874,-15.67775,-39.316611,-39.385216,-34.928503,-19.639719,-37.863716,-34.939495,-28.97601,93.629465,141.997697,-98.399706,142.308981
75,4.69677,-4.217121,3.845787,-2.760737,13.387527,15.323067,3.585663,-13.776855,10.788689,1.482239,-6.628876,-16.448936,-6.574059,-20.148926,-29.361534,-36.138611,-22.019119,-35.17868,-41.4608,-43.974838,-33.528214,-44.941864,-50.187378,-50.706711,-24.990762,-48.937943,-64.464435,-71.812549,-14.230568,-24.967976,-41.63997,-55.14565,-4.422441,-16.870089,-38.543866,-56.020283,-0.257808,-16.581715,-35.473883,-50.483895,0.916808,-15.719802,-30.027836,-40.773581,-16.238136,-15.414848,-0.11776,20.971584,6.154747,26.167202,42.281399,58.583965,25.263519,37.381096,36.176662,34.672165,38.924732,42.265148,32.444687,29.84951,46.098804,45.56448,35.79546,32.894211,-18.616699,-40.934163,-58.276056,-63.705584,-9.34259,-15.469343,-17.632027,-17.710018,-8.432636,-33.532851,-44.378416,-44.981532,-13.315674,-33.637487,-33.711649,-27.192658,-18.750698,-36.919244,-33.650455,-25.278457,98.899384,137.726899,-93.98077,139.494567
76,2.83493,0.161724,-1.718102,-2.060302,5.193214,3.329887,-4.78981,-19.268875,-2.939186,-9.518051,-17.872581,-27.603264,-10.672531,-21.435356,-34.391899,-46.402473,-17.639351,-28.843002,-40.18959,-48.271179,-21.880531,-32.981529,-43.038712,-48.82267,-29.434939,-56.014663,-70.201203,-70.132845,-32.155693,-35.13123,-46.139537,-58.240302,-15.858247,-19.77489,-35.840124,-51.746228,-3.442462,-10.761121,-27.154929,-42.025478,6.338556,-3.166005,-15.613345,-27.784227,-10.963097,-6.259689,6.690044,24.429016,2.783089,22.179222,40.899696,58.312111,17.772331,31.697044,44.699306,55.287037,29.836407,38.40271,36.067486,36.202354,37.178822,42.521553,37.725105,34.775391,-18.07484,-39.902591,-54.498567,-60.215945,-8.690382,-14.435888,-16.625125,-18.273182,-7.153847,-25.545775,-38.17148,-44.028785,-10.29015,-34.871353,-39.458699,-36.814268,-14.540061,-34.4031,-37.286381,-34.763784,102.561064,137.960439,-94.872122,137.50608
77,-12.23568,-16.931592,4.465256,16.834459,4.445229,5.002327,-1.478577,-13.957901,17.386894,18.240509,6.523476,-5.623169,11.515617,3.965836,-11.026268,-22.45903,2.275314,-7.731514,-19.426918,-27.353554,-7.251663,-16.291351,-23.161583,-28.138847,-23.88614,-40.522442,-51.511514,-55.914597,-19.224354,-29.075305,-37.671425,-43.013917,-3.423319,-10.030984,-19.195949,-26.325714,8.817218,3.101106,-6.186836,-14.339712,17.914042,10.293917,2.458099,-4.129868,-13.578873,-4.251823,18.706741,38.082447,36.780338,23.775444,9.805698,9.260731,48.922291,31.56292,16.268692,14.825191,53.078384,35.507698,20.646629,19.592228,52.287998,37.407761,25.964756,25.969849,-15.905301,-31.195197,-40.88538,-45.241131,-40.660732,-55.791312,-45.182529,-38.624142,-44.199895,-60.217489,-47.574648,-39.003104,-45.901088,-56.481157,-46.497227,-40.842772,-46.629619,-51.990698,-43.050041,-39.827904,91.049681,120.929753,-89.68257,154.241445
78,-3.469505,9.860862,1.989098,-7.561955,16.095085,17.20253,0.92411,-18.399239,-25.754929,-35.178795,-20.060005,-9.730568,-45.310249,-50.243912,-32.502594,-19.966164,-56.519051,-58.663788,-42.37278,-31.532707,-60.531464,-58.799171,-45.833702,-37.291603,-18.933541,-41.369472,-57.53289,-63.19389,-46.804373,-47.195531,-36.272192,-30.291695,-43.90763,-43.021389,-34.11596,-28.189681,-38.354725,-39.414578,-32.639786,-28.039936,-32.538577,-33.460757,-28.296015,-25.590112,-17.623215,-14.011173,5.903206,29.881496,24.420662,29.908848,23.986015,26.512413,40.615139,30.82901,16.065845,17.126141,48.186378,32.645931,18.23307,21.26873,51.793613,37.756691,25.41235,25.926476,-16.967902,-39.538326,-55.346339,-56.603083,-14.245944,-39.155998,-37.795883,-33.137679,-13.542545,-47.586998,-45.120378,-37.19888,-16.354905,-44.117674,-41.988119,-36.291396,-20.424999,-40.683117,-35.574474,-28.438905,88.450356,130.722689,-86.823292,146.611564
79,-9.408646,-6.776552,-3.94249,10.539252,19.275055,22.516594,8.570251,-11.481171,8.001137,-3.917885,-6.241608,-7.616386,-13.256378,-27.996826,-26.590462,-20.073738,-30.481453,-41.249199,-34.612656,-25.994225,-43.745842,-49.700546,-42.014351,-33.984718,-9.827269,-26.084486,-38.863764,-45.43762,-33.462332,-36.171631,-20.372017,-6.966928,-32.340945,-37.935131,-19.681246,-6.517447,-28.820492,-36.514346,-20.730262,-10.730801,-24.659965,-30.934548,-20.899026,-13.497776,-14.91703,-5.294037,22.002811,42.939606,23.310928,24.644566,14.885445,12.070255,39.678268,38.084164,24.203739,18.438034,48.47311,46.208267,32.648163,28.553123,51.86182,48.288746,37.206001,34.112835,-14.541234,-29.032018,-36.034638,-36.735938,-43.419185,-53.451712,-41.944153,-35.929045,-44.947137,-56.941166,-43.447899,-35.648389,-43.909112,-51.816438,-40.82789,-35.383418,-41.365057,-46.349056,-38.098152,-35.290731,79.970026,123.765656,-89.837465,156.970335
80,-8.111,5.967683,2.071552,-3.833898,19.184532,27.066765,11.40358,-7.838173,19.263153,11.057625,6.612396,2.900505,-2.357254,-16.982346,-20.649033,-17.547684,-22.104492,-34.203529,-30.412674,-22.697639,-38.096581,-45.448837,-38.725204,-30.184593,-5.048343,-20.925733,-32.804412,-42.63409,-40.929038,-52.952121,-49.716584,-45.266356,-44.181648,-46.105513,-31.407309,-20.640693,-42.421514,-39.024346,-20.275192,-10.190238,-37.542861,-35.123758,-19.594023,-10.880237,-18.854599,-12.000275,9.685936,32.095642,25.466995,17.297688,7.931099,11.4925,39.448242,25.688267,13.398514,16.150017,45.843372,28.12952,14.837952,18.914623,48.476372,33.335838,22.647572,25.363312,-13.564404,-35.160932,-49.323327,-47.70278,-17.922748,-44.436029,-38.671875,-33.274333,-18.500362,-46.810178,-40.493821,-33.475145,-21.453143,-42.815019,-39.002363,-35.437759,-25.209729,-40.309681,-32.647937,-25.465376,72.587156,129.666402,-87.037783,153.069499
81,-3.054428,10.907963,-4.377766,3.382441,18.981857,27.327347,14.000015,-4.407349,22.499084,13.522339,7.873535,3.412056,2.385292,-15.616264,-15.629425,-10.272675,-16.524239,-32.252083,-26.733055,-17.86171,-31.876373,-43.308678,-37.254066,-28.684616,-1.159611,-10.29966,-16.92622,-24.058393,-51.326078,-61.89392,-59.79101,-56.753877,-58.625656,-52.332085,-34.437649,-25.266972,-56.796022,-41.677082,-22.727486,-15.706032,-50.789189,-38.960774,-22.920456,-17.577008,-13.434849,-12.653389,-0.379086,18.937168,11.819286,24.372368,37.250977,50.370712,27.119179,28.630257,26.784496,28.615494,36.076183,29.889164,19.634342,19.796047,41.31546,34.731388,24.809475,22.757435,-14.556054,-35.320309,-52.286204,-58.296156,-1.493495,-15.846638,-22.701489,-24.330156,-6.012885,-37.103044,-47.700526,-46.543385,-14.243288,-43.055043,-41.781564,-32.351041,-21.58745,-43.256596,-39.844021,-30.720027,70.478926,140.268145,-90.469351,156.14572
82,-1.085701,8.994318,4.25869,24.341395,19.713821,29.044075,20.42038,5.804558,20.782814,10.524673,3.975105,-0.918732,1.120377,-15.920563,-12.627411,-5.165062,-18.00808,-31.602402,-24.670029,-15.960045,-33.010941,-42.535858,-35.952072,-28.307762,-4.669813,-17.449061,-29.501753,-40.152156,-53.284955,-63.50647,-63.686627,-62.64181,-58.725815,-52.184254,-31.364331,-21.562132,-55.398024,-44.784394,-24.622112,-17.386199,-49.095869,-41.913586,-25.831185,-19.519984,-20.617962,-20.128155,-2.16053,19.71302,23.611851,10.959835,-0.770988,-1.224346,40.885162,23.487682,8.542213,5.53997,49.065056,31.605606,17.432156,15.527687,52.001324,37.625084,25.201664,23.515549,-17.844387,-39.6161,-56.024667,-59.273541,-43.119448,-62.307462,-51.669904,-44.162845,-42.77309,-61.522615,-50.105272,-40.943611,-41.166283,-52.548366,-42.723072,-36.145171,-38.928139,-43.678845,-35.665185,-32.172459,70.158691,148.81823,-85.445194,180.042882
83,0.131493,8.755961,-7.450333,-4.22521,20.011711,29.420128,22.424927,8.221779,20.033226,11.85997,5.206146,-0.763321,0.010643,-12.091599,-8.430061,-2.327042,-19.20433,-28.31955,-20.748825,-13.103256,-34.067574,-40.936546,-33.920288,-26.992607,-7.766967,-20.752523,-31.297764,-42.202949,-54.366267,-62.055459,-63.246655,-61.653834,-57.738642,-49.318757,-28.794588,-17.093564,-53.11156,-42.636622,-23.004684,-14.830473,-46.668491,-40.945216,-25.464573,-18.575944,-16.94006,-12.942982,5.889473,25.093975,11.258755,21.967163,17.400627,17.290306,28.600731,35.824356,27.012749,24.628315,41.029129,46.787453,35.877228,32.656231,49.729614,53.848743,45.529919,41.671543,-17.862603,-39.521993,-54.213836,-53.476968,-32.044512,-46.944207,-39.845071,-33.604883,-29.553624,-44.888289,-35.780659,-28.549315,-27.751685,-39.521437,-30.215156,-23.992382,-25.957527,-32.578529,-23.189626,-16.012808,70.258913,157.192312,-92.926798,175.435792
84,-1.755638,7.070237,-3.698502,-3.475066,21.344147,32.847519,29.341965,15.137444,17.213058,11.835594,9.51313,7.779579,-1.818008,-11.463547,-8.176117,-3.713951,-19.550171,-26.217842,-19.325867,-12.548218,-33.692551,-38.713531,-31.521149,-25.04734,-9.490112,-25.083758,-39.799684,-49.718776,-52.097588,-58.15308,-49.982265,-41.66961,-52.9574,-41.727841,-19.562284,-7.930791,-47.705343,-35.236514,-15.653544,-6.202026,-40.413113,-32.584087,-17.746327,-10.34974,-13.236408,-9.800606,8.577175,25.883274,3.048992,23.686695,25.85043,24.405441,19.070492,37.381325,33.145294,27.548389,31.928616,47.428894,40.340309,33.578568,42.509251,52.378635,46.219883,39.899769,-11.487985,-27.738656,-37.454959,-37.692266,-37.525355,-39.243437,-29.097041,-21.84637,-33.273468,-33.359487,-19.045865,-10.518874,-27.770334,-25.624321,-12.563183,-7.04319,-22.728721,-18.33413,-8.188475,-4.347538,68.319941,163.658198,-96.808634,171.356374
85,-0.895958,6.361157,-0.485859,12.426344,23.208504,35.816689,35.244598,22.897797,22.117767,18.528557,17.883339,17.239151,1.94664,-4.839592,-0.881538,3.986664,-16.418839,-21.353188,-12.747574,-4.855728,-30.233459,-34.506798,-26.593552,-19.271851,-6.263653,-14.582236,-21.965486,-28.14096,-49.042239,-53.706124,-44.678955,-34.320508,-49.059838,-36.612066,-13.659006,-0.537784,-42.312309,-26.658826,-6.300086,3.788635,-33.725729,-22.797635,-8.322659,-0.783736,-14.718933,-14.659367,-0.191746,16.362705,-2.768211,6.400509,7.398663,7.079887,13.126202,20.613384,16.675644,14.194679,26.018314,32.043743,23.3951,18.373146,35.511703,37.576218,28.678322,22.700157,-13.263,-32.497019,-45.330422,-45.226866,-43.985992,-53.128634,-46.253899,-39.216637,-41.226181,-49.03946,-40.986033,-35.183717,-35.03774,-36.592738,-25.882253,-20.209984,-26.59689,-24.525658,-16.905349,-12.846247,67.363873,169.255317,-97.354603,183.018681
86,2.176208,6.615754,1.372862,14.446941,23.133774,35.403328,34.859734,24.351082,22.735291,20.538597,20.697441,19.945679,2.671967,-3.406792,1.372833,5.942917,-15.243187,-19.68544,-11.943398,-6.32206,-28.737831,-33.490791,-26.692429,-21.57177,-6.305458,-15.045364,-21.30136,-25.713489,-43.187744,-50.160971,-42.786799,-33.864173,-44.739779,-32.403652,-11.658231,-0.350187,-39.754915,-24.752406,-6.066854,2.981557,-32.805092,-23.125344,-9.328943,-2.437165,-18.271608,-19.142675,-5.137997,12.299137,3.9818,10.927048,4.760628,2.185908,22.182713,26.074734,16.343737,12.47715,35.158253,37.90741,25.614481,20.785132,43.681898,44.501324,34.029808,28.609429,-19.307223,-42.884858,-59.9004,-62.022391,-32.109257,-55.992062,-53.864884,-46.261803,-28.941183,-52.991857,-49.429259,-40.467638,-26.537147,-45.913191,-40.931106,-32.914297,-24.513617,-37.223982,-33.421052,-27.21106,69.546347,174.568585,-95.975475,196.163136
87,-1.160316,9.374268,1.372862,14.446941,24.27887,35.80307,36.874237,32.516212,27.920837,26.996613,27.600288,26.290855,7.426643,1.473885,7.181282,12.067108,-10.78125,-15.623474,-7.496567,-2.363205,-24.437943,-28.257866,-20.903664,-15.991058,-2.8441,-8.688036,-10.594086,-13.383846,-45.013272,-53.110974,-48.805797,-40.761879,-48.941648,-31.193282,-11.242651,-0.897295,-43.326497,-24.886404,-8.703165,-2.489838,-35.583243,-22.361553,-9.557173,-5.264037,-21.824284,-23.625984,-10.084248,8.235569,10.731812,15.453587,2.122593,-2.708073,31.239223,31.536083,16.011829,10.759621,44.298191,43.771076,27.833862,23.197117,51.852093,51.42643,39.381294,34.5187,-25.351446,-53.272698,-74.470379,-78.817917,-20.232522,-58.855491,-61.47587,-53.306969,-16.656186,-56.944254,-57.872486,-45.751559,-18.036554,-55.233644,-55.979959,-45.618611,-22.430343,-49.922306,-49.936755,-41.575873,68.352928,183.072265,-94.635715,209.739489
88,1.830482,7.236593,-9.308796,-6.194184,22.65049,33.714409,36.817474,35.542488,33.273697,33.350716,33.666687,31.87397,11.743927,10.966759,16.102982,20.358353,-7.511787,-8.094406,-1.359444,2.956238,-22.484093,-22.596703,-16.210442,-12.866364,-2.292299,-8.02743,-5.916801,-5.387353,-46.888755,-53.404906,-48.058123,-39.354649,-50.5705,-31.750703,-9.121771,4.869205,-45.085211,-26.620726,-8.53965,-0.008769,-36.735567,-26.89428,-12.963326,-7.032878,-20.455513,-22.833424,-3.704967,19.753819,-9.454765,8.498554,4.867172,3.981113,16.319675,26.714973,15.001488,10.126476,36.764202,44.145927,29.33939,24.280586,51.708984,53.433151,41.074848,35.529442,-24.500155,-51.795319,-71.17513,-73.850899,-8.345383,-40.443865,-49.001854,-48.068126,-4.314501,-44.895081,-50.997133,-44.374834,-8.249423,-47.121431,-49.353152,-40.687161,-16.882748,-44.811842,-45.418478,-36.685982,70.077496,189.988249,-104.050426,203.224697
89,2.568169,6.018442,-0.50108,-7.533983,21.672134,35.335464,40.438385,41.411247,39.12014,40.855293,40.523987,38.923187,17.238235,20.158539,22.842293,24.897194,-3.437805,-1.684456,3.698959,7.274323,-20.846558,-17.783318,-10.983353,-7.137222,-1.024748,-8.32692,-5.901178,-5.267434,-49.268184,-54.06934,-51.152065,-46.433284,-54.87401,-35.44097,-12.986173,-0.249842,-50.676402,-34.379418,-15.79946,-8.430475,-43.202317,-37.691031,-23.01265,-17.317718,-20.946293,-30.56488,-18.674698,0.724125,-6.402569,2.394161,1.16621,0.418854,18.999882,17.669334,5.064297,-1.517315,36.927567,33.881321,20.481834,13.083057,50.096512,46.312008,31.995449,23.589993,-10.467806,-31.199643,-48.418313,-59.225808,-60.783339,-71.060151,-66.802831,-59.63546,-62.360691,-33.468847,-16.133654,-11.840147,-52.220039,-22.551744,-10.522023,-11.590985,-38.753138,-13.811097,-4.124557,-4.965906,73.253345,196.025185,-103.943825,195.709209
90,4.614258,1.667817,-7.450905,-4.008466,22.394142,36.606674,43.335571,48.013802,44.449539,44.109192,42.150307,37.426987,22.669258,21.458359,26.25206,28.739433,0.598526,-1.986351,4.470634,8.366318,-19.709358,-18.443527,-10.864906,-6.621094,-0.056316,-4.029585,-3.081284,-6.232346,-52.035096,-56.116057,-58.400884,-59.432796,-60.586231,-38.039118,-17.210025,-6.416794,-56.880651,-35.858217,-19.149112,-14.808305,-48.485127,-38.26741,-24.263466,-20.323543,-22.93087,-27.945499,-12.051544,8.239174,-16.340446,-9.497223,-2.327156,3.02433,5.954304,23.071918,14.15617,4.961643,26.390076,41.539021,27.038898,16.143036,44.611759,55.180206,42.33736,30.56448,-15.222279,-38.012751,-57.824753,-66.95628,-53.992399,-76.552294,-83.067889,-83.088143,-49.152649,-62.464617,-42.127304,-31.648815,-41.604031,-53.411019,-32.753592,-21.559539,-33.041102,-44.230832,-30.404421,-20.730169,77.81476,197.869717,-111.447573,191.877457
91,12.076721,-7.809945,-6.937408,-5.419031,23.787346,38.960266,41.65123,35.566063,36.750526,31.197052,26.127319,21.003571,13.771133,3.494339,10.981064,19.434814,-8.651161,-16.827049,-6.501732,2.953835,-26.456909,-32.696571,-21.989822,-11.906891,-5.564083,-9.431696,-13.823385,-20.084877,-43.365771,-50.867643,-61.078629,-72.439902,-48.340137,-46.184862,-31.917244,-26.971654,-45.58471,-42.103654,-29.671629,-29.018556,-38.873675,-36.693083,-28.049137,-28.199005,-19.253883,-24.368935,-14.892883,1.365395,-8.712559,2.976036,2.42054,0.850296,13.224106,26.182137,15.063915,5.742588,31.770916,42.536945,28.082371,19.092236,46.77103,56.385727,44.117832,34.245415,-23.071868,-50.542589,-73.642677,-83.080178,-57.642342,-77.389321,-74.249251,-69.513674,-51.127118,-71.562182,-57.293514,-47.639208,-43.371575,-62.478326,-48.39812,-39.022802,-34.906643,-53.053113,-45.246565,-37.610941,90.258837,190.778299,-118.017626,187.176953
92,-2.996407,-1.439526,1.069508,-26.140864,24.729309,43.690453,48.18821,38.600349,42.362595,37.804985,31.645775,26.233292,18.486443,11.082687,15.027809,20.156364,-5.158195,-10.078011,-2.159615,5.416145,-24.796371,-27.047424,-17.956123,-9.298897,-7.424376,-13.080775,-20.057151,-29.165831,-50.418162,-59.541167,-70.159398,-80.720139,-58.150363,-54.56359,-40.328268,-35.947261,-58.378037,-53.230646,-39.370272,-36.975776,-52.569608,-49.151661,-39.250229,-38.290628,-18.190956,-29.55534,-25.078011,-13.108692,-14.682598,-6.062393,-5.085869,-5.806332,7.953644,13.689079,4.206276,-2.12225,27.243004,30.631657,19.338226,14.066505,43.729591,48.280563,36.036472,28.668079,-12.147047,-30.096348,-45.299176,-55.945379,-69.732054,-89.427472,-85.247061,-77.053337,-67.886581,-64.818419,-40.884022,-33.427536,-57.357426,-52.090795,-31.348893,-25.734484,-44.597815,-40.407988,-25.999023,-22.085405,86.962137,190.199204,-117.248411,161.89652
93,12.422104,-6.065187,-7.512989,-5.176599,30.048523,41.859741,31.643257,9.552956,26.476479,18.129044,13.935242,9.925919,3.257675,-7.974129,-2.228966,4.191628,-18.14106,-27.230759,-18.056831,-10.220146,-34.957924,-39.570007,-29.543266,-21.049919,-19.025672,-39.8715,-57.15649,-62.11017,-27.358829,-54.06971,-73.962729,-88.223246,-23.986083,-61.452034,-70.357184,-71.597441,-24.097913,-62.258927,-66.935779,-64.546285,-26.013349,-55.943774,-60.855896,-59.551048,-20.465183,-28.178616,-21.171741,-7.147236,-14.373379,0.701065,-1.785393,-4.082851,9.86166,22.058601,9.287739,2.806091,31.414547,39.496307,24.189949,19.362488,50.009708,52.831821,41.363926,38.450832,-18.854006,-40.047612,-61.216487,-72.872001,-49.708896,-83.804047,-80.977236,-74.869256,-43.088326,-76.96099,-61.084496,-52.449256,-36.599778,-69.112358,-53.620445,-43.957648,-32.116142,-58.675427,-49.123749,-39.704589,99.025898,185.872136,-125.119743,158.458041
94,4.522247,-8.26202,-3.818779,-4.144194,26.010132,34.26384,22.916565,4.957008,20.909729,9.616356,4.313622,-0.087318,-1.344681,-17.695198,-10.781937,-1.85154,-21.906967,-36.061935,-26.327477,-17.155037,-37.897453,-45.572662,-35.764618,-26.827354,-22.192604,-43.256719,-61.533421,-69.868553,-27.054276,-53.787511,-72.737663,-85.232241,-20.071848,-57.874833,-64.057222,-62.128448,-17.792208,-55.685842,-60.815325,-59.456569,-18.798678,-48.655496,-54.391121,-53.844939,-21.359882,-27.452316,-16.389141,1.342335,-15.31786,-0.164738,-1.577053,-3.5186,9.038429,22.139225,11.542397,4.383545,30.376339,37.960911,25.24538,19.806519,48.309517,51.921329,42.331409,38.302059,-24.165591,-53.836973,-79.313557,-91.138236,-33.263094,-75.597571,-86.446378,-87.789881,-25.643155,-76.38705,-74.105095,-63.643834,-23.269161,-71.338645,-68.064484,-56.413108,-25.304454,-63.804045,-60.976772,-49.131777,103.175297,178.97213,-129.311371,155.675861
95,-5.912018,0.602869,-4.328442,-6.087726,21.965446,38.150024,33.205719,16.669693,22.841949,19.025803,11.02581,2.555466,-1.668434,-9.674377,-1.696358,5.39669,-24.339523,-29.042358,-17.806778,-9.901886,-41.728134,-41.734085,-30.815163,-22.998161,-11.51355,-26.377121,-39.106165,-46.064017,-62.991719,-70.473831,-79.681219,-89.605158,-67.430524,-57.232381,-41.03247,-37.482438,-62.930895,-49.960715,-37.419021,-38.188246,-52.550897,-42.680094,-34.739979,-37.446376,-20.107441,-27.1661,-17.308617,-2.000084,-18.065815,-8.88216,-5.912647,-2.502308,7.189751,19.947224,12.021046,5.208321,29.483528,37.878914,25.931511,19.872494,48.15176,52.829876,43.550606,37.882748,-22.518152,-51.480423,-76.909243,-90.155787,-27.859131,-63.746988,-81.760015,-91.721932,-22.291343,-71.661075,-77.793107,-72.63562,-21.607766,-70.567414,-69.162067,-57.279528,-23.83992,-62.015815,-60.832338,-49.545011,96.868601,180.752965,-134.034491,150.766101
96,-1.217079,0.450778,0.090065,-3.089126,21.56559,35.489044,27.28672,9.923744,19.268074,11.663818,6.304779,1.060524,-5.356636,-14.379616,-3.138657,6.984901,-27.279282,-31.216049,-18.58017,-9.381981,-44.04007,-45.217323,-33.206177,-24.540939,-8.19712,-24.542825,-34.621789,-40.480483,-70.300868,-77.410841,-79.677112,-79.668159,-73.860347,-59.632435,-39.615977,-33.192699,-66.833706,-50.11824,-33.601301,-32.58668,-54.208155,-41.988551,-30.319514,-31.972079,-20.549469,-26.506634,-17.103596,-4.377651,-19.583874,-8.781567,-6.305065,-2.983761,4.864197,18.490505,9.137821,2.608395,27.023735,38.041077,25.948448,19.886227,45.894127,52.675838,42.875061,37.17207,-22.910267,-51.33531,-75.369681,-90.22788,-29.426912,-65.628647,-83.965215,-93.65827,-22.804489,-73.822679,-75.81061,-65.976888,-20.31181,-70.357061,-68.632928,-56.447688,-20.807048,-59.529805,-58.646404,-47.862497,95.282564,182.631753,-134.313383,149.104984
97,2.746124,1.552776,0.256748,-9.920698,20.278244,30.359917,23.689957,7.383041,5.76313,-2.047119,-0.97744,1.133194,-17.030411,-25.432091,-13.161507,-2.24659,-35.261536,-39.893532,-27.063904,-16.743622,-48.777809,-50.892677,-39.375572,-30.632744,-7.379051,-25.815501,-33.474157,-32.466576,-67.595088,-79.557872,-73.673583,-64.240312,-66.370269,-56.695585,-35.984435,-25.505205,-55.817803,-42.56141,-26.353285,-20.955496,-41.497697,-31.639614,-19.57556,-17.073001,-20.554962,-27.413006,-17.120991,-3.33149,-20.709686,-13.652115,-9.287453,-2.651596,4.827633,16.501808,6.9944,0.990944,26.966114,36.151943,23.340054,18.059521,45.686703,50.984287,40.366116,35.256157,-21.282094,-45.086446,-67.119209,-80.356707,-16.7322,-48.132378,-67.365223,-79.284905,-9.963367,-59.00011,-60.655176,-51.620936,-8.595472,-59.667879,-55.767415,-43.114014,-11.321815,-50.628113,-47.634885,-35.707515,97.763472,184.493728,-134.321852,139.493486
98,-6.727295,8.14562,-3.788052,6.654286,21.199608,32.37751,20.850677,3.125725,9.462433,-2.629509,-6.856384,-7.272949,-11.001892,-24.769135,-17.893066,-7.625313,-28.060112,-39.556732,-30.035019,-18.27095,-41.313744,-50.524864,-42.300453,-32.895584,-10.029255,-24.900236,-30.617583,-31.004141,-61.003726,-75.667967,-68.227474,-57.651914,-55.126692,-56.060853,-35.627209,-23.574208,-43.432708,-39.874649,-22.401567,-13.735082,-29.530159,-28.695355,-17.320744,-12.513289,-18.600826,-23.82288,-11.383324,5.546551,-13.901024,5.403214,6.200237,4.10368,8.425999,29.360218,16.70454,7.690945,28.380318,43.80455,29.184437,22.239475,46.810856,55.421047,44.199429,39.147949,-25.26796,-51.050578,-73.410187,-82.72996,-41.921645,-78.221099,-76.891459,-70.036268,-30.3176,-71.196743,-60.897207,-49.568877,-21.047319,-60.794361,-50.631756,-38.533893,-15.770438,-48.895798,-42.858213,-31.075154,90.929575,192.623,-138.216505,146.131424
99,-7.686539,1.285705,-4.090748,-4.798192,24.413338,36.759567,26.461029,8.540268,8.018417,-3.019524,-6.719971,-7.568665,-12.610703,-26.889839,-21.148453,-13.5783,-27.549591,-34.337654,-22.595329,-11.934242,-36.326523,-39.952354,-30.411415,-20.940514,-7.664214,-16.51805,-17.550023,-14.635712,-45.773604,-61.110307,-50.911362,-38.271238,-38.026521,-42.528744,-26.747438,-16.41468,-24.956738,-20.06944,-7.353486,-2.040728,-10.269094,-3.968081,4.25059,6.212647,-14.640255,-17.010098,-3.025589,12.758389,1.224461,12.699623,18.398094,21.94788,20.761528,32.487946,18.4128,10.744743,37.283878,47.539558,28.625221,20.385303,51.22364,59.876919,44.025879,34.714909,-17.946954,-41.126824,-57.851614,-65.338358,-60.721527,-74.71488,-74.999303,-70.763132,-51.689633,-63.236837,-44.117674,-34.778758,-37.274617,-45.376765,-26.527174,-18.416875,-20.205785,-28.348688,-16.159465,-10.00863,83.265352,193.635475,-142.284937,141.060001
100,1.215706,1.925995,-1.248779,-2.811064,12.830658,15.512924,8.403168,-3.026848,-0.54863,-9.304619,-14.540977,-15.955696,-10.679626,-20.905724,-23.017616,-22.625885,-17.698631,-24.189034,-24.037056,-22.937508,-21.472549,-24.806442,-24.022636,-23.059616,-5.824669,-10.426372,-9.013769,-4.992459,-33.2647,-45.097746,-30.746086,-18.414529,-29.679595,-39.986665,-24.495215,-14.97429,-22.481287,-27.885622,-14.600206,-7.546518,-14.266074,-13.728599,-5.894941,-2.322124,-12.331295,-11.824608,4.992142,22.704105,14.986267,27.15992,30.382576,30.802746,34.487572,39.621849,23.35144,13.183079,48.382587,47.078819,26.913586,17.569141,58.039169,55.427799,37.231922,27.829685,-17.97184,-43.027625,-55.212093,-54.380933,-56.358397,-66.155563,-66.114406,-61.043833,-44.374988,-51.160618,-38.406564,-29.805905,-27.129241,-29.603919,-19.015978,-12.731885,-7.8662,-9.443923,-4.483697,-1.712092,84.534101,194.855278,-143.480673,137.542744
101,15.737801,37.734689,3.32365,6.187947,5.603714,-3.778038,-22.131844,-40.984268,-41.251602,-56.676292,-54.229088,-48.663025,-54.150925,-64.365005,-50.384903,-38.342514,-58.772736,-60.716515,-44.616051,-33.565407,-57.966843,-56.268425,-42.95414,-33.856773,-15.698807,-25.239616,-20.139897,-12.240599,-39.035708,-34.466178,-27.822698,-23.195431,-22.721249,-8.859455,-0.652084,0.768546,-4.92052,11.732949,14.349314,9.444602,10.78156,23.749085,24.381903,17.730952,-8.546219,-7.907982,4.586391,21.96888,24.01577,26.840172,33.005791,40.006428,47.748585,32.715626,14.863586,8.817387,60.084057,39.545174,20.298901,15.199585,63.178654,39.412136,22.863235,20.080376,-23.014564,-42.400612,-48.494698,-45.301862,-64.94368,-65.766968,-64.864856,-65.528395,-51.944971,-41.540398,-29.46458,-24.997246,-31.173399,-16.803337,-11.240921,-12.197312,-7.684777,5.304978,5.24965,-0.149436,101.105947,231.70604,-139.322977,142.846765
102,-24.260902,11.795317,-1.070023,9.106272,-25.012779,-45.658607,-62.367897,-69.917221,-6.271706,-42.185669,-58.158188,-61.244087,2.340088,-43.456764,-64.148712,-65.968552,0.848351,-45.5056,-64.715424,-66.439705,-6.504478,-43.152466,-60.223274,-62.88723,-22.89872,-26.209283,-6.129161,15.940004,-13.236448,3.986113,3.916458,2.528371,10.15819,30.0509,25.424312,19.824908,30.240041,45.370621,37.802738,31.003709,45.187284,54.263854,46.348501,38.934993,1.691952,19.000053,40.415325,56.546917,6.631794,34.386005,54.757805,73.104286,13.636208,50.582657,71.016712,84.41391,24.479828,62.943306,77.38821,83.486309,36.022968,66.539555,74.45509,76.28088,-30.150009,-54.264749,-63.297754,-65.193244,-51.080188,-69.284333,-78.875067,-85.000739,-29.136808,-48.833584,-57.825463,-62.861703,-8.934111,-28.029315,-38.318539,-43.572295,7.51274,-10.947669,-21.028424,-26.957513,78.095169,242.659112,-139.142876,151.110792
103,-0.359917,13.387366,4.795361,-2.753019,-31.67347,-59.678764,-80.175419,-93.017235,-37.38224,-68.864479,-86.864662,-97.201481,-25.995369,-62.454643,-82.771225,-90.688305,-18.968925,-54.978561,-74.136543,-81.77845,-15.128403,-45.214462,-61.922264,-69.88266,-14.850233,-10.752661,8.669449,29.146874,5.012466,38.288837,55.111193,65.107597,27.966021,63.835723,77.828923,81.804352,47.785433,77.900553,88.610483,91.380977,62.836849,87.125632,92.566832,92.655135,2.618237,22.646885,45.159988,62.001801,27.202492,45.872669,64.157124,81.592541,33.43111,58.05954,80.949211,101.480885,38.635368,66.616173,86.776428,103.629971,41.881428,66.147881,82.252522,96.819248,-23.117934,-42.537945,-47.94231,-52.86002,-51.09933,-65.734672,-74.940948,-82.643695,-36.205008,-48.028143,-55.707795,-62.212089,-18.31122,-24.706278,-29.75388,-34.281235,1.447924,-4.930091,-9.796394,-14.268729,78.263111,255.672764,-133.819656,147.98406
104,0.18219,10.413342,36.43919,-25.526324,-40.240974,-71.164169,-91.288376,-109.875984,-55.225868,-74.629898,-90.304527,-104.28606,-37.340813,-54.883232,-72.158546,-88.946972,-19.413414,-36.586876,-52.792053,-67.203484,-3.888702,-20.078087,-32.594948,-44.162064,-2.771852,9.866543,28.858685,46.437174,16.491991,45.965957,68.403648,89.142833,28.982556,63.818433,89.221874,112.261261,39.511248,72.301334,98.592869,119.775175,47.430677,75.27332,96.812605,114.899918,19.08268,46.095257,72.470055,92.483311,42.719193,80.768623,104.709091,123.402672,44.765453,92.296772,120.941391,141.246185,47.044888,93.249264,117.648926,132.961349,50.214787,85.379105,101.982994,113.220062,-35.349919,-55.260783,-59.602208,-58.542385,-56.176233,-69.603088,-72.878608,-75.705233,-36.579709,-41.415693,-39.917751,-39.421895,-15.452083,-17.551474,-16.697744,-17.940749,5.764216,2.919312,0.958305,-2.401474,79.113293,266.108028,-96.712475,122.479657
105,-16.125412,22.554153,13.643646,-5.96756,-41.784668,-72.703114,-95.192585,-109.252796,-65.195217,-89.905071,-100.671959,-108.676929,-44.320793,-68.838043,-81.635914,-89.674816,-23.955116,-44.747887,-57.093544,-65.202541,-5.389252,-17.809639,-25.859413,-33.332062,7.717443,26.822835,49.297206,68.643302,42.066418,86.858438,110.389853,127.149965,52.614933,102.273132,127.4652,144.110086,60.324101,105.530837,129.738357,146.039107,64.485091,101.756837,120.779854,136.346392,22.612095,50.087185,74.557514,97.273178,57.707806,88.259811,112.448959,135.482826,59.694729,94.247932,124.608994,150.818939,60.587883,96.551743,126.883736,151.779671,60.077477,91.009941,112.895508,131.888351,-34.734267,-55.790756,-66.999321,-78.224774,-52.93517,-58.648071,-64.319167,-68.543606,-36.99532,-43.130996,-44.898879,-45.853201,-18.717692,-24.954762,-26.841793,-26.983016,3.438448,-1.183817,-4.15747,-5.150725,64.452667,288.536596,-81.604042,116.386513
106,-7.606316,9.889761,48.846588,-23.114846,-40.317307,-68.055496,-87.855892,-104.045963,-62.795906,-82.170467,-92.033615,-99.922314,-43.926888,-64.387207,-77.254887,-85.923729,-24.042435,-41.827812,-53.546104,-62.631454,-3.166122,-14.224892,-20.780869,-27.661285,14.13152,39.221515,64.90203,84.521062,51.090747,92.344654,118.778276,141.996184,57.865508,103.15184,133.130739,157.351597,63.22847,107.500675,135.35221,156.898349,66.127713,101.075606,122.951925,141.533241,15.519161,40.832176,64.57283,80.805016,68.632965,113.50914,132.257881,143.167534,74.760017,124.327354,144.839745,156.035385,75.808868,121.674957,139.261208,147.157402,73.006096,107.822914,121.330147,127.021866,-38.578323,-60.558413,-71.459584,-83.644762,-56.114174,-67.146503,-69.985972,-69.696887,-37.151796,-46.51498,-48.875173,-49.904676,-16.021237,-23.067762,-27.799449,-32.142571,5.35478,1.524247,-3.01978,-7.564549,58.312883,298.379349,-31.290922,93.224659
107,-9.392738,10.254953,8.479958,-6.703409,-39.484177,-65.087185,-82.419777,-97.552586,-59.842587,-74.696846,-84.105263,-92.26244,-41.943512,-59.423733,-72.415009,-80.535049,-22.586746,-37.696724,-50.132332,-59.742165,-2.089806,-10.788231,-16.97834,-23.749924,17.546812,44.798627,71.489255,90.886356,59.230378,98.651717,124.462895,146.454996,65.543431,109.074507,137.621599,160.794121,70.198918,113.524119,140.442605,161.633741,72.114848,106.446163,126.295524,143.329252,20.034771,46.533623,72.32151,87.077522,68.136406,107.404175,130.437813,149.093742,71.689224,115.969963,144.124603,166.106758,73.036079,115.281372,141.497383,161.644821,71.759148,105.248566,125.004845,141.829834,-37.284312,-58.355251,-71.538995,-87.188402,-60.22635,-71.689295,-77.268877,-80.880288,-44.813602,-55.713229,-60.885628,-63.762117,-25.117598,-34.661463,-38.632663,-41.667603,-1.517856,-5.510977,-7.587736,-10.42597,50.309629,309.342239,-21.42148,87.229188
108,-11.659012,6.560364,28.511353,-16.108614,-37.552128,-60.880051,-76.622543,-91.095657,-54.809246,-70.005684,-77.354622,-82.958107,-37.292919,-54.764042,-65.308685,-71.354542,-17.830009,-32.396049,-42.462215,-50.23962,3.162918,-5.355492,-11.224365,-17.245903,20.74962,49.516976,77.504856,97.253935,60.531027,101.558,128.27623,149.64496,65.025469,109.682811,140.523004,164.762573,67.986154,111.473449,140.04697,162.135587,68.223708,102.439426,122.264395,139.717779,14.97036,38.776474,61.543465,73.483429,66.547852,106.346054,127.197304,142.494736,71.918564,117.472,141.512718,159.583282,72.634392,114.172668,137.260437,154.893379,69.810905,103.286819,121.996078,137.517128,-32.916891,-55.556846,-68.846955,-80.685373,-52.786599,-65.356482,-69.703803,-72.771379,-38.481035,-51.104888,-54.770207,-58.568352,-20.176731,-29.75882,-32.741767,-37.547276,0.842924,-1.433814,-1.92192,-4.535753,40.252161,317.325086,8.691416,72.543056
