YashyHoby/handMotion-similar-search/workspace/NewProject/handData/tgt/d4_feature_d2/5.csv
,vel_0x_L,vel_0y_L,vel_0x_R,vel_0y_R,posFromWrist_1x_L,posFromWrist_2x_L,posFromWrist_3x_L,posFromWrist_4x_L,posFromWrist_5x_L,posFromWrist_6x_L,posFromWrist_7x_L,posFromWrist_8x_L,posFromWrist_9x_L,posFromWrist_10x_L,posFromWrist_11x_L,posFromWrist_12x_L,posFromWrist_13x_L,posFromWrist_14x_L,posFromWrist_15x_L,posFromWrist_16x_L,posFromWrist_17x_L,posFromWrist_18x_L,posFromWrist_19x_L,posFromWrist_20x_L,posFromWrist_1y_L,posFromWrist_2y_L,posFromWrist_3y_L,posFromWrist_4y_L,posFromWrist_5y_L,posFromWrist_6y_L,posFromWrist_7y_L,posFromWrist_8y_L,posFromWrist_9y_L,posFromWrist_10y_L,posFromWrist_11y_L,posFromWrist_12y_L,posFromWrist_13y_L,posFromWrist_14y_L,posFromWrist_15y_L,posFromWrist_16y_L,posFromWrist_17y_L,posFromWrist_18y_L,posFromWrist_19y_L,posFromWrist_20y_L,posFromWrist_1x_R,posFromWrist_2x_R,posFromWrist_3x_R,posFromWrist_4x_R,posFromWrist_5x_R,posFromWrist_6x_R,posFromWrist_7x_R,posFromWrist_8x_R,posFromWrist_9x_R,posFromWrist_10x_R,posFromWrist_11x_R,posFromWrist_12x_R,posFromWrist_13x_R,posFromWrist_14x_R,posFromWrist_15x_R,posFromWrist_16x_R,posFromWrist_17x_R,posFromWrist_18x_R,posFromWrist_19x_R,posFromWrist_20x_R,posFromWrist_1y_R,posFromWrist_2y_R,posFromWrist_3y_R,posFromWrist_4y_R,posFromWrist_5y_R,posFromWrist_6y_R,posFromWrist_7y_R,posFromWrist_8y_R,posFromWrist_9y_R,posFromWrist_10y_R,posFromWrist_11y_R,posFromWrist_12y_R,posFromWrist_13y_R,posFromWrist_14y_R,posFromWrist_15y_R,posFromWrist_16y_R,posFromWrist_17y_R,posFromWrist_18y_R,posFromWrist_19y_R,posFromWrist_20y_R,posFromBody_0x_L,posFromBody_0y_L,posFromBody_0x_R,posFromBody_0y_R
2,-3.797207,2.80668,-0.842972,3.025832,29.729347,48.648262,61.148071,73.909492,52.715378,77.937698,87.514,94.140244,37.090759,61.876488,71.734314,78.140488,18.63802,35.232353,44.019127,49.446259,-1.223488,-3.999538,-5.945778,-8.428745,-3.256531,10.984225,30.854334,45.481525,31.405148,52.400226,63.019259,71.757622,44.562802,67.23354,78.227707,82.901904,51.893811,75.681799,88.970858,97.281846,52.562012,78.087718,92.75622,104.589822,35.329113,66.613255,89.732952,107.92345,67.731457,101.964512,110.902233,110.969524,52.874279,87.584324,98.976231,101.3764,36.157665,67.416172,80.632038,86.256351,19.075699,41.042347,53.30698,62.148113,-15.994345,-10.242788,6.313856,17.656048,16.368429,38.698427,47.493106,51.305886,36.453985,62.652956,71.545386,72.772922,50.528942,76.398845,85.251384,87.069131,58.917921,83.768756,93.152781,96.346513,-34.642754,376.2546,-46.785336,376.306409
3,6.052666,-8.106224,1.288319,0.404527,34.453583,56.772652,75.666618,84.960938,49.274712,82.648544,81.431923,75.211143,28.390961,57.938004,57.235794,51.41613,6.580009,21.65863,17.817993,11.05505,-15.47287,-17.920818,-21.650791,-24.896049,0.779352,16.758568,36.340735,48.980612,49.583667,72.645902,69.783955,62.27387,63.152393,92.700521,89.130606,79.119506,70.397446,107.595029,109.756294,105.84953,72.401185,106.571022,117.480653,121.147886,33.345909,64.087486,88.227539,107.075844,66.918869,100.971565,109.69059,109.067802,53.012924,87.229042,99.48967,101.572952,36.722374,68.325577,81.990395,86.712456,20.452023,44.68277,57.266693,63.551216,-15.674354,-10.798171,3.838838,15.164604,15.641997,38.538988,44.945346,45.503755,35.398053,61.940603,69.089757,69.154533,50.823368,77.642004,84.112212,84.618627,60.683118,86.397657,92.640685,92.497918,-29.505129,367.968837,-46.412058,376.531396
4,-16.461411,-0.843078,1.465073,0.24095,37.364273,68.006287,91.100922,106.297646,70.454865,104.590988,107.874527,104.393921,51.612511,85.971336,92.683411,92.190857,29.643517,53.461075,59.478378,59.574394,7.108326,4.591599,1.247749,-2.431812,-9.624666,0.148571,19.489295,34.533794,32.335788,58.883649,62.076701,57.176312,51.047707,80.42633,82.717703,77.049324,62.1973,92.885649,101.691875,102.040333,64.37888,94.934281,110.436475,119.239305,33.030968,63.69976,87.775154,106.006393,66.143074,100.227585,108.252296,106.781845,52.102547,86.409645,98.11409,99.771538,35.787048,67.255783,80.550728,85.020447,19.705467,43.471985,55.928993,62.083511,-15.333307,-10.479662,4.25059,16.400168,15.758026,38.464887,44.598185,44.762441,35.362794,61.476611,68.58822,68.858811,50.764334,77.061365,83.487916,84.055896,60.728875,86.093165,92.379913,92.090365,-46.752234,367.05419,-45.732679,376.700778
5,17.948971,-0.110224,0.81871,0.134369,36.140842,57.38039,74.9687,83.036785,48.403645,80.181828,79.913921,74.414349,26.417027,52.101917,52.310772,48.368855,3.651352,14.839268,10.286064,4.205475,-19.034214,-23.648071,-28.156757,-31.010571,2.054127,19.046359,40.153946,53.565518,52.653465,75.22923,71.886125,63.755077,64.966497,95.348811,93.194648,84.373849,70.841555,107.859198,111.401263,108.369133,71.251516,104.190914,116.332527,121.387354,32.360115,63.00087,86.84166,105.384521,65.767479,100.228844,108.626289,107.674713,52.02507,86.520538,98.555489,100.468025,35.70591,67.089844,80.579567,85.139008,19.435787,43.00827,55.47226,61.721649,-15.750863,-11.050051,3.618389,15.041165,14.406433,35.306292,41.667696,42.536216,34.387446,60.250062,67.784168,68.283853,50.016846,76.568844,83.109632,83.749305,60.120572,86.046359,92.287287,91.764447,-29.196939,366.798898,-45.307646,376.690079
6,-19.703121,-2.310268,0.960617,-0.146719,39.906464,71.294518,94.682693,108.82473,73.810501,107.024689,108.066216,102.148132,54.346504,86.996613,91.388397,88.960533,31.678848,49.968224,49.968796,45.059166,8.114204,3.999939,-1.764221,-7.979221,-8.678218,2.245183,23.058036,38.944009,37.564381,65.699413,66.573119,59.267551,55.430751,85.951633,86.280701,79.074243,65.63723,98.222243,109.833605,112.297941,66.789307,97.248624,111.231511,118.660333,32.586937,62.809296,86.170235,104.418068,65.948639,99.360352,106.969757,105.091438,51.776505,85.442848,96.976204,98.377304,35.156822,65.931702,79.168167,83.670044,18.593273,41.768188,54.17347,60.466919,-15.633228,-10.765505,4.178342,16.130875,15.680776,38.275561,44.289248,44.453998,35.257571,61.071096,67.894763,67.944411,50.721171,77.103046,83.329155,83.881204,60.724923,86.281195,92.740597,92.718861,-49.124193,364.348225,-44.571161,376.402955
7,21.768208,2.555479,0.143738,0.528584,37.490215,59.830799,78.613415,88.090382,47.505169,80.471706,80.844898,74.104328,24.623508,54.217587,55.115147,49.26939,1.572762,15.121021,11.50526,4.276886,-20.665569,-27.106876,-31.149044,-34.32478,0.04761,14.080205,33.318855,46.725549,50.207654,73.470578,69.135082,59.819291,63.482511,93.219966,88.738985,77.992499,70.225965,108.128368,110.890093,106.830683,70.582203,104.229694,117.593533,123.692189,32.68856,63.198395,86.313057,103.958359,66.375389,100.034752,107.120934,104.633102,52.158051,86.044235,97.393456,98.386002,35.434914,66.431694,79.558182,83.695564,18.738327,42.270927,54.544601,60.196266,-16.11624,-11.126621,3.65266,15.906968,14.013885,35.757132,41.290401,41.030555,33.988044,59.349309,66.1484,65.913934,49.923294,76.185188,82.23642,82.335035,60.318235,86.248035,92.132788,91.111127,-27.600317,366.78732,-44.671755,376.815155
8,-25.895977,-4.510003,0.372906,-0.410023,41.320381,74.747314,100.187988,115.092545,76.518059,110.351715,112.739868,107.374992,56.032448,93.061409,98.51944,95.796089,34.081306,63.084068,67.701187,65.228806,12.68858,16.482239,15.167599,12.07449,-7.614135,2.55622,23.157146,40.665796,36.401374,68.106567,67.686109,59.859553,56.193492,88.227013,84.706128,75.116227,68.670163,100.134962,103.036676,99.456202,72.423415,102.257324,114.493168,120.781398,32.083454,62.302608,85.099125,103.715229,65.316296,98.73373,106.717472,104.892712,50.869274,84.716778,96.59483,98.012753,34.154263,65.232067,78.552761,83.022137,17.555237,40.914974,53.517666,59.965496,-15.672996,-10.910804,3.747571,15.174793,15.283474,37.962918,43.348172,43.010088,35.040148,60.802852,67.057181,66.589421,50.702831,77.055869,83.193984,83.650504,60.933392,86.630703,92.926034,92.65532,-53.665638,362.122401,-44.468193,376.250216
9,26.054363,-0.116276,0.056019,0.251015,37.071705,56.217442,69.728909,73.141651,45.127544,70.89735,68.337421,62.524853,22.346592,38.051891,34.4034,29.257221,-0.668221,2.536411,-5.098572,-11.587029,-23.315964,-29.764194,-35.314636,-38.675423,9.668015,30.161927,52.836493,66.542985,60.094636,82.168865,82.666141,79.711199,69.491691,99.215622,103.046556,101.186633,72.287194,106.339026,115.760719,120.273068,70.122162,99.580629,113.276932,122.588091,32.335052,63.255043,86.533127,104.01123,64.626045,98.633766,107.36412,106.712379,50.831795,85.122528,97.838631,99.886208,34.529114,65.752144,79.6978,84.47628,18.365707,41.239243,53.821678,60.427551,-16.174841,-11.180715,4.29011,17.175013,14.578037,35.470795,39.999941,39.37373,34.611909,59.512392,65.920664,65.440802,50.052537,75.95807,82.09248,82.452608,59.745808,85.448368,92.121858,92.129762,-27.820358,361.942043,-44.621258,376.43715
10,-20.244427,1.70425,-0.087032,0.785342,38.731155,67.410507,89.097061,105.820084,68.457642,101.198158,106.22818,105.094757,50.421181,82.517624,89.710808,90.617409,28.955612,46.788025,49.295197,47.42981,6.306553,1.183376,-4.191513,-9.30479,-7.118958,4.012789,23.58557,37.431679,40.985539,65.491375,69.926784,67.736435,57.370147,83.97772,88.316674,85.487888,65.598451,95.53079,110.050102,116.724519,64.208387,94.002282,110.146001,121.598788,31.707973,62.334995,85.783138,104.149647,64.711246,99.001064,106.98801,105.632572,50.733662,84.89439,97.115307,99.010105,34.425602,65.373974,78.601398,83.038845,18.318729,41.219845,53.294048,59.407482,-16.267652,-12.205339,2.082656,14.08144,13.671479,34.195649,39.458452,39.661857,33.724555,58.29313,65.220538,65.368616,49.583049,75.353595,81.562476,82.08192,59.996083,85.746993,91.940127,91.256735,-48.21207,363.565539,-44.855576,377.141737
11,21.151085,-0.034086,0.325298,-0.172839,37.874222,59.375725,75.337372,82.365074,45.828552,73.644218,73.799286,69.295578,21.799622,41.022148,39.736404,35.092392,-1.561375,2.872868,-3.851795,-10.81398,-23.792553,-32.991829,-37.839375,-40.375156,4.991162,22.217922,43.501498,56.927396,56.687743,80.588919,79.397136,73.084947,67.377295,98.854753,101.3696,97.40757,70.943752,106.9724,115.767635,118.774694,68.388828,99.162455,113.535481,123.046341,31.341362,61.613274,84.856567,103.272057,63.577309,98.538895,106.984749,105.973778,49.935608,84.677925,97.342644,99.26651,33.905411,65.154305,78.426361,82.766991,18.075829,41.352539,53.179436,58.907204,-16.087279,-12.288826,1.517516,13.450536,12.475497,32.412235,37.572532,37.564319,32.892715,57.289747,64.682383,64.819716,49.209274,74.996555,81.682704,82.333924,60.019424,86.134044,92.212878,91.175657,-27.14839,363.50666,-44.617682,376.944105
12,-24.417229,-3.666925,0.453358,0.03563,41.084976,72.831459,96.838646,113.693047,74.595566,106.692467,109.62822,105.338745,54.424438,87.553253,93.384933,92.313194,31.889648,52.900658,54.55101,51.019707,9.307594,6.844139,2.687416,-1.976109,-6.145216,4.532418,25.131121,41.134543,42.561965,71.381932,71.852779,64.524487,60.132242,90.267061,89.150737,81.325663,69.65113,101.471179,110.544723,111.961277,69.695529,99.068718,112.794908,121.247366,31.508961,61.611271,84.751453,102.983036,64.121075,98.453693,105.947628,104.044132,50.482121,84.516621,96.506138,97.986546,34.479618,65.128841,78.146954,82.434025,18.522148,41.30476,52.964001,58.730793,-16.129084,-12.320319,1.501214,13.73675,12.887928,32.91476,38.272658,38.327122,33.076361,57.38472,64.502443,64.520597,49.309618,75.143768,81.630031,82.070991,60.173677,86.280393,92.572513,91.837683,-51.644783,359.818956,-44.243488,376.958956
13,23.013725,1.063219,0.684986,-0.947066,38.272591,62.513924,81.966019,88.925514,52.893562,85.803452,84.448357,77.601814,28.34404,55.233078,56.014023,51.11721,3.230896,14.152336,9.40773,2.194862,-21.57423,-28.131008,-31.948471,-34.887371,2.66206,19.228646,41.841523,57.138644,53.842345,77.956128,73.726225,64.807119,67.932493,95.609583,92.505266,83.9763,75.270912,110.081965,116.632326,116.797446,75.471724,106.209721,120.050087,128.505448,31.350517,61.586838,84.701271,103.505287,62.70401,96.923447,106.245575,106.251183,49.277916,83.838501,96.918068,99.325562,33.535423,64.862022,78.737297,83.615799,17.780743,40.48645,52.729454,59.550247,-15.52004,-10.908457,3.507917,14.755384,13.449795,32.585569,38.322676,39.023111,33.503365,57.478642,64.997249,65.644578,49.4409,74.858975,81.489116,82.464341,59.92544,85.675547,92.426164,92.607896,-28.633175,360.823218,-43.560619,375.952934
14,-29.057865,-0.550381,-0.009327,0.812821,44.484844,78.238392,103.650455,121.462841,79.127827,113.869343,118.904057,113.918438,59.702396,97.157078,104.644032,102.427654,38.902187,69.207973,76.155796,75.089664,17.971973,25.26329,27.116203,26.236668,-7.989207,3.136797,24.421547,41.72463,36.566062,67.56903,67.23459,60.17201,56.739737,88.669207,84.960972,75.297711,69.884115,101.068381,102.031132,97.11055,75.2338,104.61656,115.181808,120.124003,31.077404,61.408825,84.416943,102.318363,62.737827,97.527294,106.218166,105.688534,49.255199,84.254208,97.345333,99.406528,33.447819,65.032024,78.777294,83.183842,17.77462,40.919094,53.114376,59.277363,-16.325142,-12.227384,2.309033,15.145215,11.809643,31.791706,37.002082,36.826464,32.280337,56.432837,63.843627,63.995225,48.781158,74.244002,80.878837,81.551484,59.755935,85.657948,92.178977,91.864853,-57.692413,360.234675,-43.57132,376.727593
15,29.430828,1.57655,0.522881,-0.222919,36.112289,60.39608,80.22274,87.537346,53.145447,86.266823,83.70266,76.388741,29.712181,58.660355,58.960075,53.72097,4.62862,18.211212,15.036507,8.896809,-20.498028,-25.905704,-30.058079,-33.151016,1.632557,17.650182,38.39443,51.988907,51.232279,73.930001,69.042456,60.190473,65.39875,92.287781,88.403063,78.880841,73.348189,108.663311,113.118974,110.412207,74.957899,106.558487,119.232944,125.497091,31.158543,61.633472,84.63747,101.984539,62.803631,97.386761,105.478992,104.217968,49.046574,84.04192,96.725178,98.762569,33.070965,64.736881,78.458347,83.068485,17.324409,40.139866,52.376347,58.891354,-15.927469,-11.688674,2.587219,15.281004,11.595554,31.5347,37.38759,37.798415,32.009623,56.490882,64.180044,64.728326,48.383609,74.113091,81.036177,81.954962,59.14368,84.90799,91.778341,91.791802,-28.325644,361.755897,-43.112497,376.449345
16,-29.072914,-0.523396,-0.431499,0.628187,43.466606,76.767998,102.687035,120.358772,79.315681,114.356575,118.834534,113.598518,59.891396,97.77317,104.263344,100.91217,38.794899,69.551811,75.359917,73.326988,17.57618,26.253433,28.485546,27.679081,-8.503587,2.135947,22.914158,40.086083,35.673769,65.965557,64.782913,57.432761,55.783593,87.273092,82.87214,72.643617,68.662815,99.401738,100.309777,95.298917,73.483176,103.0573,113.598034,117.81744,30.874901,61.352463,84.680786,103.08403,63.867989,98.041992,105.740662,104.649582,50.384674,84.797401,97.057915,99.452477,34.459648,65.844727,79.070206,83.853951,18.54063,41.256294,53.034439,59.520836,-16.378185,-12.324085,1.89759,13.466468,11.801368,31.700686,37.8141,38.863301,31.887419,55.82052,63.736923,65.021023,48.059666,73.050429,79.829265,81.103794,58.859319,83.956848,90.628548,90.968731,-57.419472,361.181047,-43.564911,377.026079
17,27.392235,2.002689,-0.317631,-0.651652,36.3731,61.47274,82.291718,91.065331,53.581924,88.070641,86.643791,79.359741,30.594749,62.722893,63.857574,57.741051,6.225414,23.455467,21.688957,14.949188,-17.917099,-20.565891,-24.18457,-27.782707,0.687961,15.924752,35.842162,48.795114,49.510616,72.497515,66.870756,57.213177,63.66875,91.542886,86.390432,74.9537,71.997893,108.644848,110.995131,105.917271,74.357994,107.503206,119.285926,123.718371,30.843487,61.769314,85.12167,103.788242,63.927555,97.492275,105.878963,105.290623,50.28162,84.5014,96.694851,99.120197,34.232655,65.698414,78.967724,83.959179,18.204174,40.94862,52.811565,59.375782,-16.2997,-11.703741,2.682438,13.897856,11.780929,31.69556,39.321921,41.327266,31.733475,56.941784,65.383806,66.58232,47.805996,73.904066,80.957754,82.026222,58.496906,84.039408,90.845292,91.111807,-30.053759,363.0927,-43.909063,376.283391
18,-25.634193,-0.442256,0.15358,0.228662,41.96125,75.477333,101.648254,118.658409,76.457748,111.866112,116.836281,112.836914,57.113457,95.938339,103.328133,101.13636,36.656227,68.5429,75.056763,73.270569,16.872196,25.448627,27.352524,26.560822,-9.867592,0.52389,20.676323,37.451131,32.04902,64.439766,66.042251,60.528063,52.255175,85.395324,83.708179,75.073187,65.707687,97.280364,99.99837,96.206216,71.405953,101.043558,113.358813,119.118521,30.845432,61.579456,84.656239,103.422947,64.332905,98.013554,105.854931,104.634075,50.419178,84.793911,96.882648,98.905849,34.103451,65.816174,78.85191,83.336163,17.943363,41.475735,53.417072,59.294186,-17.350693,-12.730588,1.848869,13.547361,10.787118,32.620334,40.497526,42.126255,30.95789,57.445667,65.51836,65.756717,47.499837,74.596782,81.201607,81.492389,58.714885,84.965603,91.210854,90.547037,-55.739508,362.599037,-43.807039,376.460646
19,25.562325,-2.358125,0.323181,-1.480281,29.281769,52.499199,73.159904,79.972916,49.707413,86.467094,84.156876,75.617867,31.671867,66.166191,65.227776,58.326874,12.341194,32.895699,31.350288,24.936562,-7.655411,-4.000225,-7.101002,-12.084618,3.110801,21.274128,41.658619,55.021593,52.155201,73.557832,66.853404,57.744972,65.626794,91.906349,85.199884,73.45051,73.829842,109.312123,107.79825,101.637473,77.739878,110.671373,117.720244,118.525902,31.373692,62.257748,85.40205,103.769703,64.857044,97.573414,105.204105,103.681355,50.541401,84.163799,95.441265,97.046642,33.964863,64.797192,77.468204,82.107639,17.635574,39.931011,51.903133,58.529949,-16.379914,-10.749944,4.569222,16.234492,12.477968,34.182064,43.602275,46.678557,32.438232,58.890071,67.266021,67.834989,48.622707,75.662101,82.679294,82.955071,59.268972,84.979064,92.228563,92.475811,-30.191402,360.242147,-43.498077,374.9816
20,-21.089001,6.6696,0.000515,0.001359,38.768978,71.723156,95.739841,111.124134,72.998142,107.627392,114.791508,114.156704,54.439602,91.365795,100.706463,101.186314,33.452053,62.828579,71.889896,73.909206,12.568302,15.503769,13.819084,11.238155,-11.958955,-3.739852,15.687383,32.3863,26.916387,54.816211,59.741424,57.122713,46.766675,77.592604,81.381547,76.508205,59.6672,88.752817,95.987619,96.364173,64.122431,92.502241,108.018452,118.479713,31.223145,61.361732,84.556961,103.591003,63.786278,97.919426,106.107559,105.418053,50.117912,84.622192,96.875381,99.396172,34.007721,65.643654,78.891907,84.037628,18.052483,41.087265,53.090401,59.596481,-15.961246,-11.556898,2.663604,13.618683,12.534037,33.327685,40.454794,42.017821,32.612183,58.136778,66.191255,66.884588,48.693905,74.996863,81.925568,82.778712,59.370242,85.209949,91.653049,91.51516,-51.328812,366.817748,-43.545971,374.888959
21,24.336948,-7.546641,-0.195694,0.181793,38.119926,61.162376,79.63932,88.663101,47.501793,76.230354,75.700264,69.73114,22.786789,41.294518,38.717995,33.029366,-1.041412,1.832428,-6.048489,-14.314957,-23.547421,-33.682709,-38.713932,-42.478237,2.140022,18.066874,38.942527,52.882003,57.242879,81.730252,80.329752,73.236297,69.569681,102.083002,106.038363,103.014569,74.505886,111.546006,121.600764,126.384012,72.566985,104.283478,119.570163,130.698884,31.676331,61.933479,85.168533,104.190788,64.791412,98.151054,105.718689,104.630356,51.023254,84.887238,96.685867,99.229546,34.786835,65.964546,78.984718,84.236526,18.497486,41.144943,53.113174,60.197868,-15.725175,-11.439264,2.498051,13.552054,12.543052,32.971818,40.187045,41.805338,32.313867,57.081525,65.42697,66.573984,48.304569,74.09858,81.052479,82.073769,59.09712,84.664261,91.450816,91.762347,-26.990089,359.262322,-43.739891,375.061968
22,-27.45575,-4.697045,0.55006,-0.414469,43.671112,77.375793,102.819214,119.419441,77.194633,110.699272,115.533371,111.37207,56.931038,94.055443,100.377388,97.339325,35.296326,64.170113,68.862877,65.964775,13.931522,18.804531,19.547539,17.600956,-4.918914,7.896519,30.397937,48.032373,42.727271,74.448581,74.196208,66.82784,62.132277,94.310416,89.225146,79.152851,73.650087,106.275794,106.32365,101.005705,76.864258,107.159195,116.945832,121.028523,31.621799,62.165051,85.339108,103.751278,65.388279,98.619518,105.791187,104.523983,51.237316,84.46146,96.103191,98.899441,34.658718,64.978237,77.955151,83.536777,18.028164,40.502186,52.187862,59.148617,-15.89505,-11.026956,3.3796,15.007635,12.693415,33.953032,41.089218,42.291993,32.196541,57.108757,66.057071,67.945769,48.012242,73.975573,82.087787,84.257758,58.79831,84.333526,91.762224,92.884167,-54.485807,354.557281,-43.229799,374.639503
23,28.290253,7.001385,0.125484,0.419965,36.982269,60.256119,79.89109,89.63253,46.520462,78.419151,80.146866,74.676247,22.329025,47.571716,48.264542,42.499809,-1.21542,6.612396,0.153923,-8.995228,-23.802052,-32.636204,-36.874809,-40.545158,0.608921,15.383386,35.96449,50.682515,52.727504,76.867592,72.67017,64.010168,65.643281,95.238957,94.239527,88.893053,71.727241,107.428735,115.742996,119.049052,70.68582,102.009272,117.026355,127.730048,31.249008,61.597595,84.829102,103.41568,64.81144,98.025284,105.562019,104.35112,50.794487,84.363785,96.341972,98.871002,34.517441,65.436745,78.361816,83.334389,18.275013,41.593895,53.368835,59.629669,-16.222512,-11.734246,2.529606,14.075512,12.408869,33.673673,41.753591,43.765296,32.004189,57.397564,66.521311,68.287866,48.149328,74.474331,81.885925,83.145448,59.306207,84.932196,91.479036,91.565487,-26.206026,361.554297,-43.114786,375.055098
24,-28.107376,-6.711776,0.266418,-0.582245,42.951622,76.630554,102.404938,120.116386,76.165466,110.658302,116.495819,113.021164,56.5242,94.219437,101.619072,98.860703,35.701675,65.247803,70.85289,68.439674,15.024776,20.633068,21.552429,19.761372,-4.93571,7.382694,29.605185,47.220355,41.959652,73.109277,72.220812,64.502751,61.63852,93.904778,88.166127,77.280208,73.71474,105.974205,105.291121,99.401985,77.535052,107.812453,118.076421,122.602973,31.527443,62.110062,85.312042,104.093399,64.358597,97.919197,105.032616,103.482513,50.12352,84.245338,95.672951,97.701645,33.791885,65.42141,78.115997,82.910843,17.762318,41.459427,53.357506,59.577141,-15.72925,-11.189854,3.090546,14.534133,12.44808,34.288213,42.106865,43.76122,32.295712,58.105038,66.757382,67.961886,48.584236,75.118512,82.274026,83.289697,59.809411,85.423914,91.969335,91.974522,-54.3223,354.831375,-42.857265,374.461708
25,23.377476,9.406996,0.500851,-1.060008,38.175373,61.628094,81.874638,92.50597,51.337452,85.989132,84.644222,77.217121,28.657551,58.183193,56.432362,49.974346,5.305023,19.136868,12.465191,4.052467,-17.634373,-21.028748,-26.323414,-30.865402,-0.485235,14.31918,33.309037,44.510006,50.051302,69.891401,65.328663,57.074733,63.671159,91.439393,87.486872,77.675905,71.013777,107.352906,109.993168,106.594673,72.439408,104.848371,116.614295,121.479609,32.215633,63.228436,85.975628,102.758045,64.280376,98.217716,105.194149,103.17255,49.829006,84.150524,95.840321,97.702618,33.394718,64.690876,78.000355,82.782955,17.608738,40.550594,52.345333,58.176098,-16.018489,-10.24532,5.791756,19.496087,13.467827,35.413923,41.778476,42.156018,33.322622,58.556001,66.912499,68.023945,49.209706,75.042929,82.706526,84.24831,59.945694,85.563347,92.76962,93.526433,-30.981388,364.239992,-42.392979,373.403321
26,-24.094906,-2.330646,-0.606079,1.208641,42.33799,76.32534,102.039642,117.520638,78.051338,112.594414,117.095718,112.421722,58.539619,95.981712,102.857895,100.678711,37.490501,67.829361,73.677406,71.751366,16.53471,23.453293,24.23624,21.89146,-9.58564,0.188586,19.90506,37.378018,31.843452,62.667344,64.526587,58.576379,52.366943,84.285607,82.951428,74.50391,66.200641,97.139017,100.013314,96.151875,72.070141,101.584615,112.511535,116.844747,31.316814,61.816692,85.121326,103.564053,63.594761,98.648472,106.795292,105.727673,49.706898,84.769993,97.384815,99.428387,33.617306,65.570011,79.389439,84.080257,18.026505,41.73563,53.856068,59.639797,-16.809821,-12.695885,1.611006,13.496973,12.42091,33.09359,38.538062,38.890162,32.78916,57.615296,64.90098,65.143597,49.046006,74.741031,81.100645,81.721915,59.769459,85.426693,91.446988,91.061665,-55.113802,361.901272,-43.036566,374.603888
27,25.918636,4.210822,0.440769,-0.709883,40.231419,62.776623,80.215816,87.592564,51.195202,76.919918,73.373051,67.081776,28.004665,43.266163,38.448086,33.37801,3.765793,5.81583,-4.755993,-13.055019,-20.797062,-29.320908,-36.209164,-40.550823,3.685759,19.694059,39.302902,48.933743,55.366222,72.712839,70.370399,64.329727,66.165134,93.966219,96.297668,92.44753,69.832553,103.628924,110.94925,113.357578,67.700188,97.103202,109.352014,116.85049,31.567612,62.091064,85.18959,103.123398,63.986893,98.399963,106.529503,105.581932,50.197678,84.713516,96.916695,99.150696,34.057274,65.286598,78.734665,83.632507,18.129673,41.336403,53.220291,59.188271,-15.828668,-10.982126,3.34502,14.642752,12.876011,32.653803,39.35928,40.671044,32.973547,57.478086,65.714912,66.532611,48.949984,74.592275,81.861224,82.968039,59.526718,85.26466,91.697077,91.475146,-29.221544,366.119088,-42.622175,373.900998
28,-24.841061,-7.125442,0.210285,-0.480233,42.885017,75.888863,101.881256,118.750877,77.431984,111.58493,115.950737,112.748451,57.667809,94.363861,100.542755,98.730927,35.25032,60.862198,63.324852,59.940262,13.065662,14.766941,12.89875,9.756203,-6.99663,3.040035,23.581247,40.164135,37.235128,66.274309,68.082052,62.104365,56.328108,87.062585,86.073529,78.366398,67.629854,99.013698,105.357503,104.793722,70.109936,99.09632,110.992414,116.717232,31.771946,62.430897,85.690784,103.562679,63.064899,97.722874,106.654415,106.303654,49.173374,84.340153,96.880817,98.880215,33.204517,65.063267,78.584461,83.083706,17.742805,41.328564,53.278484,58.63615,-15.157627,-10.513502,4.050765,16.069248,12.558675,32.795335,40.732239,42.922958,32.737969,58.110781,66.571328,67.492027,48.946279,75.258685,82.425685,83.24326,59.816019,86.06439,92.142853,91.197084,-54.099598,358.952366,-42.448883,373.379485
29,25.166817,4.764971,-0.504971,0.450284,36.26152,57.764397,75.710793,82.493019,48.626633,84.188232,82.212524,74.13002,28.291626,59.17614,57.995911,51.99955,6.612053,22.370911,18.25573,11.733055,-15.378284,-16.620884,-21.389465,-25.66761,2.707756,20.142243,39.837476,52.720896,50.528386,70.016013,64.995334,57.057319,62.34124,88.574729,84.812524,75.69594,68.316889,103.519502,104.956681,101.467783,69.818103,102.381936,113.720361,118.455692,31.401672,61.949959,85.407257,103.202019,63.404503,98.283119,107.655716,108.1604,49.917183,84.832077,97.87571,100.704689,34.28627,65.996704,79.691734,84.519081,18.898716,43.030586,54.787445,60.207596,-15.651568,-11.871208,2.227584,14.277683,11.31601,30.645186,38.238263,40.132272,31.605034,55.995768,64.711529,66.066642,47.941847,73.511148,81.092494,82.581234,59.00258,84.966961,90.893272,89.947194,-28.964853,363.674034,-42.985926,373.786467
30,-16.821442,1.53104,0.863342,-0.044707,36.396446,66.018791,88.693199,104.978714,68.290901,102.577171,109.995804,110.652466,50.677299,85.378876,93.3078,92.82074,29.095917,50.475883,54.984856,53.489799,6.619434,2.617435,-2.42775,-7.655125,-10.035492,-2.163179,15.524054,31.218291,27.718278,51.363807,57.469812,54.798983,46.965573,75.767262,81.436999,77.855722,58.273617,89.237867,101.540957,104.649473,60.643536,90.71821,106.813022,116.813563,31.267433,61.428337,84.84066,103.098106,62.517014,97.801437,106.56601,106.294327,49.100189,84.693947,97.372284,99.507523,33.590584,65.848732,79.069176,83.509369,18.455887,42.704086,54.256325,59.192963,-15.444581,-11.790438,1.778041,13.298136,10.945816,30.128891,38.261482,40.699203,31.131038,55.72703,64.874304,66.668956,47.721398,73.371346,80.910453,82.185538,59.193266,85.082805,90.772241,89.521981,-45.816936,365.200489,-42.153225,373.737175
31,18.373146,-2.082286,0.508118,0.75916,35.692406,56.738777,74.362221,82.790108,49.09584,82.989349,80.753517,73.999443,27.834892,53.919754,50.970154,45.407066,5.074997,16.604576,10.112915,3.125553,-18.504124,-21.277313,-26.956615,-31.510448,1.533818,17.285299,37.506336,50.187092,48.588991,66.863717,64.327565,59.163811,62.438435,88.467283,87.683794,81.490845,70.804937,104.799032,109.53955,109.221967,74.067211,104.624032,116.615838,123.360959,31.332436,61.972961,85.227242,101.724358,62.700806,98.502846,106.568756,104.826965,49.024658,85.837669,97.947006,98.83976,33.321762,66.722603,79.561615,82.92984,18.21785,43.608856,54.999733,58.857651,-15.620199,-11.861513,1.899134,15.295824,8.460115,28.680473,38.174228,40.768054,28.964648,54.549511,64.371408,65.97871,46.33683,72.675542,80.129619,80.591327,58.502093,84.696124,89.969795,87.585982,-27.481241,363.080319,-41.682558,374.45845
32,-21.43261,-1.591185,0.411987,-0.896307,40.231819,71.511269,96.028519,111.759109,73.598442,106.619568,110.91465,108.176994,54.99218,87.64492,93.245773,91.548958,32.607994,50.256271,50.241508,45.319519,9.338608,5.674667,-0.296574,-6.908512,-8.536994,0.305973,19.832874,36.198709,31.931632,59.749575,65.987602,62.461838,50.460522,81.838192,86.98231,82.384744,61.501805,94.238539,108.153809,112.605643,63.691166,93.343899,107.676293,115.873907,31.344795,62.354164,85.760307,102.72583,63.406448,98.696823,106.779671,105.246506,49.493065,85.342484,97.197304,98.399162,33.550644,66.20636,79.35482,83.565788,18.254013,43.150864,54.977531,59.456406,-16.165208,-11.823784,2.486998,15.624027,8.693841,29.460751,38.069993,40.18513,29.423516,55.568022,64.249883,65.229801,46.60106,73.558943,80.750026,81.073474,58.416692,84.747933,90.291638,88.347302,-48.949413,361.498228,-41.306133,373.571236
33,20.183201,-2.817857,-0.286331,-0.331167,36.346264,56.961079,74.016895,81.80769,45.323811,71.147861,69.727192,65.249004,24.215412,39.964085,37.367992,32.789555,2.938728,6.645927,0.126972,-6.155891,-18.690434,-24.111099,-28.727016,-31.876431,9.520802,27.483071,47.2558,58.183955,57.334084,78.640693,80.245587,78.406165,66.626348,94.994426,101.223869,100.815575,70.261039,103.292261,113.848,119.477846,69.393569,99.731053,113.541841,122.43742,30.249481,60.47081,83.343658,101.549606,63.735809,99.129066,107.528343,106.553192,49.885826,85.746231,98.258972,100.5233,33.946838,66.833153,80.327339,85.208473,18.66703,43.752594,55.559235,60.499077,-16.475442,-12.556576,1.494669,12.921521,8.330378,28.991695,37.764885,40.370629,29.187752,54.578596,63.599096,65.048872,46.288294,72.23699,79.588068,80.244413,58.150795,83.589557,89.149132,87.590736,-28.794708,358.600806,-41.62096,373.160503
34,-17.469978,1.366969,-0.060825,-1.402167,37.999935,67.714291,91.286144,108.196049,67.178364,101.413136,108.877201,110.554218,49.508572,82.77895,92.275944,94.585819,28.343639,45.903225,49.049778,47.36887,6.814384,1.750374,-3.298359,-8.29771,-7.759866,1.822502,21.577508,37.505533,34.754182,59.059514,65.257527,64.163001,52.301179,80.287083,86.442364,84.458138,61.327236,93.464003,110.34564,118.656751,60.774632,91.300022,107.840981,119.334277,31.990299,63.491993,86.644421,103.104916,63.9921,98.831806,106.264629,104.781704,49.446316,85.061474,97.032452,99.26405,33.315525,65.849247,79.08823,84.102573,18.209724,43.034191,55.080013,60.558872,-16.360154,-11.184358,4.680681,19.204316,8.974311,29.92357,38.869538,41.461388,29.524169,55.29243,64.861706,66.77776,46.555735,73.435381,81.470777,82.133235,58.260464,84.212433,90.981637,90.123368,-46.350718,359.902983,-41.767817,371.693545
35,19.54937,-1.035431,-0.955067,-0.784539,37.287655,61.064014,80.607662,91.514683,48.270779,81.847858,80.589924,73.479595,25.123959,50.755978,48.169956,40.909367,1.866474,11.846523,4.743748,-3.940716,-21.017475,-26.262016,-31.098804,-34.906597,1.528446,15.983044,34.987722,47.591722,48.471974,70.704777,69.786364,65.777342,61.097587,90.543703,93.544773,91.607909,67.612687,103.665974,113.488921,118.48774,68.358941,99.63466,114.635256,125.658445,30.054016,59.130363,81.558609,100.74131,64.464111,99.364357,108.399925,108.495827,51.088028,86.303101,98.946304,102.272987,35.026245,66.685181,79.89418,85.604668,19.175034,43.446236,54.727135,60.680809,-17.205147,-13.565639,0.217485,9.926873,8.796655,27.74551,36.755204,40.148512,29.320701,52.408377,63.115899,66.465365,46.057409,70.732442,79.934488,82.832558,57.799497,82.987675,89.592499,89.503208,-27.040243,358.865591,-42.961779,370.907045
36,-28.990574,-4.221258,-0.50148,-3.166499,44.03286,79.491806,106.849594,123.552017,76.966553,111.703262,119.908333,119.57222,56.904488,96.362228,107.279663,108.569298,35.439091,66.63723,75.4105,76.573334,15.040913,20.352631,21.297512,20.75861,-8.078498,3.077023,24.242656,42.450074,33.563448,64.888877,70.62586,68.90889,53.76244,85.247061,86.383948,79.688227,66.467711,96.365717,100.695347,98.443248,70.814878,99.270889,110.958636,116.77818,31.715927,62.242813,84.915733,104.3573,63.863068,97.838402,107.19017,108.42453,49.852409,84.868355,97.662506,102.520638,33.678703,65.727081,80.005302,87.603722,17.989826,42.390633,54.823151,62.789612,-16.471243,-10.051485,5.736799,15.810761,9.413912,29.91931,40.891123,45.80627,29.020409,54.218035,66.669573,72.154183,45.508757,71.591822,82.368998,86.566544,57.188353,82.447483,90.226429,91.830952,-56.211977,354.626225,-43.644419,367.722438
37,26.228085,0.349507,-1.31218,-1.385062,38.637028,65.372944,85.337391,94.258404,47.311192,74.213276,75.954266,72.906475,23.018932,40.549107,39.622135,34.53146,0.39362,4.654713,-1.126099,-8.417988,-20.775433,-26.215954,-29.461212,-32.183933,2.309095,17.549899,38.455254,53.462457,50.933098,73.95322,77.982743,76.960712,62.456898,93.900085,103.900873,107.937991,67.807016,101.546515,116.028901,126.742659,67.210569,97.231149,112.695984,125.508392,32.12265,62.706642,84.842262,103.548088,63.150444,97.811852,108.604202,111.359596,48.938713,85.223007,99.143028,104.577942,32.7174,66.141357,81.876869,90.163078,17.341747,42.962952,57.036667,66.948738,-16.656556,-9.715192,6.068028,17.350569,6.66466,28.100883,41.117994,47.325763,25.841559,52.926649,65.892259,71.041688,42.473477,69.686266,80.9396,85.073851,54.331285,80.212118,89.04502,91.468601,-30.428438,354.99401,-45.401144,366.355654
38,-25.843048,-9.286891,1.233673,-12.435792,44.523296,82.28548,107.884083,121.005192,74.145527,109.114323,115.230732,115.45126,52.787991,87.309666,98.042507,100.518208,30.124283,53.353672,60.44672,60.564365,9.233494,10.414524,7.629204,3.702564,-7.411161,9.277629,33.930369,52.87941,28.361902,59.19308,62.888534,60.052646,47.973586,81.660906,86.809779,83.521137,60.501201,96.389985,110.542377,114.967843,65.563068,96.423268,111.848027,121.535802,31.084671,59.449768,78.013573,88.388557,56.996613,90.605965,102.955399,106.242599,41.818428,76.443787,91.301079,94.939957,24.857712,57.124786,72.491913,77.839851,9.154186,31.099777,44.757843,50.806732,-14.09342,-2.487677,18.319803,34.993464,10.191103,41.797989,53.759662,57.027061,29.530529,63.608605,73.419449,73.298912,45.41996,78.815756,87.779075,87.463345,55.369248,83.752454,93.577501,96.319157,-57.643833,346.243221,-45.539818,354.455964
39,44.922009,6.368443,-3.595047,-4.437323,32.445374,37.821465,32.972488,28.918648,26.998558,18.755379,8.246498,0.766411,7.145348,-7.589264,-19.978809,-29.55946,-9.862061,-23.412724,-33.314037,-40.966244,-23.946648,-35.686684,-43.670254,-48.884983,20.74042,42.752836,61.906208,75.270418,58.430586,82.99138,94.246134,103.451144,59.185917,88.945479,104.005972,114.901832,57.24399,85.671101,100.556779,112.994609,52.888178,75.50828,87.702319,97.820248,31.394119,61.793861,82.570953,93.435974,59.870911,94.165077,107.303352,110.320129,44.643059,80.376434,96.296539,99.680099,27.15992,60.039482,77.120476,82.469101,11.272945,38.124275,53.425941,58.624077,-18.690676,-6.744195,15.584322,34.452222,4.490366,31.552114,41.914636,44.190324,25.999517,57.469626,66.570402,65.531328,42.890045,74.534538,83.28735,83.645626,53.680745,79.505817,87.26068,88.987345,-13.891811,353.085923,-50.304852,350.492899
40,73.211403,16.818342,7.584515,-51.474526,-37.107925,-65.771599,-89.873257,-106.502781,-65.928726,-100.339336,-112.806759,-119.186268,-54.03019,-92.387466,-111.221123,-121.509247,-41.33297,-77.125969,-97.113991,-110.157452,-29.579086,-59.133568,-74.858551,-88.542252,-20.297484,-18.882103,-12.814445,-3.511993,14.807749,40.615901,53.022856,59.070629,35.196623,65.455931,77.497076,82.32287,51.74419,80.559464,90.077364,93.933306,63.780086,90.099038,97.84396,100.406046,50.171757,78.799038,81.154232,70.839558,105.393734,86.719723,63.003674,43.017025,84.887066,64.830837,35.439091,10.564556,59.341106,38.282032,12.123356,-7.984257,30.747814,19.798336,1.450596,-13.803406,18.824428,51.790071,83.255672,105.452908,63.179996,125.414593,149.389931,160.339144,62.142465,130.838008,154.857868,164.866437,64.31114,125.163701,149.729126,159.588444,66.594361,114.829399,134.236133,142.732928,58.166399,370.366822,-43.873529,299.48093
41,4.345665,7.902632,37.472706,33.658174,-37.210922,-67.90947,-93.021297,-109.891834,-60.990486,-99.333744,-112.930241,-119.266148,-47.151146,-90.423431,-110.070705,-119.942665,-34.538727,-75.157242,-95.675011,-107.601471,-24.459,-57.285004,-74.420471,-87.977829,-8.12586,-5.194012,2.761478,16.003793,10.102182,35.051695,46.247539,51.002444,29.707629,57.990553,69.278652,71.956829,46.968598,74.037262,82.898261,84.914041,59.976199,81.176968,88.831426,92.083264,-2.530746,-4.151344,-12.173653,-21.646843,41.862259,7.29229,-13.214836,-26.781063,49.434242,12.579231,-13.564224,-31.30394,45.536613,15.093842,-12.256393,-30.764637,32.925797,11.201363,-10.049171,-25.629616,0.149004,13.345067,32.727904,53.992275,11.389122,42.520593,62.421392,78.150395,22.689263,65.412582,89.239472,102.795417,37.275389,80.208351,105.016394,118.257102,51.679352,86.998735,105.652608,116.34074,61.845789,378.546528,-7.067099,333.416178
42,3.950958,-0.863086,-71.760807,-61.42542,-34.649277,-65.665054,-90.698204,-108.166981,-58.488464,-93.211269,-108.146954,-115.947018,-44.682655,-85.208015,-103.648567,-113.577175,-32.884483,-71.585541,-90.579987,-102.366142,-24.288712,-56.476479,-72.818871,-85.203896,-11.611547,-5.417734,11.053447,27.088238,15.860161,39.954122,48.547309,50.663002,36.391679,64.753829,72.352155,72.508631,51.476934,78.243638,83.531079,83.090428,60.797541,82.786987,87.984272,88.836366,22.671719,54.193783,82.922115,96.991253,47.375565,100.083904,91.880207,76.84576,50.294266,104.944668,96.635456,79.254169,53.767834,104.885616,94.957638,76.890965,55.787487,98.71542,94.323864,80.617161,34.046522,48.898113,48.642158,38.646125,32.510851,37.630886,29.613707,22.577,7.972287,14.68715,8.980548,4.767564,-14.521289,-8.576515,-9.722788,-9.410145,-33.51411,-30.954802,-27.950151,-25.009905,65.805159,377.718579,-78.819494,272.025894
43,3.921776,0.409096,-1.94418,-30.781345,-34.205933,-66.053009,-90.596581,-107.26656,-57.691841,-93.983688,-108.131905,-113.389435,-44.229813,-85.098038,-102.25914,-110.469818,-32.536926,-71.486778,-89.820671,-100.795383,-24.103775,-56.389732,-73.095932,-84.331169,-11.206341,-3.768134,13.902982,30.181317,15.665277,41.935693,48.38151,48.262578,36.386986,65.030841,70.913803,69.836134,51.796493,77.630395,82.568946,82.047217,61.862365,83.45525,87.251974,86.106256,24.843178,58.479195,88.610115,103.360634,38.855553,94.381256,86.305618,72.244377,35.227146,89.806938,81.892891,68.205528,35.452995,86.848412,78.256989,63.158226,37.092762,76.986237,74.05632,63.499031,4.218541,-5.432739,-18.542043,-26.840064,5.042971,-14.647753,-20.398816,-19.282184,-5.775146,-26.501857,-32.311582,-28.67473,-18.434844,-40.054775,-42.087784,-34.778635,-29.941787,-48.341928,-49.58095,-43.740843,70.119696,378.077395,-80.370913,241.194269
44,1.885529,2.659899,7.191124,-66.309692,-33.843727,-66.903419,-90.797195,-103.773937,-56.475105,-93.983917,-107.17701,-108.673496,-41.723099,-83.460274,-99.727821,-104.00053,-29.251328,-68.224411,-86.350479,-95.104179,-20.55336,-52.113647,-68.221436,-77.797165,-10.316271,-2.071356,16.042325,32.93909,15.219501,44.429051,49.083982,45.220074,35.500127,66.850502,70.452959,65.323908,50.709253,79.024225,82.316819,78.255247,60.353371,83.163355,86.156089,82.722272,11.3134,31.760101,55.383797,69.918137,12.0401,43.324356,37.223797,29.018784,17.309246,48.550873,42.332039,32.297001,24.658184,54.759636,47.659721,38.611507,32.215691,55.092659,53.880157,47.712364,-24.772845,-52.885338,-73.914749,-81.181939,-42.558322,-81.031886,-73.597352,-63.464171,-36.280034,-73.318981,-66.342975,-56.314214,-31.726806,-66.649504,-60.885536,-50.788849,-28.757167,-54.170425,-52.320074,-44.536991,72.458925,381.835355,-72.726088,175.982638
45,1.917,1.7032,-2.32275,-47.432467,-33.617935,-66.88385,-90.554695,-102.751923,-55.800247,-93.861694,-107.075214,-108.616619,-41.1026,-83.053207,-99.202538,-102.987556,-28.921051,-68.453979,-85.967331,-93.433228,-20.652809,-52.764359,-68.695908,-77.262383,-10.383455,-2.016645,16.442406,33.523681,15.184426,43.929922,48.635242,45.068291,36.169501,67.542292,71.467086,66.475368,51.888748,80.442756,82.530105,77.208022,62.176799,84.735027,86.55228,81.658992,-22.323532,-23.51326,-8.729324,9.043007,-6.119556,9.195957,1.782417,-4.974632,18.09288,30.92165,20.155277,14.238853,39.913387,51.914234,40.116978,34.583416,58.643818,74.687405,79.149799,83.378048,-32.426006,-69.058295,-98.770834,-108.502884,-61.274841,-99.710212,-87.320053,-74.010184,-52.846651,-89.282451,-77.993055,-65.19661,-43.528483,-80.119554,-71.242346,-58.341419,-34.628581,-64.686768,-77.041821,-82.11508,74.932251,384.357196,-74.492512,129.368811
46,1.477776,0.691481,-6.904392,-37.31775,-33.77243,-66.064339,-89.90284,-103.884773,-56.150894,-93.668633,-106.15963,-106.813946,-41.629601,-82.450562,-97.943687,-101.532669,-29.100037,-67.838631,-84.956245,-92.778053,-20.087471,-51.196861,-66.716766,-75.236435,-10.433103,-1.799901,17.024095,33.255437,17.858096,45.39174,49.487768,45.856288,38.531948,68.251063,71.269053,66.393734,53.328953,80.913479,83.147238,78.727206,62.384465,84.566201,86.343872,82.140398,-28.186169,-32.240868,-17.331963,1.185951,-8.955231,3.331776,-4.367924,-9.522743,15.520248,25.003281,13.406754,8.901501,35.99184,44.370346,32.068005,28.353596,52.309799,66.322861,71.681213,78.334236,-28.04219,-62.657649,-90.833775,-98.202761,-58.47835,-102.736569,-87.432161,-73.561815,-50.609711,-93.841082,-83.541175,-70.525115,-43.171319,-85.03254,-76.119239,-61.863415,-36.748596,-70.511777,-86.252975,-93.632736,76.986752,386.394944,-80.820179,93.397328
47,-0.07782,-0.124612,-0.527973,-32.992998,-33.265343,-64.898529,-88.705902,-104.132767,-55.979233,-93.118172,-105.997982,-107.05164,-41.670799,-81.997261,-97.657242,-101.252747,-29.05323,-67.311516,-84.506836,-92.129402,-19.945335,-50.122147,-66.290703,-75.348701,-9.755392,-1.267242,17.147348,32.799966,18.691973,45.596504,50.111756,46.546411,39.44888,69.139219,72.133435,66.989934,53.944728,81.688447,83.982722,79.043121,62.317837,84.854514,87.520217,83.293031,-30.901108,-39.489384,-26.512871,-8.701515,-17.616177,-8.024654,-14.24366,-18.227177,6.690502,12.655392,2.149887,-0.324783,28.08672,31.975765,21.449947,19.580956,46.040783,56.574268,61.536083,69.715633,-27.295257,-59.204782,-86.283326,-92.216738,-58.277167,-102.117521,-87.272845,-74.014847,-51.722361,-95.889066,-85.628679,-72.469018,-45.001323,-87.416631,-78.488787,-65.120811,-39.300494,-75.216386,-92.889755,-102.883257,77.218866,387.273822,-81.038218,61.407821
48,-0.947227,0.808189,-10.036869,-8.649874,-32.939873,-64.465714,-88.489151,-103.869553,-55.482101,-91.921005,-104.913197,-106.231041,-41.207428,-81.327896,-96.88488,-100.256939,-28.770218,-66.560783,-83.850403,-91.381645,-20.115967,-49.754562,-65.682678,-74.470596,-10.013076,-1.683748,16.559917,32.831336,19.109097,47.012565,51.152992,47.203806,39.606838,70.531815,73.251426,67.701484,53.769665,82.323982,84.386755,79.360765,61.798145,84.759665,87.275871,83.068445,-23.272705,-34.44643,-29.870796,-10.676765,-6.466599,-2.11441,-7.461662,-10.670586,16.80439,18.711205,12.321568,9.350796,36.169453,38.113289,31.273899,28.223305,51.4884,61.852913,66.426601,70.477753,-29.491719,-61.312849,-91.846575,-101.327857,-69.421326,-103.200777,-93.589326,-81.553522,-63.293493,-99.377068,-91.499537,-80.45668,-55.867605,-90.210004,-84.09554,-72.816395,-49.762774,-82.729096,-102.491049,-118.279796,76.34222,388.824715,-91.004505,53.50065
49,0.7481,0.91335,-0.565166,-8.193508,-32.949829,-65.222969,-89.560661,-106.012688,-57.366028,-94.69162,-106.543922,-106.69241,-43.215637,-84.124489,-99.415054,-102.643032,-30.659409,-69.256783,-86.522369,-93.938026,-21.776276,-51.912918,-68.396301,-77.782974,-10.914756,-2.51528,15.933953,31.414534,17.561694,45.035316,49.072188,45.579646,38.05894,67.942929,70.600852,65.819826,52.828218,80.698464,82.870905,78.547203,61.884781,84.483209,87.290876,84.002914,-24.578419,-38.380737,-33.161831,-11.82169,-9.697266,-5.135765,-7.927151,-10.223522,13.494015,16.581974,12.836151,10.250645,33.226719,35.473881,31.474686,28.488293,49.629421,58.350563,64.348011,68.691044,-29.088767,-60.856359,-90.955115,-97.03398,-71.87467,-104.71993,-93.869426,-81.385283,-65.886856,-99.128616,-89.548564,-77.736853,-58.845024,-90.631852,-83.240111,-71.094268,-52.64448,-85.931132,-106.570003,-122.418247,77.211256,390.351818,-91.448736,45.920895
50,-0.31929,-0.384705,3.389397,-2.576073,-32.910233,-65.156136,-89.396667,-105.122108,-56.650085,-95.254784,-107.619038,-107.59243,-42.683945,-84.439774,-99.623795,-102.320652,-30.42778,-69.507294,-86.931839,-94.189568,-21.810608,-52.266312,-68.816299,-78.140831,-10.148742,-2.073579,15.755803,30.842417,17.843152,45.453799,49.205631,45.398347,38.316748,68.015671,69.71251,64.177265,53.273809,80.936944,82.341643,77.172516,62.47178,85.052239,87.516265,83.636672,-26.442719,-41.100082,-36.981812,-16.125355,-11.923141,-7.317638,-11.428528,-13.946228,11.577072,13.016109,8.324375,6.33316,30.855618,31.729431,26.491928,24.15556,46.072826,52.623482,56.773567,60.293827,-27.595549,-57.680072,-86.894562,-94.48094,-69.16287,-104.697175,-92.059984,-78.348429,-64.49846,-99.375123,-88.885118,-76.750019,-57.733887,-91.718659,-83.676934,-71.466654,-51.609358,-85.216186,-104.362241,-119.302753,76.961203,390.396093,-87.990103,43.773802
51,1.155968,0.358523,1.84988,6.241546,-33.796005,-66.079216,-90.452843,-106.572819,-57.400017,-95.210381,-107.706299,-108.462009,-43.7257,-84.684448,-100.120583,-103.691654,-31.767769,-70.434036,-87.672386,-95.433426,-23.167763,-53.628387,-69.969978,-79.321175,-10.278109,-2.209059,16.295254,31.945711,18.423668,44.994067,48.822901,45.72371,39.13525,67.792072,69.894859,65.280498,54.034266,80.930893,82.552459,78.140453,63.197409,85.306033,87.374795,83.331625,-28.767872,-43.228397,-38.617058,-21.100616,-14.110222,-7.905407,-14.866219,-17.879219,9.207287,11.57547,3.503437,1.268749,28.440399,29.839153,22.377949,20.877571,43.942108,50.938225,54.08226,57.709808,-25.527003,-54.807751,-82.74018,-92.705523,-68.044601,-103.459543,-90.715832,-78.143047,-63.585449,-98.90054,-89.761603,-78.004325,-56.795497,-91.810667,-84.160223,-71.549863,-50.031481,-84.409355,-103.744274,-117.709747,78.224087,390.872296,-86.033306,50.133029
52,-0.221901,-0.292944,3.727055,8.617949,-34.095383,-66.343803,-90.300522,-104.354782,-55.844879,-93.770485,-106.440182,-107.331047,-41.575127,-82.709656,-98.435211,-102.05286,-29.34391,-67.886581,-85.167046,-92.734451,-20.653725,-51.18782,-67.129669,-75.915642,-8.911881,-0.381926,17.93232,34.28599,18.568534,46.338312,51.160031,47.989518,39.315685,70.13266,73.971621,69.19603,54.101327,82.78427,84.971037,79.92399,63.127076,86.29478,88.41776,83.771103,-30.956211,-42.09795,-35.62952,-22.816772,-23.027687,-19.133091,-22.998848,-24.987202,1.607838,3.67012,-4.190197,-5.940113,23.116837,23.769779,15.419769,15.459023,40.562553,49.605217,52.587891,57.635193,-14.064552,-38.891027,-63.84653,-75.697607,-40.947933,-80.838792,-70.582512,-60.536059,-38.387391,-80.257474,-70.268017,-58.743043,-35.348097,-77.158931,-67.398043,-54.886823,-32.877741,-68.548175,-85.482145,-97.167145,78.002014,390.410141,-82.306423,58.581767
53,0.193291,0.008954,-2.841282,13.534517,-33.74176,-65.568924,-89.486847,-105.048523,-56.049156,-93.009224,-105.931091,-107.335339,-41.759834,-81.902046,-97.869072,-101.749477,-29.367371,-67.468414,-85.042076,-93.07869,-20.432854,-50.308914,-66.613312,-76.143608,-8.990675,-0.106581,18.41175,34.157364,20.065549,47.15138,51.255127,47.446732,40.977697,70.943505,73.578148,67.73977,55.486512,83.707994,85.36167,79.778198,63.879813,86.47608,88.782705,84.353903,-27.658768,-38.131199,-32.908802,-18.349056,-15.73122,-10.400906,-14.486389,-16.969929,8.205528,11.783752,3.580341,1.436977,28.591404,30.316372,21.513004,21.441479,45.189514,55.180264,58.292599,62.927742,-15.244818,-38.810628,-63.196391,-74.807567,-36.841222,-79.177397,-68.52471,-56.339748,-33.353404,-76.943267,-66.407968,-55.433561,-30.313987,-73.229906,-63.527157,-51.270256,-28.99117,-65.114791,-82.330342,-94.914057,78.162203,389.858247,-85.180807,71.555436
54,2.024345,0.65511,2.671223,-5.055568,-34.76944,-67.302132,-90.927887,-106.472111,-55.412636,-93.256187,-106.773033,-108.459091,-40.935402,-81.887283,-98.744431,-103.168945,-28.731194,-67.347794,-85.675507,-94.132347,-20.123749,-50.385246,-67.104149,-76.753578,-9.286336,0.106766,19.18363,34.741276,19.738334,47.673356,51.243579,47.405112,40.535934,71.155,73.878378,68.164551,55.093471,83.778266,85.175925,79.285676,63.72377,86.38191,88.209414,83.204728,-16.701279,-22.015572,-22.210922,-21.441822,-5.729256,1.812687,-1.401272,-2.676487,5.675983,14.257221,10.995884,9.938278,16.446362,25.785027,23.368664,23.463821,25.77158,39.876022,49.586735,57.52264,-12.299015,-22.670923,-33.213077,-39.262178,-24.581882,-36.873641,-26.455606,-17.467802,-20.242866,-36.199543,-22.349265,-10.00193,-14.164896,-32.714843,-20.357968,-11.37881,-8.405435,-25.141618,-31.566008,-38.744462,80.289602,389.693188,-82.40653,65.679699
55,1.986809,-1.060563,-7.496853,110.229302,-34.435043,-66.707153,-90.00412,-105.596294,-55.494576,-92.208366,-105.908775,-108.39386,-41.029129,-81.198235,-98.16433,-103.330536,-28.836708,-66.740227,-85.319366,-94.532547,-20.089874,-49.742546,-66.524849,-76.562119,-8.304875,1.301266,20.462111,36.281825,20.564616,48.764424,53.116161,50.063591,40.918169,71.6884,74.709786,69.989461,55.375423,84.318644,86.718327,82.198073,64.139474,87.34003,89.862534,85.819117,-25.977917,-29.820156,-17.987022,-3.070221,-17.515011,-6.939125,-9.266853,-13.454361,6.252823,16.497631,10.085335,6.044025,29.319649,39.615612,30.193348,25.010948,48.810596,63.180428,68.560638,74.124641,-30.298889,-66.354399,-94.189385,-105.392022,-53.589601,-104.826573,-92.105618,-77.249395,-46.135709,-97.670133,-86.936151,-72.841527,-40.200691,-92.040996,-83.177928,-69.453776,-37.184987,-77.474259,-94.544358,-105.228229,82.380095,387.604557,-89.7997,174.880934
56,3.885956,0.256573,0.856991,-1.798234,-34.692078,-66.364174,-89.545898,-105.292282,-55.510597,-91.816063,-105.920906,-109.225216,-41.24073,-80.905609,-98.191338,-103.99292,-29.20063,-66.464882,-84.912872,-94.282265,-20.656357,-50.293121,-66.928825,-76.795464,-8.901322,0.745821,20.377018,36.911803,21.49186,49.319375,53.462395,50.899383,41.427981,71.772566,74.931593,70.848779,55.493243,84.12518,86.486577,82.44631,64.128112,87.539237,89.842342,85.792503,-21.983871,-25.160065,-19.501419,-12.360077,-14.486904,-5.648632,-8.821735,-11.788502,5.888329,17.746868,13.044834,9.498081,26.725731,39.664822,34.212112,30.821915,45.918274,61.902008,69.742298,75.858822,-23.793854,-45.440646,-63.567233,-72.36574,-32.384324,-59.077669,-51.904679,-42.725975,-22.869574,-54.16036,-48.570342,-38.726462,-12.961041,-46.897091,-43.078631,-35.440661,-5.75378,-32.739389,-43.271292,-48.262331,86.117249,386.529977,-89.091511,171.751546
57,1.808624,0.434291,-3.800697,80.415956,-34.606934,-66.503906,-89.405937,-103.796997,-55.077667,-91.610298,-104.933968,-107.177238,-40.522614,-80.595474,-97.125435,-102.169762,-28.308792,-66.033211,-83.918724,-92.78183,-19.64859,-49.37851,-65.721016,-75.302811,-8.571328,0.959169,20.461925,36.765269,21.419798,49.049155,53.280231,50.471884,41.483742,71.421021,74.903558,70.878234,55.503308,83.9001,86.444896,82.3112,64.117923,87.242711,89.651718,85.720316,-25.680485,-32.718544,-19.181786,2.632885,-15.263786,0.928059,-3.577595,-8.026142,7.384529,21.585846,12.198486,7.608032,28.132725,41.749935,31.891937,28.801975,46.616936,62.896099,70.065536,77.983875,-22.812022,-55.716903,-82.790568,-90.028766,-31.794608,-84.085042,-70.741828,-57.945475,-22.175499,-73.586916,-61.278948,-48.728053,-16.337924,-65.954627,-56.443582,-42.873249,-14.406495,-51.132614,-65.019788,-72.858508,87.674675,385.167284,-93.143406,250.370519
58,2.455215,-0.018402,-2.965908,9.836779,-34.301491,-66.472893,-89.538002,-103.285217,-54.512444,-91.073914,-104.500465,-106.90876,-40.128365,-80.273094,-96.944046,-102.062759,-28.063316,-65.909729,-84.26342,-93.524323,-19.437332,-49.102135,-65.794373,-75.92926,-8.43134,0.862592,20.217208,37.007331,20.578942,49.037052,53.862044,51.281556,40.786579,71.401199,75.130183,71.069784,54.989298,83.827111,86.256186,81.892161,63.670973,87.143725,89.642023,85.706793,-20.919628,-30.416565,-25.249329,-7.781525,-11.299038,-1.476345,-6.280346,-12.592049,10.035553,24.311485,15.588741,9.126606,29.188557,41.539135,32.315083,28.141365,44.197083,59.395294,67.43351,75.460281,-18.653132,-38.459206,-59.548639,-68.956376,-33.579257,-57.154144,-44.672965,-32.322944,-24.751109,-50.680786,-36.208404,-22.675184,-16.621791,-42.853798,-28.30114,-14.542099,-10.619959,-35.647154,-45.497457,-52.274935,90.112839,383.970978,-96.126366,259.029393
59,3.617134,-0.468562,-4.454613,20.232028,-33.726768,-65.46524,-88.874588,-105.253372,-54.033394,-90.730705,-104.819183,-107.606163,-39.885178,-79.995804,-97.191582,-102.579803,-28.07991,-65.994987,-84.885864,-94.350471,-19.925423,-49.611168,-66.461105,-76.660767,-8.621716,0.837583,20.009789,36.864749,20.372634,49.556435,53.807333,51.30039,40.412866,71.417192,74.055787,69.768641,54.933228,83.442652,85.906247,82.260441,63.663254,86.726478,89.351549,85.96386,-20.408649,-29.376297,-22.244911,-3.706398,-7.926178,3.267288,-3.247089,-9.332428,13.395596,27.870483,18.069134,10.97683,30.834332,42.420845,31.325283,26.87542,43.070068,57.956371,65.088043,73.09988,-17.150868,-38.150825,-58.868335,-67.609476,-28.576115,-51.818599,-41.438664,-30.511002,-19.40871,-47.097471,-36.779719,-24.374061,-11.895229,-38.75814,-27.882102,-15.193689,-6.261739,-31.041191,-42.383754,-50.665163,94.120874,381.886454,-100.190077,277.64546
60,0.382462,0.616331,-7.059803,13.402062,-33.838806,-65.943375,-89.381561,-104.638367,-53.637657,-90.301895,-103.99807,-106.446419,-39.213982,-79.869232,-97.073135,-102.642975,-27.435608,-66.092377,-84.553986,-93.833313,-19.14608,-49.422455,-66.351357,-76.479721,-8.459312,0.979423,20.646188,37.051729,19.995216,48.398367,53.172415,50.268787,40.41867,70.490812,74.175336,70.25085,55.20456,83.392511,86.105145,82.106188,64.22753,86.803604,89.54841,86.225064,-21.018276,-26.324787,-15.947285,3.272552,-5.686684,12.143955,5.942459,1.076202,16.336155,31.590729,21.695595,15.714169,34.454155,48.579941,37.297554,31.843472,48.421955,66.037674,73.521366,79.485855,-20.368867,-46.834168,-69.272847,-77.584329,-25.917759,-60.265685,-52.302846,-41.284288,-17.304009,-55.085443,-46.174735,-34.406218,-12.973453,-50.255635,-41.837757,-28.791624,-11.945679,-40.807328,-55.049134,-65.128221,95.364389,381.550238,-106.388826,290.094976
61,-0.211029,-0.275098,-3.409824,0.096145,-33.771172,-64.804115,-87.442017,-102.471313,-51.470604,-88.245392,-102.537346,-105.20874,-36.760712,-76.896973,-94.922104,-101.67263,-24.583282,-61.966667,-80.956993,-91.327858,-16.292953,-45.861168,-62.248878,-72.241287,-8.483086,1.182088,20.881519,37.37808,23.02926,51.239751,53.448563,49.035323,43.051955,73.17677,76.849005,72.690485,56.610493,85.78571,88.978021,85.185805,64.4699,88.67705,91.123786,86.931983,-19.123878,-22.454052,-10.672588,10.17746,0.85001,20.185375,9.898624,3.785191,20.245914,36.492977,24.320068,20.211639,36.697598,51.876755,39.064579,34.608135,50.144005,69.247971,75.159817,80.845013,-23.077364,-50.437675,-72.233779,-78.196584,-22.881121,-65.74449,-57.779675,-46.032215,-14.392848,-60.077346,-52.876878,-41.405936,-11.460197,-53.742001,-47.705651,-34.645069,-12.078998,-43.596161,-59.83652,-71.117208,95.900087,380.560858,-109.051924,289.476839
62,0.086517,1.438352,-0.858479,-6.714678,-34.520302,-66.010666,-88.404007,-102.445679,-51.857071,-88.003464,-101.843605,-104.588242,-36.786919,-76.637306,-94.542618,-101.101112,-24.608345,-61.81469,-80.645599,-90.76252,-16.546326,-45.553665,-62.308502,-72.691269,-9.047856,1.222102,21.927942,39.580841,23.153749,50.954155,53.429667,49.40212,43.190708,72.850049,76.055574,71.201004,56.452165,85.643437,87.568444,82.310582,64.009489,87.83286,89.537665,84.554222,-17.106915,-18.98077,-5.824413,14.606667,0.090466,19.594517,10.953712,5.959053,19.89687,37.413197,25.967789,20.946121,37.876396,54.027672,42.621746,37.433968,52.614498,70.766716,74.291267,76.646404,-23.1506,-51.167997,-72.422921,-78.29273,-22.094606,-64.395182,-58.669993,-48.108634,-12.924238,-58.726186,-53.998327,-42.935617,-9.380196,-51.538746,-48.302284,-37.431865,-9.699755,-41.246435,-55.880356,-64.654596,96.461048,381.412303,-109.435959,282.175254
63,-0.909576,0.478813,-0.922165,-5.630526,-34.214859,-65.797234,-88.146286,-102.341652,-51.775703,-87.965813,-102.110596,-104.860153,-36.576347,-76.505356,-94.5718,-101.418686,-24.320068,-61.530304,-80.658989,-91.211014,-16.351547,-45.1371,-62.020111,-72.865105,-9.277444,0.957749,21.861251,39.711381,22.246203,51.419383,54.413907,50.32146,42.049437,72.553153,75.625853,70.748373,55.516646,85.487764,87.730601,82.812675,63.621326,88.184158,90.647197,86.349059,-17.48806,-17.65955,-2.614803,18.227291,0.78558,21.539497,12.672901,7.481918,20.742474,39.943256,27.931423,22.371826,38.950825,56.879025,45.491409,40.007229,54.071617,72.565212,74.555912,75.482826,-23.552101,-52.131365,-72.796264,-77.984719,-21.92646,-63.200867,-58.687592,-49.378099,-11.666258,-58.100036,-54.632751,-44.009889,-7.229491,-50.418964,-48.317289,-38.29211,-6.769389,-38.740356,-52.274317,-59.454964,96.4252,381.094937,-109.484396,275.748549
64,-0.950317,0.185066,-1.727886,-3.601037,-34.032097,-65.624428,-88.002548,-102.75238,-52.211037,-87.849884,-101.833305,-104.77375,-36.991196,-76.54438,-94.470978,-101.363525,-24.742355,-62.011871,-81.120529,-91.523323,-16.725197,-45.612488,-62.517242,-73.248711,-9.128872,0.69815,20.97785,38.479275,21.152789,50.223586,54.410202,50.96774,41.238284,71.348711,74.51873,69.968033,55.229507,84.645612,87.217085,82.651568,63.863882,88.039168,90.538886,86.259768,-14.940262,-12.213364,4.606762,26.753826,4.138927,27.98172,18.185177,12.047138,23.188076,46.34491,34.028606,27.764797,40.545673,62.006378,49.515953,43.058739,54.768791,76.622944,81.719227,85.22913,-26.731136,-55.909132,-75.005755,-77.278232,-24.919502,-64.535294,-58.872349,-48.836734,-12.42443,-56.508296,-52.375773,-41.496709,-5.662698,-46.361654,-43.495632,-32.902102,-3.539966,-34.666311,-50.223401,-60.36745,96.385202,380.416871,-110.301962,271.28438
65,-1.338043,-0.128997,-3.214531,-4.503705,-33.577423,-64.642982,-87.078209,-102.122841,-52.253838,-88.131523,-101.580162,-104.020157,-37.056084,-76.962433,-94.476242,-101.004639,-24.535789,-62.053642,-80.835915,-90.872269,-16.416092,-45.249939,-62.242584,-73.070412,-8.789615,0.537167,20.40178,37.393579,20.509473,49.139434,53.428926,50.186104,40.641713,70.423072,73.814219,69.542326,54.930758,83.735596,86.30182,81.826768,63.759956,87.304276,90.265208,86.829724,-11.523228,-4.883194,14.274845,37.055798,9.272461,41.179218,28.843861,20.402012,25.988789,55.675564,41.515961,34.388924,41.222248,68.992195,54.213638,45.704842,54.176903,82.218018,91.786537,99.441261,-30.007304,-58.21835,-76.298994,-78.52769,-26.202861,-64.110266,-58.016056,-46.741295,-10.613043,-51.087413,-47.624202,-36.544697,-0.920266,-37.941182,-35.608066,-23.698203,4.363469,-24.543133,-41.285214,-53.068242,95.425386,379.640761,-113.138266,266.133562
66,-2.474213,0.4304,-4.372444,-8.015389,-33.082581,-64.213486,-86.124802,-100.839615,-52.103691,-88.465919,-102.260399,-104.653244,-36.780624,-76.646347,-94.106369,-100.433006,-24.022522,-61.47068,-80.255127,-90.217094,-15.749245,-44.757385,-61.358757,-71.965141,-9.892231,-0.327709,20.071663,36.974479,19.685784,50.079646,53.730145,49.833817,39.347054,70.388615,73.719433,69.427285,53.322407,83.018551,85.891056,81.768722,61.981359,86.121509,89.366678,86.472498,-3.45417,11.165085,33.334351,55.902386,20.530815,63.863583,49.609566,37.625771,31.841412,72.370949,57.268925,46.976452,42.751293,81.156521,65.63467,53.592796,53.703461,87.921753,100.696106,109.365349,-34.163786,-61.812965,-76.756627,-75.874707,-32.251684,-59.668312,-56.683667,-48.350079,-10.304662,-40.950835,-41.492942,-34.476243,6.202705,-22.81653,-24.051044,-15.808229,17.706684,-4.668269,-19.13318,-30.389045,93.436689,379.742696,-117.025194,257.789707
67,-0.727959,0.486964,-6.061592,-8.055341,-33.795204,-64.871635,-86.93676,-101.074333,-52.499313,-89.037209,-102.301712,-104.440041,-37.087212,-77.693481,-94.434013,-100.065536,-24.546432,-62.853127,-81.119957,-90.462456,-16.602974,-46.544151,-63.514595,-74.244576,-9.947312,-1.363511,18.43645,35.665124,18.326287,47.95574,53.574534,50.904014,38.236596,69.15194,73.184921,69.460013,52.835567,81.973548,85.085213,81.32202,62.217122,85.827083,89.101275,86.279899,8.910255,31.473026,58.565598,83.363857,31.1269,77.801514,90.642929,94.028549,39.515877,89.343281,86.573868,76.112137,47.829723,92.175636,90.059338,80.81646,55.238457,90.913124,102.432232,104.193764,-35.3715,-60.585058,-69.876149,-67.473934,-29.785002,-45.186543,-57.356253,-63.788546,-4.897981,-28.991942,-41.264404,-42.975631,15.079018,-8.182424,-23.187959,-27.820598,28.413649,13.44467,0.044275,-10.657689,93.041382,380.148998,-122.754135,249.653705
68,-0.13504,0.01445,-0.701923,-8.838089,-33.550415,-64.872665,-87.249527,-100.74543,-53.029518,-89.265518,-102.507362,-104.545898,-37.816429,-78.183174,-94.765549,-100.107307,-25.21637,-63.255959,-81.347923,-90.401688,-16.964264,-46.463928,-63.141861,-73.480568,-10.163809,-1.803483,17.656295,34.755911,17.989995,47.651867,52.86601,49.934718,38.008614,69.152866,73.112858,69.456802,52.637039,81.537282,84.931578,81.490784,61.939615,85.222052,88.499455,85.732049,15.610371,43.392048,74.508648,98.156261,31.589642,78.242741,100.547562,113.805599,37.720871,91.570415,86.473217,73.403778,44.128647,93.772144,89.856663,77.456989,50.350513,89.388771,97.021294,92.204418,-32.529376,-55.018567,-60.1131,-51.019919,-28.080691,-38.207635,-46.293975,-49.148944,-1.989722,-21.086654,-30.440298,-29.663292,19.708447,2.572275,-10.662197,-12.847235,35.577129,22.645852,8.848587,0.23354,93.041525,380.270461,-123.320875,240.922629
69,-0.106773,-0.212854,3.052254,-20.931661,-34.093781,-65.334892,-87.739677,-101.788559,-53.588219,-89.234848,-102.547188,-104.960175,-38.604469,-78.267975,-94.931374,-100.786171,-25.988503,-63.469162,-81.538696,-90.995293,-17.469749,-46.683998,-63.276901,-73.680611,-10.136639,-2.089078,17.074792,34.018425,18.537782,47.30767,52.263449,49.389647,38.711025,68.982311,72.797499,69.262103,53.294866,81.747665,84.932134,81.438296,62.342351,85.403228,88.380401,85.349382,23.32243,54.001751,83.856812,102.97348,42.91769,89.817009,114.130497,129.928722,42.464504,92.861023,84.016685,68.622551,41.712284,90.288677,81.503735,65.065956,42.037811,81.755047,82.296925,71.690369,-28.226607,-35.242195,-26.447516,-15.779515,-28.508189,-24.440751,-24.09958,-21.766217,-3.561085,-2.171762,-7.898742,-10.43267,19.760317,20.761415,12.321739,9.217916,39.757262,37.706901,31.333765,29.424874,92.898417,380.090536,-120.304956,220.023896
70,-1.529617,1.285767,6.341715,-33.160218,-33.475914,-64.983215,-87.754326,-101.590118,-53.421822,-89.364738,-102.864532,-105.102654,-38.289528,-78.050652,-94.609222,-100.184326,-25.532455,-63.105011,-81.12442,-90.481453,-16.837006,-46.194305,-62.452812,-72.419701,-10.713511,-2.765863,16.384113,33.355782,18.178086,46.742468,52.041271,49.037855,38.516634,68.889933,72.811887,68.828615,53.098438,81.437061,84.747871,81.095458,62.101154,84.942632,87.76407,84.283755,28.096934,62.890635,93.20921,112.022953,54.294062,97.842579,117.744227,128.887568,51.946879,94.364663,85.306549,73.17112,48.574591,88.006382,77.320748,64.062224,45.822287,77.618924,72.924357,63.643084,-24.482927,-29.354417,-18.820785,-7.519935,-29.485853,-17.008596,-11.783554,-8.467093,-7.33175,9.057056,6.09458,1.012305,15.712021,30.636417,25.145971,20.060485,37.046603,46.506921,41.327327,36.988404,90.709133,382.918442,-114.622908,188.405818
71,-0.368271,0.205505,6.341715,-33.160219,-34.350815,-66.155319,-88.656006,-101.667595,-53.392067,-89.448853,-102.737846,-105.098991,-37.965088,-78.318329,-95.100403,-101.013908,-25.091743,-63.04287,-81.375961,-91.098633,-16.401787,-45.910492,-62.785606,-73.604965,-10.287063,-2.198068,16.778637,33.827987,17.006681,47.08932,51.984399,48.878539,37.095201,68.381912,72.26836,68.623665,51.94457,80.972883,84.401636,80.985357,61.479945,84.933369,88.108575,84.921513,32.871437,71.779518,102.561607,121.072426,65.670433,105.868149,121.357956,127.846413,61.429253,95.868301,86.596413,77.719688,55.436897,85.724087,73.13776,63.058491,49.606762,73.4828,63.551788,55.595798,-20.739246,-23.466639,-11.194053,0.739646,-30.463516,-9.576439,0.532474,4.832031,-11.102415,20.285875,20.087903,12.457281,11.663727,40.51142,37.970205,30.903055,34.335946,55.306942,51.320891,44.551934,89.93248,384.207497,-108.689575,156.329149
72,-1.485214,0.741499,-0.801258,-10.971443,-33.726425,-65.039062,-87.931252,-101.551895,-52.907295,-89.311981,-102.723083,-104.889908,-37.894707,-78.310089,-95.014,-100.638084,-25.429001,-63.454285,-81.634483,-91.130104,-17.129974,-46.680679,-63.287201,-73.684502,-10.312381,-2.300326,16.581776,33.371528,16.957466,46.095386,51.299217,48.370333,37.204623,67.980782,72.05637,68.380245,51.987363,80.411942,83.746897,80.323701,61.30161,84.334699,87.218937,83.711514,37.751484,69.906235,94.661465,109.904423,67.342644,102.53294,101.4501,97.571354,62.059937,98.859272,94.017963,85.614624,56.142712,92.600384,84.360237,71.682701,51.552029,81.876526,77.99509,69.660702,-9.03989,-9.323509,-4.905144,-0.692654,-19.645955,-8.215398,-5.701354,-5.839057,-9.585578,5.347215,7.305568,5.400629,2.644523,20.424752,20.933081,17.365451,16.736523,30.984319,28.630579,23.430329,88.481112,386.361552,-109.456987,146.770263
73,-2.046204,0.125971,14.208927,-63.460651,-33.997879,-65.453796,-87.815437,-100.628815,-52.78347,-89.339676,-102.899437,-105.098648,-37.591782,-78.22506,-95.283508,-101.002235,-25.316849,-63.603516,-81.889458,-91.14624,-17.367554,-46.831169,-63.319588,-73.193779,-9.979114,-1.999602,17.364092,34.484209,16.135383,45.376179,51.687812,49.174755,36.893833,67.380135,71.638073,67.829678,52.030094,79.990681,82.99632,79.114504,61.387196,84.173716,86.875975,83.132295,30.217724,64.885368,90.601501,106.965752,78.419495,121.575394,140.529213,149.52507,77.921906,110.566978,98.923531,89.256363,74.607697,101.50074,88.539505,77.315712,69.520741,92.848206,81.307526,70.574913,-25.681194,-36.257619,-28.707612,-17.343715,-43.8293,-36.121274,-26.253774,-18.566188,-26.728481,-0.694044,4.12644,-1.58785,-5.571832,18.608054,21.266533,15.667068,17.095849,34.695642,34.432277,29.005589,85.976572,388.173634,-95.706396,84.995722
74,-3.09906,0.342344,19.098129,-51.591821,-34.331131,-65.765877,-87.906418,-100.370636,-52.712746,-90.262756,-103.695602,-105.871868,-37.359695,-78.805618,-96.030693,-101.729279,-25.19165,-64.411583,-82.762985,-91.568642,-17.549057,-48.09185,-64.901848,-74.46682,-9.654059,-1.854303,17.60708,35.751636,13.22595,43.038185,50.485408,48.110116,34.052203,65.12254,70.76344,67.389027,49.78769,78.553008,81.856099,77.716413,60.023376,83.464327,86.129351,81.916615,20.086498,50.352917,74.680595,86.51722,72.049713,112.764587,130.552711,137.601814,76.531906,105.292053,97.112045,86.382637,77.122192,97.811508,86.821632,74.827538,74.064903,90.130234,79.777107,69.228172,-27.921005,-43.315784,-39.939055,-29.40499,-50.576768,-52.064644,-46.01897,-38.383562,-35.204991,-19.889869,-12.433075,-11.116093,-15.231418,2.543314,6.493241,5.328412,7.399737,20.264108,21.263569,18.649551,81.518812,391.729794,-77.966967,36.617716
75,-1.713982,0.714699,-1.458836,-7.817942,-34.022369,-65.514565,-87.921181,-100.225296,-53.29731,-89.828224,-102.746201,-104.10387,-37.903862,-78.531418,-94.382172,-98.864708,-25.541611,-63.914909,-81.232224,-89.336128,-17.785034,-48.079262,-64.321976,-73.738518,-11.077468,-3.281479,15.30663,32.118551,12.597516,41.949463,49.504935,47.522623,33.420187,64.563205,69.787784,66.41862,49.37884,77.577351,80.810479,76.971148,59.849117,82.995147,85.939654,82.319351,27.656708,54.986172,76.903896,89.622631,71.790676,106.171246,127.998447,141.865482,75.885487,107.085056,103.741093,95.027447,77.561474,101.751652,94.430065,83.507366,77.542706,96.990795,91.594791,83.28043,-26.503061,-39.062261,-36.763787,-31.341422,-57.267579,-60.165958,-54.607618,-48.179709,-45.594652,-26.809127,-14.122721,-10.763004,-27.284728,-6.170009,5.023643,6.147254,-5.800556,12.431315,19.205675,19.960605,78.874683,396.096767,-80.355949,32.452049
76,-2.194633,-0.188709,-4.230761,-8.220328,-33.552017,-64.785461,-87.528076,-99.52589,-53.062477,-90.332565,-103.123512,-104.195595,-38.215027,-78.834915,-94.828377,-99.264908,-26.145744,-64.381142,-81.926765,-89.844933,-18.463669,-48.693123,-65.204887,-74.808311,-11.027944,-4.056446,14.208893,31.534453,11.994832,40.358587,47.602837,45.64961,32.881724,63.056063,68.176345,64.667563,48.681864,76.229525,79.413315,75.480493,58.893714,81.866782,84.894528,81.302383,25.856412,52.393263,74.119106,86.710281,69.569321,104.305328,125.828429,139.35508,73.727828,104.627094,100.622255,91.663466,75.406286,99.757591,91.964087,80.916575,75.441742,95.693243,90.072306,81.597597,-26.533478,-39.412655,-37.700341,-32.751368,-57.186775,-60.530945,-55.373387,-49.318414,-45.588723,-27.211837,-14.838932,-11.673339,-27.368697,-6.727047,4.354174,5.610135,-5.921235,11.643529,18.263232,19.01709,73.304644,398.589137,-87.962117,26.912801
77,-1.646919,-0.243544,-4.230761,-8.220327,-33.478317,-64.611397,-86.906204,-98.898811,-54.038658,-90.463257,-102.705116,-103.514156,-38.759079,-78.935623,-94.248962,-98.659916,-26.088409,-64.273338,-81.049805,-88.981705,-17.683754,-48.450165,-64.428406,-73.813477,-10.965329,-3.858968,14.177956,31.618743,10.130773,38.939933,48.08165,46.899932,31.402802,62.423306,68.751488,65.575727,47.891397,75.85186,80.122333,76.700866,58.799483,81.186416,84.217373,80.543532,24.056115,49.800354,71.334317,83.797931,67.347965,102.43941,123.658411,136.844678,71.570169,102.169132,97.503417,88.299486,73.251098,97.763531,89.498109,78.325783,73.340778,94.395691,88.54982,79.914764,-26.563896,-39.763049,-38.636896,-34.161316,-57.105972,-60.895932,-56.139157,-50.45712,-45.582795,-27.614548,-15.555145,-12.583675,-27.452667,-7.284087,3.684704,5.073016,-6.041915,10.855742,17.320789,18.073574,68.920012,400.175166,-94.93059,20.522046
78,-0.404892,-1.346468,-4.230761,-8.220327,-33.397064,-64.320488,-86.898193,-100.158863,-53.188248,-89.126701,-102.314529,-104.923954,-38.272247,-78.13076,-94.245415,-99.771996,-25.904617,-63.954849,-81.21666,-89.763222,-17.739372,-48.649178,-64.896698,-74.835091,-10.317382,-3.212565,14.09589,30.280673,12.452218,40.503145,47.757089,45.977628,33.339109,63.543026,68.551602,64.919814,49.281398,76.792936,80.475607,76.811399,59.499486,81.61694,84.394535,80.636961,22.255819,47.207445,68.549527,80.885582,65.126609,100.573493,121.488392,134.334276,69.41251,99.71117,94.38458,84.935505,71.09591,95.769471,87.032131,75.734991,71.239814,93.098139,87.027334,78.231931,-26.594314,-40.113443,-39.57345,-35.571263,-57.025169,-61.260919,-56.904927,-51.595826,-45.576867,-28.017259,-16.271357,-13.494011,-27.536636,-7.841126,3.015234,4.535896,-6.162595,10.067956,16.378346,17.130059,67.007275,399.813216,-100.669196,13.286237
79,-0.146599,0.142335,-4.230761,-8.220327,-33.510017,-64.749298,-87.633705,-100.937347,-53.687897,-89.248238,-102.732697,-105.517216,-38.493805,-78.560829,-94.635887,-100.058956,-25.745773,-63.898888,-81.202011,-89.972534,-17.339401,-48.233871,-64.591827,-74.742966,-10.811756,-3.532062,13.957199,30.363913,12.176131,40.461463,48.235779,46.713199,33.12218,64.069325,69.61019,66.212682,48.861125,76.909521,80.799797,77.31695,58.906806,81.428848,84.564534,81.0405,20.455523,44.614537,65.764737,77.973232,62.905254,98.707575,119.318374,131.823874,67.254852,97.253208,91.265742,81.571525,68.940722,93.775411,84.566152,73.1442,69.138851,91.800587,85.504849,76.549098,-26.624731,-40.463838,-40.510005,-36.98121,-56.944366,-61.625906,-57.670697,-52.734532,-45.570939,-28.41997,-16.987569,-14.404347,-27.620605,-8.398165,2.345764,3.998777,-6.283275,9.280169,15.435902,16.186543,66.332273,399.940314,-105.42836,5.050673
80,1.065674,0.354015,-4.230762,-8.220327,-33.35907,-64.745293,-87.721138,-100.701313,-54.34536,-91.091194,-104.090767,-106.09623,-39.550552,-80.578766,-96.569939,-101.631546,-27.239571,-66.047287,-83.27877,-91.605034,-19.061394,-50.00988,-66.787148,-77.657661,-11.035416,-4.804182,12.189037,28.528752,11.660145,39.369593,46.565677,44.95041,32.693817,62.295915,67.169813,63.771318,48.810737,75.488211,78.806802,75.031073,59.339799,81.095581,84.224042,80.757251,18.655228,42.021629,62.979948,75.060883,60.683899,96.841658,117.148356,129.313473,65.097194,94.795247,88.146906,78.207545,66.785535,91.781351,82.100175,70.553409,67.037888,90.503036,83.982364,74.866266,-26.655149,-40.814232,-41.446559,-38.391157,-56.863563,-61.990893,-58.436467,-53.873237,-45.565011,-28.822681,-17.703781,-15.314683,-27.704575,-8.955205,1.676294,3.461658,-6.403956,8.492383,14.493459,15.243027,66.688328,399.586731,-110.368741,-3.877252
81,2.699432,-3.144454,-4.230761,-8.220327,-34.313965,-65.540085,-88.416824,-101.758518,-55.029373,-91.238708,-104.868908,-109.328957,-40.2491,-80.645828,-97.030106,-103.86795,-27.945786,-66.46534,-84.436913,-94.207191,-19.855728,-51.166077,-68.097153,-79.672737,-9.666039,-2.791304,14.416683,31.244844,12.333595,39.533231,48.728115,50.025244,33.289462,62.443622,68.388334,66.569661,49.477765,76.25898,80.584041,78.012383,60.095377,82.659534,86.192522,83.31946,16.854932,39.42872,60.195159,72.148533,58.462544,94.975741,114.978338,126.803071,62.939535,92.337284,85.028068,74.843565,64.630348,89.787291,79.634197,67.962617,64.936924,89.205484,82.459878,73.183433,-26.685567,-41.164627,-42.383114,-39.801105,-56.78276,-62.35588,-59.202236,-55.011943,-45.559084,-29.225392,-18.419994,-16.225019,-27.788544,-9.512244,1.006824,2.924539,-6.524636,7.704596,13.551016,14.299512,68.569593,396.662247,-115.417669,-11.877609
82,2.654572,-2.29057,-4.230761,-8.220327,-34.796104,-66.009178,-88.999901,-102.023106,-55.846596,-90.990143,-105.460339,-111.749725,-41.532898,-80.61264,-97.898369,-106.367798,-29.526443,-66.679573,-85.087166,-95.830765,-21.525764,-51.865196,-68.386917,-79.531517,-10.048645,-2.823414,14.858693,31.897422,11.040912,37.582721,47.775615,49.948241,32.633858,61.810001,69.322495,68.330289,49.339444,76.753169,81.812936,79.367805,60.359793,83.528239,87.228447,84.212001,15.054635,36.835811,57.410369,69.236183,56.241188,93.109823,112.80832,124.292669,60.781876,89.879322,81.90923,71.479584,62.47516,87.793231,77.168219,65.371826,62.835961,87.907932,80.937393,71.5006,-26.715985,-41.515021,-43.319668,-41.211052,-56.701957,-62.720868,-59.968006,-56.150649,-45.553156,-29.628103,-19.136206,-17.135355,-27.872514,-10.069283,0.337354,2.387419,-6.645316,6.916809,12.608572,13.355996,71.17753,394.469767,-119.695065,-19.999845
83,0.2005,-6.926235,-4.230761,-8.220327,-33.239594,-64.525566,-86.015968,-98.581009,-54.234467,-91.274185,-105.98465,-112.232895,-39.919167,-80.775032,-98.239403,-106.4958,-28.367271,-67.164459,-86.067352,-96.689644,-21.073036,-51.754074,-68.307037,-78.915939,-9.770397,-1.305157,17.780661,35.013533,10.091746,37.303239,48.610048,51.500276,31.125666,60.958031,69.076481,68.880238,47.956111,76.079348,82.038201,80.524575,59.414888,83.893739,88.25091,85.828256,13.254339,34.242902,54.625579,66.323834,54.019833,91.243905,110.638301,121.782267,58.624217,87.42136,78.790393,68.115604,60.319972,85.799171,74.702241,62.781034,60.734997,86.61038,79.414907,69.817767,-26.746403,-41.865416,-44.256223,-42.620999,-56.621154,-63.085855,-60.733776,-57.289355,-45.547228,-30.030814,-19.852418,-18.045691,-27.956483,-10.626323,-0.332116,1.8503,-6.765996,6.129023,11.666129,12.412481,71.278753,387.74981,-124.025103,-28.013895
84,1.659393,-8.080041,-4.230761,-8.220327,-36.47747,-66.786232,-84.833794,-98.176918,-57.871513,-91.440239,-105.743923,-111.757164,-44.933167,-81.57177,-98.826485,-106.375637,-33.523407,-67.11834,-85.156975,-94.423828,-24.973526,-51.101875,-66.96682,-76.62735,-13.160865,-3.130067,16.685332,32.802066,9.026058,33.984833,43.017128,45.599283,29.480758,57.495253,63.063287,63.573161,45.109417,72.137881,75.33717,73.948959,54.331841,76.353396,79.793018,78.954756,11.454043,31.649994,51.840789,63.411484,51.798477,89.377988,108.468283,119.271865,56.466559,84.963398,75.671555,64.751623,58.164784,83.80511,72.236262,60.190243,58.634033,85.312828,77.892421,68.134934,-26.77682,-42.21581,-45.192778,-44.030946,-56.540351,-63.450842,-61.499546,-58.428061,-45.5413,-30.433525,-20.56863,-18.956027,-28.040453,-11.183362,-1.001587,1.313181,-6.886676,5.341236,10.723686,11.468965,72.961407,379.657619,-128.232604,-36.246371
85,-3.141518,-8.991107,-4.230761,-8.220328,-33.681908,-59.143066,-74.013519,-86.510239,-54.213295,-83.405685,-97.630806,-103.334484,-44.268951,-74.612274,-90.689964,-97.623024,-34.984131,-62.573318,-78.965149,-86.243591,-26.230659,-47.592773,-61.148186,-67.580452,-4.228174,6.305829,22.584596,36.126832,18.652082,35.667532,39.104313,38.500764,28.832996,47.301063,50.42656,51.364301,35.996106,54.098301,56.686569,57.247634,39.675875,55.85899,60.194549,62.661416,9.653747,29.057085,49.055999,60.499134,49.577122,87.51207,106.298265,116.761462,54.3089,82.505436,72.552717,61.387643,56.009596,81.81105,69.770284,57.599451,56.53307,84.015276,76.369936,66.452101,-26.807237,-42.566203,-46.129331,-45.440893,-56.459546,-63.815828,-62.265315,-59.566765,-45.535371,-30.836235,-21.284842,-19.866362,-28.124421,-11.7404,-1.671056,0.776063,-7.007355,4.553451,9.781243,10.525451,67.828016,370.801992,-134.455238,-44.331219
86,1.28603,-39.142474,-4.230761,-8.220327,-29.695702,-58.982334,-80.813828,-92.596665,-63.175163,-95.982199,-97.891789,-94.161272,-60.352078,-92.971773,-95.297356,-92.411499,-56.495876,-86.569605,-89.407883,-86.948032,-51.802368,-76.410713,-78.818264,-76.5382,17.693685,31.41299,39.35715,41.408313,32.124355,40.76722,42.423274,41.627126,24.990669,37.337263,40.067681,39.103047,17.039161,30.56667,33.60442,32.536971,8.213237,23.546018,28.875295,29.18343,7.853451,26.464176,46.27121,57.586784,47.355766,85.646152,104.128246,114.25106,52.151241,80.047474,69.43388,58.023663,53.854408,79.81699,67.304306,55.008659,54.432106,82.717724,74.84745,64.769268,-26.837655,-42.916598,-47.065886,-46.85084,-56.378744,-64.180816,-63.031085,-60.705472,-45.529443,-31.238947,-22.001054,-20.776698,-28.208391,-12.29744,-2.340526,0.238943,-7.128035,3.765664,8.8388,9.581935,66.852465,330.159708,-140.94758,-54.051355
87,1.28603,-39.142475,-3.922977,9.778085,-25.709496,-58.821602,-87.614136,-98.68309,-72.137032,-108.558712,-98.152771,-84.98806,-76.435204,-111.331272,-99.904747,-87.199974,-78.007622,-110.565891,-99.850616,-87.652473,-77.374077,-105.228653,-96.488342,-85.495949,39.615545,56.520152,56.129704,46.689795,45.596628,45.866909,45.742235,44.753488,21.148343,27.373464,29.708802,26.841793,-1.917783,7.035039,10.52227,7.826309,-23.249401,-8.766953,-2.443958,-4.294556,5.526867,21.248932,37.934418,47.891865,41.817398,75.145226,90.864372,100.029831,47.586308,81.338596,76.243801,67.127495,51.398106,82.346249,79.040794,70.436039,52.528267,84.563141,86.056995,80.713978,-28.485002,-43.247333,-46.955322,-47.441329,-57.037404,-65.869381,-65.667024,-63.443855,-44.985793,-39.000757,-27.1486,-23.157917,-27.767215,-23.354531,-11.169353,-5.68922,-7.615123,-5.861503,1.508223,6.484997,67.285252,290.786735,-145.723801,-44.503769
88,-5.954361,-63.12053,2.565594,4.81891,-28.498192,-58.627281,-81.793556,-90.857506,-51.331215,-95.313148,-91.81469,-80.634727,-52.239418,-96.671104,-91.501923,-78.459206,-55.092659,-99.042149,-92.494469,-77.65686,-56.828728,-91.743279,-90.214462,-79.262581,-2.19109,0.335552,10.234266,19.899009,-18.375749,3.13513,17.959305,19.927228,-16.383002,8.239481,22.257257,21.753867,-10.635212,13.370199,23.230196,19.70363,-3.238253,15.431737,22.509198,21.294444,13.522797,34.993057,56.063347,71.807098,48.238449,82.861633,103.985653,121.602745,48.441982,90.124454,104.391747,110.638618,48.928185,88.570061,102.03867,107.119904,49.689331,81.945076,96.331329,104.637337,-25.322455,-39.266994,-42.279365,-39.252452,-52.080514,-55.343714,-54.082771,-51.074661,-41.688537,-36.223039,-22.483171,-10.153157,-26.14886,-20.30474,-6.315184,6.474098,-7.297386,-4.512411,2.594783,11.652056,62.339315,227.769081,-142.149782,-39.581983
89,-0.173493,-37.445543,16.672783,-9.723507,-26.146717,-54.70705,-77.940731,-88.861599,-51.772442,-95.856914,-98.234367,-89.981489,-53.035011,-98.544759,-98.904304,-88.973322,-55.3969,-98.832693,-96.789264,-84.509468,-56.458053,-90.98711,-92.366352,-84.129524,-16.950117,-21.69011,-13.227185,-2.22814,-39.756212,-26.274414,-10.007642,-4.902118,-30.762727,-14.488344,1.256961,4.310858,-18.810688,-1.678715,10.005111,10.489358,-5.807965,8.16288,15.834072,16.616666,11.67541,30.179705,48.513876,62.418366,42.771002,71.59414,89.603577,104.825527,43.464922,79.467103,91.768129,97.080819,44.314613,79.372935,90.519954,94.831957,45.274364,75.319274,89.300472,98.00421,-21.918357,-33.37447,-35.651856,-33.064218,-43.993895,-45.391739,-44.430885,-42.051849,-35.378279,-28.50197,-17.044975,-6.221804,-21.620438,-13.989692,-1.800337,9.043463,-4.718207,1.347028,8.791848,17.281449,62.83596,190.451979,-124.806862,-49.177049
90,-0.173492,-37.445542,16.672783,-9.723506,-23.795242,-50.786819,-74.087906,-86.865692,-52.213669,-96.400681,-104.654045,-99.328251,-53.830605,-100.418415,-106.306686,-99.487438,-55.701141,-98.623238,-101.084061,-91.362076,-56.087379,-90.230942,-94.518242,-88.996468,-31.709145,-43.715772,-36.688637,-24.355289,-61.136675,-55.683959,-37.974589,-29.731465,-45.142453,-37.216171,-19.743336,-13.132151,-26.986165,-16.727631,-3.219975,1.275084,-8.377678,0.894022,9.158945,11.938886,9.828023,25.366353,40.964404,53.029633,37.303554,60.326647,75.2215,88.048308,38.487862,68.809752,79.144511,83.52302,39.701042,70.175808,79.001239,82.544011,40.859397,68.693472,82.269614,91.371084,-18.51426,-27.481946,-29.024348,-26.875985,-35.907278,-35.439766,-34.779001,-33.029038,-29.068023,-20.780902,-11.60678,-2.290451,-17.092016,-7.674646,2.714508,11.612826,-2.13903,7.206467,14.988911,22.910841,66.567392,153.894099,-104.229155,-58.012893
91,6.57177,-12.081839,16.672783,-9.723507,-28.611603,-58.918991,-85.19886,-101.864433,-52.700844,-96.573372,-112.299557,-111.593685,-46.53614,-95.98835,-113.498898,-113.090458,-43.776855,-92.029266,-108.848763,-108.216248,-43.259239,-83.377533,-100.080299,-104.597111,-29.652671,-44.015879,-39.922074,-30.581027,-57.295984,-57.551971,-38.060607,-25.011881,-43.306675,-39.916485,-20.22468,-10.018572,-25.675636,-21.71268,-5.315969,5.353575,-5.878145,-3.131178,4.603308,11.911099,7.980635,20.553,33.414933,43.6409,31.836106,49.059154,60.839424,71.27109,33.510802,58.1524,66.520892,69.965221,35.087471,60.978682,67.482523,70.256064,36.44443,62.067669,75.238756,84.737957,-15.110162,-21.589421,-22.396839,-20.687751,-27.82066,-25.487791,-25.127116,-24.006227,-22.757766,-13.059833,-6.168584,1.640903,-12.563593,-1.359598,7.229355,14.182191,0.440148,13.065907,21.185976,28.540234,74.999027,142.935531,-85.696506,-66.613129
92,-6.912918,-32.427797,16.672783,-9.723506,-27.084503,-56.188202,-80.209465,-95.262566,-49.208107,-94.345551,-106.909618,-106.812401,-43.546143,-94.71714,-109.783401,-107.824173,-40.292931,-88.238754,-103.021088,-101.035137,-38.625069,-77.402916,-92.292938,-94.860191,-26.976841,-43.462225,-43.212383,-37.61057,-64.439025,-57.902898,-31.097446,-15.728447,-52.320537,-44.031008,-20.094418,-4.182572,-36.083637,-29.238913,-8.153833,7.554484,-17.503834,-12.866563,-1.563397,8.82648,6.133248,15.739648,25.865462,34.252167,26.368659,37.791661,46.457348,54.493871,28.533742,47.495049,53.897274,56.407421,30.4739,51.781556,55.963808,57.968118,32.029462,55.441867,68.207899,78.104831,-11.706066,-15.696898,-15.769331,-14.499518,-19.734043,-15.535817,-15.475231,-14.983416,-16.447509,-5.338765,-0.730389,5.572255,-8.035171,4.955448,11.7442,16.751554,3.019326,18.925345,27.383039,34.169625,70.848141,113.302342,-66.261692,-73.542028
93,2.320747,-15.538009,16.672783,-9.723507,-36.978378,-64.263954,-86.148376,-104.630871,-51.998634,-94.64962,-110.850277,-113.735104,-46.570244,-94.797707,-112.20583,-114.575787,-44.506073,-89.776039,-106.193047,-108.659992,-45.759315,-81.894264,-96.329727,-101.011391,-20.376401,-37.852138,-43.473772,-45.83307,-64.253249,-60.839038,-41.145041,-27.172126,-54.626761,-48.454035,-27.637539,-13.177013,-38.964911,-35.154201,-17.283724,-2.221842,-20.384305,-19.635828,-9.801242,0.967382,4.285861,10.926295,18.315991,24.863434,20.901211,26.524167,32.075271,37.716653,23.556682,36.837697,41.273656,42.849622,25.860328,42.58443,44.445092,45.680171,27.614495,48.816065,61.177041,71.471704,-8.301968,-9.804373,-9.141822,-8.311283,-11.647424,-5.583843,-5.823346,-5.960604,-10.137252,2.382305,4.707807,9.503609,-3.506748,11.270496,16.259047,19.320919,5.598504,24.784785,33.580104,39.799018,74.348831,100.185798,-48.408966,-80.84407
94,-2.078705,-12.29145,16.672783,-9.723506,-38.854179,-64.646759,-84.92363,-101.100082,-51.85524,-92.462196,-108.004646,-112.158794,-48.059578,-96.285553,-112.534389,-115.789719,-47.477303,-92.078362,-107.542362,-111.127682,-49.960556,-84.486465,-97.804127,-102.212448,-9.786113,-22.488203,-24.960134,-26.929169,-66.816508,-63.620153,-45.729731,-32.184438,-63.542316,-57.392377,-36.408228,-19.409945,-51.043354,-46.588525,-27.962532,-10.550521,-33.898537,-31.489499,-20.116802,-6.899127,2.438474,6.112943,10.766519,15.4747,15.433763,15.256674,17.693195,20.939434,18.579622,26.180346,28.650038,29.291823,21.246757,33.387304,32.926376,33.392225,23.199528,42.190262,54.146183,64.838578,-4.897871,-3.911849,-2.514314,-2.12305,-3.560807,4.368131,3.828538,3.062207,-3.826995,10.103373,10.146002,13.434962,1.021673,17.585542,20.773892,21.890282,8.177682,30.644224,39.777167,45.42841,72.918434,91.431442,-31.087875,-87.030481
95,-0.882454,-12.40961,16.672782,-9.723507,-37.692146,-63.663025,-84.358292,-101.573467,-52.264252,-94.03656,-109.5298,-113.169651,-47.981987,-98.49987,-113.977547,-116.413765,-47.166481,-94.097214,-109.350414,-112.38121,-49.993515,-85.881844,-99.331169,-102.923813,-0.816032,-12.171099,-14.828497,-16.127386,-62.959269,-60.484467,-42.235738,-28.230405,-63.092187,-56.775644,-35.596797,-19.23618,-52.868572,-48.871437,-29.699231,-11.911871,-36.965032,-35.495495,-24.318578,-11.439603,0.591087,1.299591,3.217049,6.085968,9.966316,3.989182,3.311119,4.162216,13.602562,15.522995,16.026421,15.734024,16.633186,24.190178,21.407661,21.104279,18.784561,35.564461,47.115326,58.205452,-1.493773,1.980675,4.113195,4.065184,4.525811,14.320106,13.480424,12.085019,2.483262,17.824442,15.584198,17.366315,5.550096,23.90059,25.288739,24.459647,10.75686,36.503663,45.974231,51.057803,72.898664,80.788249,-13.552408,-94.987571
96,-4.830551,-9.204331,-12.590744,9.691394,-37.602997,-63.380013,-84.07608,-99.829674,-50.722733,-91.190872,-106.740017,-110.629292,-45.936699,-94.511719,-110.206146,-113.109913,-44.086304,-90.091553,-105.714569,-108.776894,-46.124382,-81.32206,-94.980297,-98.778191,-0.851322,-11.716369,-13.744901,-16.23937,-65.072152,-60.99539,-43.120529,-29.572581,-65.278645,-57.945135,-37.176187,-20.901372,-55.2656,-50.305591,-31.136348,-13.672622,-38.858207,-37.493152,-26.386198,-13.076329,5.048344,11.072457,16.635041,21.09771,19.839203,21.568703,23.960541,26.718384,22.077645,32.515755,37.059815,39.702805,23.53901,37.961472,39.720887,42.849335,24.114762,43.717644,55.772553,67.53621,-6.560895,-5.846684,-4.430648,-4.040972,-3.925468,3.897871,3.914914,3.289494,-3.61398,10.769167,11.326075,14.652909,1.666563,18.913076,22.676962,23.72121,9.299315,32.430402,42.018358,47.359676,68.368979,72.758087,-25.842288,-84.122009
97,-5.211754,-6.041197,-12.590744,9.691393,-35.010681,-60.51487,-81.316223,-97.270832,-45.295944,-85.145988,-101.839085,-106.674614,-40.921326,-89.496517,-105.452671,-107.826519,-39.890099,-86.226082,-102.510624,-105.696201,-43.062859,-78.680534,-92.998295,-97.274494,-0.287942,-12.237789,-14.310534,-16.938848,-65.295318,-62.681176,-45.437404,-31.614852,-65.510672,-60.483417,-39.7572,-23.002522,-56.317086,-53.350565,-33.025726,-14.997014,-40.982174,-39.605263,-27.399924,-14.134484,9.5056,20.845322,30.053032,36.109452,29.71209,39.148224,44.609963,49.274552,30.552727,49.508515,58.093209,63.671586,30.444832,51.732766,58.034111,64.594391,29.444962,51.870827,64.429779,76.866967,-11.628016,-13.674042,-12.97449,-12.147127,-12.376746,-6.524363,-5.650595,-5.506031,-9.711221,3.713892,7.067953,11.939504,-2.216969,13.925564,20.065185,22.982775,7.841772,28.357142,38.062485,43.661549,63.350945,68.454237,-38.239312,-72.693268
98,-1.695328,-5.39958,-12.590744,9.691394,-35.874596,-61.169357,-81.294365,-96.868057,-44.780502,-83.838158,-100.57251,-105.752964,-39.612122,-87.147331,-102.899895,-105.006065,-37.7211,-83.480988,-99.746876,-102.703457,-40.302773,-75.974236,-90.243816,-93.991127,0.245705,-12.016877,-13.953432,-16.299299,-63.178514,-62.78609,-46.269151,-32.45932,-62.898136,-59.491798,-39.348011,-22.494317,-54.093207,-52.141924,-32.344434,-14.232976,-39.263228,-38.346388,-26.599947,-13.557982,13.962857,30.618187,43.471024,51.121193,39.584977,56.727745,65.259385,71.830719,39.02781,66.501275,79.126603,87.640366,37.350655,65.504059,76.347336,86.339447,34.775162,60.02401,73.087006,86.197724,-16.695138,-21.501401,-21.518333,-20.253283,-20.828025,-16.946598,-15.216104,-14.301556,-15.808464,-3.341383,2.809829,9.226098,-6.100502,8.938051,17.453408,22.244339,6.384227,24.283881,34.106611,39.963422,61.725912,64.011403,-50.75976,-62.045128
99,-1.285629,-3.922232,-12.590744,9.691394,-35.132904,-59.367027,-79.084282,-96.355476,-45.746269,-81.5839,-98.649216,-104.305172,-40.73101,-84.935417,-101.351109,-103.794537,-38.419075,-80.695839,-97.466583,-100.764256,-40.199203,-73.961334,-89.450512,-94.751644,-0.012165,-11.504287,-13.578669,-15.816164,-57.508437,-61.859957,-46.872669,-33.575397,-58.44624,-60.09757,-41.229855,-24.181894,-51.978502,-54.168172,-35.508309,-17.061855,-39.5667,-40.466126,-29.778148,-16.623674,18.420113,40.391053,56.889016,66.132935,49.457863,74.307267,85.908806,94.386887,47.502892,83.494034,100.159996,111.609147,44.256478,79.275353,94.660561,108.084504,40.105362,68.177193,81.744233,95.528481,-21.762259,-29.32876,-30.062176,-28.359439,-29.279304,-27.368833,-24.781614,-23.097081,-21.905706,-10.396658,-1.448294,6.512692,-9.984035,3.950538,14.841631,21.505902,4.926682,20.210619,30.150738,36.265294,60.542736,60.413114,-63.248051,-52.029792
100,0.020485,-3.351133,-12.590744,9.691394,-34.275856,-57.184753,-76.30703,-93.945808,-47.033958,-81.533318,-98.031464,-102.638569,-42.478981,-85.248299,-102.304287,-104.272728,-40.011978,-81.274567,-98.018074,-100.387402,-41.763382,-74.258537,-89.32497,-94.469833,0.537136,-9.75462,-11.952935,-15.070126,-52.105986,-58.419749,-43.633767,-30.652997,-54.593755,-59.044169,-40.38727,-23.120497,-50.27947,-55.225956,-37.132591,-19.016688,-39.839884,-43.267279,-33.20789,-20.271363,22.877369,50.163918,70.307007,81.144676,59.33075,91.886787,106.558228,116.943054,55.977974,100.486794,121.19339,135.577927,51.1623,93.046646,112.973785,129.829559,45.435562,76.330376,90.401459,104.859238,-26.829381,-37.156118,-38.606018,-36.465594,-37.730582,-37.791067,-34.347123,-31.892606,-28.002947,-17.451932,-5.706417,3.799287,-13.867568,-1.036975,12.229854,20.767466,3.469138,16.137359,26.194864,32.567167,61.117029,57.119594,-75.284986,-42.280785
101,-1.257019,-1.232631,-5.713291,3.210805,-37.652893,-61.135368,-80.00885,-96.721859,-55.280113,-85.605984,-101.991119,-106.992931,-47.50042,-87.618313,-104.710922,-106.423531,-40.762367,-80.779152,-96.950741,-99.015999,-37.307396,-70.175629,-86.715374,-93.423386,-2.622139,-14.193178,-16.992756,-21.355021,-49.728965,-56.404926,-41.166314,-27.294824,-53.17788,-55.397591,-37.422448,-20.966828,-50.995497,-53.58815,-36.224366,-19.287402,-42.836724,-45.408227,-35.444335,-22.628191,16.005192,41.589661,63.79652,78.401356,57.02013,94.726238,114.642506,128.503704,56.696033,101.174526,124.701519,140.625286,54.225483,95.664883,117.621288,133.60754,49.698887,81.690388,98.707066,113.51469,-23.419585,-30.78999,-26.848276,-19.808513,-36.976548,-24.823758,-15.836542,-9.076477,-25.173667,-10.928248,-1.004154,7.192564,-8.618011,3.392228,12.218955,19.18715,10.723854,21.946498,29.500024,36.143072,60.854845,55.785183,-80.003443,-39.17176
102,0.521278,-1.506432,0.396881,9.464084,-39.155159,-64.518242,-84.693546,-98.933086,-45.235634,-74.370689,-90.879078,-96.464424,-37.55825,-77.816963,-96.289787,-101.064835,-33.035202,-74.40136,-92.095757,-96.37682,-33.832169,-65.808907,-83.009033,-91.671238,-3.96873,-16.435582,-20.561621,-26.618102,-51.986931,-58.535624,-46.62823,-35.705725,-54.122847,-56.392236,-40.041221,-26.492872,-51.013189,-54.232546,-39.005821,-23.722841,-41.844549,-46.900395,-38.636584,-26.980268,6.990795,28.04512,50.142002,65.730801,52.973385,91.236935,112.060947,125.8671,55.501099,98.124447,121.132336,137.647762,54.799404,95.847073,117.939777,133.882542,50.817719,82.519169,99.5331,113.188076,-28.941183,-43.143222,-49.245367,-55.284063,-41.966043,-34.663933,-27.964075,-22.262506,-26.784488,-19.455671,-14.114786,-9.088457,-7.584741,-0.565572,4.740703,9.018123,12.891788,20.668172,26.380888,30.650805,62.432356,54.162629,-78.550329,-29.823797
103,-1.817551,-0.391251,-0.151062,14.342305,-33.778839,-61.347771,-82.674694,-94.946709,-36.771927,-66.653824,-88.190746,-101.762295,-29.162407,-63.712807,-87.016468,-99.389534,-24.084663,-57.729034,-78.95153,-90.269337,-22.88269,-44.080811,-56.358948,-63.228607,-2.835949,-14.402573,-21.880641,-30.144976,-51.347938,-57.423591,-50.290431,-42.082875,-57.323895,-65.875093,-58.149992,-49.562085,-57.579511,-67.0829,-62.458535,-55.819933,-51.771453,-62.018532,-64.815178,-63.805713,4.953175,25.034752,48.177624,62.24287,46.502151,80.279102,101.045208,117.240314,53.491344,90.247936,113.962269,132.742596,55.51157,92.853184,115.211506,132.956142,53.085308,82.607403,99.800663,113.688297,-32.434744,-51.205726,-62.114307,-74.171322,-45.714355,-48.521837,-47.311869,-44.652927,-28.778193,-31.163673,-30.498868,-27.447811,-9.038562,-5.757732,-2.583915,0.108465,12.103513,19.215925,24.235616,29.014697,61.317501,53.70546,-77.998695,-15.547411
104,0.499267,-7.048233,2.880535,18.812448,-35.924835,-66.840934,-88.686313,-99.865055,-40.122909,-74.619541,-94.20166,-104.380684,-27.205543,-68.100624,-90.472889,-99.950733,-18.539467,-58.41259,-79.557686,-88.71479,-14.943046,-41.077614,-54.957847,-61.071129,-7.842961,-21.585073,-27.22481,-29.721811,-55.225421,-58.726639,-44.983354,-33.445546,-53.572733,-53.605646,-40.430599,-30.381851,-45.426557,-45.814288,-36.731152,-30.048872,-32.338948,-34.045822,-32.674541,-31.182137,-0.723381,17.115555,39.601593,54.555931,42.818813,74.05323,93.822327,109.535637,52.392597,87.371521,110.468216,128.911743,55.470943,89.032059,110.339012,126.637688,53.194542,80.072136,97.448616,111.84494,-32.030772,-55.144446,-70.333163,-84.15624,-45.752239,-53.578764,-54.365835,-54.160638,-24.925245,-31.049558,-32.755259,-32.409117,-3.436102,-4.022947,-5.089253,-5.998651,16.687339,19.514983,20.620686,20.549518,62.818126,47.177814,-74.116802,3.785624
105,0.499268,-7.048233,-2.690449,18.394707,-38.070831,-72.334099,-94.697933,-104.783402,-43.473892,-82.585259,-100.212574,-106.999073,-25.24868,-72.488442,-93.92931,-100.511932,-12.99427,-59.096146,-80.163841,-87.160244,-7.003403,-38.074417,-53.556748,-58.913651,-12.849973,-28.767572,-32.568979,-29.298646,-59.102905,-60.029686,-39.676276,-24.808218,-49.821571,-41.3362,-22.711205,-11.201618,-33.273603,-24.545676,-11.003769,-4.277812,-12.906444,-6.073112,-0.533905,1.44144,3.35495,19.981384,37.668915,52.314835,33.773861,71.822147,95.070705,113.503361,38.440475,75.698032,101.193066,124.154148,40.929794,75.419254,99.003696,120.189114,41.844292,68.872089,87.584667,105.292568,-29.557854,-53.369152,-69.29869,-81.192807,-37.218888,-45.556613,-48.334054,-49.383997,-16.993652,-26.514454,-29.204456,-29.93907,2.040141,-5.580385,-9.870031,-12.2343,18.326658,13.078151,11.610652,10.691065,65.187616,40.884418,-74.937029,22.935168
106,0.499267,-7.048234,2.512093,47.154035,-40.216827,-77.827263,-100.709553,-109.701748,-46.824875,-90.550976,-106.223488,-109.617462,-23.291817,-76.876259,-97.385731,-101.073132,-7.449074,-59.779701,-80.769997,-85.605698,0.936241,-35.07122,-52.155647,-56.756172,-17.856984,-35.950071,-37.913147,-28.875481,-62.980388,-61.332732,-34.369199,-16.170889,-46.070408,-29.066753,-4.991811,7.978616,-21.120648,-3.277063,14.723614,21.49325,6.526061,21.899598,31.606732,34.065016,-4.420795,15.914783,36.76815,49.587822,83.876781,105.895786,87.070827,74.202061,102.1562,124.947453,101.463604,82.216473,108.727169,131.440372,110.356464,92.168026,106.968555,126.380939,110.754032,94.752903,-41.961072,-65.343607,-80.716804,-95.774055,-49.148079,-70.285863,-73.800974,-68.211049,-36.694966,-61.323007,-66.289067,-57.70718,-26.855192,-46.477713,-51.353495,-46.577286,-16.971576,-34.004748,-38.099881,-34.685145,66.025257,33.561426,-72.086563,69.814445
107,3.75103,9.681044,19.192543,23.635927,-14.114914,-37.859001,-60.661926,-76.408882,-36.599922,-79.302063,-92.992058,-95.357666,-34.714394,-85.566673,-99.372654,-99.89399,-35.321732,-84.171867,-96.91206,-97.504063,-38.331528,-73.891068,-85.860786,-89.110165,-14.707621,-27.331442,-26.828238,-22.26124,-53.830675,-56.399245,-37.920434,-24.942967,-49.874758,-52.165945,-35.227653,-22.062156,-39.520912,-39.955203,-25.785181,-15.081612,-25.952309,-25.8511,-18.616298,-12.871225,-14.482155,-6.224613,9.727879,25.708179,56.653919,64.668903,44.19611,32.193089,74.747372,75.291996,47.050495,30.846863,81.571026,81.057415,55.344601,40.170307,82.403355,83.237972,64.288845,49.15987,-38.298655,-60.810108,-81.425637,-99.002367,-27.025315,-83.723956,-99.889967,-94.17509,-21.395499,-86.243682,-99.83572,-87.711705,-23.142727,-83.142854,-93.397251,-82.775069,-28.32019,-73.127864,-80.28733,-71.97097,70.875521,42.170792,-51.794786,92.378694
108,0.262299,3.717591,85.460072,-38.612687,-19.88102,-44.562721,-65.989952,-80.780411,-41.841316,-84.286766,-97.961483,-101.285934,-38.313675,-85.300827,-99.180222,-103.03791,-36.731186,-82.509384,-96.808205,-101.833076,-36.906738,-71.04538,-85.498581,-93.489819,-16.321468,-29.265465,-28.945228,-24.192113,-55.899313,-54.435149,-38.584436,-25.562046,-50.226797,-46.683805,-29.75493,-16.167524,-38.314463,-34.738096,-19.681894,-7.640502,-23.163784,-19.869183,-11.093956,-3.480747,-23.278999,-50.803642,-73.092785,-78.183861,-33.760071,-57.898808,-58.892212,-49.252453,-22.790794,-64.702606,-65.085068,-53.978806,-15.758286,-60.869923,-58.849182,-46.789169,-13.283501,-49.677544,-51.540241,-44.808884,10.909167,15.413335,-4.968253,-19.688779,29.588142,1.163223,2.127302,9.487766,10.391081,-24.131814,-17.849389,-7.409617,-13.466839,-36.269722,-23.764893,-12.080017,-34.638091,-46.605506,-31.341236,-18.603176,72.559805,45.804063,35.087271,53.681686
109,-1.514168,8.203511,-120.776596,72.677394,-13.808327,-38.012924,-59.187813,-74.466476,-42.522354,-85.940094,-98.15609,-100.000191,-39.92466,-87.255077,-100.252132,-102.255592,-38.884048,-84.9757,-97.51236,-100.217457,-39.639587,-74.739647,-87.657166,-93.80682,-23.499521,-38.522686,-38.869229,-33.235338,-58.225791,-54.807504,-39.243807,-27.11476,-49.305172,-44.273594,-28.301325,-16.725593,-35.843335,-32.937238,-19.199345,-8.692173,-20.615746,-19.373019,-11.680708,-5.151405,-12.385654,4.807606,24.687653,41.314774,46.458378,87.610245,98.450661,102.421989,62.102795,110.707512,126.369324,130.667953,68.882103,112.067184,129.172783,134.518089,69.645996,103.818283,116.102486,120.447922,-39.558148,-64.061452,-79.789128,-89.978687,-42.592223,-72.603603,-87.007133,-92.38263,-22.40132,-50.328068,-67.448431,-72.934214,-8.334577,-29.939996,-46.608655,-53.62415,-0.16932,-17.139815,-30.117806,-36.962345,72.39152,52.503597,-84.343443,124.855103
